P2
# Written by pgmio::pgmwrite
192 128
255
161 162 170 171 172 177 179 176 181 182 183 184 185 182 184 185 
179 177 178 172 148  87  62  76  83  91 109 105  88  75  76  97 
110 123 131 135 142 145 157 172 181 186 191 200 197 197 194 195 
188 189 193 194 186 156 141 135 122 119 124 132 146 146 147 148 
157 166 158 165 170 183 188 197 195 185 196 208 220 223 224 227 
221 214 222 222 218 215 219 215 215 211 174 156 136 136 132 144 
156 166 172 163 156 166 174 172 181 176 184 184 176 180 183 175 
175 187 179 171 168 168 162 158 158 160 151 150 150 141 132 124 
127 139 147 152 154 169 199 219 222 217 208 195 194 194 197 200 
191 202 210 214 223 222 221 224 223 218 217 220 223 218 208 213 
212 211 210 213 208 197 196 191 184 159 129 126 125 118 128 144 
156 174 179 182 185 180 178 181 180 175 174 169 172 171 165 158 
161 165 170 171 172 173 175 176 181 182 179 184 185 186 188 189 
186 183 188 179 183 140  70  71  90  84  92  97  87  75  79  90 
 86 107 108  94  95 111 121 136 173 182 191 192 193 197 202 199 
192 184 185 190 183 147 130 131 126 127 132 144 146 152 146 148 
163 169 158 156 165 176 188 197 185 195 207 190 190 200 209 221 
217 214 225 228 225 219 223 223 219 215 202 174 145 140 136 132 
140 149 156 145 144 145 156 156 165 173 184 181 165 156 154 155 
164 163 160 169 170 162 152 140 144 143 138 138 138 133 124 127 
135 164 179 174 178 190 210 213 215 214 208 203 202 205 201 192 
187 194 204 207 213 216 221 214 219 218 211 216 209 209 208 213 
206 205 210 203 202 201 200 199 187 180 167 157 130 126 141 144 
148 167 173 175 177 176 175 173 172 165 161 163 168 164 163 158 
161 165 166 167 172 177 175 176 177 178 179 180 185 182 184 185 
186 183 184 182 173 170 128  93 107 116  92  73  77  83  70  80 
 81  99  93  94 110 120 135 130 148 177 183 184 189 197 198 195 
196 197 193 182 165 141 121 110 111 112 137 133 134 161 164 165 
173 166 166 170 165 176 179 179 189 198 211 212 178 171 182 200 
213 218 222 225 231 228 226 219 215 219 215 190 174 145 125 136 
136 136 132 132 144 140 136 140 165 189 193 171 155 144 138 143 
155 153 146 160 145 145 136 131 135 134 134 134 133 137 136 136 
148 164 166 183 188 203 213 213 212 211 208 203 190 190 189 174 
191 190 204 210 209 208 211 210 213 212 211 210 209 205 204 207 
202 205 200 203 202 201 196 191 187 180 185 178 169 152 141 140 
142 159 162 169 174 173 166 164 159 154 153 156 162 161 163 159 
161 162 163 167 165 167 171 176 177 174 175 173 177 182 180 178 
179 177 175 172 169 166 159 139 140 153 137 105  94 120 120 109 
 91  82  83  83  95 103 108 105 118 148 160 170 171 185 194 199 
204 201 197 182 157 128 109 118 106 111 113 120 138 135 153 163 
148 148 148 156 159 171 176 172 195 215 215 216 186 163 174 187 
201 210 210 218 225 228 223 223 223 223 223 211 177 140 120 120 
115 115 119 125 136 132 124 125 171 176 165 144 155 143 131 138 
147 143 142 141 141 136 132 131 127 127 126 119 133 133 132 135 
147 147 166 189 188 199 206 206 209 204 200 199 194 190 189 188 
187 190 207 210 203 199 194 193 192 198 203 206 205 205 204 203 
206 201 196 195 198 193 189 185 190 186 179 174 165 160 154 149 
142 159 166 165 168 163 158 149 151 146 145 144 138 150 149 152 
158 156 163 161 162 164 168 169 170 168 169 173 171 176 180 178 
179 177 171 172 173 170 168 169 174 167 163 143 107 120 136 137 
115 112 112 105  94  82  91  98 106 115 138 161 167 178 186 195 
200 197 197 190 173 140 117 131 149 172 159 137 155 152 139 136 
135 128 132 137 130 143 160 172 189 207 222 223 199 160 171 174 
188 198 214 222 222 228 223 199 181 174 174 182 157 132 125 124 
136 140 125 125 119 125 119 136 149 156 155 156 144 135 134 130 
134 142 146 141 133 136 136 131 131 131 126 126 133 133 124 116 
140 146 147 166 170 190 202 202 201 204 192 186 202 205 201 200 
195 194 201 210 206 199 182 181 180 175 203 206 205 201 204 199 
202 197 193 189 185 184 179 182 187 186 182 178 169 171 166 152 
148 150 149 153 156 155 142 126 130 129 127 113 109 119 118 117 
147 156 157 161 159 161 165 163 164 168 169 167 171 173 180 181 
182 183 175 179 180 181 182 183 187 188 184 177 136 120 136 137 
123 124 142 114  84  82  86  84  88 111 157 179 180 193 198 199 
196 193 185 190 183 169 151 152 163 181 172 160 163 161 147 136 
136 136 136 137 133 139 150 167 180 185 211 212 199 169 187 209 
198 188 183 176 176 184 144 111 101 111 111 119 132 125 132 125 
136 132 124 114 124 119 124 132 140 136 139 155 155 139 138 130 
123 134 137 146 137 136 140 127 131 138 126 134 133 129 132 124 
135 135 161 163 170 181 190 180 185 193 192 183 190 201 205 204 
209 194 190 204 200 187 177 189 188 180 194 202 199 201 204 196 
195 191 179 170 164 172 175 178 184 180 171 174 173 175 170 161 
151 150 136 148 147 137 124 113 114 113 104  94  99 100 110 126 
147 152 149 154 159 157 158 159 160 161 162 167 169 173 177 181 
182 187 181 182 183 187 192 193 190 191 190 191 162 140 149 147 
138 149 180 177 144 111  91  97 106 151 178 184 185 185 198 199 
196 193 185 176 191 196 185 185 189 181 161 160 161 163 162 157 
157 166 169 167 170 183 210 188 169 177 203 216 204 212 197 155 
130 123 123 124 123 111 111 111 114 114 114 119 119 125 125 120 
120 120 119 119 124 114 124 125 132 140 135 139 143 148 143 130 
130 123 122 137 141 140 141 139 139 134 119 119 118 133 132 131 
147 146 153 171 173 160 159 160 160 157 161 160 173 194 205 210 
212 208 201 201 203 195 190 185 192 191 187 190 196 198 200 199 
195 180 157 162 164 176 183 185 184 176 171 174 169 164 166 165 
164 159 140 130 138 128 105 104 106 113 104 109  99 100 107 122 
147 144 149 154 152 153 150 151 148 149 158 159 165 173 171 178 
182 187 181 185 194 191 192 193 190 191 190 188 186 183 172 168 
166 170 180 181 178 161 128 105 137 156 165 184 193 185 194 199 
196 193 185 182 186 196 192 185 194 202 199 196 183 183 172 165 
176 185 204 204 205 205 214 206 203 198 211 223 216 174 134 112 
112 118 118 124 124 114 119 114 105 105 114 114 114 125 140 125 
132 132 119 114 119 124 125 136 132 136 131 131 124 139 147 142 
134 134 129 133 153 162 159 140 135 143 150 134 129 141 137 147 
148 156 155 163 160 151 144 142 143 148 147 149 173 190 197 204 
206 211 210 210 209 208 204 200 199 201 200 182 196 201 204 203 
195 191 183 182 188 187 189 188 181 180 179 174 165 160 158 161 
164 163 154 139 147 120  98  90  96 121 120 118 109 106 118 126 
143 144 145 150 148 145 150 151 148 153 158 159 165 166 167 172 
179 180 181 185 190 187 188 189 194 191 190 191 189 179 180 168 
166 167 176 181 178 178 166 145 146 148 165 184 189 189 190 199 
196 193 189 176 183 184 187 193 198 206 211 212 208 213 206 184 
191 194 208 212 209 213 206 206 211 219 219 181 141 111 123 122 
112 123 118 113 118 119 119 114 114 111 111 111 114 115 132 125 
124 124 124 119 114 124 136 136 132 132 131 139 135 143 147 147 
147 153 133 141 159 159 153 158 152 160 168 150 142 148 141 135 
135 146 147 138 132 133 132 130 135 130 156 165 173 172 175 188 
191 190 194 207 213 212 204 206 202 201 203 206 205 201 208 207 
202 197 200 195 194 193 189 191 181 172 175 166 156 146 128 144 
160 159 158 153 147 128  99  86  89 121 137 121 120 116 127 135 
139 144 145 146 148 145 146 147 148 149 154 159 161 158 163 168 
173 177 181 182 183 184 188 189 190 191 190 188 186 175 176 168 
166 157 168 177 178 174 179 158 148 151 169 179 185 189 186 195 
200 197 193 182 183 184 187 193 198 206 211 212 215 219 219 214 
218 221 222 222 223 223 227 224 224 207 152 108 111 121 123 122 
117 123 118 113 113 111 114 105 105 111 111 119 119 124 125 125 
125 124 125 124 119 125 125 132 136 132 124 135 143 148 147 155 
170 163 141 129 137 141 152 152 158 151 150 134 118 125 128 127 
131 139 147 134 133 133 131 130 118 121 140 146 146 156 163 162 
157 161 163 171 184 202 215 210 205 204 203 202 202 205 204 203 
206 205 204 203 198 193 189 185 181 180 179 166 153 129 107 127 
151 155 146 135 134 125 108  97 103 111 115 118 129 119 118 132 
143 144 145 135 136 131 128 133 140 149 150 152 153 154 159 164 
165 174 175 179 180 184 185 186 187 191 190 185 182 171 172 173 
160 167 168 177 173 174 174 175 167 159 165 179 180 185 186 187 
192 197 197 198 186 184 187 193 202 213 217 218 218 219 222 217 
221 224 225 225 230 226 210 184 144 107 101 116 111 111 112 103 
109 118 113 110 110 111 105 105 105 105 105 111 112 124 124 125 
144 140 124 119 125 125 124 132 125 132 123 131 139 144 147 161 
170 154 141 142 152 141 141 152 152 157 166 138 138 141 148 135 
136 139 146 133 137 144 119 127 122 129 133 133 140 145 144 143 
152 145 144 162 176 183 207 214 209 201 203 202 205 205 204 207 
206 211 204 209 202 193 189 185 181 180 185 178 173 137 108 132 
138 141 123 122 126 117 105 107 106 111 104 103 117 134 127 126 
139 144 141 138 136 131 128 124 130 141 137 144 145 154 163 164 
169 174 178 179 177 181 182 183 184 186 187 185 186 175 164 165 
166 170 171 177 173 178 179 175 181 168 175 179 180 181 190 182 
183 189 193 194 183 178 185 197 206 213 217 215 218 219 222 220 
221 221 222 216 193 138 114 106 101 107 107 108 111 111 112 109 
109 113 113 113 113 114 105 111 105 111 105 111 114 119 120 120 
125 140 132 125 125 136 125 119 125 125 119 124 124 143 142 143 
154 146 142 153 153 152 153 152 152 151 151 149 150 149 149 140 
131 122 115 125 132 128 119 119 110 109 117 120 115 107 107 117 
120 128 144 162 170 165 190 203 213 208 203 206 205 209 204 207 
206 211 204 203 202 197 192 191 184 183 188 186 176 175 162 149 
142 147 123 122 126 117 105  97 106 121 115 118 129 137 133 122 
125 135 141 138 144 131 128 121 122 135 143 144 148 154 163 175 
176 177 181 179 180 181 182 180 182 186 184 188 182 175 158 142 
160 161 168 172 170 178 179 180 176 174 169 176 177 185 190 187 
183 181 185 190 186 184 187 197 210 213 214 215 218 222 219 217 
224 221 155 107  99  99 106 106 101 101 101 102 108 103 109 109 
100 110 113 104 100 105 101 101 111 105 105 111 112 112 120 120 
132 136 136 125 125 124 124 124 124 124 124 124 124 139 142 142 
147 154 160 160 145 153 169 151 140 150 139 134 129 125 117 117 
115 122 122 125 133 120 106 106 100  96  96  95  97 106 106 106 
 99  93 110 117 125 152 164 181 188 201 217 206 205 209 208 203 
206 205 204 209 202 201 196 199 194 189 188 190 189 184 180 169 
168 141 118 135 126 109  98  86  97 116 123 118 117 134 133 126 
125 132 136 135 139 131 128 129 130 132 137 144 145 158 174 178 
179 180 181 182 183 184 182 183 184 186 184 181 178 171 164 147 
151 152 150 159 152 148 154 162 173 159 152 153 167 181 178 182 
180 181 185 182 183 184 196 205 210 210 214 212 215 219 216 217 
211 155 104  98  95 108 106 100 107 101 101 102 108 108 109 103 
103 110 110 110 104 101 101 101 101 105 111 114 114 112 120 125 
136 125 115 119 125 132 119 119 119 125 131 124 131 131 142 154 
164 169 169 169 159 159 159 151 140 134 134 130 112 104 103 103 
115 139 134 125 132 137 127  98 100  90  96  98  97  96 106 106 
105 115 123 102 109 138 151 156 145 154 183 199 215 209 204 207 
206 205 204 203 202 201 200 205 203 196 191 186 185 188 183 176 
168 155 146 145 118 115  99  81  84 102 112 110 129 128 136 156 
125 122 134 138 144 140 141 147 143 153 158 152 148 162 174 175 
179 180 181 185 186 184 182 183 187 189 190 181 174 175 172 155 
156 157 150 146 144 148 144 136 140 140 147 142 151 155 156 161 
165 166 172 167 183 196 200 209 210 210 211 212 208 213 210 184 
147 117 104 107 108  99 100  96 101 107 107 108  98 108 103 103 
109 110 104 110 110 114 105 111 111 111 111 119 136 125 120 132 
132 124 119 119 119 119 124 114 119 124 124 131 131 135 142 155 
172 174 163 154 152 145 140 131 135 131 130 126 112 107 106 106 
135 139 134 133 137 144 131 111  97  99  99  89 102 101 101 105 
120 145 123 102 113 116 138 146 136 138 134 147 172 201 217 203 
206 205 204 199 202 201 196 199 198 196 195 190 189 188 187 186 
178 180 183 175 156 146 132 115 106 111 120 136 147 146 157 168 
113 122 124 129 136 137 132 139 140 144 154 160 161 158 167 172 
176 177 181 185 186 184 185 186 190 191 193 188 178 183 180 177 
174 175 176 177 155 161 171 147 131 120 121 121 133 135 135 129 
143 163 176 185 191 204 208 205 210 210 207 204 200 192 164 147 
135 111  98 104 118  99 100 100  97 101 101  98 102 108 109 103 
 99 110 104 110 113 105 111 105 111 119 119 124 132 140 136 132 
125 120 119 119 119 119 114 119 119 119 123 123 131 143 134 147 
170 169 153 141 137 132 136 131 127 119 118 118  98 107 116 111 
136 139 135 138 154 133 143 131 100  99  99 103 108 107 106 100 
112 124 122 102 101 112 131 130 122 121 116 115 114 140 197 207 
206 205 204 199 202 201 200 199 203 196 201 194 193 192 191 186 
189 184 187 182 177 173 166 164 163 150 164 166 162 167 170 168 
 89 105 111 112 121 122 123 124 125 132 137 138 139 158 159 164 
173 177 178 179 183 184 185 183 190 191 200 194 186 183 188 185 
182 183 192 192 178 174 183 175 155 115 101 102 121 123 128 143 
137 158 167 185 191 196 204 205 202 206 203 196 183 171 164 135 
117 128 125 112 105 108 106 106 101 101  97 102 108 103 103 103 
112 110 110 104 104 111 111 105 111 105 114 124 124 124 124 125 
124 115 112 114 125 125 124 124 125 119 114 118 124 143 138 142 
154 154 153 137 129 132 128 120 114 109 118 118 107 112 106 111 
131 146 135 146 160 151 132 127 105  90  99 116 127 122 101 100 
104 103 114 109 101 108 115 110 113 117 115 119 154 142 149 193 
206 211 210 199 202 201 200 199 198 196 195 194 193 192 191 190 
189 188 187 186 181 180 174 173 169 171 170 169 172 171 170 168 
 89  78  90  92 102 109 120 121 115 114 133 126 122 140 150 160 
165 170 175 179 183 181 182 183 190 191 190 191 189 187 180 181 
182 175 176 189 185 186 187 192 193 156 149 132 140 134 142 156 
146 155 172 176 191 196 196 197 198 198 195 178 174 179 175 140 
123 132 125 112 108 108 106 100 101 101 101 108 102 108 109 109 
112 110 104 110 113 111 111 111 105 114 114 111 111 115 115 120 
120 120 115 124 119 119 125 132 125 124 114 118 131 139 134 138 
138 143 142 137 116 120 132 127 120 127 119 118 118 107 103 111 
116 130 139 145 160 160 131 119 100  90  96 103 108 118 107 106 
104  98  97  97  88  90 107 110 109 112 111 115 135 131 116 123 
147 172 190 209 202 201 200 199 194 196 195 190 189 192 191 190 
189 188 187 186 181 183 178 173 172 171 170 173 168 171 166 168 
 95  78  74  79  85  86  88  97 113 119 128 121 117 128 150 156 
157 162 167 172 177 178 179 183 182 186 184 185 186 190 184 177 
182 175 150 163 178 174 179 188 193 190 187 176 162 150 153 156 
154 147 164 182 177 169 179 185 180 187 187 173 171 166 172 147 
111 116 129 107  99  99 100 100 101 101 107 108 108 103 109 109 
109 100 100 110 104 111 105 105 105 111 119 119 119 112 106 106 
115 115 119 124 125 114 114 125 125 125 123 123 124 124 134 138 
130 143 142 137 122 128 140 131 131 120 113 119 117 107 116 117 
110 122 126 134 145 137 112 111 111 109 110 108 102 106 114 106 
112 119 118 109  96  90  99 106  98  97  90  90  94  93  92  92 
102 101 108 162 194 197 200 191 194 189 187 186 189 188 187 186 
189 188 183 186 181 180 178 177 176 175 170 173 168 171 169 168 
 95 105  90  80  85  81  83  80  90 114 117 116 101 128 155 151 
152 158 154 164 165 170 172 177 174 162 172 181 182 183 184 181 
174 167 158 143 155 178 157 172 181 186 195 188 177 155 161 156 
165 171 159 149 149 158 162 167 160 169 169 154 146 139 135 123 
111 106 107  98 105  99  96 100  97  97  96  98 102 108 109 109 
103 110 113 110 104 111 105 105 105 111 111 111 106 106 106 112 
106 106 112 114 119 124 114 114 114 119 123 123 131 135 134 138 
123 130 141 141 137 121 115 115 114 106 113 126 125 112 106 116 
105 115 130 134 137 133 123 112 122 110 117 116 108 114 117 106 
125 124 110 109 102 108 100  88  97  97  95  82  84  88  87  81 
 91 101 104 103 138 184 189 188 181 183 185 186 189 188 191 190 
189 184 187 186 181 180 178 177 172 171 170 169 168 167 166 164 
 95 105  90  79  72  70  75  76  81  98 115 116 117 128 147 138 
139 144 145 147 148 140 141 151 152 141 154 169 178 179 176 177 
178 170 171 143 136 171 171 166 176 177 183 192 189 178 178 173 
170 166 154 146 149 161 151 135 149 159 161 151 134 114 102 105 
 97  93  92  92  95  95  94  96 101  97  97 108 102 103 103 109 
109 113 113 118 110 105 111 111 111 119 119 114 106 106 112 106 
106 112 112 112 105 119 114 114 105 111 114 118 123 143 142 138 
134 130 129 133 122 120 110 110 109 109 119 119 133 125 106 103 
102 110 115 133 144 154 136 127 130 117 104 120 115 106 117 117 
116 111  92  97  91 100  99  98  92  97 107  94 101 104  93 138 
159 146 157 178 181 184 192 191 187 186 191 204 199 192 187 186 
189 188 187 186 185 180 178 173 169 168 167 169 162 164 163 161 
109  99  78  67  69  62  63  72  85 105 106 107 102 103 119 122 
122 114 118 119 111 111 105 123 130 108 117 151 170 179 176 173 
178 175 162 141 127 153 174 166 167 177 178 176 185 181 181 173 
170 171 167 160 140 140 148 142 131 132 137 132 121 104  92  96 
 93  93  86  92  95  95  96 106 101 101 107 111 111 108 103 109 
103 110 113 113 118 111 111 114 114 119 119 105 112 112 106 106 
102 112 112 112 111 111 114 114 111 111 105 113 123 135 134 134 
123 130 122 116 121 115 110 107 106 106 108 113 118 112 106 103 
105 102 104 125 145 160 144 130 135 125 120 128 107 101 106 105 
112 119  97  92  88  87  99 106 109  97 103 119 114 104 152 190 
206 201 200 213 212 197 196 199 197 183 155 208 212 188 191 196 
189 194 197 186 185 176 178 173 172 171 170 163 165 171 163 161 
 98  89  79  67  56  43  50  51  55  78  99  93  89  87  92 105 
 99  83  84  78  73  69  80  81  83  99 104 117 152 166 167 165 
169 167 168 154 133 143 157 162 158 156 169 166 162 155 156 161 
165 166 167 176 168 156 157 157 149 119 102 108 114 104  92 102 
103  97  98  94  95  99 106  96  97  97 101  96  98  97 103 103 
100 104 104 113 123 119 114 114 119 114 114 105 106 112 106 112 
102 102 102 112 114 119 114 119 124 119 123 123 118 123 124 117 
122 122 109 111 116 110 107 107  96 100 105 113 107 107 103 106 
105 102 104 114 133 144 144 142 135 134 133 124 107 106 101 106 
116 123 127 117  88  87  89  93 105  97  96 110 109 108 149 182 
206 211 210 203 208 197 206 204 197 183 145 170 214 192 136 182 
210 188 193 182 185 179 174 173 169 168 167 169 168 167 162 158 
 68  77  74  59  36  39  44  41  42  66  68  69  71  61  73  93 
 95  87  66  64  65  61  62  69  64  74  85  97 119 145 158 165 
169 170 158 154 133 134 144 150 148 146 141 133 133 122 123 137 
143 147 159 160 177 192 179 170 163 150 113 103 108 104  96  92 
 85  85  86  92  95  95  96  96 101  97 101  98 108  99  91  99 
109 110 104 110 118 123 114 111 119 111 111 114 112 115 115 106 
106 112 106 112 119 119 124 119 114 125 124 118 118 131 131 122 
122 122 111 111 111 115 115 110 106 106  93 113 117 104  97 106 
102 102 114 113 108 107 123 142 143 142 147 133 127 107 114 117 
124 124 123 126 102  90  89  93 113  91 103 115 118 124 167 193 
202 205 204 199 202 207 205 199 203 215 155 170 199 192 150 132 
199 184 183 182 177 179 171 170 172 171 161 163 159 154 149 147 
 64  57  58  47  38  37  40  45  55  78  57  56  57  52  67  89 
 90  87  71  58  65  61  58  63  73  71  62  81 107 148 158 159 
156 161 150 143 136 137 149 150 137 131 116 102 101 110 103 105 
125 125 145 157 157 169 179 170 152 159 132  90  94  91  92  84 
 91  93  94 112 126 134 127 120 110 110 115 111 116 121 112 103 
109 110 113 118 118 111 105 119 114 105 105 114 112 112 112 102 
106 106 112 112 111 119 124 125 136 132 135 118 118 124 123 112 
117 112 121 116 108 110 107 101 106 106 105 108  98 107 103 103 
102  96  95  94  94  99  98 123 149 141 140 140 127 122 117 106 
112 123 118 133 133 108  99 123 139 146 148 182 193 176 200 207 
212 211 210 216 202 201 200 204 203 202 155 177 199 188 133 127 
181 174 173 182 181 176 162 164 172 179 170 163 159 158 145 144 
 64  65  48  41  42  39  38  51  65  67  49  56  57  58  62  68 
 69  62  57  64  59  57  58  63  70  61  60  63  88 129 158 159 
148 144 142 132 127 145 146 147 130 111 100  91  83  97 115 120 
136 137 139 176 165 140 148 143 143 144 112  90  90  89  96 105 
 93 124 137 125 118 130 119 114 119 107 101 108 102 116 122 122 
122 123 124 124 123 114 114 111 111 111 111 105 112 112 106 106 
112 112 115 114 119 124 124 132 144 143 144 143 143 135 134 122 
109 112 111 116 116 115 110 107 109 106 105 113 112 107 111 103 
105 102  95 103 108 102 101 119 142 148 133 129 132 138 126 125 
120 119 122 134 142 132 156 197 199 204 203 210 223 222 217 212 
206 201 204 209 194 190 205 208 207 206 175 177 212 181 123 139 
199 159 166 175 181 170 154 164 172 185 184 177 168 167 157 151 
 43  69  78  60  56  39  44  59  55  61  57  56  51  61  72  60 
 55  62  57  54  59  61  71  77  73  74  75  81  82 107 141 150 
138 133 145 143 136 143 146 147 131 119 101  96 113 123 124 124 
125 130 154 165 165 158 134 122 126 132 112  90 100 126 134 135 
117 136 141 107 113 130 109 119 110 110 115 111 111 111 112 117 
122 118 123 118 118 123 124 119 119 119 119 119 114 124 124 124 
125 124 125 125 125 125 140 125 136 144 144 144 155 148 143 142 
123 123 129 122 129 132 132 119 119 119 118 118 117 104 111 111 
110 105 101 108 113 112 112 127 142 151 147 141 140 148 138 130 
137 128 135 159 176 191 207 210 219 204 211 216 219 218 213 207 
202 197 190 199 198 190 189 191 203 206 179 166 185 167 153 179 
203 184 173 172 171 173 171 173 172 179 184 183 182 158 159 172 
 56  69 100  98  93  87 105 117  98  87  83  80  78  83  72  63 
 69  70  71  77  73  74  81  89  94  99  96 101 102 108 136 131 
129 130 131 151 160 153 138 136 140 120 120 132 126 127 128 124 
126 130 139 139 149 156 141 111 119 132 137 145 146 139 146 148 
140 148 137 142 142 143 143 140 131 132 128 129 129 129 130 138 
134 134 139 135 124 139 136 132 140 144 140 136 136 136 136 136 
136 140 144 136 132 140 144 140 140 156 155 148 155 155 147 138 
142 130 137 141 140 140 140 135 135 134 126 130 125 112 111 117 
116 115 114 113 114 124 123 130 143 162 174 165 155 164 158 154 
164 169 181 201 200 212 215 214 219 212 217 220 219 218 208 203 
192 191 196 195 194 193 189 188 197 215 201 177 176 181 201 200 
203 209 208 206 194 183 171 177 180 185 188 187 185 180 183 191 
 95  82  91 107 130 157 165 166 173 165 146 147 108  92  92  93 
 94  87  96  97 103 100 100 101 103 104 105 110 107 120 130 128 
129 139 140 146 155 161 146 139 140 138 141 142 149 144 142 151 
137 125 131 128 129 129 142 131 131 150 154 151 138 126 139 136 
135 148 141 156 165 157 151 151 151 145 141 141 146 153 160 161 
154 155 156 156 162 162 162 162 156 157 166 163 163 157 163 163 
166 149 136 140 149 149 145 144 145 148 155 156 162 161 147 143 
147 153 153 153 159 153 152 144 144 151 143 134 137 133 124 131 
127 130 130 125 137 144 136 143 162 170 187 191 190 190 189 183 
191 198 201 201 206 216 221 224 219 218 217 229 239 233 228 212 
192 180 175 178 185 193 186 195 222 215 205 208 199 202 197 200 
195 194 187 186 198 208 201 181 180 189 188 196 194 193 187 186 
122 105 100 120 139 149 162 169 173 178 183 180 169 146 129 125 
124 123 124 119 120 127 130 134 124 122 123 110 107 120 127 131 
132 133 140 141 142 148 154 166 158 151 160 158 159 163 164 156 
152 147 154 146 139 140 134 131 143 144 161 151 146 152 146 140 
147 141 141 159 159 160 166 158 152 153 153 153 169 174 174 172 
175 175 175 188 199 193 193 193 193 185 177 194 190 203 185 174 
166 149 144 144 157 157 156 157 162 162 156 162 171 175 180 170 
170 169 163 171 170 170 172 172 169 171 168 156 150 155 149 147 
147 146 139 138 133 144 150 149 143 142 158 177 194 197 197 200 
199 205 204 204 209 208 207 206 205 204 207 220 215 222 221 227 
226 223 210 195 202 206 213 219 207 192 195 194 199 192 191 190 
185 188 193 186 181 183 201 200 176 175 184 187 185 188 187 191 
114 118 128 138 148 161 165 176 173 178 179 177 172 166 159 160 
152 150 151 143 148 149 150 151 152 141 132 117 111 119 121 122 
129 124 124 125 144 153 157 175 176 174 175 179 177 178 181 182 
174 181 182 176 168 166 159 157 158 161 169 162 166 166 172 172 
168 166 166 175 178 179 179 172 172 177 186 178 181 179 182 187 
192 198 206 214 218 219 211 215 223 215 211 215 216 216 200 177 
163 145 145 145 163 174 177 176 184 181 173 176 188 192 188 183 
175 174 174 178 173 173 169 172 172 179 171 159 150 148 148 136 
147 146 146 146 151 144 143 135 135 130 129 141 157 159 166 157 
156 164 172 171 170 175 168 163 163 154 183 199 199 201 200 212 
212 211 217 212 198 206 196 182 177 180 187 200 189 192 187 190 
189 194 187 182 194 189 178 191 194 162 164 173 172 174 173 178 
106 110 128 143 156 167 171 172 173 178 175 174 172 176 180 178 
176 166 163 164 162 167 164 169 170 159 145 135 125 120 121 121 
129 124 124 118 126 137 149 158 173 186 191 192 189 189 194 195 
192 197 193 190 186 187 179 175 186 181 190 188 188 189 193 198 
199 194 192 200 209 201 202 202 195 195 196 196 190 187 197 197 
198 201 201 210 210 211 211 211 211 219 207 200 212 212 208 208 
185 163 157 166 174 182 185 181 173 176 184 193 183 170 161 161 
161 160 160 154 153 152 153 152 161 160 151 149 142 137 137 136 
140 147 146 145 144 137 143 135 142 141 140 133 146 148 147 143 
143 136 141 143 148 141 141 137 139 128 145 206 215 198 200 203 
202 194 193 182 173 163 136 140 160 168 178 186 199 188 191 200 
199 188 179 182 190 189 174 181 190 154 127 136 138 142 136 134 
106 107 116 120 121 122 128 122 126 127 125 126 127 131 132 138 
139 141 137 135 139 137 141 142 143 144 137 133 119 126 130 128 
132 133 131 132 136 137 146 150 158 164 175 179 171 172 181 187 
188 189 185 182 183 174 170 175 176 172 172 173 174 174 180 190 
194 185 177 183 187 184 179 176 177 177 173 173 174 171 171 172 
172 175 172 176 181 184 184 189 184 189 185 182 182 185 185 185 
177 174 172 172 177 177 174 172 165 165 171 171 171 156 147 154 
147 153 154 154 159 162 159 152 158 151 157 156 150 148 148 154 
147 146 147 146 145 151 150 149 149 142 141 141 146 139 147 146 
146 151 150 149 148 141 138 131 129 135 161 202 201 198 204 203 
202 194 190 178 169 145 125 148 160 159 184 186 189 178 174 190 
203 188 176 172 171 179 174 177 172 165 111 108 109 108 105 104 
 88  90  97  92  93  95 102 103 104 105 100 100 101  96 104 106 
107 108 109 109 111 111 112 113 115 116 116 117 119 119 120 114 
122 124 125 126 133 137 144 136 140 148 152 153 151 150 153 161 
170 163 164 165 165 161 159 159 160 159 159 160 161 161 162 163 
165 166 164 167 165 168 168 167 161 153 162 159 160 160 163 164 
161 170 170 165 165 171 173 171 172 172 172 174 172 172 166 163 
157 163 157 157 157 157 163 163 157 155 148 155 155 148 154 155 
154 154 154 154 153 153 153 151 152 151 151 150 150 155 149 147 
147 146 146 145 144 145 143 143 143 142 150 149 140 139 144 143 
143 145 135 140 142 138 138 146 175 195 194 202 205 204 200 203 
198 191 187 178 169 160 149 170 160 150 137  99  89 142 170 176 
185 177 166 161 160 163 161 164 169 175 119  99 101 100  96  95 
 95  96  97  92  99  95 102 103  98  99 106 101 102 103 105 106 
107 108 109 110 111 111 105 113 114 115 116 118 125 126 120 122 
123 124 125 126 127 128 135 136 140 146 147 142 143 144 142 137 
146 144 145 146 149 150 151 149 149 150 151 151 146 147 147 154 
148 158 158 159 159 160 160 152 151 152 152 152 154 154 154 161 
161 164 164 162 162 165 165 165 166 163 166 163 166 163 157 156 
156 149 156 157 157 157 157 157 156 155 148 148 148 155 154 147 
147 153 154 153 153 159 152 151 152 150 150 142 149 141 148 140 
147 146 147 152 145 144 143 142 143 142 141 141 160 172 189 196 
187 181 186 180 179 175 174 197 219 212 211 216 209 198 194 196 
198 188 179 170 164 172 171 170 147 138  47   7  33  51 158 165 
164 159 146 139 129 143 145 135 142 171 114  99 101 100  90  89 
 81  82  90  84  86  87  88  85  85  86  88  89  90  96 104  98 
 99 107 109 109 110 104 105 106 107 104 109 106 118 112 113 114 
123 123 117 118 127 128 129 129 137 132 132 133 134 134 124 129 
130 130 127 127 129 133 134 142 135 132 133 132 134 139 146 140 
147 148 141 149 149 143 139 144 144 145 152 145 154 154 154 161 
164 164 161 156 156 162 162 162 163 163 166 166 166 163 149 149 
156 156 149 149 156 156 149 156 149 148 155 155 155 155 154 155 
154 153 153 153 145 145 152 151 151 150 143 149 149 149 148 140 
140 146 139 134 137 144 136 142 143 142 156 195 206 194 193 204 
203 186 186 201 209 208 207 214 219 218 211 199 196 192 191 196 
195 188 183 170 169 180 186 174 139 133  32  20  47  11 117 165 
151 124 109 108 107 125 132 118 112 150 111  93  98  91  89  88 
 76  77  79  80  86  87  88  85  86  87  88  88  90  92  92  93 
 90  95  92  93  98  95  96 101 103 103 104 105 103 104 108 109 
110 112 112 113 114 115 116 117 119 120 116 120 122 123 123 125 
126 125 127 132 129 133 129 130 131 127 132 132 133 130 130 131 
131 128 129 129 130 130 134 139 140 141 141 141 146 146 146 143 
147 154 155 155 156 155 155 156 163 157 156 156 156 145 140 145 
145 149 149 149 149 149 156 157 156 148 155 155 162 156 154 154 
154 154 153 154 159 152 141 140 144 139 143 142 142 149 149 148 
147 146 147 145 137 144 143 142 142 148 174 168 165 172 171 165 
179 178 181 193 209 216 221 220 209 201 200 196 189 188 191 193 
189 188 175 178 181 176 183 161 120 113  43   7   0  40 125 152 
156 121  71  65  76 100 116 113 106 146 109  73  84  79  82  77 
 72  73  74  72  77  78  79  84  85  86  87  84  90  91  93  93 
 94  91  96  97  99  99 100 101 102 103 104 105 106 107 108 105 
 99 100 104 109 110 111 116 117 118 115 108 109 102 114 115 116 
117 117 118 119 124 124 125 126 130 131 128 128 129 126 126 131 
135 132 136 137 137 134 134 135 139 136 141 141 142 141 142 142 
142 143 144 144 139 143 144 145 145 144 145 145 144 144 145 145 
145 149 149 149 149 149 156 149 156 156 155 155 156 156 155 147 
147 153 142 142 152 141 132 135 140 139 139 137 137 136 136 131 
135 135 135 134 137 137 143 135 135 141 141 140 160 201 201 192 
195 205 210 213 213 216 211 206 202 198 197 193 185 188 191 193 
192 184 166 152 173 154 167 148  77  76  95  78  89 146 170 152 
164 171 118  70  46  62  99 123 133 171 170  93  80  83  78  76 
 68  69  70  68  69  70  71  76  77  78  79  80  82  79  80  85 
 82  87  88  89  94  95  96  97 102 103 100 102  99 100  97  98 
 92  87  88  89  89  90  96  98 106 111 108 109 113 110 111 116 
117 117 118 119 124 120 121 126 126 123 124 128 129 134 134 135 
131 136 132 138 137 134 130 135 139 140 141 141 142 146 142 155 
154 138 144 144 143 143 143 145 145 145 149 145 145 149 145 145 
145 149 145 145 149 145 145 145 145 144 144 143 144 144 143 143 
143 146 141 137 133 136 132 135 135 134 134 134 133 129 132 127 
123 126 126 121 125 128 127 127 130 130 120 108 140 194 205 210 
209 215 218 209 206 205 198 197 192 187 186 182 177 184 179 190 
189 172 166 136 135 150 149 135  72  50  49  78  97 109 153 179 
185 194 205 199 164 117  98 115 151 198 218 186  80  79  77  76 
 64  65  60  68  69  70  75  76  77  74  75  69  70  66  72  73 
 69  70  66  64  68  67  71  82  83  92  86  94  95  96  97  98 
103 107 104 105 106 107 104 109 110 115 112 113 117 122 119 120 
125 125 126 127 128 128 130 131 130 132 133 133 138 139 139 140 
136 137 137 142 137 139 139 140 140 141 145 141 142 142 154 205 
217 201 172 144 144 148 144 149 149 149 157 157 149 156 156 149 
157 163 156 156 157 149 149 156 156 155 155 155 155 144 147 154 
147 146 153 142 141 145 152 144 144 139 138 137 137 133 132 135 
140 135 134 134 133 132 131 130 130 130 128  95 128 197 211 217 
212 215 214 213 206 199 186 189 188 191 186 178 169 176 170 186 
185 172 166 147 127 132 125 121  82  58  55  42  45  97 180 173 
185 184 179 178 184 197 182 167 166 175 196 201  84  70  78  76 
 68  65  70  72  73  74  75  76  77  78  83  84  86  87  84  81 
 82  83  84  85  86  91  88  93  98  99 104 105 107 108 105 109 
111 111 108 109 106 115 116 117 114 115 112 113 117 118 123 124 
126 125 122 127 128 128 125 130 131 132 137 137 138 139 135 148 
147 136 136 138 138 139 150 151 144 140 145 152 154 146 169 213 
209 218 231 214 148 143 148 145 149 157 156 149 156 156 149 156 
149 149 145 149 144 144 144 145 149 155 162 156 162 148 147 154 
147 146 146 142 141 141 141 140 144 143 150 149 149 148 148 148 
148 139 139 145 137 133 143 142 135 141 140 124 146 214 221 221 
216 215 214 207 203 202 190 185 184 187 183 170 169 192 179 166 
173 188 187 152 135 123 122 107  81  68  61  56  77 137 144  95 
 85 132 140 130 129 117 119 126 133 146 174 169  75  74  73  72 
 51  48  49  55  61  63  64  72  73  74  75  77  78  79  80  85 
 90  95  97  98  99 100 105 106 114 116 116 110 118 108 109 110 
115 116 117 118 126 116 117 118 123 131 125 132 122 127 124 125 
126 126 127 128 129 133 134 131 142 136 144 137 138 146 146 140 
140 155 141 156 156 150 138 151 158 152 153 153 154 153 174 191 
192 201 201 218 228 165 155 157 149 149 145 145 145 140 144 145 
145 136 136 140 136 140 140 144 145 148 148 155 155 148 154 147 
154 153 146 146 145 152 141 144 144 150 150 138 142 137 148 147 
147 146 146 138 137 137 136 131 135 134 133 146 176 211 221 221 
216 215 210 207 200 191 190 181 172 166 165 164 146 145 152 143 
150 167 163 152 138 117 116  98  81  58  49  54  64 101 107  95 
 94  67  61  60  76  99 127 118  97 120 145  93  59  66  65  64 
 46  45  49  47  48  52  50  54  60  67  69  81  78  83  92  89 
 95  96  97  98 103 104 105 102 103 104 105 106 107 108 109 109 
111 112 117 118 119 120 121 117 114 111 121 125 122 123 123 124 
125 121 122 128 129 129 125 126 131 132 133 133 145 147 146 147 
147 141 158 212 223 226 202 140 140 153 153 153 160 160 163 172 
180 188 198 201 228 235 156 145 144 136 140 144 144 156 157 140 
144 144 145 149 145 149 149 149 156 155 148 144 144 144 138 142 
143 146 146 153 152 145 152 152 152 151 150 142 149 148 148 136 
136 130 134 163 170 169 164 163 152 141 147 157 182 214 231 221 
212 208 204 204 196 191 182 167 155 154 153 170 169 153 149 143 
137 146 148 144 127 109 116 103  63  58  55  54  54  76  91  94 
 94  97  90  57  32  35  43  46  51  79  57  69  71  59  57  56 
 68  65  67  61  62  63  75  76  77  82  87  89  90  96 104  98 
 99  96 101 102 103 104 105 106 103 108 116 117 118 119 120 121 
123 123 124 118 126 120 121 122 110 107 108 109 121 122 128 129 
126 126 127 132 133 133 130 131 135 132 137 137 138 139 135 136 
135 137 200 204 209 220 253 214 139 140 140 137 137 137 142 161 
183 188 180 201 202 223 211 140 145 149 140 140 144 174 236 200 
166 145 157 157 156 145 145 156 149 144 148 139 135 135 134 138 
138 138 133 141 140 132 132 140 135 134 138 142 149 141 141 140 
140 180 201 204 200 195 210 202 193 188 187 191 215 228 217 213 
209 202 193 193 188 183 156 151 150 144 145 182 177 171 157 148 
142 127 126 128 127 100  91 103  89  56  55  56  58  71  76  74 
 54  49  61  65  50  27  15  14  45  71  43  69  80  79  78  76 
 77  77  83  85  86  87  84  85  97  87  92 100 101 103  97  98 
 99 100  97  98 103 111 113 114 114 115 116 110 111 108 113 114 
111 111 112 109 106 107 112 113 110 107 108 113 113 123 128 129 
136 130 131 132 140 129 130 142 135 136 145 144 145 146 147 154 
147 158 182 178 193 179 206 245 198 136 141 141 142 142 130 147 
188 192 180 181 202 193 215 173 145 156 149 149 149 166 185 216 
240 182 145 156 149 156 145 149 156 155 148 144 144 144 142 138 
138 138 137 137 133 132 132 127 131 134 134 134 137 133 128 136 
217 236 189 161 162 162 181 186 175 196 211 224 223 218 217 210 
209 208 193 171 166 157 148 146 145 149 148 147 146 142 133 148 
139 121 119 102 105 100  84  84  93  56  47  56  58  57  52  51 
 48  47  34  29  32  27  26  32  51  53  57  56  60  39  44  46 
 72  69  75  76  77  74  79  80  85  78  75  77  71  71  67  68 
 74  76  77  72  69  75  81  82  84  85  97  87  95  96 101 106 
103 103 104 101 102 107 108 109 114 115 125 121 122 123 124 125 
125 125 122 127 129 129 130 135 135 136 137 144 138 139 139 140 
136 149 158 167 170 166 179 206 249 177 136 141 142 141 117 138 
161 175 172 165 181 189 202 199 145 136 145 144 140 163 177 185 
194 229 157 144 149 149 145 145 149 148 143 143 139 139 134 138 
142 138 133 129 133 132 128 127 127 120 126 126 117 117 111 147 
175 164 161 155 178 190 198 180 197 211 217 230 219 211 208 207 
206 198 186 159 148 149 151 151 147 162 153 147 143 140 130 138 
131 120 108  95  87  85  79  73  57  68  91  73  54  57  52  51 
 48  47  48  47  56  57  61  66  64  64  52  42  50  45  32  43 
 76  73  78  80  81  82  79  80  73  78  76  77  82  83  84  81 
 86  83  88  78  86  87  82  82  84  85  93  94  88  96  89  90 
 91  93 100 101 106 107 108 113 118 119 121 120 122 127 124 129 
126 137 131 132 133 133 141 135 135 136 132 132 129 126 122 116 
127 149 148 159 159 150 160 179 219 215 173 141 141 141 122 130 
155 170 164 156 171 181 193 199 176 145 144 140 145 157 166 177 
190 212 224 149 156 149 145 144 145 144 139 135 123 118 118 123 
142 138 133 129 122 128 128 131 131 130 130 130 133 133 128 140 
136 130 146 163 170 172 195 194 205 214 217 216 206 205 205 200 
199 173 163 154 139 149 148 148 155 166 165 147 146 145 141 115 
109  90  89  77  81  80  71  64  57  75  95  94  78  63  50  49 
 54  73  83  70  68  68  67  77  76  75  74  72  60  78  73  56 
 72  73  75  76  77  82  79  76  77  78  79  77  82  83  84  81 
 86  95  96  93  98 100 101 102 102 104 104 102 107 108 109 114 
111 111 113 114 110 115 117 122 119 124 125 125 126 127 128 129 
130 126 126 123 120 116 110 111 106 112 128 121 125 122 115 127 
135 137 136 137 142 138 150 176 185 189 211 216 190 142 117 117 
122 143 156 144 155 173 193 193 181 172 156 140 144 140 145 163 
177 190 226 182 119 136 132 136 140 136 135 124 131 135 134 138 
138 142 141 137 137 132 132 131 127 127 126 119 118 125 128 131 
136 139 147 146 154 172 195 210 212 214 211 207 202 193 193 180 
169 164 152 159 153 152 146 148 175 162 153 152 151 142 130 110 
 90  76  69  74  67  72  65  70  82  88  79  90  98  84  65  61 
 54  59  72  77  68  67  66  60  65  79  86  93  84  79  77  76 
 77  78  79  80  81  82  84  85  86  86  87  89  90  92  93  93 
 94  96  97  98  99 104 105 102 103 103 104 106 111 109 109 114 
122 123 124 118 126 120 129 130 130 131 132 121 126 123 124 129 
126 121 126 119 129 140 142 158 158 136 128 124 125 134 115 116 
131 132 129 125 134 130 134 161 177 177 186 178 171 146 122 112 
109 123 131 135 143 148 171 176 172 166 166 145 136 132 144 156 
172 194 216 223 145 144 144 144 144 143 143 143 144 144 142 142 
142 138 137 137 137 136 140 135 131 134 130 130 129 118 117 124 
165 164 134 138 173 199 202 210 215 211 204 199 194 185 181 174 
161 161 160 162 161 147 151 155 150 157 156 147 141 142 116  92 
 77  70  57  54  53  85  91  90  93  80  74  68  67  71  62  41 
 40  49  48  47  50  57  74  90  76  63  62  68  71  59  73  72 
 68  69  71  68  73  74  75  76  73  74  76  81  78  83  84  89 
 90  87  92  89  90  95  96  93  95 100  97 102 103 104 109 106 
103 104 112 113 114 115 116 118 119 124 121 121 122 123 124 125 
125 125 122 132 191 204 208 215 232 227 181 137 129 126 146 157 
131 124 118 118 126 130 114 135 161 161 170 153 146 142 134 117 
109 100 110 118 123 124 148 171 172 163 156 140 125 124 140 156 
166 194 212 219 194 132 144 140 136 136 135 135 143 139 142 138 
138 134 133 137 133 132 132 131 127 119 118 126 118 118 117 111 
168 156 130 163 191 199 210 210 209 208 204 199 194 193 181 174 
169 161 163 171 153 160 156 155 158 162 153 147 125 112 103  81 
 67  70  65  62  61  75  65  73  59  68  66  73  64  63  70  74 
 68  59  48  47  46  43  33  40  59  71  63  56  59  58  57  57 
 64  66  67  72  73  78  75  76  81  78  76  77  78  79  80  81 
 82  83  88  85  90  91  88  93  98 103 117 155 152 157 149 109 
107 107 104 109 106 111 117 118 118 115 108 113 109 114 111 105 
105 113 106 155 195 192 175 159 176 177 217 196 155 174 202 157 
117 128 125 112 105 113 127 114 144 161 153 141 141 133 134 130 
112 110 110 118 123 135 132 156 172 157 145 132 119 119 132 145 
163 177 185 190 211 163 136 144 140 140 135 139 139 143 138 134 
130 130 122 122 133 136 140 135 131 127 130 130 129 125 136 147 
148 146 161 174 191 199 202 202 205 204 187 195 190 172 166 162 
161 161 160 162 166 175 159 155 158 162 145 133 114  93  79  72 
 65  58  65  74  76  66  65  70  63  58  55  65  54  43  38  37 
 32  35  38  37  28  37  41  24  31  50  77  76  71  70  69  68 
 76  77  79  80  77  82  83  84  81  86  87  85  86  83  88  85 
 82  83  84  93  94  91  96 101  95  96 142 161 125 119 113 106 
110 111 113 109 115 107  97 109 106  99 101  88 102 103  90  91 
105 107 107 149 149 150 151 143 131 144 169 133 145 146 146 123 
111 128 118 107 105 108 127 120 131 152 152 152 160 153 130 112 
103 118 139 139 135 143 155 157 166 149 136 132 124 115 125 140 
163 177 172 172 182 200 140 132 136 125 124 131 135 135 138 138 
134 123 122 121 116 115 120 120 127 131 118 119 137 149 164 147 
147 164 171 189 200 199 198 198 197 192 174 177 182 159 153 154 
156 156 150 151 161 157 156 155 150 144 134 114  93  83  73  60 
 57  66  78  82  81  80  79  70  69  58  60  68  67  71  52  43 
 50  59  61  51  36  35  56  73  64  58  49  48  59  48  52  56 
 72  70  71  72  69  70  71  72  73  78  83  81  86  83  84  89 
 90  95  92  93  98  99  92  90 102 108  97  81  87  88  84  91 
 86 107 131 114  89  85  83  87  98  89  90  78  77  84  93  91 
 82  83  93 149 141 141 142 135 131 143 137 133 134 115 122 116 
103 116 118 112 113 119 130 131 135 152 159 159 169 154 142 130 
130 134 164 176 171 162 173 165 156 145 136 124 132 136 136 140 
149 163 166 163 157 185 174  91  83  87  83  87  86  90  90 100 
 99  91  89  88  96  96  95 101  86  96 138 159 175 164 141 148 
172 172 183 196 200 195 187 194 188 167 166 168 168 172 153 157 
153 142 135 154 148 149 156 148 130 121 115  84  71  74  69  68 
 71  84  88  82  73  66  79  83  82  80  79  78  78  66  75  69 
 60  62  52  51  58  57  47  60  72  75  57  48  37  39  32  33 
 72  73  67  68  77  78  75  80  77  74  80  85  86  91  92  89 
 90  95  96  93 103 104  92  83  91  92  86  94  95  88  90 102 
 92 104 108 101  95  96  96  97  98  99 101 109 103 102 103  94 
105 101 114 146 124 120 125 122 126 119 132 132 125 114 114 115 
106 117 129 137 156 168 168 172 177 177 178 190 181 179 179 175 
183 198 218 225 225 211 202 193 174 163 156 140 145 157 144 149 
157 163 156 149 149 156 185 174  93 105 111 110 104 104 110 100 
103 109  99  96 102 107 107  89 135 188 193 165 149 141 164 176 
172 184 197 191 191 187 187 180 175 162 161 168 160 154 147 165 
161 135 134 143 150 160 148 148 136 104  90  72  93  74  93 102 
 91 104  99  95  87  86  84  82  72  70  79  73  78  66  42  37 
 42  47  30  33  44  54  56  46  39  53  57  51  54  58  65  68 
 68  70  71  68  73  78  71  72  66  67  76  89  86  83  80  81 
 75  76  76  72  69  67  76  83  84  85  93  94  99 104  97 102 
 99 100  83  81  89 103 108 118 106 107 112 113 113 110 115 112 
117 113 127 139 116 109 110 126 126 131 133 128 125 122 126 140 
140 149 169 183 205 209 202 202 211 207 196 208 208 216 213 209 
217 222 225 231 228 219 215 219 211 219 219 215 212 212 203 208 
203 185 182 174 157 156 163 207 149 125 143 135 139 139 134 138 
134 130 122 116 102  96  95 144 194 160 150 149 149 166 182 181 
175 193 205 189 178 164 169 176 175 167 147 157 165 159 166 174 
179 164 152 143 133 132 146 123 166 146  96 126 101  93 139 143 
173 108  83  88  93  86  85  90  81  67  79  65  64  66  75  61 
 50  49  48  45  50  48  56  40  33  40  39  48  46  58  57  64 
 64  59  67  68  62  63  71  80  77  74  80  81  78  83  84  81 
 82  87  88  78  79  81  89  90  91  92  86  86  87  88  89  67 
 66  59  48  49  50  90 138 147 151 138 120 109 122 134 119 116 
121 117 138 146 116 110 121 122 130 132 144 145 155 166 175 180 
191 194 200 200 209 205 206 218 219 211 215 216 216 223 209 221 
227 225 231 218 214 223 223 215 229 229 240 232 223 223 216 224 
224 216 203 200 190 185 185 181 184 155 155 148 155 170 164 155 
155 153 154 154 145 140 152 177 158 166 179 175 170 177 174 173 
190 198 192 174 162 164 169 171 170 151 156 155 160 164 158 162 
161 153 181 167 148 169 168 173 184 144 127 133  84 142 191 160 
192 180  96  82  86  86  85  78  76  80  80  90  58  57  70  86 
 74  67  52  47  68  83  86  81  64  50  62  51  40  48  65  57 
 58  58  54  55  61  62  53  59  65  67  69  77  82  72  84  89 
 82  76  77  85  86  81  82  77  64  61  60  63  62  57  64  59 
 54  47  48  49  47  82 191 196 200 201 183 153 177 190 161 143 
117 107 145 146 116 109 117 126 131 144 161 196 200 201 193 206 
207 207 216 204 201 205 227 221 207 215 222 216 204 200 200 224 
217 222 218 218 222 228 219 219 223 215 215 215 216 216 220 216 
208 203 208 208 203 200 199 181 207 199 184 162 173 175 172 183 
155 142 153 142 152 162 145 169 177 151 166 150 165 169 174 173 
175 180 174 183 173 181 177 168 162 148 150 160 157 156 144 157 
152 128 155 177 153 132 186 233 223 183 225 189 189 208 191 166 
168 184 145 102  86  85  85  83  76  75  74  73  67  57  50  61 
 73  80  79  65  55  68  74  86  96  75  57  55  54  53  52  51 
 47  48  54  61  42  37  53  51  41  36  35  32  29  30  35  40 
 43  45  52  59  60  49  48  51  52  51  60  63  68  65  58  53 
 43  47  45  49  47  55 128 167 176 190 187 184 180 178 161 136 
 80  69 131 127 108 104 117 131 143 164 181 188 204 209 190 198 
203 215 212 204 213 217 218 210 219 215 211 212 190 197 224 217 
209 222 222 225 218 219 219 215 202 211 207 203 212 216 212 208 
200 200 200 203 194 200 193 184 199 232 223 176 165 183 172 175 
182 182 182 163 168 159 162 169 169 184 187 170 167 174 182 168 
165 180 171 171 188 195 181 206 197 175 166 183 176 208 211 196 
195 215 210 204 213 191 221 251 238 226 217 231 239 238 221 202 
177 149 126 106  97  85  84  83  81  80  80  79  77  76  76  86 
 81  72  79  69  68  75  86  85  65  53  39  42  49  48  57  68 
 38  39  40  47  51  39  38  46  47  42  35  38  45  40  41  48 
 55  62  58  59  66  75  68  63  64  61  60  55  56  51  48  45 
 50  55  56  57  54  51  52  72  88  99 112 120 122 114 103 105 
105 138 139 102 103 116 129 149 163 172 190 196 189 197 184 198 
207 194 195 204 209 196 206 202 203 203 207 208 204 205 209 209 
206 206 214 214 214 215 199 199 184 185 200 200 203 208 194 190 
185 208 208 200 200 211 215 211 215 215 189 171 148 155 172 188 
191 171 174 169 162 178 172 135 161 176 201 193 195 166 148 148 
147 147 161 155 170 177 198 206 193 179 196 199 206 218 227 227 
206 198 204 213 222 216 211 228 232 183 171 155 163 180 149 132 
101  97  88  88  93  92  84  90  89  81  80  86  67  63  75  75 
 85  73  71  65  63  62  61  66  84  79  77  76  67  58  58  68 
 52  58  59  60  56  52  44  42  56  62  45  46  51  52  53  60 
 61  65  71  68  56  55  48  45  42  43  52  53  50  55  58  65 
 66  67  62  69  76  73  77  74  73  80  95  88  92 114 145 169 
174 155 107 119 140 141 141 158 168 169 181 188 174 171 184 180 
168 177 186 183 175 179 188 172 169 198 196 196 181 187 187 182 
192 188 188 192 193 193 181 181 181 174 177 182 190 190 185 185 
203 224 212 190 232 226 223 211 211 193 176 144 135 143 138 134 
134 130 133 142 152 168 145 140 144 150 151 159 156 141 137 148 
136 147 147 163 154 133 153 171 159 142 129 120 139 148 153 152 
137 124 127 134 125 112 115 137 139 112  90  89 105  74  55  58 
 65  79  69  87  87  92  91  83  81  81  91  90  89  84  75  69 
 73  84  79  70  80  75  78  73  76  83  81  80  67  66  69  64 
 52  59  60  55  56  57  63  64  61  67  68  56  60  71  80  81 
 75  56  52  45  46  49  48  57  64  71  75  86  82  75  76  77 
 78  79  83  81  85  95  97  98 106 132 120 132 149 172 181 161 
137 126 127 140 149 147 148 152 160 161 161 162 163 161 162 165 
163 158 164 165 165 168 160 169 180 185 173 178 169 163 163 155 
155 164 175 176 173 173 173 173 172 174 182 194 216 208 194 220 
230 229 224 203 200 202 182 207 184 181 148 139 131 139 138 138 
142 142 137 129 129 132 141 151 151 143 143 138 137 133 137 136 
136 146 147 145 144 137 132 142 152 142 129 116 119  96  96 113 
104  93  89  89  88  81  76  67  64  71  73  70  88  83  73  72 
 59  70  65  74  73  72  79  82  72  70  80  79  72  76  75  75 
 85  88  86  70  63  75  74  73  80  82  73  81  79  66  69  68 
 58  70  71  61  69  63  53  59  66  67  68  59  65  72  73  74 
 75  75  63  72  78  75  81  82  84  85  86  87  87  88  89  90 
 92  92 101 101 114 137 129 136 173 186 183 188 180 181 169 154 
136 138 148 140 140 147 148 143 143 144 145 151 152 161 164 154 
147 141 137 149 149 179 197 214 222 189 181 196 186 182 182 187 
175 170 161 171 176 184 184 181 181 202 177 194 216 185 194 200 
174 174 182 174 166 163 145 144 144 143 124 131 135 139 134 134 
142 138 137 133 133 136 140 139 135 130 126 130 133 133 132 131 
135 130 126 125 124 144 144 142 143 134 141 146 139 127 144 143 
125 111  92  97  96  90  80  73  66  66  59  62  61  70  79  81 
 65  56  63  64  63  60  59  60  63  58  60  68  64  53  52  61 
 73  72  78  81  58  57  74  77  76  83  81  76  71  74  65  68 
 57  59  67  76  73  70  71  59  66  68  69  70  71  79  84  81 
 75  83  88  78  86  81  89  90  84  85  86  87  82  88 101 102 
110 123 125 126 133 120 116 118 146 141 141 139 154 155 136 124 
121 126 126 128 128 129 130 130 131 131 113 137 134 134 135 135 
127 117 125 117 126 138 150 131 127 140 170 162 190 191 191 209 
192 183 156 155 155 148 148 156 149 156 149 145 145 145 140 140 
140 136 144 144 144 132 132 140 140 140 139 143 144 143 143 142 
142 138 137 133 129 121 128 120 119 120 130 130 133 129 128 127 
131 126 126 133 133 137 131 126 126 121 120 116 108 107 107 113 
116 111 114 109 102  90  86  73  64  66  63  62  63  70  69  66 
 67  66  65  56  55  52  51  52  57  62  69  68  77  84  70  69 
 73  72  71  65  69  67  66  66  65  64  69  72  67  66  73  72 
 47  53  60  68  69  63  71  72  66  75  76  85  82  83  88  89 
 94  83  88  85  86  81  82  82  91  92 101  94 103 100 101  91 
111 130 113 109 106 103 116 113 110 100 112 102  97 102  98 104 
106 106 101 107 103 104 104 105 111 106 107 114 113 109 109 116 
106 111 112 117 108 105 100 106 101 107  97  98 111 121 123 123 
130 124 131 124 131 124 125 132 140 140 140 144 140 140 144 144 
144 144 140 145 140 149 145 144 140 143 139 139 144 144 143 138 
142 146 142 137 137 136 136 135 135 127 126 130 129 129 124 124 
127 126 126 125 124 124 127 119 118 121 116 109 115 106 106 100 
 94  90  84  83  91  81  89  85  74  73  82  84  84  74  73  68 
 77  79  83  82  76  72  71  73  76  75  74  78  72  71  70  69 
 63  67  72  69  63  67  67  66  65  64  63  60  60  59  57  46 
 73  74  71  76  73  74  75  76  86  87  84  85  86  79  80  81 
 86  87  84  89  94  91  92  97  95 104 101  98  99 100 105 106 
 92  93  94 105 102 103 104  98 106 111 108 102 103 103 104 112 
106 106 101 107 103  99 104 110 106 106 112 108 103 104 105 110 
106  97  86  92  93  93  96  96  89 101 107  98  98 111 134 142 
130 134 135 139 139 135 136 136 132 140 144 144 149 144 140 144 
140 140 144 140 140 125 125 124 124 124 114 123 123 113 110 103 
103 109 111 121 116 128 121 119 114 114 113 108  98 107  97 106 
110 114 122 114 114 124 127 123 110 109 104 103 108 107 107 106 
104  98  89  89  88  81  76  79  87  91  85  89  93  88  93  98 
101 100  96  87  86  86  84  83  82  80  87  86  78  77  75  74 
 73  72  66  69  68  67  66  66  64  53  57  55  59  48  38  37 
 57  70  67  61  69  70  75  76  66  68  68  70  78  87  80  89 
 86  91  92  93  98  95  96  97 102 104 105 106  95  89  97  98 
103  93 104  95  95 107 108  98 106 111 112 113 109 110 115 116 
113 113 114 108 116 116 117 111 112 112 112 113 108 109 109 110 
116 116 104  98 108 118 119 114 110 101 120 129 133 129 123 117 
122 124 124 131 131 135 136 140 144 144 144 144 144 144 144 144 
140 136 136 132 144 140 125 119 125 125 123 123 124 124 113 117 
117 117 121 122 122 115 121 119 114 114 126 130 125 129 124 117 
127 122 122 129 132 128 127 130 130 130 129 116 115 107  96  86 
 85  93  92  89  82  81  80  79  84  86  90  89  94 100 103  92 
 90  90  89  88  87  86  91  83  82  88  87  79  78  84  83  82 
 81  73  78  70  68  68  67  65  65  71  69  60  54  58  57  56 
 26  35  40  50  56  49  50  54  61  62  58  69  65  61  62  68 
 75  87  92  89  86  87  92  90  83  79  75  73  87  89  90  91 
 92 100 101 101 102  96  96  97  88  99 108 120 121 123 123 125 
126 126 126 128 128 124 125 126 126 119 124 124 129 130 126 127 
127 117 118 129 118 118 114 114 120 121 120 121 133 142 130 123 
117 123 123 113 123 119 124 140 149 157 156 149 144 144 144 144 
145 140 140 136 136 145 149 145 149 140 139 131 131 139 142 138 
130 134 141 129 133 120 120 127 131 130 130 137 142 141 148 140 
135 134 135 125 121 124 112 119 131 125 124 120  88  87  83  74 
 67  72  80  89  96  87  89  93  98  97  96 102  94 100  99  92 
101 100  96  88  93  92  91  83  93  96  87  86  78  76  83  82 
 74  80  72  70  76  75  74  73  72  64  63  60  59  59  65  64 
 34  35  40  47  48  49  50  46  56  57  58  59  60  71  72  74 
 82  76  77  85  86  81  82  83  83  74  72  67  68  78  84  91 
 99 100 104 105 102 103  86  78  88  94 100 117 113 122 128 136 
136 137 139 140 141 141 141 135 135 132 137 132 134 130 134 131 
135 132 118 107 113 113 106 106 115 128 132 122 121 122 130 130 
130 130 139 139 135 124 136 124 119 136 132 136 136 136 124 144 
144 136 140 136 145 145 157 149 157 155 143 139 139 144 142 143 
147 142 160 154 141 152 152 144 151 150 151 167 165 182 182 157 
154 147 135 134 137 132 127 112 111 117 104  89  88  82  75  82 
 85  80  80  83  88  90  94  98 105 108 111 106 101 100  99  92 
 97  90  96  88  93  96  91  90  82  88  87  78  72  71  75  75 
 81  80  78  77  76  75  74  77  76  64  63  68  67  59  52  56 
 32  39  36  35  36  39  40  34  41  48  55  50  47  58  62  68 
 69  75  76  85  86  87  89  83  84  84  75  76  74  75  70  71 
 81  82  80  75  72  83  77  84 110 120 116 120 133 127 136 143 
146 153 159 160 155 141 141 142 142 136 144 144 146 135 139 140 
135 141 141 137 130 130 134 131 131 132 132 133 137 133 134 130 
134 142 143 143 148 148 143 149 140 144 145 145 140 144 136 144 
145 144 144 140 156 149 156 149 157 165 162 171 173 170 164 172 
170 169 179 178 170 170 159 158 172 171 179 170 175 204 194 176 
180 180 155 155 154 137 144 142 126 104 104  95  88  87  83  82 
 91  93  92  89  78  75  80  88  84  83  90  94 101 108 111 102 
101  97  89  95  93  92  91  83  82  81  87  86  77  76  76  75 
 74  73  72  77  76  68  74  73  65  64  69  61  59  58  57  57 
 34  35  40  41  48  43  50  51  53  57  49  50  60  58  53  60 
 55  53  54  53  60  61  62  63  70  65  66  63  64  65  70  77 
 72  69  70  69  72  83 104 113 114 132 132 125 134 135 136 146 
157 163 167 165 160 156 142 143 142 132 144 144 145 139 146 136 
131 137 137 142 149 157 166 151 152 161 173 168 153 142 153 154 
143 142 148 155 156 155 143 149 163 174 177 182 166 166 166 157 
157 157 163 149 157 163 163 176 173 176 181 176 181 175 180 188 
187 191 187 190 178 173 172 169 169 184 201 213 200 192 203 207 
206 175 174 163 154 160 153 131 130  96  86  85  84  87  93  86 
 85  80  84  89  88  87  94  98  97  91  85  84  81  88  92  92 
 90  89  88  82  81  86  91  83  82  80  80  86  85  88  91  82 
 81  80  72  65  63  62  61  65  65  64  62  60  59  58  58  56 
 44  45  46  47  48  43  50  54  53  54  55  56  51  58  49  48 
 51  52  54  59  60  61  71  77  70  71  72  67  68  69  66  71 
 86  92 101  94 106 120 129 136 146 147 138 139 140 150 145 143 
154 163 182 160 165 174 170 159 152 161 160 160 155 155 153 147 
147 149 141 149 150 166 168 167 177 177 181 181 186 169 171 175 
161 161 161 162 171 162 155 157 172 182 174 185 174 177 182 185 
190 185 190 185 190 166 174 184 189 176 211 193 192 188 170 180 
205 213 213 204 199 196 189 180 167 202 176 183 208 182 191 203 
202 206 205 179 178 169 159 158 130  96  86  85  84  84  83  92 
 85  80  89  89  91  95  99  99 105 108  96  95  88  80  82  86 
 77  76  75  74  67  80  84  73  72  70  79  78  77  76  76  86 
 74  73  71  65  63  62  61  65  64  63  62  60  60  59  65  57 
 44  39  36  47  48  49  50  51  47  54  55  50  57  52  59  60 
 61  62  66  68  69  70  71  77  78  79  75  76  74  75  70  67 
 72  73  74  75 106 120 135 150 148 151 157 161 167 168 153 152 
170 171 182 165 186 192 175 185 186 177 177 178 179 183 180 168 
168 174 169 183 175 179 179 188 180 185 190 199 204 191 187 187 
183 188 183 183 189 171 176 181 174 189 177 182 182 182 200 194 
203 203 203 208 208 202 219 202 207 202 219 193 183 210 210 192 
200 213 220 226 212 204 198 189 177 176 171 175 178 204 182 211 
206 202 197 191 208 187 132 142 122  90  90  89  88  87  87  86 
 94  98 102  97 101  95  89  98  97  97  96  95  94 100  93  92 
 91  89  83  82  76  75  84  78  72  70  69  78  77  76  70  69 
 73  67  66  69  68  67  66  66  64  63  62  60  60  59  58  57 
 38  39  40  47  42  43  44  51  53  57  55  59  57  58  59  60 
 64  62  63  68  69  75  76  77  78  79  80  81  82  78  79  77 
 68  69  68  89 136 145 154 172 156 168 175 166 180 178 173 187 
180 166 185 176 191 200 192 193 194 195 190 191 196 189 184 184 
173 181 186 187 205 193 202 206 195 189 211 223 212 205 209 191 
192 188 192 188 206 207 207 202 193 199 177 182 200 185 190 203 
194 208 220 208 190 200 189 215 207 202 219 222 201 214 214 206 
209 197 223 243 212 215 195 189 197 194 201 205 204 195 191 181 
202 210 213 183 173 160 127 106  91  90  90  89  88  87  93  86 
104 104 103 102 102 100  99  98  97  91  90  84  88  88  92  92 
 91  90  89  88  87  85  84  82  76  70  69  73  72  76  75  74 
 73  72  71  69  69  68  66  66  64  64  62  61  59  58  58  57 
 44  39  40  41  42  43  50  51  56  57  58  56  60  61  62  63 
 64  65  71  68  69  75  76  77  78  74  75  76  77  83  89  85 
 91  82  83 132 160 153 175 184 176 174 169 179 185 181 178 182 
188 184 197 182 183 192 200 209 186 198 203 200 191 197 193 193 
181 191 195 187 201 196 210 202 189 203 219 226 196 209 213 221 
206 206 198 188 199 207 219 211 219 215 200 215 212 208 220 224 
224 212 200 208 211 202 172 193 232 202 215 231 210 201 218 234 
221 209 226 223 199 196 203 185 179 210 187 183 192 212 203 176 
184 175 171 183 173 128  98  92  91  90  90  95  88  87  93  92 
 91 104 103 102 102 101 100  98  92  96  95  94  88  88  82  86 
 90  89  88  82  86  80  79  82  81  75  74  78  77  76  75  69 
 73  72  71  70  69  68  67  66  65  64  63  61  59  58  57  56 
 44  45  46  41  48  43  50  51  56  57  58  59  65  61  62  63 
 64  65  66  72  69  75  76  77  73  79  80  81  77  83  79  80 
 86  82 101 163 170 161 172 188 185 182 187 176 189 201 181 187 
196 193 205 190 177 187 200 205 186 206 195 204 200 205 198 206 
173 194 208 200 187 201 210 197 198 211 215 212 204 213 200 209 
209 214 206 201 206 202 207 219 207 223 223 229 208 203 224 203 
208 212 208 212 223 215 199 174 223 215 235 231 183 164 170 192 
221 200 200 223 216 215 207 211 184 166 176 167 170 192 191 185 
180 180 161 138 133 112  92  92  91  86  90  89  88  87  93  95 
 99 104 103 102 102 101  99  98  97  96  95  89  88  88  87  86 
 85  84  83  87  81  85  84  78  76  80  74  78  77  76  75  75 
 73  72  72  70  69  68  67  66  65  64  63  61  54  58  57  56 
 44  45  40  47  48  49  50  54  53  57  58  64  60  61  62  63 
 64  65  66  67  74  75  71  77  78  79  80  81  82  78  84  85 
 86  79 134 189 178 187 198 196 193 198 191 192 189 190 190 203 
204 205 201 185 186 178 188 205 198 206 195 196 200 209 206 202 
176 199 195 204 187 196 202 177 198 207 207 204 212 220 182 197 
224 214 192 225 214 193 211 229 229 240 215 219 219 194 216 227 
220 216 216 208 211 215 211 193 215 215 223 210 210 206 201 172 
205 205 174 212 204 228 207 198 188 171 176 175 167 155 149 165 
193 175 155 121 103  93  92  92  91  90  90  89  88  93  96  95 
105 104 110 102 101 100  99  98  97  91  95  89  88  92  92  86 
 90  84  88  82  81  85  79  82  81  75  79  73  77  76  76  75 
 81  73  72  77  69  68  67  66  65  64  63  61  60  59  57  56 
 44  45  46  47  48  52  53  54  56  57  58  59  60  61  67  63 
 64  65  71  72  69  75  76  77  78  79  85  81  82  83  84  90 
 86 104 168 193 196 194 204 199 197 201 195 192 197 178 178 179 
183 197 197 194 191 196 204 201 210 210 203 200 204 192 198 206 
203 207 182 195 187 209 210 184 189 195 196 196 199 216 200 197 
209 198 198 228 193 189 199 229 229 229 219 219 226 194 194 212 
227 224 220 219 194 211 199 207 193 207 223 199 206 201 206 206 
197 209 187 208 212 204 219 195 197 184 176 170 159 149 137 117 
147 167 163 103 103  93  92  92  91  90  90  89  88  93  96 105 
105 104 103 101 101 100  94  98  92  91  95  89  93  88  87  91 
 90  84  83  87  86  80  84  78  81  75  74  73  72  76  76  75 
 81  73  72  77  76  68  67  66  64  64  63  61  60  59  57  56 
 44  48  49  47  48  52  53  54  55  57  58  59  60  61  62  68 
 69  65  71  72  74  75  76  77  78  79  80  81  82  88  84  90 
 78 139 195 193 196 187 204 192 189 207 183 188 193 204 190 187 
170 189 201 209 203 208 214 209 219 213 207 200 196 197 193 202 
191 194 192 195 178 205 221 188 185 195 190 190 196 213 200 187 
198 175 201 225 189 184 184 226 199 219 200 208 223 177 194 208 
216 203 203 216 182 211 202 211 193 207 223 214 201 198 192 206 
209 197 182 196 223 211 215 219 221 176 176 175 150 141 132 116 
115 114 122 113 103  93  92  92  91  90  90  89  94  96 101 105 
105 104 103 102 101 100  99  98  97  91  90  94  88  88  92  86 
 85  89  83  82  86  80  79  78  76  75  74  73  72  71  75  75 
 74  80  72  71  69  68  67  66  64  63  63  61  60  58  57  56 
 47  45  49  50  51  52  53  54  55  62  58  64  60  61  62  68 
 69  70  71  72  73  75  76  82  73  79  80  81  82  83  89  85 
103 183 195 181 186 190 204 192 173 182 191 192 177 186 190 191 
188 197 205 219 210 211 225 205 210 216 217 204 191 183 198 190 
181 199 200 186 193 193 202 176 180 198 196 190 208 200 182 191 
201 172 192 206 176 181 189 226 202 219 194 194 203 200 227 203 
185 212 208 208 190 202 207 202 193 211 226 218 210 210 210 192 
205 217 200 178 204 207 211 211 206 194 143 175 165 141 128 111 
105  92  89 100  90  93  92  88  97  90  90  95  97 101 106 105 
105 104 103 101 101 100  99  98  92  96  90  89  93  92  87  86 
 90  84  88  82  86  85  79  82  81  80  79  78  77  76  75  75 
 74  73  72  71  68  67  66  66  64  64  63  61  59  58  57  56 
 44  48  49  50  51  57  58  54  55  62  63  64  65  66  62  68 
 69  70  71  72  73  75  81  77  83  79  80  81  82  83  84  80 
148 197 184 177 173 187 201 192 193 174 183 192 171 172 194 191 
200 205 208 219 203 200 221 201 198 210 207 204 171 179 202 193 
203 191 182 187 187 193 179 167 167 180 181 186 190 197 179 187 
206 175 198 192 176 189 207 223 193 207 200 194 185 203 224 203 
203 203 194 200 208 207 219 211 193 219 215 207 201 201 201 198 
205 213 191 190 196 204 222 219 177 166 143 142 159 141 106 103 
 96  92  95  94  94  93  89  92  91  90  90  95 108 107 106 105 
105 104 103 102 101 100  99  98  97  91  95  89  93  88  87  91 
 85  89  83  82  81  80  84  82  81  80  79  73  77  71  75  69 
 73  72  71  70  68  67  66  65  64  63  62  61  60  58  57  56 
 47  48  49  50  56  52  53  54  55  62  63  64  70  66  62  73 
 69  70  71  72  73  75  81  82  78  74  80  81  82  83  79 106 
190 191 171 172 194 183 183 188 185 186 183 184 197 197 205 191 
210 217 208 198 195 204 217 197 189 181 203 204 179 171 184 184 
194 185 182 175 170 179 168 158 167 167 162 178 178 179 182 172 
180 170 198 192 189 199 223 223 211 202 190 203 190 182 200 212 
220 190 194 203 203 215 207 193 193 215 219 202 183 183 188 198 
209 200 191 186 181 190 169 211 194 138 150 134 112 107 103 103 
 96  92  91  90  94  93  89  92  91  90  96  89 107 107 101 105 
105 104 102  97  96 100  99  93  92  96  95  89  88  93  92  86 
 85  84  88  87  81  80  79  82  81  75  74  78  72  76  70  74 
 68  72  71  70  68  67  66  65  64  63  62  62  60  58  57  56 
 47  48  54  50  51  52  53  54  55  62  63  59  65  66  67  68 
 69  70  76  72  73  75  76  77  78  74  80  81  82  83  89 165 
190 170 168 181 186 186 183 192 197 182 178 203 197 197 190 187 
200 208 197 202 199 200 208 205 210 190 190 182 183 166 184 180 
185 181 169 165 156 168 151 151 140 159 153 170 163 160 169 161 
172 172 198 183 199 184 215 219 223 229 207 185 185 182 185 190 
208 190 203 212 190 202 207 184 202 207 219 222 192 183 192 201 
217 221 191 181 199 181 169 158 184 171 130 108 104  98  93  97 
 96  92  95  90  94  93  92  92  91  86  96  89 107 106 106 105 
104 103 102  97 101  95  94  93  97  91  90  89  93  88  92  86 
 90  84  88  82  81  85  84  78  77  80  79  78  77  76  75  74 
 73  72  71  70  68  67  66  65  64  63  62  61  59  58  52  56 
 47  48  49  50  51  52  53  59  55  57  58  59  65  66  72  68 
 64  70  71  72  73  70  71  77  73  79  75  76  82  75 113 185 
174 161 171 172 164 186 187 184 185 182 191 188 185 181 181 187 
183 205 190 194 213 192 200 188 198 181 187 178 166 163 180 168 
165 166 164 159 142 166 143 139 139 136 140 153 146 146 163 164 
161 175 201 181 189 199 223 215 207 236 211 194 203 174 174 172 
174 174 185 212 194 200 207 184 202 219 219 207 188 188 192 180 
213 200 200 186 186 186 172 151 144 168 130 105 104  92  91  93 
 96  92  95  94  90  93  89  92  91  99 104 103 107 106 101 105 
104 103  97 102 101  95  99  98  92  91  90  89  93  88  87  86 
 90  84  83  82  86  80  79  83  77  75  79  73  77  76  75  74 
 73  72  66  70  68  67  61  65  64  63  62  56  59  58  57  56 
 51  48  49  50  51  52  53  54  55  57  58  59  65  66  67  68 
 69  70  71  72  73  70  71  72  78  79  75  81  77  75 146 185 
169 161 162 163 173 171 179 188 176 177 187 179 177 186 178 179 
183 193 182 194 210 174 192 175 189 172 161 154 152 152 167 157 
157 155 149 142 137 139 143 127 120 136 132 133 133 141 153 147 
142 164 183 176 184 202 223 202 193 211 194 200 212 174 182 166 
149 194 182 177 208 211 207 193 181 215 202 193 173 198 192 172 
200 182 146 174 186 168 162 127 127 109 119 105  94  94  97  93 
 92  96  95  94  94  89  92  92  97  99 109 109 107 106 106 105 
 99 103 102  97  96  95  94  98  92  91  85  89  89  88  92  91 
 85  84  88  82  81  85  84  83  81  80  74  78  77  76  70  69 
 68  67  71  65  68  67  61  60  59  58  62  61  59  58  57  51 
 46  48  49  55  51  52  53  59  55  57  63  59  60  66  62  63 
 69  65  71  67  69  75  76  72  73  74  75  76  74  96 172 177 
169 152 162 154 160 156 175 158 176 164 175 179 171 168 186 173 
174 171 154 157 195 166 175 170 168 164 154 144 155 146 153 154 
147 132 129 137 130 138 139 127 127 136 115 116 122 122 130 112 
109 124 143 131 148 181 202 202 181 177 185 194 194 174 174 166 
144 174 172 166 190 207 202 189 173 199 189 148 162 188 180 170 
179 163 142 160 181 196 145 101 106 109  99  99  98  98  97  97 
 96  92  91  94  94  99  93  92  97 109 104 103 102 101 101 105 
104 103  97  97  96  95  89  93  92  91  90  89  89  88  87  86 
 80  89  88  87  81  85  84  78  81  80  79  78  77  71  70  74 
 68  67  66  65  64  62  61  60  59  63  62  56  59  53  52  56 
 46  48  49  50  56  52  53  54  55  61  58  59  60  66  67  68 
 69  65  71  72  73  70  76  77  73  74  75  81  68 119 167 165 
160 144 158 163 160 161 146 150 151 156 183 166 159 160 156 169 
180 155 156 160 183 158 167 157 160 159 151 145 134 135 139 135 
135 132 112 117 133 134 114 119 119 107 107 116 108 108 109 103 
103 104 100 104 110 124 156 165 172 166 163 185 172 163 166 149 
136 166 182 172 182 185 199 176 171 181 165 148 156 188 170 138 
172 160 133 153 168 136 136 110 106  96  99  99  98  98  93  93 
 92 102  95 100  94  99  98  98 105 104 109 103 102 106 106 100 
 99  98  97  97  96  95  89  93  92  91  90  89  89  88  87  86 
 85  84  83  82  86  80  79  83  81  80  79  78  77  76  75  69 
 68  67  66  65  64  62  61  60  59  58  57  56  55  58  52  56 
 46  48  54  50  51  52  53  54  55  57  58  59  65  61  67  63 
 64  70  66  67  73  70  76  72  78  74  75  76  74 148 167 159 
148 149 168 172 152 153 162 158 151 151 152 153 151 152 151 143 
157 147 148 149 157 147 151 152 149 153 133 124 125 126 122 115 
123 116 104 107 113 108 106 106 101 107 107 102 116 108  99 103 
103 100 110 113 110 105 114 119 140 149 140 190 163 163 172 145 
136 163 174 163 163 157 199 172 136 165 171 131 139 170 131 117 
147 143 109 121 122 107 132 120 100 100  99  99  94  98  97  97 
 96 102  95  94  94 102  98  98 105 104 104 108 102 101 101 100 
 99  98  97  97  96  95  89  88  87  91  90  89  89  88  82  86 
 85  84  88  82  81  80  79  78  77  75  74  78  72  76  70  74 
 68  67  66  65  64  62  61  60  59  58  57  56  55  58  52  56 
 46  45  49  50  51  57  53  54  55  57  58  59  60  61  67  63 
 64  65  66  67  68  70  71  72  73  74  75  76  77 148 158 147 
140 139 158 159 147 145 149 150 146 146 138 139 134 135 142 137 
137 126 131 132 129 140 134 131 126 127 113 114 113 114 102  96 
 97 103 104 104 113 105 100 106 107 107 107 102 111 108 103 103 
103 104 104 110 110 111 105 105 101 140 140 174 156 157 163 140 
132 144 172 145 140 144 182 136 119 144 143 110 113 123 113 112 
122 117 109 111 122 107 107 107 100 100  99  95  98  98  97  97 
 92  96  95  94 100 102 106 106 105 104 104 103 102 101 101 100 
 99  98  97  92  91  95  94  88  87  91  85  89  89  88  87  86 
 85  84  78  82  81  80  79  78  77  80  74  78  72  71  75  69 
 68  67  66  65  64  62  61  60  59  58  57  56  55  53  52  51 
 43  48  49  50  51  52  53  51  52  54  55  56  60  61  59  63 
 69  65  66  72  68  74  71  72  73  74  75  73 103 157 141 139 
138 152 150 143 144 137 144 139 131 141 132 132 126 141 135 143 
136 117 118 119 120 133 125 110 106 106 107 108 108  95 102 105 
 97 103 107 104 105  99 106 106 107 101 107 102  98 103 103 103 
103 110 110 100  99 105 119 119 105 124 124 140 144 156 157 136 
132 132 140 132 124 125 144 114 111 119 114 110 104 118 123 103 
109 103  99  98 108 107  97 101 100 100  99  99  98  94  97  97 
 96 102  95 100 100 102 106 106 105 104 104 103 102 101 106 100 
 99  98  97  97  96  90  94  88  92  86  90  89  89  88  87  86 
 85  84  83  82  81  85  79  83  81  75  74  78  77  76  70  74 
 68  67  66  65  64  62  61  60  59  58  57  56  55  53  52  51 
 43  48  49  50  51  52  53  51  52  54  55  56  60  58  62  63 
 64  65  66  67  68  70  71  72  78  74  75  67 125 163 130 139 
138 149 142 141 144 143 129 136 123 124 131 121 117 110 103 125 
125 113 106 108 108 109 104 105 106 101  99  94 100 101 105 110 
106  97 104 104  99 105 106 100 101 107 101 108 108 108 103 103 
103  98  90 113 144 193 211 202 202 163  99 105 136 140 124 136 
115 115 125 119 132 111 132 124 111 105 111 101  98 100 104 103 
 99 103  99  98 102  98 101  97 109 119 108  99  98  98  97  97 
 92  96 109 108 103 107 101 106 105 104 104 103 102 101 101 100 
 99  98  97  92  96  90  94  88  87  91  90  85  89  88  87  86 
 85  84  83  82  76  80  79  78  77  75  74  73  72  71  70  69 
 73  67  66  65  64  62  61  60  59  58  57  56  55  53  52  56 
 37  45  46  50  48  49  50  51  52  54  55  56  57  58  59  63 
 64  65  66  67  68  70  71  77  73  74  75  81 144 153 141 139 
132 139 142 141 133 120 121 129 110 107 116 109 109 110 104 112 
105 106  93  97  95  96 117  97  98  98 102 103  94 101 102 102 
103 103 104  98 105  99 106 106 107 107 107 102 102 103 109 109 
100 104 183 228 231 228 219 184 215 202 172 172 124 140 124 120 
106 106 112 102 114 114 105 105 105 101 101 101 100 100 100 103 
 99 103  99 102 102 101 101 101  96 114 113  95  98  98  97 103 
 92 102 104 103 108 107 101 106 100 104 104 103 102 101 106  95 
 99  98  97  97  91  95  89  88  87  86  85  85  84  83  82  86 
 80  84  78  82  81  80  79  78  77  76  74  78  72  76  75  69 
 68  62  61  65  59  62  56  60  59  58  57  56  55  53  52  51 
 37  39  40  50  51  52  53  51  52  53  55  56  57  58  59  63 
 64  70  66  72  68  74  76  77  73  79  66 105 165 140 141 128 
129 149 134 125 127 116 116 105 106  99 100  96  92 102 104  99 
105  87  87  97  95  99  96 100 101  92 102 103 100  95  96 102 
103 103 104 104  99 105 100 106 101 107 101 108 108 108 112  91 
123 225 249 222 218 219 219 176 184 199 200 229 185 136 112 112 
102 106 102 102 100 105 111 101 105 101  99  99 100 100 100 103 
 99 103  99 102 102 101 101 101 100 100  99  99  98  94  97  97 
102  96 101 103 108 102 106 101 105 104 104 103 102 101 101 100 
 94  93  92  97  96  95  89  88  87  91  85  89  84  83  82  86 
 85  84  83  77  81  80  79  78  77  76  74  73  72  71  70  69 
 63  67  66  60  64  62  61  60  59  58  57  56  55  53  52  51 
 37  45  40  47  51  49  50  51  52  56  55  56  57  58  59  63 
 64  65  66  72  73  74  76  72  78  74  66 117 162 135 127 122 
129 116 113 113 114 111 108  92  85  89  95  91  89  89  90  91 
 86  93 101  97  95  90  96 100  98 101  99  94 100 101 102 102 
103 103  98  98 105 105 100 106 107 107 110 111 108 116  99 142 
238 244 206 210 202 202 202 184 202 193 185 185 177 124 100 102 
102 106 112 102 102  99 101 105 101 101 101 101 100 104 100 103 
103 103  99 102 102 101 101 101 100 100  99 105  98 104  97  97 
 96  92 101 108 108 107 106 106 100 104 104 103 102  96 101  95 
 99  93  97  97  91  90  89  88  87  86  85  85  84  83  82  81 
 80  79  83  77  76  80  79  78  77  76  74  73  67  71  65  69 
 68  62  66  60  59  58  61  60  59  58  57  51  55  53  52  51 
 37  44  40  47  42  49  44  45  46  48  49  56  51  58  59  60 
 64  65  66  72  68  70  71  72  73  74  72 135 152 126 127 110 
115 116 112 113 102 107  96  97  93  89  87  88  92  92  84  94 
100  96  96  94  95  96  96  97  98 101 102  94 100 101 102 102 
103 103 104 104 105 105 100 106 107 107 110 111 111  97 146 244 
244 222 201 183 199 202 181 184 202 182 185 172 136 112 102 102 
106 102 106 102 105 105 105 101 105 105 101 104 104 104 100 100 
103  99 103 102 102 101 101 101 100 100  99  99  98  98  97  93 
 96 102 104 103 103 107 106 101 105 104  99 103 102 101 101 100 
 99  98  92  92  96  90  89  88  87  91  85  89  89  83  82  86 
 85  79  83  82  81  75  74  78  77  76  74  73  72  71  70  69 
 68  62  66  65  59  62  61  55  54  58  52  56  50  53  52  46 
 43  39  40  47  42  49  50  54  52  53  49  50  51  52  59  54 
 61  62  63  67  68  70  76  72  73  71  86 151 139 126 127 121 
110 116 112  94  89  90  86  87  93  89  90  88  89  89  90  91 
 95  96  96  97  95  96  96 100  98  98 102 100 100 101 102 102 
103 103 107 104 105  99 106 106 101 107 110 111  98 154 238 234 
224 210 214 206 206 199 176 189 199 172 174 144 112 100 102 100 
106 102 102 106 102 101 105 105 101 105 105 104 104 100 104 103 
103 103 103  98 102 101 101 101 100 100  99  99  98  94 103 111 
102 105 104 108 108 102 106 101 100  99 104  98 102  96  96  95 
 94  98  97  92  96  95  89  88  87  91  90  85  84  83  87  86 
 80  84  83  77  76  80  79  78  77  71  74  73  72  71  70  69 
 68  67  61  65  64  58  61  60  59  53  57  56  50  53  47  51 
 43  39  40  41  48  43  50  45  52  48  49  50  51  52  59  60 
 55  62  63  67  68  69  71  72  73  71 104 161 139 120 109 121 
122 111 104  89  94  82  86  87  85  89  95  96  89  89  93  91 
 92  93  93  94  95  96  96  97  98  98 102 103  94 101 102 105 
106 106 107 107 105 105 106 100 107 107  97 122 190 251 224 205 
217 206 210 201 193 189 173 189 181 157 144 119 102 102 100 102 
102 106 106 102 105 105 101 105 101 101 105 101 104 100 100 103 
 99 103 103  98 102 101 101 101 100 100  99  99  98  98 106 111 
105 105 109 103 108 102 106 106 105  99 104 103  97 101 101 100 
 94  98  92  97  91  90  89  88  87  91  85  85  89  83  82  86 
 85  84  78  82  81  80  74  73  77  76  74  73  72  71  70  69 
 68  67  61  65  59  58  61  55  54  58  52  56  50  49  52  46 
 37  39  46  37  42  49  50  45  46  47  55  56  57  58  59  60 
 61  65  63  58  65  67  71  72  73  65 116 151 136 108 113  98 
111  93  88  81  82  90  91  87  93  86  90  96  92  89  90  94 
 95  93  96  94  95  96  96  97  98 101 102 100 100 101 102 110 
106 111 107 107 108 105 106 109  97 110 173 237 247 233 217 200 
209 222 201 198 181 181 171 171 163 144 114 102 102 102 106 102 
102 106 106 102 105 105 105 105 111 105 105 104 104 104 104 103 
103 103 103 102 102 101 101 101 106 106  99 105  98 104 106 103 
105 105 104 103 108 107 101 101 105 104  99 103 102  96  96 100 
 94  98  97  92  91  90  89  88  87  86  85  89  89  83  87  86 
 85  79  78  82  76  80  79  78  77  71  70  68  67  71  65  64 
 63  62  66  60  64  58  56  55  54  58  57  51  55  49  47  46 
 37  38  46  47  48  49  50  45  52  47  49  56  57  61  62  60 
 61  62  63  64  65  67  68  69  70  84 150 151 136 108 101 105 
 86  87  88  84  84  85  86  87  88  89  90  91  92  92  93  94 
 95  96  93  97  95  96  96  97  98  98 102 103 100 101 105 105 
106 111 112 107 108 108 106 109 151 222 255 243 233 220 200 209 
205 214 206 192 176 173 176 145 124 105 101 100 102 102 106 106 
106 106 106 106 105 105 114 111 105 105 105 110 104 104 104 100 
103 103 103 102 108 101 107 107 106 106 105 105 104 104 111 106 
110 105 104 108 103 107 106 106 100  99 104 103  97 101  96  95 
 99  98  92  92  96  90  89  88  87  86  85  85  89  83  87  81 
 85  84  83  82  81  75  79  73  77  71  74  73  72  66  65  69 
 68  67  61  60  59  58  56  55  54  58  52  56  50  49  47  46 
 37  38  40  47  48  49  53  54  55  53  55  59  57  58  59  60 
 64  62  63  64  65  67  68  69  64  91 142 138 128 103 108 109 
 91  87  88  88  84  85  86  87  85  89  90  91  92  92  98  94 
 95 101  96  94  95  96  99  97 101 101 102 103 103 104 102 105 
106 106 107 117 118  99 127 206 249 242 232 226 226 200 182 191 
183 183 183 173 176 173 136 105 101 105 101 102 106 112 106 106 
106 102 106 106 111 111 111 105 105 111 111 104 110 110 104 103 
103 109 109 108 108 107 101 101 106 109 105 105 104 104 106 111 
110 105 104 103 103 102 101 101 100 104  99  98 102  96  96 100 
 94  93  92  92  91  90  94  88  92  86  85  85  89  83  82  86 
 80  79  78  77  76  80  74  73  72  71  74  73  72  71  70  64 
 63  62  66  60  59  58  61  55  54  53  52  51  50  49  52  51 
 37  44  40  47  48  49  53  54  55  53  57  59  57  58  59  63 
 64  65  63  67  65  67  68  72  73 116 142 135 128 103  90  90 
 92  93  88  84  84  85  83  92  88  89  90  91  92  92  98  94 
 95  96  96  97  98  99  99 100  98 101 107 103 103 104 105 105 
111 111 117 107 108 168 231 241 231 225 219 212 196 171 163 164 
155 170 161 143 139 135 111  99 101 101 101 105 106 112 112 102 
106 106 112 106 105 111 111 111 111 111 105 110 113 110 110 109 
103 109 111 108 108 107 107 110 114 114 108 108 107 112 106 106 
105 105 104 103 103 102 101 101 105  99  99  98  97  96  96  95 
 94  93  92  92  91  90  89  93  87  86  85  89  84  88  82  81 
 80  79  78  77  76  75  74  78  72  71  74  73  72  71  65  69 
 63  62  61  60  59  63  56  55  54  53  52  51  50  49  47  46 
 37  38  40  47  48  49  50  54  55  53  57  59  57  58  59  60 
 61  62  63  58  68  61  68  69  78 136 134 135 111 103  90  90 
 81  92  88  88  89  85  91  92  93  89  90  96  97  92  93  94 
 95  96 101  97  95  99  96 100 101 101 102 103 103 104 109 105 
111 116 104 118 205 240 210 214 219 207 199 190 163 137 123 143 
155 155 139 123 113 101  99  99 101 101 101 111 112 112 112 102 
112 106 112 106 111 105 105 105 111 111 111 113 113 110 110 109 
112 109 111 108 108 110 110 110 109 109 108 113 112 107 106 106 
105 105 109 103 103 107 106 101 100  99  99  98  97 101  96  95 
 94  98  97  92  91  90  89  88  87  86  85  85  84  83  82  81 
 80  79  78  77  76  75  74  73  72  71  70  68  67  66  70  69 
 68  62  61  60  59  58  56  55  54  58  52  56  50  49  48  46 
 37  38  40  47  48  49  50  54  52  56  55  59  57  58  62  63 
 74  91  96  85  56  61  68  69  84 141 134 135  98  89  97  98 
 91  92  83  88  89  90  86  87  88  89  90  91  92  92  98  94 
100  96  96  97  98  99  99 100  98 106 107 103 108 109 109 115 
106  97 164 225 226 187 194 214 203 189 190 162 133 121 117 123 
134 118 118 110 104 101 101 101  99 101 111 119 119 119 112 112 
112 106 112 106 105 111 114 111 114 111 114 113 113 113 110 112 
117 109 111 116 111 110 115 115 114 109 108 108 107 112 106 111 
110 105 104 103 103 107 101 101 100  99  99 103  97  96 101  95 
 94  90  89  92  91  90  94  93  92  86  85  85  84  83  82  81 
 80  79  78  82  76  75  74  78  72  71  70  66  67  66  65  64 
 63  59  61  60  59  58  56  55  54  53  52  51  55  49  48  46 
 43  38  40  47  48  43  44  51  52  53  57  59  60  61  62  60 
 74 125 118 127 120  91  58  57  98 133 123 118  98  89  89  90 
 92  87  83  93  89  90  91  87  93  94  95  91  97  97  93  99 
100  96  96 102  98 104 104 100 101 101 102 103 103 109 102  92 
135 211 251 216 205 201 197 202 195 180 186 170 137 122 117 109 
103 100 100 100 100 101 101 101 101 114 119 114 114 119 124 124 
120 120 115 112 105 111 111 111 114 119 119 113 110 113 118 122 
112 117 121 116 121 128 120 115 114 114 113 108 107 107 106 106 
105 105 104 108 103 102 101 101 105  99  99  98 102 106  96  92 
 94  98 102 103 109 112 111 110 113 104 103 102  94  83  87  81 
 80  84  78  77  76  75  74  70  72  76  79  78  85  84  83  82 
 73  62  61  65  59  58  61  55  54  58  52  51  50  49  48  51 
 37  44  40  47  42  43  44  45  52  56  62  59  60  61  62  63 
 55  76 109  98 131 137 112  81 114 122 105 105  98  96  89  85 
 86  87  88  88  89  85  86  87  93  94  95  91  97  92  93  99 
 95 101 101  97  98 104 104 105 106 101 102 108 103 101 139 202 
241 221 204 200 193 187 184 194 180 177 190 168 137 116 109 109 
103 104 100 100 100 101 105 101 105 119 114 111 114 119 120 120 
124 120 115 114 114 114 114 114 119 124 123 123 124 124 123 123 
123 123 121 111 116 128 110 110 114 109 113 108 107 112 106 106 
105 105 109 103 103 107 101 101 100 104  99  98  94 114 117 105 
116 115 122 121 117 116 119 118 113 112 107 106  94  83  82  86 
 80  84  78  77  76  75  79  84  83  92  91  94  97  92  91  86 
 85  72  61  60  64  63  57  55  54  58  52  51  50  49  48  46 
 43  38  36  47  42  43  44  51  46  43  45  50  51  58  59  60 
 61  56  76  93  94 121 119 131 140 115 104  87  88  96  90  90 
 91  87  88  88  94  90  91  87  88  94  95  96  97  92  93  99 
100 101 106  97  98 104 104 105 106 106 107  94 125 197 226 223 
191 169 174 178 170 179 184 176 180 180 173 141 111 108 103  99 
100 104 100 100 100 101 101 114 124 119 114 114 119 115 120 120 
115 120 124 119 125 124 124 124 124 124 124 131 124 123 124 122 
117 109 109  98 108 121 110 110 109 109 108 108 107 107 106 106 
105 105 104 103 103 102 101 101 100  99  99  98  94 106 114 113 
125 124 123 122 122 121 119 114 105  97  96  85  81  88  87  81 
 85  90  78  74  86  86  96 102  97  96  95  94  93  88  87  82 
 63  59  58  57  59  55  57  55  54  53  52  51  50  54  48  46 
 33  38  40  41  48  43  50  51  55  74 106  93  77  61  49  54 
 61  62  53  78  98 100 105 114 143 104  96  94  87  96  97  85 
 86  87  88  93  89  90  91  97  93  89  95  96  97  97  98  99 
 95 101 101  97  98  99 104 105 106 106  99 144 212 174 135 136 
147 136 141 156 156 150 151 161 169 169 153 121 102 103  99  99 
100 100 100 100 104 101 114 125 124 119 125 124 124 124 124 120 
124 124 124 124 124 125 125 125 125 125 124 124 123 118 123 117 
103 103 103 102 108 132 110 110 109 109 108 108 107 107 111 106 
105 110 104 103 103 102 101 101 100  99  99 103 102 106  96  95 
 91  93 102 102 101 100  99  93  92  86  83  85  84  80  82  81 
 80  90 104  95 102 101 100 102 101  92  95  86  77  71  62  64 
 68  62  71  65  64  63  61  55  51  53  52  56  50  49  45  46 
 37  44  45  41  48  49  50  41  85 141 137 138 119 118 113  74 
 55  52  63  58  98 132 138 151 130 103  92  87  88  96  89  90 
 91  87  88  93  84  90  91  92  98  89  95  96  97  97  98  99 
100 101 101 102 103 104 104 105 111  92 137 196 114  89 105 115 
123 128 117 125 133 119 134 152 161 172 136 108 102  99  99  99 
100 100 100 100 104 105 132 125 124 125 124 125 132 125 125 125 
125 132 125 132 124 125 132 125 125 124 119 123 118 124 118 109 
103 109 103 102 108 141 120 107 109 114 113 108 107 107 106 106 
105 105 104 108 103 102 101 101 100  99  99  98  97  96 101  95 
 94  90  92  89  88  87  89  88  87  86  85  90  89  93  92  86 
 90  97  96  77  73  75  79  78  77  81  75  66  67  66  75  82 
 85  84  83  78  77  75  74  73  65  53  52  51  60  59  57  68 
 37  38  39  47  48  49  50  45  52 105 109 101 108 103 113 120 
107  91  63  46  73 145 150 142 115  85  85  87  88  88  89  91 
 91  92  88  88  94  90  91  92  93  94  95  96  97 102  98  99 
100 106 106  97 103 104 104 110 101 136 187  94  90  95  96  96 
 97 124 107 117 130 130 130 139 151 140 115  98  98  99  99  99 
100 100 100 104 104 123 125 125 125 125 125 125 125 125 132 132 
136 132 132 125 124 124 125 125 119 114 114 113 113 118 113 103 
103 109 103 102 108 136 120 107 109 109 108 108 107 107 106 106 
105 105 104 103 103 102 101  98  97  96  99  98  97  96  96  95 
 94  93  92  92  96  95  86  88  92  97 103 102 105 101 100 107 
102  90  88  82  76  72  74  73  69  76  95  90  85  92  91  94 
 89  84  83  82  85  79  67  66  65  50  52  51  61  59  58  57 
 37  38  39  41  48  49  50  51  46  53  99 101  94 102 104 114 
113 114 101 102 126 121  96  81  82  85  85  86  88  88  84  91 
 91  92  92  88  89  95  96  98  98  94  95  96  97  97 103 104 
105 106 101 102 103 104 109 105 112 181 112  88  90  95  92  96 
103  97  98  98 105 108 119 127 119 101  97  98  98  99  99  99 
100 100 104 100 118 124 132 136 140 132 125 140 136 125 132 132 
132 132 132 132 125 140 140 119 119 114 119 118 113 113 113 109 
103 103 103 102 102 121 115 107 109 109 105 108 112 107 106 106 
105 102 101 103 100 102  98  98  97  96  99  98  97  96  96 100 
 94  98  97  92 101 112 111 118 117 112 111 110 113 108 111 103 
 91 101  89  87  73  75  74  73  69  76  80  78  85  88  83  82 
 81  80  79  78  77  69  66  52  64  63  52  61  60  59  69  64 
 43  44  39  47  42  49  50  51  52  47  57  93  94  95 113 105 
 99 100 118 116  90  69  70  63  70  71  72  81  87  89  89  85 
 91  93  93  93  94  96  97  98  98  99 100 101  97 102 103 105 
105 106 106 107 108 104 109 100 180 159 107 100  94  91  92  96 
 93 103  98  98  99  99 100 106 107 101 101  98  98  99  99  99 
100 104 100 113 124 124 132 125 132 140 144 145 132 125 132 125 
140 140 132 136 140 136 119 114 114 111 111 113 118 113 110 112 
103 109 103 108 108 110 110 110 109 109 105 105 107 104 103 103 
102 102 101  94 100  99  93 101  97  96  99  98  97  93  96 100 
104 104 103 113 101 108  99  99 109 112 111 114 109 104 100  91 
 80  84  78  74  76  75  79  84  77  82  80  90  89  88  87  86 
 85  84  83  82  77  76  57  52  54  63  78  69  76  75  73  72 
 43  38  45  47  42  49  53  51  52  56  48  63 101  91  88  98 
121 108  92  67  59  60  67  69  70  71  72  76  82  89  90  91 
 86  92  93  93  94  96  97 105  98  99 100 101 101 102 104 105 
105 106 106 107 108 109 109 111 143 106 107 100  94  95  92  92 
 93  93  98  98  99  99 100 106 101  97 101 102 102 103  99 103 
103 104 110 124 131 131 125 125 124 124 124 124 125 132 132 132 
136 136 132 125 114 111 111 111 119 119 114 118 118 113 110 109 
109 103 109 108 108 107 110 110 106 109 108 105 104 104 103 103 
105  96 101 100  94  99  98  98  97  99  96  95  94  96  96 100 
112 119 118 103 109 101  99  99  87  86  90  85  81  74  82  81 
 80  79  78  74  67  72  71  91  97  92 111 103 102 101  96  94 
 89  88  87  86  81  76  74  66  64  64  70  48  47  49  48  47 
 43  44  39  49  51  49  50  54  52  53  57  46  60 109 119 105 
 95  75  57  67  65  66  67  72  70  74  75  73  77  89  89  85 
 91  82  83  94  95  96  96  97  99 100 100 101 102 103 104 105 
105 106 106 107 109 109 110 122 122  87  89  94  94  91  92  96 
 97  93  98  98  99 105 100 100 101 101 101 102 102 103 103 103 
 99 104 124 135 124 124 125 132 125 132 125 132 132 124 132 120 
125 124 106 106 105 111 111 114 114 124 119 113 113 110 110 109 
103 103 103 102 111 110 110 110 109 109 105 105 104 104 103 103 
102  96 101 100 100  93  98  98  97  96  99  95  94  96  93  92 
 99 104 114 109 109 108 111 114 109 104  90  82  84  80  73  72 
 77  76  78  82  81  93  84  91  82  81  81  79  89  88  87  82 
 81  88  91  91  89  87  87  85  84  79  70  62  55  46  45  47 
 43  38  39  46  48  49  44  51  52  53  48  80 117 120  92  63 
 55  52  57  58  65  60  67  69  73  74  80  76  77  78  84  85 
 91  92  88  88  94  95  97 105 106 100 108 102 102 103 104 105 
106 106 107 108 109 109 110 111 126 101  99 100  94  95  92  96 
 97  97  98  98  99  99 106 100 101 101 101 102 102 103 109 103 
103 123 131 124 131 131 136 125 119 119 125 124 106 100 102 106 
112 106 112 112 111 105 111 111 119 124 119 110 113 104 104 103 
103 103 103 108 111 107 110 107 109 106 105 105 104 104 103 103 
 96 102 101  94 100  93  98 106 100  96  90  95  94  93  93  95 
 99 103 103 103 109 101  99  88  87  86  83  82  94  94  82  86 
 90  97 100 103 102 101  96  95  94 101  87  78  67  58  65  75 
 93  93  92  95  90  83  86  86  84  79  82  73  60  49  45  52 
 43  38  48  46  48  52  79  89  81  82 100 121 101  61  53  54 
 55  56  63  58  65  66  67  72  73  74  75  81  82  75  84  90 
 86  87  92  93  89  90  96  98 106 100 101 102 109 102 104 105 
113 113 114 115 109 116 117 111 122 112  89  94  94  91  96  96 
 97  97 104  94  99  99 100 100 101 101 101 102 108 103 103 103 
117 134 131 131 131 119 111 105 111 105 111 111 106 102 106 106 
106 102 106 112 111 111 105 111 124 119 119 113 110 110 110 103 
109 109 109 111 111 107 107 107 106 109 105 105 104 104 103 103 
102 102 101 100 100  99  98  98 111 109 104  98  97 107 117 117 
120 119 118 121 117 112 111 110  98  97 103 106 101 104 107 110 
111 109 109 108 106 106 104 102  97  92  80  78  85  84  96 106 
 94  93  92  91  89  88  82  73  80  75  70  56  41  46  48  47 
 46  44  45  46  48  49  88 113 118 105  87  63  57  52  53  54 
 61  62  66  64  65  69  62  69  73  71  72  81  82  83  84  80 
 86  91  80  83  89  95  96  98  99 107 112 109 109 110 111 105 
106 106 107 115 116 116 110 118 112 112  99  94 100  95  96  96 
 93  97  98  98  95  99 106 100 101 107 101 102 102 103 103 122 
130 113 110 104 110 101 105 111 105 111 105 105 112 106 106 106 
106 102 106 112 105 111 111 105 119 119 114 104 100 110 113 103 
109 109 111 108 111 107 107 107 106 106 105 105 104 104 103 103 
102 102 101 100 100  99  98  92  97 104 124 120 127 127 126 125 
124 123 123 121 117 112 107  98  97 112 107 110 101 101  93  78 
 90  97 100  95  94  86  85  84  77  82  87  90  97  92  83  90 
 89  92  91  86  85  80  68  60  65  53  43  51  60  60  66  64 
 43  44  45  46  42  57  95 121  90  53  44  50  57  58  59  54 
 61  65  63  72  68  69  67  69  70  74  75  73  77  78  84  85 
 81  87  92  83  84  85  86  92  88  99 101 102 109 110 115 116 
117 113 114 115 116 124 117 122 126 119 120 103  94 101  96  96 
 97 103  98  98  95  99 100 100 101  97 101 102 102 108 117 123 
109 110 110 104 110 105 111 105 111 111 105 111 106 106 106 106 
106 106 106 112 111 111 111 111 111 111 111 104 110 113 113 112 
112 112 111 111 108 107 107 107 106 106 105 105 104 104 103 103 
102 102 101 100 100  99  98 101  97 104 104  95 102 107 117 117 
116 111 110 103  96  95  94  99 109 108 107  94  89  83  73  78 
 71  70  75  68  73  72  74  91  97  96  99  94  77  63  65  69 
 68  62  61  60  59  49  48  53  65  79  74  81  80  79  77  72 
 43  38  39  59  92 103  84  59  46  53  54  55  51  52  53  60 
 61  62  66  72  68  69  70  71  73  71  72  81  82  83  84  80 
 78  79  83  93  94  90  86  87  85  86  90  91  89  97 104 105 
106 113 101 102 109 104 104 110 112 111 107 103 100 101 102  96 
 97  97  98  98  99  99 100 100 101 101 101 108 111 116 117 109 
109 113 110 110 113 111 111 111 105 111 105 105 106 106 106 106 
106 106 106 112 111 105 111 111 111 111 111 110 113 110 113 109 
109 109 111 111 111 107 107 107 106 106 105 105 104 104 103 103 
102 102 101 100 103  99  98  92  97  99  90  95  88  88  93  95 
 94  90  90  89  96 101 100  99  92  91  83  82  75  74  73  72 
 71  79  69  68  76  93 104  99  94  96  95  78  77  77  91  75 
 68  67  61  57  56  58  57  53  64  53  49  61  72  71  70  68 
 46  69  90  98  76  52  44  54  55  53  54  55  57  58  59  63 
 64  70  66  67  68  69  67  63  70  71  85  81  77  78  79  77 
 78  73  80  83  89  96 104  98 106  99  95  96 101  97  90  91 
 92  87  93  94  95  90  90  87  92  92  89  94  94 101  96 102 
103  97 104  98  99  99 100 100 101 101 110 111 121 116 112 109 
109 110 110 113 110 111 105 105 111 105 105 111 112 106 106 112 
112 106 112 106 105 111 111 105 111 105 111 110 110 110 110 109 
109 109 109 108 108 107 107 107 106 106 105 105 104 104 103 103 
102  96 101 108 100  99  98  98  97  96  99  98 102 101 101 106 
 99  93  97  89  88  87  89  85  84  83  77  76  75  74  79  78 
 80  89  83  82  94  93  92  95  94  92  70  66  77  71  62  64 
 60  59  61  51  56  58  54  53  51  44  43  48  50  54  59  64 
 95  89  59  46  38  49  58  54  55  56  54  58  60  61  62  63 
 64  70  66  67  73  69  67  69  73  83  85  73  74  75  70  77 
 81  73  74  83  81  85  91  92  93  89  87  88 113  89  84  85 
 92  93  87  88  89  90  90  97  92  92  93  90  94  95  96  96 
 97 103  98 104  99 105 100 106 107 101 107 111 111 111 112 109 
109 110 110 110 110 111 111 111 111 111 105 105 112 106 106 106 
106 106 106 112 111 111 105 111 111 111 111 110 110 110 110 109 
109 109 109 102 108 107 107 107 106 106 105 105 104 104 103 103 
102 102 101 103 103  99  98 111 111 110 110 116 115 114 117 106 
105 104  97  89  82  87  86  85  84  83  83  82  94  94  93  99 
 98  90  96  99  87  75  65  78  69  68  67  69  65  66  70  74 
 74  80  79  70  64  63  67  60  54  63  70  73  72  71  70  68 
 56  44  39  49  55  52  50  54  55  56  57  58  60  61  62  63 
 69  70  66  64  68  69  80  89  82  79  72  73  68  75  70  77 
 78  79  80  81  81  82  83  87  85  86  87  91 101  83  90  91 
 92  87  87  88  89  90  86  87  88  92  93  94  94  95  96  96 
 93  97  98 104 105 108 106 106 107 101 107 102 108 108 109 109 
109 110 110 110 113 111 111 105 111 105 111 105 112 106 106 112 
112 106 106 112 111 111 111 105 111 111 111 110 110 104 104 109 
109 109 109 108 108 107 107 107 106 106 105 105 104 104 103 103 
102 102 101 100 114 120 123 127 126 121 120 120 123 118 114 106 
105 103  90  92  91  87  86  79  84  91  95 102 101 101 100  99 
102 101 100  88  76  72  74  78  82  68  75  79  85  92  91  86 
 85  88  87  82  81  76  74  73  80  88  87  82  81  80  78  76 
 46  47  53  49  51  52  53  54  55  56  57  63  60  58  59  60 
 61  65  66  77  79  79  70  81  70  65  66  73  74  69  70  77 
 72  79  74  75  81  82  83  84  79  80  81  82  89  83  84  85 
 86  87  87  88  89  90  90  91  92  88  89  94  94  95  96  96 
 97  97  98  98  99  99 100 100 101 107 110 108 108 108 109 109 
109 110 110 110 113 111 105 111 105 111 111 111 112 106 106 112 
112 112 112 112 111 111 111 105 105 111 111 104 110 110 110 109 
103 103 109 102 102 107 101 107 100 100 105 105 104 104 103 103 
102 102 101 103 108  99 101 111 118 117 117 116 108 106  96  95 
 91  90  84  89  91 101  99  99 105 108 103 106 105 104 104  99 
 91  90  88  74  81  86  79  83  94  89  99  99  98  97  96  95 
 94  93  83  82  70  68  57  56  59  63  63  73  72  67  70  58 
 46  47  48  54  55  52  58  59  60  56  57  58  60  61  62  73 
 82  87  88  78  78  69  67  69  64  65  66  67  68  69  70  71 
 72  73  74  75  76  76  77  78  79  80  77  82  79  83  80  85 
 82  87  87  88  89  90  86  91  92  92  93  90  94  95  96  96 
 97  97  98  98  99  99 100 100 101 107 107 108 108 108 109 109 
112 110 110 110 110 111 111 111 105 111 111 105 106 112 112 112 
112 106 106 114 111 111 111 111 111 105 105 110 104 110 110 103 
109 103 109 102 108 101 107 101 106 106 105 105 104 107 103 103 
102 102 101 100 100  99  98  98  97  96  96  89  94  93  93  92 
 91  90  90  89  91 101 100  98  92  96  95  95  94  88  87  78 
 77  70  75  74  73  72  65  78  72  62  67  78  78  84  83  82 
 74  73  66  60  59  58  62  60  54  44  43  48  41  46  39  34 
 51  57  53  49  55  52  53  54  55  56  62  76  81  82  88  93 
 86  87  77  72  68  60  62  63  70  65  66  67  68  69  70  67 
 68  73  74  75  81  76  77  74  79  76  81  82  83  83  84  85 
 86  83  87  88  85  90  90  87  88  92  89  94  94  91  92  96 
 97  97  98  98  95 105 100  96 101 107 107 102 108 108 109 109 
109 110 110 110 110 105 105 111 111 105 111 111 112 112 112 106 
112 112 112 112 105 111 111 105 111 111 105 110 104 110 110 109 
103 109 109 108 108 101 107 107 106 100 105 105  98  98 103 103 
102  96 101 100 100  99  93  98 100  96  96  95  97 106 107 113 
112 104 110 103 102 100  86  79  84  74  83  82  81  74  73  72 
 71  70  75  74  76  72  71  78  69  81  80  69  59  63  70  69 
 73  73  79  78  81  80  78  73  65  63  57  56  47  46  45  47 
 51  52  58  60  60  62  64  72  73  86  92  93  94  90  80  81 
 74  65  66  64  65  60  62  63  64  65  66  67  68  69  70  71 
 68  73  74  75  76  76  77  78  79  80  81  82  83  83  84  85 
 82  87  83  84  85  86  90  91  88  92  93  90  94  91  96  96 
 97  97  98  98  99  99 100 100 107 101 101 108 108 103 112 109 
109 110 110 110 110 105 111 105 111 105 111 105 112 112 106 112 
112 112 106 112 105 111 111 105 111 111 111 104 110 110 110 103 
109 103 109 108 102 101 107 107 100 100 105 105 104  98 106 103 
102 102 101 100  94  93  98  98  91  99 109 109 115 118 114 113 
112 111 110 109 101  90  86  85  78  78  77  76  71  74  82  81 
 90  90  89  95  98  97  92  84  83  89  87  86  78  77  76  82 
 81  84  83  86  85  83  82  81  76  75  70  73  55  46  66  65 
 46  38  53  84  76  73  82  80  77  86  99  89  85  78  72  73 
 69  65  57  58  59  66  62  63  60  65  66  67  68  69  70  67 
 72  73  74  75  76  76  77  74  75  76  81  82  83  83  84  85 
 86  83  87  88  89  90  90  87  92  88  93  90  90  95  92  96 
 97  97  98  98  99  99 100 100 101 107 101 108 102 108 109 109 
112 110 110 113 104 111 111 111 111 111 105 111 112 106 112 112 
106 112 112 106 111 111 111 105 111 105 111 104 110 104 104 109 
109 103 103 102 108 101 107 107 106 106  99 105  98 104 103 103 
102 102 101 100 100  99  98  98 110 121 120 116 115 114 114 113 
112 115 110  97  88  81  80  88  84  83  83  82  81  88 100 103 
102 105 104  99 106  97  96  84  77  92  80  74  65  84  91  86 
 93  93  96  91  90  88  86  85  76  75  70  51  50  67  66  58 
 37  44  39  46  72  81  71  76  73  82  87  84  77  72  62  63 
 64  62  63  58  59  60  58  59  64  61  62  67  68  65  66  71 
 68  73  70  75  76  76  77  74  79  80  81  82  83  83  84  85 
 82  87  83  88  89  86  90  91  88  92  93  90  94  91  96  96 
 97  93  94  98  99  99 100 100 101 101 101 102 102 108 109 112 
109 110 110 104 110 105 111 105 111 105 111 105 106 106 106 106 
112 106 106 112 111 105 105 111 105 111 111 110 110 110 110 103 
109 103 103 102 102 101 107 107 106 106 105  99 104 104 103 103 
102 102  95 100  94  93 101 112 118 117 117 116 119 118 107 105 
104  93  90  89  82  81  86  85  87  96  96  95 101 108 108 107 
106 105 104  95  87  85  79  78  82  71  61  60  59  71  62  61 
 73  73  87  82  85  80  74  66  59  53  43  56  50  49  48  52 
 43  38  45  40  42  73  79  72  66  78  83  76  69  66  67  63 
 61  56  57  58  59  60  62  59  60  61  62  63  68  65  70  67 
 68  73  74  71  72  72  77  78  79  80  77  78  79  79  84  81 
 86  83  87  84  85  90  86  87  92  88  89  94  94  91  96  92 
 97  93  98  94  95  99 100 100 101 101 101 102 102 103 103 103 
103 104 104 110 104 111 111 105 105 105 105 111 112 106 106 106 
106 106 106 106 105 105 105 105 111 105 105 110 104 110 110 103 
103 103 103 102 102  98 101 101 100 100 105  99 104  98  97 103 
 96  96 101 103 108 112 119 119 111 110 109 103 102 101  93  86 
 85  80  84  83  88  87  86  79  87 104  90  90  94  93  92  91 
 90  84  83  74  73  75  71  70  63  68  80  74  77  76  62  74 
 73  62  58  57  59  49  48  47  45  53  49  61  72  59  65  68 
 43  38  45  46  42  39  63  65  73  78  68  68  64  66  62  60 
 61  56  57  58  59  60  62  59  60  61  62  63  68  65  66  71 
 68  73  74  71  76  72  73  78  79  80  77  82  83  79  84  81 
 82  87  87  88  85  90  86  91  92  88  93  90  90  95  92  96 
 97  93  94  98  95  99 100 100 101 101 101 102  98 103 103 103 
103 104 104 104 104 105 101 105 105 111 105 105 106 106 106 106 
102 106 106 106 105 105 111 105 105 111 111 110 110 110 110 103 
109 103 103 102 102  98 101 101 100 100  99  99  98  98 106  97 
102  96  95 114 121 107 101  98  97  96  96  95  88  84  87  92 
 91  90  92  97 101 100  94  93  92  83  77  90  89  74  69  72 
 71  66  65  82  86  75  74  83  90  89  87  90  89  84  76  74 
 73  80  66  51  56  58  62  65  65  64  70  69  60  60  69  56 
