P2
# Written by pgmio::pgmwrite
 360  240
         255
255 255 255 255 255 255 255 255 255 255 255 255 255 255 255 255 255 255 
255 255 255 255 255 255 255 255 255 255 255 255 255 255 255 255 255 255 
255 255 255 255 255 255 255 255 255 255 255 255 255 255 255 255 255 255 
255 255 255 255 255 255 255 255 255 255 255 255 255 255 255 255 255 255 
255 255 255 255 255 255 255 255 255 255 255 255 255 255 255 255 255 255 
255 255 255 255 255 255 255 255 255 255 255 255 255 255 255 255 255 255 
255 255 255 255 255 255 255 255 255 255 255 255 255 255 255 255 255 255 
255 255 255 255 255 255 255 255 255 255 255 255 255 255 255 255 255 255 
255 255 255 255 255 255 255 255 255 255 255 255 255 255 255 255 255 255 
255 255 255 255 255 255 255 255 255 255 255 255 255 255 255 255 255 255 
255 255 255 255 255 255 255 255 255 255 255 255 255 255 255 255 255 255 
255 255 255 255 255 255 255 255 255 255 255 255 255 255 255 255 255 255 
255 255 255 255 255 255 255 255 255 255 255 255 255 255 255 255 255 255 
255 255 255 255 255 255 255 255 255 255 255 255 255 255 255 255 255 255 
255 255 255 255 255 255 255 255 255 255 255 255 255 255 255 255 255 255 
255 255 255 255 255 255 255 255 255 255 255 255 255 255 255 255 255 255 
255 255 255 255 255 255 255 255 255 255 255 255 255 255 255 255 255 255 
255 255 255 255 255 255 255 255 255 255 255 255 255 255 255 255 255 255 
255 255 255 255 255 255 255 255 255 255 255 255 255 255 255 255 255 255 
255 255 255 255 255 255 255 255 255 255 255 255 255 255 255 255 255 255 
255 255 255 255 255 255 255 255 255 255 255 255 255 255 255 255 255 255 
255 255 255 255 255 255 255 255 255 255 255 255 255 255 255 255 255 255 
255 255 255 255 255 255 255 255 255 255 255 255 255 255 255 255 255 255 
255 255 255 255 255 255 255 255 255 255 255 255 255 255 255 255 255 255 
255 255 255 255 255 255 255 255 255 255 255 255 255 255 255 255 255 255 
255 255 255 255 255 255 255 255 255 255 255 255 255 255 255 255 255 255 
255 255 255 255 255 255 255 255 255 255 255 255 255 255 255 255 255 255 
255 255 255 255 255 255 255 255 255 255 255 255 255 255 255 255 255 255 
255 255 255 255 255 255 255 255 255 255 255 255 255 255 255 255 255 255 
255 255 255 255 255 255 255 255 255 255 255 255 255 255 255 255 255 255 
255 255 255 255 255 255 255 255 255 255 255 255 255 255 255 255 255 255 
255 255 255 255 255 255 255 255 255 255 255 255 255 255 255 255 255 255 
255 255 255 255 255 255 255 255 255 255 255 255 255 255 255 255 255 255 
255 255 255 255 255 255 255 255 255 255 255 255 255 255 255 255 255 255 
255 255 255 255 255 255 255 255 255 255 255 255 255 255 255 255 255 255 
255 255 255 255 255 255 255 255 255 255 255 255 255 255 255 255 255 255 
255 255 255 255 255 255 255 255 255 255 255 255 255 255 255 255 255 255 
255 255 255 255 255 255 255 255 255 255 255 255 255 255 255 255 255 255 
255 255 255 255 255 255 255 255 255 255 255 255 255 255 255 255 255 255 
255 255 255 255 255 255 255 255 255 255 255 255 255 255 255 255 255 255 
255 255 255 255 255 255 255 255 255 255 255 255 255 255 255 255 255 255 
255 255 255 255 255 255 255 255 255 255 255 255 255 255 255 255 255 255 
255 255 255 255 255 255 255 255 255 255 255 255 255 255 255 255 255 255 
255 255 255 255 255 255 255 255 255 255 255 255 255 255 255 255 255 255 
255 255 255 255 255 255 255 255 255 255 255 255 255 255 255 255 255 255 
255 255 255 255 255 255 255 255 255 255 255 255 255 255 255 255 255 255 
255 255 255 255 255 255 255 255 255 255 255 255 255 255 255 255 255 255 
255 255 255 255 255 255 255 255 255 255 255 255 255 255 255 255 255 255 
255 255 255 255 255 255 255 255 255 255 255 255 255 255 255 255 255 255 
255 255 255 255 255 255 255 255 255 255 255 255 255 255 255 255 255 255 
255 255 255 255 255 255 255 255 255 255 255 255 255 255 255 255 255 255 
255 255 255 255 255 255 255 255 255 255 255 255 255 255 255 255 255 255 
255 255 255 255 255 255 255 255 255 255 255 255 255 255 255 255 255 255 
255 255 255 255 255 255 255 255 255 255 255 255 255 255 255 255 255 255 
255 255 255 255 255 255 255 255 255 255 255 255 255 255 255 255 255 255 
255 255 255 255 255 255 255 255 255 255 255 255 255 255 255 255 255 255 
255 255 255 255 255 255 255 255 255 255 255 255 255 255 255 255 255 255 
255 255 255 255 255 255 255 255 255 255 255 255 255 255 255 255 255 255 
255 255 255 255 255 255 255 255 255 255 255 255 255 255 255 255 255 255 
255 255 255 255 255 255 255 255 255 255 255 255 255 255 255 255 255 255 
255 255 255 255 255 255 255 255 255 255 255 255 255 255 255 255 255 255 
255 255 255 255 255 255 255 255 255 255 255 255 255 255 255 255 255 255 
255 255 255 255 255 255 255 255 255 255 255 255 255 255 255 255 255 255 
255 255 255 255 255 255 255 255 255 255 255 255 255 255 255 255 255 255 
255 255 255 255 255 255 255 255 255 255 255 255 255 255 255 255 255 255 
255 255 255 255 255 255 255 255 255 255 255 255 255 255 255 255 255 255 
255 255 255 255 255 255 255 255 255 255 255 255 255 255 255 255 255 255 
255 255 255 255 255 255 255 255 255 255 255 255 255 255 255 255 255 255 
255 255 255 255 255 255 255 255 255 255 255 255 255 255 255 255 255 255 
255 255 255 255 255 255 255 255 255 255 255 255 255 255 255 255 255 255 
255 255 255 255 255 255 255 255 255 255 255 255 255 255 255 255 255 255 
255 255 255 255 255 255 255 255 255 255 255 255 255 255 255 255 255 255 
255 255 255 255 255 255 255 255 255 255 255 255 255 255 255 255 255 255 
255 255 255 255 255 255 255 255 255 255 255 255 255 255 255 255 255 255 
255 255 255 255 255 255 255 255 255 255 255 255 255 255 255 255 255 255 
255 255 255 255 255 255 255 255 255 255 255 255 255 255 255 255 255 255 
255 255 255 255 255 255 255 255 255 255 255 255 255 255 255 255 255 255 
255 255 255 255 255 255 255 255 255 255 255 255 255 255 255 255 255 255 
255 255 255 255 255 255 255 255 255 255 255 255 255 255 255 255 255 255 
255 255 255 255 255 255 255 255 255 255 255 255 255 255 255 255 255 255 
255 255 255 255 255 255 255 255 255 255 255 255 255 255 255 255 255 255 
255 255 255 255 255 255 255 255 255 255 255 255 255 255 255 255 255 255 
255 255 255 255 255 255 255 255 255 255 255 255 255 255 255 255 255 255 
255 255 255 255 255 255 255 255 255 255 255 255 255 255 255 255 255 255 
255 255 255 255 255 255 255 255 255 255 255 255 255 255 255 255 255 255 
255 255 255 255 255 255 255 255 255 255 255 255 255 255 255 255 255 255 
255 255 255 255 255 255 255 255 255 255 255 255 255 255 255 255 255 255 
255 255 255 255 255 255 255 255 255 255 255 255 255 255 255 255 255 255 
255 255 255 255 255 255 255 255 255 255 255 255 255 255 255 255 255 255 
255 255 255 255 255 255 255 255 255 255 255 255 255 255 255 255 255 255 
255 255 255 255 255 255 255 255 255 255 255 255 255 255 255 255 255 255 
255 255 255 255 255 255 255 255 255 255 255 255 255 255 255 255 255 255 
255 255 255 255 255 255 255 255 255 255 255 255 255 255 255 255 255 255 
255 255 255 255 255 255 255 255 255 255 255 255 255 255 255 255 255 255 
255 255 255 255 255 255 255 255 255 255 255 255 255 255 255 255 255 255 
255 255 255 255 255 255 255 255 255 255 255 255 255 255 255 255 255 255 
255 255 255 255 255 255 255 255 255 255 255 255 255 255 255 255 255 255 
255 255 255 255 255 255 255 255 255 255 255 255 255 255 255 255 255 255 
255 255 255 255 255 255 255 255 255 255 255 255 255 255 255 255 255 255 
255 255 255 255 255 255 255 255 255 255 255 255 255 255 255 255 255 255 
255 255 255 255 255 255 255 255 255 255 255 255 255 255 255 255 255 255 
255 255 255 255 255 255 255 255 255 255 255 255 255 255 255 255 255 255 
255 255 255 255 255 255 255 255 255 255 255 255 255 255 255 255 255 255 
255 255 255 255 255 255 255 255 255 255 255 255 255 255 255 255 255 255 
255 255 255 255 255 255 255 255 255 255 255 255 255 255 255 255 255 255 
255 255 255 255 255 255 255 255 255 255 255 255 255 255 255 255 255 255 
255 255 255 255 255 255 255 255 255 255 255 255 255 255 255 255 255 255 
255 255 255 255 255 255 255 255 255 255 255 255 255 255 255 255 255 255 
255 255 255 255 255 255 255 255 255 255 255 255 255 255 255 255 255 255 
255 255 255 255 255 255 255 255 255 255 255 255 255 255 255 255 255 255 
255 255 255 255 255 255 255 255 255 255 255 255 255 255 255 255 255 255 
255 255 255 255 255 255 255 255 255 255 255 255 255 255 255 255 255 255 
255 255 255 255 255 255 255 255 255 255 255 255 255 255 255 255 255 255 
255 255 255 255 255 255 255 255 255 255 255 255 255 255 255 255 255 255 
255 255 255 255 255 255 255 255 255 255 255 255 255 255 255 255 255 255 
255 255 255 255 255 255 255 255 255 255 255 255 255 255 255 255 255 255 
255 255 255 255 255 255 255 255 255 255 255 255 255 255 255 255 255 255 
255 255 255 255 255 255 255 255 255 255 255 255 255 255 255 255 255 255 
255 255 255 255 255 255 255 255 255 255 255 255 255 255 255 255 255 255 
255 255 255 255 255 255 255 255 255 255 255 255 255 255 255 255 255 255 
255 255 255 255 255 255 255 255 255 255 255 255 255 255 255 255 255 255 
255 255 255 255 255 255 255 255 255 255 255 255 255 255 255 255 255 255 
255 255 255 255 255 255 255 255 255 255 255 255 255 255 255 255 255 255 
255 255 255 255 255 255 255 255 255 255 255 255 255 255 255 255 255 255 
255 255 255 255 255 255 255 255 255 255 255 255 255 255 255 255 255 255 
255 255 255 255 255 255 255 255 255 255 255 255 255 255 255 255 255 255 
255 255 255 255 255 255 255 255 255 255 255 255 255 255 255 255 255 255 
255 255 255 255 255 255 255 255 255 255 255 255 255 255 255 255 255 255 
255 255 255 255 255 255 255 255 255 255 255 255 255 255 255 255 255 255 
255 255 255 255 255 255 255 255 255 255 255 255 255 255 255 255 255 255 
255 255 255 255 255 255 255 255 255 255 255 255 255 255 255 255 255 255 
255 255 255 255 255 255 255 255 255 255 255 255 255 255 255 255 255 255 
255 255 255 255 255 255 255 255 255 255 255 255 255 255 255 255 255 255 
255 255 255 255 255 255 255 255 255 255 255 255 255 255 255 255 255 255 
255 255 255 255 255 255 255 255 255 255 255 255 255 255 255 255 255 255 
255 255 255 255 255 255 255 255 255 255 255 255 255 255 255 255 255 255 
255 255 255 255 255 255 255 255 255 255 255 255 255 255 255 255 255 255 
255 255 255 255 255 255 255 255 255 255 255 255 255 255 255 255 255 255 
255 255 255 255 255 255 255 255 255 255 255 255 255 255 255 255 255 255 
255 255 255 255 255 255 255 255 255 255 255 255 255 255 255 255 255 255 
255 255 255 255 255 255 255 255 255 255 255 255 255 255 255 255 255 255 
255 255 255 255 255 255 255 255 255 255 255 255 255 255 255 255 255 255 
255 255 255 255 255 255 255 255 255 255 255 255 255 255 255 255 255 255 
255 255 255 255 255 255 255 255 255 255 255 255 255 255 255 255 255 255 
255 255 255 255 255 255 255 255 255 255 255 255 255 255 255 255 255 255 
255 255 255 255 255 255 255 255 255 255 255 255 255 255 255 255 255 255 
255 255 255 255 255 255 255 255 255 255 255 255 255 255 255 255 255 255 
255 255 255 255 255 255 255 255 255 255 255 255 255 255 255 255 255 255 
255 255 255 255 255 255 255 255 255 255 255 255 255 255 255 255 255 255 
255 255 255 255 255 255 255 255 255 255 255 255 255 255 255 255 255 255 
255 255 255 255 255 255 255 255 255 255 255 255 255 255 255 255 255 255 
255 255 255 255 255 255 255 255 255 255 255 255 255 255 255 255 255 255 
255 255 255 255 255 255 255 255 255 255 255 255 255 255 255 255 255 255 
255 255 255 255 255 255 255 255 255 255 255 255 255 255 255 255 255 255 
255 255 255 255 255 255 255 255 255 255 255 255 255 255 255 255 255 255 
255 255 255 255 255 255 255 255 255 255 255 255 255 255 255 255 255 255 
255 255 255 255 255 255 255 255 255 255 255 255 255 255 255 255 255 255 
255 255 255 255 255 255 255 255 255 255 255 255 255 255 255 255 255 255 
255 255 255 255 255 255 255 255 255 255 255 255 255 255 255 255 255 255 
255 255 255 255 255 255 255 255 255 255 255 255 255 255 255 255 255 255 
255 255 255 255 255 255 255 255 255 255 255 255 255 255 255 255 255 255 
255 255 255 255 255 255 255 255 255 255 255 255 255 255 255 255 255 255 
255 255 255 255 255 255 255 255 255 255 255 255 255 255 255 255 255 255 
255 255 255 255 255 255 255 255 255 255 255 255 255 255 255 255 255 255 
255 255 255 255 255 255 255 255 255 255 255 255 255 255 255 255 255 255 
255 255 255 255 255 255 255 255 255 255 255 255 255 255 255 255 255 255 
255 255 255 255 255 255 255 255 255 255 255 255 255 255 255 255 255 255 
255 255 255 255 255 255 255 255 255 255 255 255 255 255 255 255 255 255 
255 255 255 255 255 255 255 255 255 255 255 255 255 255 255 255 255 255 
255 255 255 255 255 255 255 255 255 255 255 255 255 255 255 255 255 255 
255 255 255 255 255 255 255 255 255 255 255 255 255 255 255 255 255 255 
255 255 255 255 255 255 255 255 255 255 255 255 255 255 255 255 255 255 
255 255 255 255 255 255 255 255 255 255 255 255 255 255 255 255 255 255 
255 255 255 255 255 255 255 255 255 255 255 255 255 255 255 255 255 255 
255 255 255 255 255 255 255 255 255 255 255 255 255 255 255 255 255 255 
255 255 255 255 255 255 255 255 255 255 255 255 255 255 255 255 255 255 
255 255 255 255 255 255 255 255 255 255 255 255 255 255 255 255 255 255 
255 255 255 255 255 255 255 255 255 255 255 255 255 255 255 255 255 255 
255 255 255 255 255 255 255 255 255 255 255 255 255 255 255 255 255 255 
255 255 255 255 255 255 255 255 255 255 255 255 255 255 255 255 255 255 
255 255 255 255 255 255 255 255 255 255 255 255 255 255 255 255 255 255 
255 255 255 255 255 255 255 255 255 255 255 255 255 255 255 255 255 255 
255 255 255 255 255 255 255 255 255 255 255 255 255 255 255 255 255 255 
255 255 255 255 255 255 255 255 255 255 255 255 255 255 255 255 255 255 
255 255 255 255 255 255 255 255 255 255 255 255 255 255 255 255 255 255 
255 255 255 255 255 255 255 255 255 255 255 255 255 255 255 255 255 255 
255 255 255 255 255 255 255 255 255 255 255 255 255 255 255 255 255 255 
255 255 255 255 255 255 255 255 255 255 255 255 255 255 255 255 255 255 
255 255 255 255 255 255 255 255 255 255 255 255 255 255 255 255 255 255 
255 255 255 255 255 255 255 255 255 255 255 255 255 255 255 255 255 255 
255 255 255 255 255 255 255 255 255 255 255 255 255 255 255 255 255 255 
255 255 255 255 255 255 255 255 255 255 255 255 255 255 255 255 255 255 
255 255 255 255 255 255 255 255 255 255 255 255 255 255 255 255 255 255 
255 255 255 255 255 255 255 255 255 255 255 255 255 255 255 255 255 255 
255 255 255 255 255 255 255 255 255 255 255 255 255 255 255 255 255 255 
255 255 255 255 255 255 255 255 255 255 255 255 255 255 255 255 255 255 
255 255 255 255 255 255 255 255 255 255 255 255 255 255 255 255 255 255 
255 255 255 255 255 255 255 255 255 255 255 255 255 255 255 255 255 255 
255 255 255 255 255 255 255 255 255 255 255 255 255 255 255 255 255 255 
255 255 255 255 255 255 255 255 255 255 255 255 255 255 255 255 255 255 
255 255 255 255 255 255 255 255 255 255 255 255 255 255 255 255 255 255 
255 255 255 255 255 255 255 255 255 255 255 255 255 255 255 255 255 255 
255 255 255 255 255 255 255 255 255 255 255 255 255 255 255 255 255 255 
255 255 255 255 255 255 255 255 255 255 255 255 255 255 255 255 255 255 
255 255 255 255 255 255 255 255 255 255 255 255 255 255 255 255 255 255 
255 255 255 255 255 255 255 255 255 255 255 255 255 255 255 255 255 255 
255 255 255 255 255 255 255 255 255 255 255 255 255 255 255 255 255 255 
255 255 255 255 255 255 255 255 255 255 255 255 255 255 255 255 255 255 
255 255 255 255 255 255 255 255 255 255 255 255 255 255 255 255 255 255 
255 255 255 255 255 255 255 255 255 255 255 255 255 255 255 255 255 255 
255 255 255 255 255 255 255 255 255 255 255 255 255 255 255 255 255 255 
255 255 255 255 255 255 255 255 255 255 255 255 255 255 255 255 255 255 
255 255 255 255 255 255 255 255 255 255 255 255 255 255 255 255 255 255 
255 255 255 255 255 255 255 255 255 255 255 255 255 255 255 255 255 255 
255 255 255 255 255 255 255 255 255 255 255 255 255 255 255 255 255 255 
255 255 255 255 255 255 255 255 255 255 255 255 255 255 255 255 255 255 
255 255 255 255 255 255 255 255 255 255 255 255 255 255 255 255 255 255 
255 255 255 255 255 255 255 255 255 255 255 255 255 255 255 255 255 255 
255 255 255 255 255 255 255 255 255 255 255 255 255 255 255 255 255 255 
255 255 255 255 255 255 255 255 255 255 255 255 255 255 255 255 255 255 
255 255 255 255 255 255 255 255 255 255 255 255 255 255 255 255 255 255 
255 255 255 255 255 255 255 255 255 255 255 255 255 255 255 255 255 255 
255 255 255 255 255 255 255 255 255 255 255 255 255 255 255 255 255 255 
255 255 255 255 255 255 255 255 255 255 255 255 255 255 255 255 255 255 
255 255 255 255 255 255 255 255 255 255 255 255 255 255 255 255 255 255 
255 255 255 255 255 255 255 255 255 255 255 255 255 255 255 255 255 255 
255 255 255 255 255 255 255 255 255 255 255 255 255 255 255 255 255 255 
255 255 255 255 255 255 255 255 255 255 255 255 255 255 255 255 255 255 
255 255 255 255 255 255 255 255 255 255 255 255 255 255 255 255 255 255 
255 255 255 255 255 255 255 255 255 255 255 255 255 255 255 255 255 255 
255 255 255 255 255 255 255 255 255 255 255 255 255 255 255 255 255 255 
255 255 255 255 255 255 255 255 255 255 255 255 255 255 255 255 255 255 
255 255 255 255 255 255 255 255 255 255 255 255 255 255 255 255 255 255 
255 255 255 255 255 255 255 255 255 255 255 255 255 255 255 255 255 255 
255 255 255 255 255 255 255 255 255 255 255 255 255 255 255 255 255 255 
255 255 255 255 255 255 255 255 255 255 255 255 255 255 255 255 255 255 
255 255 255 255 255 255 255 255 255 255 255 255 255 255 255 255 255 255 
255 255 255 255 255 255 255 255 255 255 255 255 255 255 255 255 255 255 
255 255 255 255 255 255 255 255 255 255 255 255 255 255 255 255 255 255 
255 255 255 255 255 255 255 255 255 255 255 255 255 255 255 255 255 255 
255 255 255 255 255 255 255 255 255 255 255 255 255 255 255 255 255 255 
255 255 255 255 255 255 255 255 255 255 255 255 255 255 255 255 255 255 
255 255 255 255 255 255 255 255 255 255 255 255 255 255 255 255 255 255 
255 255 255 255 255 255 255 255 255 255 255 255 255 255 255 255 255 255 
255 255 255 255 255 255 255 255 255 255 255 255 255 255 255 255 255 255 
255 255 255 255 255 255 255 255 255 255 255 255 255 255 255 255 255 255 
255 255 255 255 255 255 255 255 255 255 255 255 255 255 255 255 255 255 
255 255 255 255 255 255 255 255 255 255 255 255 255 255 255 255 255 255 
255 255 255 255 255 255 255 255 255 255 255 255 255 255 255 255 255 255 
255 255 255 255 255 255 255 255 255 255 255 255 255 255 255 255 255 255 
255 255 255 255 255 255 255 255 255 255 255 255 255 255 255 255 255 255 
255 255 255 255 255 255 255 255 255 255 255 255 255 255 255 255 255 255 
255 255 255 255 255 255 255 255 255 255 255 255 255 255 255 255 255 255 
255 255 255 255 255 255 255 255 255 255 255 255 255 255 255 255 255 255 
255 255 255 255 255 255 255 255 255 255 255 255 255 255 255 255 255 255 
255 255 255 255 255 255 255 255 255 255 255 255 255 255 255 255 255 255 
255 255 255 255 255 255 255 255 255 255 255 255 255 255 255 255 255 255 
255 255 255 255 255 255 255 255 255 255 255 255 255 255 255 255 255 255 
255 255 255 255 255 255 255 255 255 255 255 255 255 255 255 255 255 255 
255 255 255 255 255 255 255 255 255 255 255 255 255 255 255 255 255 255 
255 255 255 255 255 255 255 255 255 255 255 255 255 255 255 255 255 255 
255 255 255 255 255 255 255 255 255 255 255 255 255 255 255 255 255 255 
255 255 255 255 255 255 255 255 255 255 255 255 255 255 255 255 255 255 
255 255 255 255 255 255 255 255 255 255 255 255 255 255 255 255 255 255 
255 255 255 255 255 255 255 255 255 255 255 255 255 255 255 255 255 255 
255 255 255 255 255 255 255 255 255 255 255 255 255 255 255 255 255 255 
255 255 255 255 255 255 255 255 255 255 255 255 255 255 255 255 255 255 
255 255 255 255 255 255 255 255 255 255 255 255 255 255 255 255 255 255 
255 255 255 255 255 255 255 255 255 255 255 255 255 255 255 255 255 255 
255 255 255 255 255 255 255 255 255 255 255 255 255 255 255 255 255 255 
255 255 255 255 255 255 255 255 255 255 255 255 255 255 255 255 255 255 
255 255 255 255 255 255 255 255 255 255 255 255 255 255 255 255 255 255 
255 255 255 255 255 255 255 255 255 255 255 255 255 255 255 255 255 255 
255 255 255 255 255 255 255 255 255 255 255 255 255 255 255 255 255 255 
255 255 255 255 255 255 255 255 255 255 255 255 255 255 255 255 255 255 
255 255 255 255 255 255 255 255 255 255 255 255 255 255 255 255 255 255 
255 255 255 255 255 255 255 255 255 255 255 255 255 255 255 255 255 255 
255 255 255 255 255 255 255 255 255 255 255 255 255 255 255 255 255 255 
255 255 255 255 255 255 255 255 255 255 255 255 255 255 255 255 255 255 
255 255 255 255 255 255 255 255 255 255 255 255 255 255 255 255 255 255 
255 255 255 255 255 255 255 255 255 255 255 255 255 255 255 255 255 255 
255 255 255 255 255 255 255 255 255 255 255 255 255 255 255 255 255 255 
255 255 255 255 255 255 255 255 255 255 255 255 255 255 255 255 255 255 
255 255 255 255 255 255 255 255 255 255 255 255 255 255 255 255 255 255 
255 255 255 255 255 255 255 255 255 255 255 255 255 255 255 255 255 255 
255 255 255 255 255 255 255 255 255 255 255 255 255 255 255 255 255 255 
255 255 255 255 255 255 255 255 255 255 255 255 255 255 255 255 255 255 
255 255 255 255 255 255 255 255 255 255 255 255 255 255 255 255 255 255 
255 255 255 255 255 255 255 255 255 255 255 255 255 255 255 255 255 255 
255 255 255 255 255 255 255 255 255 255 255 255 255 255 255 255 255 255 
255 255 255 255 255 255 255 255 255 255 255 255 255 255 255 255 255 255 
255 255 255 255 255 255 255 255 255 255 255 255 255 255 255 255 255 255 
255 255 255 255 255 255 255 255 255 255 255 255 255 255 255 255 255 255 
255 255 255 255 255 255 255 255 255 255 255 255 255 255 255 255 255 255 
255 255 255 255 255 255 255 255 255 255 255 255 255 255 255 255 255 255 
255 255 255 255 255 255 255 255 255 255 255 255 255 255 255 255 255 255 
255 255 255 255 255 255 255 255 255 255 255 255 255 255 255 255 255 255 
255 255 255 255 255 255 255 255 255 255 255 255 255 255 255 255 255 255 
255 255 255 255 255 255 255 255 255 255 255 255 255 255 255 255 255 255 
255 255 255 255 255 255 255 255 255 255 255 255 255 255 255 255 255 255 
255 255 255 255 255 255 255 255 255 255 255 255 255 255 255 255 255 255 
255 255 255 255 255 255 255 255 255 255 255 255 255 255 255 255 255 255 
255 255 255 255 255 255 255 255 255 255 255 255 255 255 255 255 255 255 
255 255 255 255 255 255 255 255 255 255 255 255 255 255 255 255 255 255 
255 255 255 255 255 255 255 255 255 255 255 255 255 255 255 255 255 255 
255 255 255 255 255 255 255 255 255 255 255 255 255 255 255 255 255 255 
255 255 255 255 255 255 255 255 255 255 255 255 255 255 255 255 255 255 
255 255 255 255 255 255 255 255 255 255 255 255 255 255 255 255 255 255 
255 255 255 255 255 255 255 255 255 255 255 255 255 255 255 255 255 255 
255 255 255 255 255 255 255 255 255 255 255 255 255 255 255 255 255 255 
255 255 255 255 255 255 255 255 255 255 255 255 255 255 255 255 255 255 
255 255 255 255 255 255 255 255 255 255 255 255 255 255 255 255 255 255 
255 255 255 255 255 255 255 255 255 255 255 255 255 255 255 255 255 255 
255 255 255 255 255 255 255 255 255 255 255 255 255 255 255 255 255 255 
255 255 255 255 255 255 255 255 255 255 255 255 255 255 255 255 255 255 
255 255 255 255 255 255 255 255 255 255 255 255 255 255 255 255 255 255 
255 255 255 255 255 255 255 255 255 255 255 255 255 255 255 255 255 255 
255 255 255 255 255 255 255 255 255 255 255 255 255 255 255 255 255 255 
255 255 255 255 255 255 255 255 255 255 255 255 255 255 255 255 255 255 
255 255 255 255 255 255 255 255 255 255 255 255 255 255 255 255 255 255 
255 255 255 255 255 255 255 255 255 255 255 255 255 255 255 255 255 255 
255 255 255 255 255 255 255 255 255 255 255 255 255 255 255 255 255 255 
255 255 255 255 255 255 255 255 255 255 255 255 255 255 255 255 255 255 
255 255 255 255 255 255 255 255 255 255 255 255 255 255 255 255 255 255 
255 255 255 255 255 255 255 255 255 255 255 255 255 255 255 255 255 255 
255 255 255 255 255 255 255 255 255 255 255 255 255 255 255 255 255 255 
255 255 255 255 255 255 255 255 255 255 255 255 255 255 255 255 255 255 
255 255 255 255 255 255 255 255 255 255 255 255 255 255 255 255 255 255 
255 255 255 255 255 255 255 255 255 255 255 255 255 255 255 255 255 255 
255 255 255 255 255 255 255 255 255 255 255 255 255 255 255 255 255 255 
255 255 255 255 255 255 255 255 255 255 255 255 255 255 255 255 255 255 
255 255 255 255 255 255 255 255 255 255 255 255 255 255 255 255 255 255 
255 255 255 255 255 255 255 255 255 255 255 255 255 255 255 255 255 255 
255 255 255 255 255 255 255 255 255 255 255 255 255 255 255 255 255 255 
255 255 255 255 255 255 255 255 255 255 255 255 255 255 255 255 255 255 
255 255 255 255 255 255 255 255 255 255 255 255 255 255 255 255 255 255 
255 255 255 255 255 255 255 255 255 255 255 255 255 255 255 255 255 255 
255 255 255 255 255 255 255 255 255 255 255 255 255 255 255 255 255 255 
255 255 255 255 255 255 255 255 255 255 255 255 255 255 255 255 255 255 
255 255 255 255 255 255 255 255 255 255 255 255 255 255 255 255 255 255 
255 255 255 255 255 255 255 255 255 255 255 255 255 255 255 255 255 255 
255 255 255 255 255 255 255 255 255 255 255 255 255 255 255 255 255 255 
255 255 255 255 255 255 255 255 255 255 255 255 255 255 255 255 255 255 
255 255 255 255 255 255 255 255 255 255 255 255 255 255 255 255 255 255 
255 255 255 255 255 255 255 255 255 255 255 255 255 255 255 255 255 255 
255 255 255 255 255 255 255 255 255 255 255 255 255 255 255 255 255 255 
255 255 255 255 255 255 255 255 255 255 255 255 255 255 255 255 255 255 
255 255 255 255 255 255 255 255 255 255 255 255 255 255 255 255 255 255 
255 255 255 255 255 255 255 255 255 255 255 255 255 255 255 255 255 255 
255 255 255 255 255 255 255 255 255 255 255 255 255 255 255 255 255 255 
255 255 255 255 255 255 255 255 255 255 255 255 255 255 255 255 255 255 
255 255 255 255 255 255 255 255 255 255 255 255 255 255 255 255 255 255 
255 255 255 255 255 255 255 255 255 255 255 255 255 255 255 255 255 255 
255 255 255 255 255 255 255 255 255 255 255 255 255 255 255 255 255 255 
255 255 255 255 255 255 255 255 255 255 255 255 255 255 255 255 255 255 
255 255 255 255 255 255 255 255 255 255 255 255 255 255 255 255 255 255 
255 255 255 255 255 255 255 255 255 255 255 255 255 255 255 255 255 255 
255 255 255 255 255 255 255 255 255 255 255 255 255 255 255 255 255 255 
255 255 255 255 255 255 255 255 255 255 255 255 255 255 255 255 255 255 
255 255 255 255 255 255 255 255 255 255 255 255 255 255 255 255 255 255 
255 255 255 255 255 255 255 255 255 255 255 255 255 255 255 255 255 255 
255 255 255 255 255 255 255 255 255 255 255 255 255 255 255 255 255 255 
255 255 255 255 255 255 255 255 255 255 255 255 255 255 255 255 255 255 
255 255 255 255 255 255 255 255 255 255 255 255 255 255 255 255 255 255 
255 255 255 255 255 255 255 255 255 255 255 255 255 255 255 255 255 255 
255 255 255 255 255 255 255 255 255 255 255 255 255 255 255 255 255 255 
255 255 255 255 255 255 255 255 255 255 255 255 255 255 255 255 255 255 
255 255 255 255 255 255 255 255 255 255 255 255 255 255 255 255 255 255 
255 255 255 255 255 255 255 255 255 255 255 255 255 255 255 255 255 255 
255 255 255 255 255 255 255 255 255 255 255 255 255 255 255 255 255 255 
255 255 255 255 255 255 255 255 255 255 255 255 255 255 255 255 255 255 
255 255 255 255 255 255 255 255 255 255 255 255 255 255 255 255 255 255 
255 255 255 255 255 255 255 255 255 255 255 255 255 255 255 255 255 255 
255 255 255 255 255 255 255 255 255 255 255 255 255 255 255 255 255 255 
255 255 255 255 255 255 255 255 255 255 255 255 255 255 255 255 255 255 
255 255 255 255 255 255 255 255 255 255 255 255 255 255 255 255 255 255 
255 255 255 255 255 255 255 255 255 255 255 255 255 255 255 255 255 255 
255 255 255 255 255 255 255 255 255 255 255 255 255 255 255 255 255 255 
255 255 255 255 255 255 255 255 255 255 255 255 255 255 255 255 255 255 
255 255 255 255 255 255 255 255 255 255 255 255 255 255 255 255 255 255 
255 255 255 255 255 255 255 255 255 255 255 255 255 255 255 255 255 255 
255 255 255 255 255 255 255 255 255 255 255 255 255 255 255 255 255 255 
255 255 255 255 255 255 255 255 255 255 255 255 255 255 255 255 255 255 
255 255 255 255 255 255 255 255 255 255 255 255 255 255 255 255 255 255 
255 255 255 255 255 255 255 255 255 255 255 255 255 255 255 255 255 255 
255 255 255 255 255 255 255 255 255 255 255 255 255 255 255 255 255 255 
255 255 255 255 255 255 255 255 255 255 255 255 255 255 255 255 255 255 
255 255 255 255 255 255 255 255 255 255 255 255 255 255 255 255 255 255 
255 255 255 255 255 255 255 255 255 255 255 255 255 255 255 255 255 255 
255 255 255 255 255 255 255 255 255 255 255 255 255 255 255 255 255 255 
255 255 255 255 255 255 255 255 255 255 255 255 255 255 255 255 255 255 
255 255 255 255 255 255 255 255 255 255 255 255 255 255 255 255 255 255 
255 255 255 255 255 255 255 255 255 255 255 255 255 255 255 255 255 255 
255 255 255 255 255 255 255 255 255 255 255 255 255 255 255 255 255 255 
255 255 255 255 255 255 255 255 255 255 255 255 255 255 255 255 255 255 
255 255 255 255 255 255 255 255 255 255 255 255 255 255 255 255 255 255 
255 255 255 255 255 255 255 255 255 255 255 255 255 255 255 255 255 255 
255 255 255 255 255 255 255 255 255 255 255 255 255 255 255 255 255 255 
255 255 255 255 255 255 255 255 255 255 255 255 255 255 255 255 255 255 
255 255 255 255 255 255 255 255 255 255 255 255 255 255 255 255 255 255 
255 255 255 255 255 255 255 255 255 255 255 255 255 255 255 255 255 255 
255 255 255 255 255 255 255 255 255 255 255 255 255 255 255 255 255 255 
255 255 255 255 255 255 255 255 255 255 255 255 255 255 255 255 255 255 
255 255 255 255 255 255 255 255 255 255 255 255 255 255 255 255 255 255 
255 255 255 255 255 255 255 255 255 255 255 255 255 255 255 255 255 255 
255 255 255 255 255 255 255 255 255 255 255 255 255 255 255 255 255 255 
255 255 255 255 255 255 255 255 255 255 255 255 255 255 255 255 255 255 
255 255 255 255 255 255 255 255 255 255 255 255 255 255 255 255 255 255 
255 255 255 255 255 255 255 255 255 255 255 255 255 255 255 255 255 255 
255 255 255 255 255 255 255 255 255 255 255 255 255 255 255 255 255 255 
255 255 255 255 255 255 255 255 255 255 255 255 255 255 255 255 255 255 
255 255 255 255 255 255 255 255 255 255 255 255 255 255 255 255 255 255 
255 255 255 255 255 255 255 255 255 255 255 255 255 255 255 255 255 255 
255 255 255 255 255 255 255 255 255 255 255 255 255 255 255 255 255 255 
255 255 255 255 255 255 255 255 255 255 255 255 255 255 255 255 255 255 
255 255 255 255 255 255 255 255 255 255 255 255 255 255 255 255 255 255 
255 255 255 255 255 255 255 255 255 255 255 255 255 255 255 255 255 255 
255 255 255 255 255 255 255 255 255 255 255 255 255 255 255 255 255 255 
255 255 255 255 255 255 255 255 255 255 255 255 255 255 255 255 255 255 
255 255 255 255 255 255 255 255 255 255 255 255 255 255 255 255 255 255 
255 255 255 255 255 255 255 255 255 255 255 255 255 255 255 255 255 255 
255 255 255 255 255 255 255 255 255 255 255 255 255 255 255 255 255 255 
255 255 255 255 255 255 255 255 255 255 255 255 255 255 255 255 255 255 
255 255 255 255 255 255 255 255 255 255 255 255 255 255 255 255 255 255 
255 255 255 255 255 255 255 255 255 255 255 255 255 255 255 255 255 255 
255 255 255 255 255 255 255 255 255 255 255 255 255 255 255 255 255 255 
255 255 255 255 255 255 255 255 255 255 255 255 255 255 255 255 255 255 
255 255 255 255 255 255 255 255 255 255 255 255 255 255 255 255 255 255 
255 255 255 255 255 255 255 255 255 255 255 255 255 255 255 255 255 255 
255 255 255 255 255 255 255 255 255 255 255 255 255 255 255 255 255 255 
255 255 255 255 255 255 255 255 255 255 255 255 255 255 255 255 255 255 
255 255 255 255 255 255 255 255 255 255 255 255 255 255 255 255 255 255 
255 255 255 255 255 255 255 255 255 255 255 255 255 255 255 255 255 255 
255 255 255 255 255 255 255 255 255 255 255 255 255 255 255 255 255 255 
255 255 255 255 255 255 255 255 255 255 255 255 255 255 255 255 255 255 
255 255 255 255 255 255 255 255 255 255 255 255 255 255 255 255 255 255 
255 255 255 255 255 255 255 255 255 255 255 255 255 255 255 255 255 255 
255 255 255 255 255 255 255 255 255 255 255 255 255 255 255 255 255 255 
255 255 255 255 255 255 255 255 255 255 255 255 255 255 255 255 255 255 
255 255 255 255 255 255 255 255 255 255 255 255 255 255 255 255 255 255 
255 255 255 255 255 255 255 255 255 255 255 255 255 255 255 255 255 255 
255 255 255 255 255 255 255 255 255 255 255 255 255 255 255 255 255 255 
255 255 255 255 255 255 255 255 255 255 255 255 255 255 255 255 255 255 
255 255 255 255 255 255 255 255 255 255 255 255 255 255 255 255 255 255 
255 255 255 255 255 255 255 255 255 255 255 255 255 255 255 255 255 255 
255 255 255 255 255 255 255 255 255 255 255 255 255 255 255 255 255 255 
255 255 255 255 255 255 255 255 255 255 255 255 255 255 255 255 255 255 
255 255 255 255 255 255 255 255 255 255 255 255 255 255 255 255 255 255 
255 255 255 255 255 255 255 255 255 255 255 255 255 255 255 255 255 255 
255 255 255 255 255 255 255 255 255 255 255 255 255 255 255 255 255 255 
255 255 255 255 255 255 255 255 255 255 255 255 255 255 255 255 255 255 
255 255 255 255 255 255 255 255 255 255 255 255 255 255 255 255 255 255 
255 255 255 255 255 255 255 255 255 255 255 255 255 255 255 255 255 255 
255 255 255 255 255 255 255 255 255 255 255 255 255 255 255 255 255 255 
255 255 255 255 255 255 255 255 255 255 255 255 255 255 255 255 255 255 
255 255 255 255 255 255 255 255 255 255 255 255 255 255 255 255 255 255 
255 255 255 255 255 255 255 255 255 255 255 255 255 255 255 255 255 255 
255 255 255 255 255 255 255 255 255 255 255 255 255 255 255 255 255 255 
255 255 255 255 255 255 255 255 255 255 255 255 255 255 255 255 255 255 
255 255 255 255 255 255 255 255 255 255 255 255 255 255 255 255 255 255 
255 255 255 255 255 255 255 255 255 255 255 255 255 255 255 255 255 255 
255 255 255 255 255 255 255 255 255 255 255 255 255 255 255 255 255 255 
255 255 255 255 255 255 255 255 255 255 255 255 255 255 255 255 255 255 
255 255 255 255 255 255 255 255 255 255 255 255 255 255 255 255 255 255 
255 255 255 255 255 255 255 255 255 255 255 255 255 255 255 255 255 255 
255 255 255 255 255 255 255 255 255 255 255 255 255 255 255 255 255 255 
255 255 255 255 255 255 255 255 255 255 255 255 255 255 255 255 255 255 
255 255 255 255 255 255 255 255 255 255 255 255 255 255 255 255 255 255 
255 255 255 255 255 255 255 255 255 255 255 255 255 255 255 255 255 255 
255 255 255 255 255 255 255 255 255 255 255 255 255 255 255 255 255 255 
255 255 255 255 255 255 255 255 255 255 255 255 255 255 255 255 255 255 
255 255 255 255 255 255 255 255 255 255 255 255 255 255 255 255 255 255 
255 255 255 255 255 255 255 255 255 255 255 255 255 255 255 255 255 255 
255 255 255 255 255 255 255 255 255 255 255 255 255 255 255 255 255 255 
255 255 255 255 255 255 255 255 255 255 255 255 255 255 255 255 255 255 
255 255 255 255 255 255 255 255 255 255 255 255 255 255 255 255 255 255 
255 255 255 255 255 255 255 255 255 255 255 255 255 255 255 255 255 255 
255 255 255 255 255 255 255 255 255 255 255 255 255 255 255 255 255 255 
255 255 255 255 255 255 255 255 255 255 255 255 255 255 255 255 255 255 
255 255 255 255 255 255 255 255 255 255 255 255 255 255 255 255 255 255 
255 255 255 255 255 255 255 255 255 255 255 255 255 255 255 255 255 255 
255 255 255 255 255 255 255 255 255 255 255 255 255 255 255 255 255 255 
255 255 255 255 255 255 255 255 255 255 255 255 255 255 255 255 255 255 
255 255 255 255 255 255 255 255 255 255 255 255 255 255 255 255 255 255 
255 255 255 255 255 255 255 255 255 255 255 255 255 255 255 255 255 255 
255 255 255 255 255 255 255 255 255 255 255 255 255 255 255 255 255 255 
255 255 255 255 255 255 255 255 255 255 255 255 255 255 255 255 255 255 
255 255 255 255 255 255 255 255 255 255 255 255 255 255 255 255 255 255 
255 255 255 255 255 255 255 255 255 255 255 255 255 255 255 255 255 255 
255 255 255 255 255 255 255 255 255 255 255 255 255 255 255 255 255 255 
255 255 255 255 255 255 255 255 255 255 255 255 255 255 255 255 255 255 
255 255 255 255 255 255 255 255 255 255 255 255 255 255 255 255 255 255 
255 255 255 255 255 255 255 255 255 255 255 255 255 255 255 255 255 255 
255 255 255 255 255 255 255 255 255 255 255 255 255 255 255 255 255 255 
255 255 255 255 255 255 255 255 255 255 255 255 255 255 255 255 255 255 
255 255 255 255 255 255 255 255 255 255 255 255 255 255 255 255 255 255 
255 255 255 255 255 255 255 255 255 255 255 255 255 255 255 255 255 255 
255 255 255 255 255 255 255 255 255 255 255 255 255 255 255 255 255 255 
255 255 255 255 255 255 255 255 255 255 255 255 255 255 255 255 255 255 
255 255 255 255 255 255 255 255 255 255 255 255 255 255 255 255 255 255 
255 255 255 255 255 255 255 255 255 255 255 255 255 255 255 255 255 255 
255 255 255 255 255 255 255 255 255 255 255 255 255 255 255 255 255 255 
255 255 255 255 255 255 255 255 255 255 255 255 255 255 255 255 255 255 
255 255 255 255 255 255 255 255 255 255 255 255 255 255 255 255 255 255 
255 255 255 255 255 255 255 255 255 255 255 255 255 255 255 255 255 255 
255 255 255 255 255 255 255 255 255 255 255 255 255 255 255 255 255 255 
255 255 255 255 255 255 255 255 255 255 255 255 255 255 255 255 255 255 
255 255 255 255 255 255 255 255 255 255 255 255 255 255 255 255 255 255 
255 255 255 255 255 255 255 255 255 255 255 255 255 255 255 255 255 255 
255 255 255 255 255 255 255 255 255 255 255 255 255 255 255 255 255 255 
255 255 255 255 255 255 255 255 255 255 255 255 255 255 255 255 255 255 
255 255 255 255 255 255 255 255 255 255 255 255 255 255 255 255 255 255 
255 255 255 255 255 255 255 255 255 255 255 255 255 255 255 255 255 255 
255 255 255 255 255 255 255 255 255 255 255 255 255 255 255 255 255 255 
255 255 255 255 255 255 255 255 255 255 255 255 255 255 255 255 255 255 
255 255 255 255 255 255 255 255 255 255 255 255 255 255 255 255 255 255 
255 255 255 255 255 255 255 255 255 255 255 255 255 255 255 255 255 255 
255 255 255 255 255 255 255 255 255 255 255 255 255 255 255 255 255 255 
255 255 255 255 255 255 255 255 255 255 255 255 255 255 255 255 255 255 
255 255 255 255 255 255 255 255 255 255 255 255 255 255 255 255 255 255 
255 255 255 255 255 255 255 255 255 255 255 255 255 255 255 255 255 255 
255 255 255 255 255 255 255 255 255 255 255 255 255 255 255 255 255 255 
255 255 255 255 255 255 255 255 255 255 255 255 255 255 255 255 255 255 
255 255 255 255 255 255 255 255 255 255 255 255 255 255 255 255 255 255 
255 255 255 255 255 255 255 255 255 255 255 255 255 255 255 255 255 255 
255 255 255 255 255 255 255 255 255 255 255 255 255 255 255 255 255 255 
255 255 255 255 255 255 255 255 255 255 255 255 255 255 255 255 255 255 
255 255 255 255 255 255 255 255 255 255 255 255 255 255 255 255 255 255 
255 255 255 255 255 255 255 255 255 255 255 255 255 255 255 255 255 255 
255 255 255 255 255 255 255 255 255 255 255 255 255 255 255 255 255 255 
255 255 255 255 255 255 255 255 255 255 255 255 255 255 255 255 255 255 
255 255 255 255 255 255 255 255 255 255 255 255 255 255 255 255 255 255 
255 255 255 255 255 255 255 255 255 255 255 255 255 255 255 255 255 255 
255 255 255 255 255 255 255 255 255 255 255 255 255 255 255 255 255 255 
255 255 255 255 255 255 255 255 255 255 255 255 255 255 255 255 255 255 
255 255 255 255 255 255 255 255 255 255 255 255 255 255 255 255 255 255 
255 255 255 255 255 255 255 255 255 255 255 255 255 255 255 255 255 255 
255 255 255 255 255 255 255 255 255 255 255 255 255 255 255 255 255 255 
255 255 255 255 255 255 255 255 255 255 255 255 255 255 255 255 255 255 
255 255 255 255 255 255 255 255 255 255 255 255 255 255 255 255 255 255 
255 255 255 255 255 255 255 255 255 255 255 255 255 255 255 255 255 255 
255 255 255 255 255 255 255 255 255 255 255 255 255 255 255 255 255 255 
255 255 255 255 255 255 255 255 255 255 255 255 255 255 255 255 255 255 
255 255 255 255 255 255 255 255 255 255 255 255 255 255 255 255 255 255 
255 255 255 255 255 255 255 255 255 255 255 255 255 255 255 255 255 255 
255 255 255 255 255 255 255 255 255 255 255 255 255 255 255 255 255 255 
255 255 255 255 255 255 255 255 255 255 255 255 255 255 255 255 255 255 
255 255 255 255 255 255 255 255 255 255 255 255 255 255 255 255 255 255 
255 255 255 255 255 255 255 255 255 255 255 255 255 255 255 255 255 255 
255 255 255 255 255 255 255 255 255 255 255 255 255 255 255 255 255 255 
255 255 255 255 255 255 255 255 255 255 255 255 255 255 255 255 255 255 
255 255 255 255 255 255 255 255 255 255 255 255 255 255 255 255 255 255 
255 255 255 255 255 255 255 255 255 255 255 255 255 255 255 255 255 255 
255 255 255 255 255 255 255 255 255 255 255 255 255 255 255 255 255 255 
255 255 255 255 255 255 255 255 255 255 255 255 255 255 255 255 255 255 
255 255 255 255 255 255 255 255 255 255 255 255 255 255 255 255 255 255 
255 255 255 255 255 255 255 255 255 255 255 255 255 255 255 255 255 255 
255 255 255 255 255 255 255 255 255 255 255 255 255 255 255 255 255 255 
255 255 255 255 255 255 255 255 255 255 255 255 255 255 255 255 255 255 
255 255 255 255 255 255 255 255 255 255 255 255 255 255 255 255 255 255 
255 255 255 255 255 255 255 255 255 255 255 255 255 255 255 255 255 255 
255 255 255 255 255 255 255 255 255 255 255 255 255 255 255 255 255 255 
255 255 255 255 255 255 255 255 255 255 255 255 255 255 255 255 255 255 
255 255 255 255 255 255 255 255 255 255 255 255 255 255 255 255 255 255 
255 255 255 255 255 255 255 255 255 255 255 255 255 255 255 255 255 255 
255 255 255 255 255 255 255 255 255 255 255 255 255 255 255 255 255 255 
255 255 255 255 255 255 255 255 255 255 255 255 255 255 255 255 255 255 
255 255 255 255 255 255 255 255 255 255 255 255 255 255 255 255 255 255 
255 255 255 255 255 255 255 255 255 255 255 255 255 255 255 255 255 255 
255 255 255 255 255 255 255 255 255 255 255 255 255 255 255 255 255 255 
255 255 255 255 255 255 255 255 255 255 255 255 255 255 255 255 255 255 
255 255 255 255 255 255 255 255 255 255 255 255 255 255 255 255 255 255 
255 255 255 255 255 255 255 255 255 255 255 255 255 255 255 255 255 255 
255 255 255 255 255 255 255 255 255 255 255 255 255 255 255 255 255 255 
255 255 255 255 255 255 255 255 255 255 255 255 255 255 255 255 255 255 
255 255 255 255 255 255 255 255 255 255 255 255 255 255 255 255 255 255 
255 255 255 255 255 255 255 255 255 255 255 255 255 255 255 255 255 255 
255 255 255 255 255 255 255 255 255 255 255 255 255 255 255 255 255 255 
255 255 255 255 255 255 255 255 255 255 255 255 255 255 255 255 255 255 
255 255 255 255 255 255 255 255 255 255 255 255 255 255 255 255 255 255 
255 255 255 255 255 255 255 255 255 255 255 255 255 255 255 255 255 255 
255 255 255 255 255 255 255 255 255 255 255 255 255 255 255 255 255 255 
255 255 255 255 255 255 255 255 255 255 255 255 255 255 255 255 255 255 
255 255 255 255 255 255 255 255 255 255 255 255 255 255 255 255 255 255 
255 255 255 255 255 255 255 255 255 255 255 255 255 255 255 255 255 255 
255 255 255 255 255 255 255 255 255 255 255 255 255 255 255 255 255 255 
255 255 255 255 255 255 255 255 255 255 255 255 255 255 255 255 255 255 
255 255 255 255 255 255 255 255 255 255 255 255 255 255 255 255 255 255 
255 255 255 255 255 255 255 255 255 255 255 255 255 255 255 255 255 255 
255 255 255 255 255 255 255 255 255 255 255 255 255 255 255 255 255 255 
255 255 255 255 255 255 255 255 255 255 255 255 255 255 255 255 255 255 
255 255 255 255 255 255 255 255 255 255 255 255 255 255 255 255 255 255 
255 255 255 255 255 255 255 255 255 255 255 255 255 255 255 255 255 255 
255 255 255 255 255 255 255 255 255 255 255 255 255 255 255 255 255 255 
255 255 255 255 255 255 255 255 255 255 255 255 255 255 255 255 255 255 
255 255 255 255 255 255 255 255 255 255 255 255 255 255 255 255 255 255 
255 255 255 255 255 255 255 255 255 255 255 255 255 255 255 255 255 255 
255 255 255 255 255 255 255 255 255 255 255 255 255 255 255 255 255 255 
255 255 255 255 255 255 255 255 255 255 255 255 255 255 255 255 255 255 
255 255 255 255 255 255 255 255 255 255 255 255 255 255 255 255 255 255 
219 219 219 219 219 219 219 219 219 219 219 219 219 219 219 219 219 219 
219 219 219 219 219 219 219 219 219 219 219 219 219 219 219 219 219 219 
219 219 219 219 219 219 219 219 219 219 219 219 219 219 219 219 219 219 
219 219 219 219 219 219 219 219 219 219 219 219 219 219 219 219 219 219 
219 219 219 219 219 219 219 219 219 219 219 219 219 219 219 219 219 219 
219 219 219 219 219 219 219 219 219 219 219 219 219 219 219 219 219 219 
219 219 219 219 219 219 219 219 219 219 219 219 219 219 219 219 219 219 
219 219 219 219 219 219 219 219 219 219 219 219 219 219 219 219 219 219 
219 219 219 219 219 219 219 219 219 219 219 219 219 219 219 219 219 219 
219 219 219 219 219 219 219 219 219 219 219 219 219 219 219 219 219 219 
219 219 219 219 219 219 219 219 219 219 219 219 219 219 219 219 219 219 
219 219 219 219 219 219 219 219 219 219 219 219 219 219 219 219 219 219 
219 219 219 219 219 219 219 219 219 219 219 219 219 219 219 219 219 219 
219 219 219 219 219 219 219 219 219 219 219 219 219 219 219 219 219 219 
219 219 219 219 219 219 219 219 219 219 219 219 219 219 219 219 219 219 
219 219 219 219 219 219 219 219 219 219 219 219 219 219 219 219 219 219 
219 219 219 219 219 219 219 219 219 219 219 219 219 219 219 219 219 219 
219 219 219 219 219 219 219 219 219 219 219 219 219 219 219 219 219 219 
219 219 219 219 219 219 219 219 219 219 219 219 219 219 219 219 219 219 
219 219 219 219 219 219 219 219 219 219 219 219 219 219 219 219 219 219 
219 219 219 219 219 219 219 219 219 219 219 219 219 219 219 219 219 219 
219 219 219 219 219 219 219 219 219 219 219 219 219 219 219 219 219 219 
219 219 219 219 219 219 219 219 219 219 219 219 219 219 219 219 219 219 
219 219 219 219 219 219 219 219 219 219 219 219 219 219 219 219 219 219 
219 219 219 219 219 219 219 219 219 219 219 219 219 219 219 219 219 219 
219 219 219 219 219 219 219 219 219 219 219 219 219 219 219 219 219 219 
219 219 219 219 219 219 219 219 219 219 219 219 219 219 219 219 219 219 
219 219 219 219 219 219 219 219 219 219 219 219 219 219 219 219 219 219 
219 219 219 219 219 219 219 219 219 219 219 219 219 219 219 219 219 219 
219 219 219 219 219 219 219 219 219 219 219 219 219 219 219 219 219 219 
219 219 219 219 219 219 219 219 219 219 219 219 219 219 219 219 219 219 
219 219 219 219 219 219 219 219 219 219 219 219 219 219 219 219 219 219 
219 219 219 219 219 219 219 219 219 219 219 219 219 219 219 219 219 219 
219 219 219 219 219 219 219 219 219 219 219 219 219 219 219 219 219 219 
219 219 219 219 219 219 219 219 219 219 219 219 219 219 219 219 219 219 
219 219 219 219 219 219 219 219 219 219 219 219 219 219 219 219 219 219 
219 219 219 219 219 219 219 219 219 219 219 219 219 219 219 219 219 219 
219 219 219 219 219 219 219 219 219 219 219 219 219 219 219 219 219 219 
219 219 219 219 219 219 219 219 219 219 219 219 219 219 219 219 219 219 
219 219 219 219 219 219 219 219 219 219 219 219 219 219 219 219 219 219 
219 219 219 219 219 219 219 219 219 219 219 219 219 219 219 219 219 219 
219 219 219 219 219 219 219 219 219 219 219 219 219 219 219 219 219 219 
219 219 219 219 219 219 219 219 219 219 219 219 219 219 219 219 219 219 
219 219 219 219 219 219 219 219 219 219 219 219 219 219 219 219 219 219 
219 219 219 219 219 219 219 219 219 219 219 219 219 219 219 219 219 219 
219 219 219 219 219 219 219 219 219 219 219 219 219 219 219 219 219 219 
219 219 219 219 219 219 219 219 219 219 219 219 219 219 219 219 219 219 
219 219 219 219 219 219 219 219 219 219 219 219 219 219 219 219 219 219 
219 219 219 219 219 219 219 219 219 219 219 219 219 219 219 219 219 219 
219 219 219 219 219 219 219 219 219 219 219 219 219 219 219 219 219 219 
219 219 219 219 219 219 219 219 219 219 219 219 219 219 219 219 219 219 
219 219 219 219 219 219 219 219 219 219 219 219 219 219 219 219 219 219 
219 219 219 219 219 219 219 219 219 219 219 219 219 219 219 219 219 219 
219 219 219 219 219 219 219 219 219 219 219 219 219 219 219 219 219 219 
219 219 219 219 219 219 219 219 219 219 219 219 219 219 219 219 219 219 
219 219 219 219 219 219 219 219 219 219 219 219 219 219 219 219 219 219 
219 219 219 219 219 219 219 219 219 219 219 219 219 219 219 219 219 219 
219 219 219 219 219 219 219 219 219 219 219 219 219 219 219 219 219 219 
219 219 219 219 219 219 219 219 219 219 219 219 219 219 219 219 219 219 
219 219 219 219 219 219 219 219 219 219 219 219 219 219 219 219 219 219 
219 219 219 219 219 219 219 219 219 219 219 219 219 219 219 219 219 219 
219 219 219 219 219 219 219 219 219 219 219 219 219 219 219 219 219 219 
219 219 219 219 219 219 219 219 219 219 219 219 219 219 219 219 219 219 
219 219 219 219 219 219 219 219 219 219 219 219 219 219 219 219 219 219 
219 219 219 219 219 219 219 219 219 219 219 219 219 219 219 219 219 219 
219 219 219 219 219 219 219 219 219 219 219 219 219 219 219 219 219 219 
219 219 219 219 219 219 219 219 219 219 219 219 219 219 219 219 219 219 
219 219 219 219 219 219 219 219 219 219 219 219 219 219 219 219 219 219 
219 219 219 219 219 219 219 219 219 219 219 219 219 219 219 219 219 219 
219 219 219 219 219 219 219 219 219 219 219 219 219 219 219 219 219 219 
219 219 219 219 219 219 219 219 219 219 219 219 219 219 219 219 219 219 
219 219 219 219 219 219 219 219 219 219 219 219 219 219 219 219 219 219 
219 219 219 219 219 219 219 219 219 219 219 219 219 219 219 219 219 219 
219 219 219 219 219 219 219 219 219 219 219 219 219 219 219 219 219 219 
219 219 219 219 219 219 219 219 219 219 219 219 219 219 219 219 219 219 
219 219 219 219 219 219 219 219 219 219 219 219 219 219 219 219 219 219 
219 219 219 219 219 219 219 219 219 219 219 219 219 219 219 219 219 219 
219 219 219 219 219 219 219 219 219 219 219 219 219 219 219 219 219 219 
219 219 219 219 219 219 219 219 219 219 219 219 219 219 219 219 219 219 
219 219 219 219 219 219 219 219 219 219 219 219 219 219 219 219 219 219 
219 219 219 219 219 219 219 219 219 219 219 219 219 219 219 219 219 219 
219 219 219 219 219 219 219 219 219 219 219 219 219 219 219 219 219 219 
219 219 219 219 219 219 219 219 219 219 219 219 219 219 219 219 219 219 
219 219 219 219 219 219 219 219 219 219 219 219 219 219 219 219 219 219 
219 219 219 219 219 219 219 219 219 219 219 219 219 219 219 219 219 219 
219 219 219 219 219 219 219 219 219 219 219 219 219 219 219 219 219 219 
219 219 219 219 219 219 219 219 219 219 219 219 219 219 219 219 219 219 
219 219 219 219 219 219 219 219 219 219 219 219 219 219 219 219 219 219 
219 219 219 219 219 219 219 219 219 219 219 219 219 219 219 219 219 219 
219 219 219 219 219 219 219 219 219 219 219 219 219 219 219 219 219 219 
219 219 219 219 219 219 219 219 219 219 219 219 219 219 219 219 219 219 
219 219 219 219 219 219 219 219 219 219 219 219 219 219 219 219 219 219 
219 219 219 219 219 219 219 219 219 219 219 219 219 219 219 219 219 219 
219 219 219 219 219 219 219 219 219 219 219 219 219 219 219 219 219 219 
219 219 219 219 219 219 219 219 219 219 219 219 219 219 219 219 219 219 
219 219 219 219 219 219 219 219 219 219 219 219 219 219 219 219 219 219 
219 219 219 219 219 219 219 219 219 219 219 219 219 219 219 219 219 219 
219 219 219 219 219 219 219 219 219 219 219 219 219 219 219 219 219 219 
219 219 219 219 219 219 219 219 219 219 219 219 219 219 219 219 219 219 
219 219 219 219 219 219 219 219 219 219 219 219 219 219 219 219 219 219 
219 219 219 219 219 219 219 219 219 219 219 219 219 219 219 219 219 219 
219 219 219 219 219 219 219 219 219 219 219 219 219 219 219 219 219 219 
219 219 219 219 219 219 219 219 219 219 219 219 219 219 219 219 219 219 
219 219 219 219 219 219 219 219 219 219 219 219 219 219 219 219 219 219 
219 219 219 219 219 219 219 219 219 219 219 219 219 219 219 219 219 219 
219 219 219 219 219 219 219 219 219 219 219 219 219 219 219 219 219 219 
219 219 219 219 219 219 219 219 219 219 219 219 219 219 219 219 219 219 
219 219 219 219 219 219 219 219 219 219 219 219 219 219 219 219 219 219 
219 219 219 219 219 219 219 219 219 219 219 219 219 219 219 219 219 219 
219 219 219 219 219 219 219 219 219 219 219 219 219 219 219 219 219 219 
219 219 219 219 219 219 219 219 219 219 219 219 219 219 219 219 219 219 
219 219 219 219 219 219 219 219 219 219 219 219 219 219 219 219 219 219 
219 219 219 219 219 219 219 219 219 219 219 219 219 219 219 219 219 219 
219 219 219 219 219 219 219 219 219 219 219 219 219 219 219 219 219 219 
219 219 219 219 219 219 219 219 219 219 219 219 219 219 219 219 219 219 
219 219 219 219 219 219 219 219 219 219 219 219 219 219 219 219 219 219 
219 219 219 219 219 219 219 219 219 219 219 219 219 219 219 219 219 219 
219 219 219 219 219 219 219 219 219 219 219 219 219 219 219 219 219 219 
219 219 219 219 219 219 219 219 219 219 219 219 219 219 219 219 219 219 
219 219 219 219 219 219 219 219 219 219 219 219 219 219 219 219 219 219 
219 219 219 219 219 219 219 219 219 219 219 219 219 219 219 219 219 219 
219 219 219 219 219 219 219 219 219 219 219 219 219 219 219 219 219 219 
219 219 219 219 219 219 219 219 219 219 219 219 219 219 219 219 219 219 
219 219 219 219 219 219 219 219 219 219 219 219 219 219 219 219 219 219 
219 219 219 219 219 219 219 219 219 219 219 219 219 219 219 219 219 219 
219 219 219 219 219 219 219 219 219 219 219 219 219 219 219 219 219 219 
219 219 219 219 219 219 219 219 219 219 219 219 219 219 219 219 219 219 
219 219 219 219 219 219 219 219 219 219 219 219 219 219 219 219 219 219 
219 219 219 219 219 219 219 219 219 219 219 219 219 219 219 219 219 219 
219 219 219 219 219 219 219 219 219 219 219 219 219 219 219 219 219 219 
219 219 219 219 219 219 219 219 219 219 219 219 219 219 219 219 219 219 
219 219 219 219 219 219 219 219 219 219 219 219 219 219 219 219 219 219 
219 219 219 219 219 219 219 219 219 219 219 219 219 219 219 219 219 219 
219 219 219 219 219 219 219 219 219 219 219 219 219 219 219 219 219 219 
219 219 219 219 219 219 219 219 219 219 219 219 219 219 219 219 219 219 
219 219 219 219 219 219 219 219 219 219 219 219 219 219 219 219 219 219 
219 219 219 219 219 219 219 219 219 219 219 219 219 219 219 219 219 219 
219 219 219 219 219 219 219 219 219 219 219 219 219 219 219 219 219 219 
219 219 219 219 219 219 219 219 219 219 219 219 219 219 219 219 219 219 
219 219 219 219 219 219 219 219 219 219 219 219 219 219 219 219 219 219 
219 219 219 219 219 219 219 219 219 219 219 219 219 219 219 219 219 219 
219 219 219 219 219 219 219 219 219 219 219 219 219 219 219 219 219 219 
219 219 219 219 219 219 219 219 219 219 219 219 219 219 219 219 219 219 
219 219 219 219 219 219 219 219 219 219 219 219 219 219 219 219 219 219 
219 219 219 219 219 219 219 219 219 219 219 219 219 219 219 219 219 219 
219 219 219 219 219 219 219 219 219 219 219 219 219 219 219 219 219 219 
219 219 219 219 219 219 219 219 219 219 219 219 219 219 219 219 219 219 
219 219 219 219 219 219 219 219 219 219 219 219 219 219 219 219 219 219 
219 219 219 219 219 219 219 219 219 219 219 219 219 219 219 219 219 219 
219 219 219 219 219 219 219 219 219 219 219 219 219 219 219 219 219 219 
219 219 219 219 219 219 219 219 219 219 219 219 219 219 219 219 219 219 
219 219 219 219 219 219 219 219 219 219 219 219 219 219 219 219 219 219 
219 219 219 219 219 219 219 219 219 219 219 219 219 219 219 219 219 219 
219 219 219 219 219 219 219 219 219 219 219 219 219 219 219 219 219 219 
219 219 219 219 219 219 219 219 219 219 219 219 219 219 219 219 219 219 
219 219 219 219 219 219 219 219 219 219 219 219 219 219 219 219 219 219 
219 219 219 219 219 219 219 219 219 219 219 219 219 219 219 219 219 219 
219 219 219 219 219 219 219 219 219 219 219 219 219 219 219 219 219 219 
219 219 219 219 219 219 219 219 219 219 219 219 219 219 219 219 219 219 
219 219 219 219 219 219 219 219 219 219 219 219 219 219 219 219 219 219 
219 219 219 219 219 219 219 219 219 219 219 219 219 219 219 219 219 219 
219 219 219 219 219 219 219 219 219 219 219 219 219 219 219 219 219 219 
219 219 219 219 219 219 219 219 219 219 219 219 219 219 219 219 219 219 
219 219 219 219 219 219 219 219 219 219 219 219 219 219 219 219 219 219 
219 219 219 219 219 219 219 219 219 219 219 219 219 219 219 219 219 219 
219 219 219 219 219 219 219 219 219 219 219 219 219 219 219 219 219 219 
219 219 219 219 219 219 219 219 219 219 219 219 219 219 219 219 219 219 
219 219 219 219 219 219 219 219 219 219 219 219 219 219 219 219 219 219 
219 219 219 219 219 219 219 219 219 219 219 219 219 219 219 219 219 219 
219 219 219 219 219 219 219 219 219 219 219 219 219 219 219 219 219 219 
219 219 219 219 219 219 219 219 219 219 219 219 219 219 219 219 219 219 
219 219 219 219 219 219 219 219 219 219 219 219 219 219 219 219 219 219 
219 219 219 219 219 219 219 219 219 219 219 219 219 219 219 219 219 219 
219 219 219 219 219 219 219 219 219 219 219 219 219 219 219 219 219 219 
219 219 219 219 219 219 219 219 219 219 219 219 219 219 219 219 219 219 
219 219 219 219 219 219 219 219 219 219 219 219 219 219 219 219 219 219 
219 219 219 219 219 219 219 219 219 219 219 219 219 219 219 219 219 219 
219 219 219 219 219 219 219 219 219 219 219 219 219 219 219 219 219 219 
219 219 219 219 219 219 219 219 219 219 219 219 219 219 219 219 219 219 
219 219 219 219 219 219 219 219 219 219 219 219 219 219 219 219 219 219 
219 219 219 219 219 219 219 219 219 219 219 219 219 219 219 219 219 219 
219 219 219 219 219 219 219 219 219 219 219 219 219 219 219 219 219 219 
219 219 219 219 219 219 219 219 219 219 219 219 219 219 219 219 219 219 
219 219 219 219 219 219 219 219 219 219 219 219 219 219 219 219 219 219 
219 219 219 219 219 219 219 219 219 219 219 219 219 219 219 219 219 219 
219 219 219 219 219 219 219 219 219 219 219 219 219 219 219 219 219 219 
219 219 219 219 219 219 219 219 219 219 219 219 219 219 219 219 219 219 
219 219 219 219 219 219 219 219 219 219 219 219 219 219 219 219 219 219 
219 219 219 219 219 219 219 219 219 219 219 219 219 219 219 219 219 219 
219 219 219 219 219 219 219 219 219 219 219 219 219 219 219 219 219 219 
219 219 219 219 219 219 219 219 219 219 219 219 219 219 219 219 219 219 
219 219 219 219 219 219 219 219 219 219 219 219 219 219 219 219 219 219 
219 219 219 219 219 219 219 219 219 219 219 219 219 219 219 219 219 219 
219 219 219 219 219 219 219 219 219 219 219 219 219 219 219 219 219 219 
219 219 219 219 219 219 219 219 219 219 219 219 219 219 219 219 219 219 
219 219 219 219 219 219 219 219 219 219 219 219 219 219 219 219 219 219 
219 219 219 219 219 219 219 219 219 219 219 219 219 219 219 219 219 219 
219 219 219 219 219 219 219 219 219 219 219 219 219 219 219 219 219 219 
219 219 219 219 219 219 219 219 219 219 219 219 219 219 219 219 219 219 
219 219 219 219 219 219 219 219 219 219 219 219 219 219 219 219 219 219 
219 219 219 219 219 219 219 219 219 219 219 219 219 219 219 219 219 219 
219 219 219 219 219 219 219 219 219 219 219 219 219 219 219 219 219 219 
219 219 219 219 219 219 219 219 219 219 219 219 219 219 219 219 219 219 
219 219 219 219 219 219 219 219 219 219 219 219 219 219 219 219 219 219 
219 219 219 219 219 219 219 219 219 219 219 219 219 219 219 219 219 219 
219 219 219 219 219 219 219 219 219 219 219 219 219 219 219 219 219 219 
219 219 219 219 219 219 219 219 219 219 219 219 219 219 219 219 219 219 
219 219 219 219 219 219 219 219 219 219 219 219 219 219 219 219 219 219 
219 219 219 219 219 219 219 219 219 219 219 219 219 219 219 219 219 219 
219 219 219 219 219 219 219 219 219 219 219 219 219 219 219 219 219 219 
219 219 219 219 219 219 219 219 219 219 219 219 219 219 219 219 219 219 
219 219 219 219 219 219 219 219 219 219 219 219 219 219 219 219 219 219 
219 219 219 219 219 219 219 219 219 219 219 219 219 219 219 219 219 219 
219 219 219 219 219 219 219 219 219 219 219 219 219 219 219 219 219 219 
219 219 219 219 219 219 219 219 219 219 219 219 219 219 219 219 219 219 
219 219 219 219 219 219 219 219 219 219 219 219 219 219 219 219 219 219 
219 219 219 219 219 219 219 219 219 219 219 219 219 219 219 219 219 219 
219 219 219 219 219 219 219 219 219 219 219 219 219 219 219 219 219 219 
219 219 219 219 219 219 219 219 219 219 219 219 219 219 219 219 219 219 
219 219 219 219 219 219 219 219 219 219 219 219 219 219 219 219 219 219 
219 219 219 219 219 219 219 219 219 219 219 219 219 219 219 219 219 219 
219 219 219 219 219 219 219 219 219 219 219 219 219 219 219 219 219 219 
219 219 219 219 219 219 219 219 219 219 219 219 219 219 219 219 219 219 
219 219 219 219 219 219 219 219 219 219 219 219 219 219 219 219 219 219 
219 219 219 219 219 219 219 219 219 219 219 219 219 219 219 219 219 219 
219 219 219 219 219 219 219 219 219 219 219 219 219 219 219 219 219 219 
219 219 219 219 219 219 219 219 219 219 219 219 219 219 219 219 219 219 
219 219 219 219 219 219 219 219 219 219 219 219 219 219 219 219 219 219 
219 219 219 219 219 219 219 219 219 219 219 219 219 219 219 219 219 219 
219 219 219 219 219 219 219 219 219 219 219 219 219 219 219 219 219 219 
219 219 219 219 219 219 219 219 219 219 219 219 219 219 219 219 219 219 
219 219 219 219 219 219 219 219 219 219 219 219 219 219 219 219 219 219 
219 219 219 219 219 219 219 219 219 219 219 219 219 219 219 219 219 219 
219 219 219 219 219 219 219 219 219 219 219 219 219 219 219 219 219 219 
219 219 219 219 219 219 219 219 219 219 219 219 219 219 219 219 219 219 
219 219 219 219 219 219 219 219 219 219 219 219 219 219 219 219 219 219 
219 219 219 219 219 219 219 219 219 219 219 219 219 219 219 219 219 219 
219 219 219 219 219 219 219 219 219 219 219 219 219 219 219 219 219 219 
219 219 219 219 219 219 219 219 219 219 219 219 219 219 219 219 219 219 
219 219 219 219 219 219 219 219 219 219 219 219 219 219 219 219 219 219 
219 219 219 219 219 219 219 219 219 219 219 219 219 219 219 219 219 219 
219 219 219 219 219 219 219 219 219 219 219 219 219 219 219 219 219 219 
219 219 219 219 219 219 219 219 219 219 219 219 219 219 219 219 219 219 
219 219 219 219 219 219 219 219 219 219 219 219 219 219 219 219 219 219 
219 219 219 219 219 219 219 219 219 219 219 219 219 219 219 219 219 219 
219 219 219 219 219 219 219 219 219 219 219 219 219 219 219 219 219 219 
219 219 219 219 219 219 219 219 219 219 219 219 219 219 219 219 219 219 
219 219 219 219 219 219 219 219 219 219 219 219 219 219 219 219 219 219 
219 219 219 219 219 219 219 219 219 219 219 219 219 219 219 219 219 219 
219 219 219 219 219 219 219 219 219 219 219 219 219 219 219 219 219 219 
219 219 219 219 219 219 219 219 219 219 219 219 219 219 219 219 219 219 
219 219 219 219 219 219 219 219 219 219 219 219 219 219 219 219 219 219 
219 219 219 219 219 219 219 219 219 219 219 219 219 219 219 219 219 219 
219 219 219 219 219 219 219 219 219 219 219 219 219 219 219 219 219 219 
219 219 219 219 219 219 219 219 219 219 219 219 219 219 219 219 219 219 
219 219 219 219 219 219 219 219 219 219 219 219 219 219 219 219 219 219 
219 219 219 219 219 219 219 219 219 219 219 219 219 219 219 219 219 219 
219 219 219 219 219 219 219 219 219 219 219 219 219 219 219 219 219 219 
219 219 219 219 219 219 219 219 219 219 219 219 219 219 219 219 219 219 
219 219 219 219 219 219 219 219 219 219 219 219 219 219 219 219 219 219 
219 219 219 219 219 219 219 219 219 219 219 219 219 219 219 219 219 219 
219 219 219 219 219 219 219 219 219 219 219 219 219 219 219 219 219 219 
219 219 219 219 219 219 219 219 219 219 219 219 219 219 219 219 219 219 
219 219 219 219 219 219 219 219 219 219 219 219 219 219 219 219 219 219 
219 219 219 219 219 219 219 219 219 219 219 219 219 219 219 219 219 219 
219 219 219 219 219 219 219 219 219 219 219 219 219 219 219 219 219 219 
219 219 219 219 219 219 219 219 219 219 219 219 219 219 219 219 219 219 
219 219 219 219 219 219 219 219 219 219 219 219 219 219 219 219 219 219 
219 219 219 219 219 219 219 219 219 219 219 219 219 219 219 219 219 219 
219 219 219 219 219 219 219 219 219 219 219 219 219 219 219 219 219 219 
219 219 219 219 219 219 219 219 219 219 219 219 219 219 219 219 219 219 
219 219 219 219 219 219 219 219 219 219 219 219 219 219 219 219 219 219 
219 219 219 219 219 219 219 219 219 219 219 219 219 219 219 219 219 219 
219 219 219 219 219 219 219 219 219 219 219 219 219 219 219 219 219 219 
219 219 219 219 219 219 219 219 219 219 219 219 219 219 219 219 219 219 
219 219 219 219 219 219 219 219 219 219 219 219 219 219 219 219 219 219 
219 219 219 219 219 219 219 219 219 219 219 219 219 219 219 219 219 219 
219 219 219 219 219 219 219 219 219 219 219 219 219 219 219 219 219 219 
219 219 219 219 219 219 219 219 219 219 219 219 219 219 219 219 219 219 
219 219 219 219 219 219 219 219 219 219 219 219 219 219 219 219 219 219 
219 219 219 219 219 219 219 219 219 219 219 219 219 219 219 219 219 219 
219 219 219 219 219 219 219 219 219 219 219 219 219 219 219 219 219 219 
219 219 219 219 219 219 219 219 219 219 219 219 219 219 219 219 219 219 
219 219 219 219 219 219 219 219 219 219 219 219 219 219 219 219 219 219 
219 219 219 219 219 219 219 219 219 219 219 219 219 219 219 219 219 219 
219 219 219 219 219 219 219 219 219 219 219 219 219 219 219 219 219 219 
219 219 219 219 219 219 219 219 219 219 219 219 219 219 219 219 219 219 
219 219 219 219 219 219 219 219 219 219 219 219 219 219 219 219 219 219 
219 219 219 219 219 219 219 219 219 219 219 219 219 219 219 219 219 219 
219 219 219 219 219 219 219 219 219 219 219 219 219 219 219 219 219 219 
219 219 219 219 219 219 219 219 219 219 219 219 219 219 219 219 219 219 
219 219 219 219 219 219 219 219 219 219 219 219 219 219 219 219 219 219 
219 219 219 219 219 219 219 219 219 219 219 219 219 219 219 219 219 219 
219 219 219 219 219 219 219 219 219 219 219 219 219 219 219 219 219 219 
219 219 219 219 219 219 219 219 219 219 219 219 219 219 219 219 219 219 
219 219 219 219 219 219 219 219 219 219 219 219 219 219 219 219 219 219 
219 219 219 219 219 219 219 219 219 219 219 219 219 219 219 219 219 219 
219 219 219 219 219 219 219 219 219 219 219 219 219 219 219 219 219 219 
219 219 219 219 219 219 219 219 219 219 219 219 219 219 219 219 219 219 
219 219 219 219 219 219 219 219 219 219 219 219 219 219 219 219 219 219 
219 219 219 219 219 219 219 219 219 219 219 219 219 219 219 219 219 219 
219 219 219 219 219 219 219 219 219 219 219 219 219 219 219 219 219 219 
219 219 219 219 219 219 219 219 219 219 219 219 219 219 219 219 219 219 
219 219 219 219 219 219 219 219 219 219 219 219 219 219 219 219 219 219 
219 219 219 219 219 219 219 219 219 219 219 219 219 219 219 219 219 219 
219 219 219 219 219 219 219 219 219 219 219 219 219 219 219 219 219 219 
219 219 219 219 219 219 219 219 219 219 219 219 219 219 219 219 219 219 
219 219 219 219 219 219 219 219 219 219 219 219 219 219 219 219 219 219 
219 219 219 219 219 219 219 219 219 219 219 219 219 219 219 219 219 219 
219 219 219 219 219 219 219 219 219 219 219 219 219 219 219 219 219 219 
219 219 219 219 219 219 219 219 219 219 219 219 219 219 219 219 219 219 
219 219 219 219 219 219 219 219 219 219 219 219 219 219 219 219 219 219 
219 219 219 219 219 219 219 219 219 219 219 219 219 219 219 219 219 219 
219 219 219 219 219 219 219 219 219 219 219 219 219 219 219 219 219 219 
219 219 219 219 219 219 219 219 219 219 219 219 219 219 219 219 219 219 
219 219 219 219 219 219 219 219 219 219 219 219 219 219 219 219 219 219 
219 219 219 219 219 219 219 219 219 219 219 219 219 219 219 219 219 219 
219 219 219 219 219 219 219 219 219 219 219 219 219 219 219 219 219 219 
219 219 219 219 219 219 219 219 219 219 219 219 219 219 219 219 219 219 
219 219 219 219 219 219 219 219 219 219 219 219 219 219 219 219 219 219 
219 219 219 219 219 219 219 219 219 219 219 219 219 219 219 219 219 219 
219 219 219 219 219 219 219 219 219 219 219 219 219 219 219 219 219 219 
219 219 219 219 219 219 219 219 219 219 219 219 219 219 219 219 219 219 
219 219 219 219 219 219 219 219 219 219 219 219 219 219 219 219 219 219 
219 219 219 219 219 219 219 219 219 219 219 219 219 219 219 219 219 219 
219 219 219 219 219 219 219 219 219 219 219 219 219 219 219 219 219 219 
219 219 219 219 219 219 219 219 219 219 219 219 219 219 219 219 219 219 
219 219 219 219 219 219 219 219 219 219 219 219 219 219 219 219 219 219 
219 219 219 219 219 219 219 219 219 219 219 219 219 219 219 219 219 219 
219 219 219 219 219 219 219 219 219 219 219 219 219 219 219 219 219 219 
219 219 219 219 219 219 219 219 219 219 219 219 219 219 219 219 219 219 
219 219 219 219 219 219 219 219 219 219 219 219 219 219 219 219 219 219 
219 219 219 219 219 219 219 219 219 219 219 219 219 219 219 219 219 219 
219 219 219 219 219 219 219 219 219 219 219 219 219 219 219 219 219 219 
219 219 219 219 219 219 219 219 219 219 219 219 219 219 219 219 219 219 
219 219 219 219 219 219 219 219 219 219 219 219 219 219 219 219 219 219 
219 219 219 219 219 219 219 219 219 219 219 219 219 219 219 219 219 219 
219 219 219 219 219 219 219 219 219 219 219 219 219 219 219 219 219 219 
219 219 219 219 219 219 219 219 219 219 219 219 219 219 219 219 219 219 
219 219 219 219 219 219 219 219 219 219 219 219 219 219 219 219 219 219 
219 219 219 219 219 219 219 219 219 219 219 219 219 219 219 219 219 219 
219 219 219 219 219 219 219 219 219 219 219 219 219 219 219 219 219 219 
219 219 219 219 219 219 219 219 219 219 219 219 219 219 219 219 219 219 
219 219 219 219 219 219 219 219 219 219 219 219 219 219 219 219 219 219 
219 219 219 219 219 219 219 219 219 219 219 219 219 219 219 219 219 219 
219 219 219 219 219 219 219 219 219 219 219 219 219 219 219 219 219 219 
219 219 219 219 219 219 219 219 219 219 219 219 219 219 219 219 219 219 
219 219 219 219 219 219 219 219 219 219 219 219 219 219 219 219 219 219 
219 219 219 219 219 219 219 219 219 219 219 219 219 219 219 219 219 219 
219 219 219 219 219 219 219 219 219 219 219 219 219 219 219 219 219 219 
219 219 219 219 219 219 219 219 219 219 219 219 219 219 219 219 219 219 
219 219 219 219 219 219 219 219 219 219 219 219 219 219 219 219 219 219 
219 219 219 219 219 219 219 219 219 219 219 219 219 219 219 219 219 219 
219 219 219 219 219 219 219 219 219 219 219 219 219 219 219 219 219 219 
219 219 219 219 219 219 219 219 219 219 219 219 219 219 219 219 219 219 
219 219 219 219 219 219 219 219 219 219 219 219 219 219 219 219 219 219 
219 219 219 219 219 219 219 219 219 219 219 219 219 219 219 219 219 219 
219 219 219 219 219 219 219 219 219 219 219 219 219 219 219 219 219 219 
219 219 219 219 219 219 219 219 219 219 219 219 219 219 219 219 219 219 
219 219 219 219 219 219 219 219 219 219 219 219 219 219 219 219 219 219 
219 219 219 219 219 219 219 219 219 219 219 219 219 219 219 219 219 219 
219 219 219 219 219 219 219 219 219 219 219 219 219 219 219 219 219 219 
219 219 219 219 219 219 219 219 219 219 219 219 219 219 219 219 219 219 
219 219 219 219 219 219 219 219 219 219 219 219 219 219 219 219 219 219 
219 219 219 219 219 219 219 219 219 219 219 219 219 219 219 219 219 219 
219 219 219 219 219 219 219 219 219 219 219 219 219 219 219 219 219 219 
219 219 219 219 219 219 219 219 219 219 219 219 219 219 219 219 219 219 
219 219 219 219 219 219 219 219 219 219 219 219 219 219 219 219 219 219 
219 219 219 219 219 219 219 219 219 219 219 219 219 219 219 219 219 219 
219 219 219 219 219 219 219 219 219 219 219 219 219 219 219 219 219 219 
219 219 219 219 219 219 219 219 219 219 219 219 219 219 219 219 219 219 
219 219 219 219 219 219 219 219 219 219 219 219 219 219 219 219 219 219 
219 219 219 219 219 219 219 219 219 219 219 219 219 219 219 219 219 219 
219 219 219 219 219 219 219 219 219 219 219 219 219 219 219 219 219 219 
219 219 219 219 219 219 219 219 219 219 219 219 219 219 219 219 219 219 
219 219 219 219 219 219 219 219 219 219 219 219 219 219 219 219 219 219 
219 219 219 219 219 219 219 219 219 219 219 219 219 219 219 219 219 219 
219 219 219 219 219 219 219 219 219 219 219 219 219 219 219 219 219 219 
219 219 219 219 219 219 219 219 219 219 219 219 219 219 219 219 219 219 
219 219 219 219 219 219 219 219 219 219 219 219 219 219 219 219 219 219 
219 219 219 219 219 219 219 219 219 219 219 219 219 219 219 219 219 219 
219 219 219 219 219 219 219 219 219 219 219 219 219 219 219 219 219 219 
219 219 219 219 219 219 219 219 219 219 219 219 219 219 219 219 219 219 
219 219 219 219 219 219 219 219 219 219 219 219 219 219 219 219 219 219 
219 219 219 219 219 219 219 219 219 219 219 219 219 219 219 219 219 219 
219 219 219 219 219 219 219 219 219 219 219 219 219 219 219 219 219 219 
219 219 219 219 219 219 219 219 219 219 219 219 219 219 219 219 219 219 
219 219 219 219 219 219 219 219 219 219 219 219 219 219 219 219 219 219 
219 219 219 219 219 219 219 219 219 219 219 219 219 219 219 219 219 219 
219 219 219 219 219 219 219 219 219 219 219 219 219 219 219 219 219 219 
219 219 219 219 219 219 219 219 219 219 219 219 219 219 219 219 219 219 
219 219 219 219 219 219 219 219 219 219 219 219 219 219 219 219 219 219 
219 219 219 219 219 219 219 219 219 219 219 219 219 219 219 219 219 219 
219 219 219 219 219 219 219 219 219 219 219 219 219 219 219 219 219 219 
219 219 219 219 219 219 219 219 219 219 219 219 219 219 219 219 219 219 
219 219 219 219 219 219 219 219 219 219 219 219 219 219 219 219 219 219 
219 219 219 219 219 219 219 219 219 219 219 219 219 219 219 219 219 219 
219 219 219 219 219 219 219 219 219 219 219 219 219 219 219 219 219 219 
219 219 219 219 219 219 219 219 219 219 219 219 219 219 219 219 219 219 
219 219 219 219 219 219 219 219 219 219 219 219 219 219 219 219 219 219 
219 219 219 219 219 219 219 219 219 219 219 219 219 219 219 219 219 219 
219 219 219 219 219 219 219 219 219 219 219 219 219 219 219 219 219 219 
219 219 219 219 219 219 219 219 219 219 219 219 219 219 219 219 219 219 
219 219 219 219 219 219 219 219 219 219 219 219 219 219 219 219 219 219 
219 219 219 219 219 219 219 219 219 219 219 219 219 219 219 219 219 219 
219 219 219 219 219 219 219 219 219 219 219 219 219 219 219 219 219 219 
219 219 219 219 219 219 219 219 219 219 219 219 219 219 219 219 219 219 
219 219 219 219 219 219 219 219 219 219 219 219 219 219 219 219 219 219 
219 219 219 219 219 219 219 219 219 219 219 219 219 219 219 219 219 219 
219 219 219 219 219 219 219 219 219 219 219 219 219 219 219 219 219 219 
219 219 219 219 219 219 219 219 219 219 219 219 219 219 219 219 219 219 
219 219 219 219 219 219 219 219 219 219 219 219 219 219 219 219 219 219 
219 219 219 219 219 219 219 219 219 219 219 219 219 219 219 219 219 219 
219 219 219 219 219 219 219 219 219 219 219 219 219 219 219 219 219 219 
219 219 219 219 219 219 219 219 219 219 219 219 219 219 219 219 219 219 
219 219 219 219 219 219 219 219 219 219 219 219 219 219 219 219 219 219 
219 219 219 219 219 219 219 219 219 219 219 219 219 219 219 219 219 219 
219 219 219 219 219 219 219 219 219 219 219 219 219 219 219 219 219 219 
219 219 219 219 219 219 219 219 219 219 219 219 219 219 219 219 219 219 
219 219 219 219 219 219 219 219 219 219 219 219 219 219 219 219 219 219 
219 219 219 219 219 219 219 219 219 219 219 219 219 219 219 219 219 219 
219 219 219 219 219 219 219 219 219 219 219 219 219 219 219 219 219 219 
219 219 219 219 219 219 219 219 219 219 219 219 219 219 219 219 219 219 
219 219 219 219 219 219 219 219 219 219 219 219 219 219 219 219 219 219 
219 219 219 219 219 219 219 219 219 219 219 219 219 219 219 219 219 219 
219 219 219 219 219 219 219 219 219 219 219 219 219 219 219 219 219 219 
219 219 219 219 219 219 219 219 219 219 219 219 219 219 219 219 219 219 
219 219 219 219 219 219 219 219 219 219 219 219 219 219 219 219 219 219 
219 219 219 219 219 219 219 219 219 219 219 219 219 219 219 219 219 219 
219 219 219 219 219 219 219 219 219 219 219 219 219 219 219 219 219 219 
219 219 219 219 219 219 219 219 219 219 219 219 219 219 219 219 219 219 
219 219 219 219 219 219 219 219 219 219 219 219 219 219 219 219 219 219 
219 219 219 219 219 219 219 219 219 219 219 219 219 219 219 219 219 219 
219 219 219 219 219 219 219 219 219 219 219 219 219 219 219 219 219 219 
219 219 219 219 219 219 219 219 219 219 219 219 219 219 219 219 219 219 
219 219 219 219 219 219 219 219 219 219 219 219 219 219 219 219 219 219 
219 219 219 219 219 219 219 219 219 219 219 219 219 219 219 219 219 219 
219 219 219 219 219 219 219 219 219 219 219 219 219 219 219 219 219 219 
219 219 219 219 219 219 219 219 219 219 219 219 219 219 219 219 219 219 
219 219 219 219 219 219 219 219 219 219 219 219 219 219 219 219 219 219 
219 219 219 219 219 219 219 219 219 219 219 219 219 219 219 219 219 219 
219 219 219 219 219 219 219 219 219 219 219 219 219 219 219 219 219 219 
219 219 219 219 219 219 219 219 219 219 219 219 219 219 219 219 219 219 
219 219 219 219 219 219 219 219 219 219 219 219 219 219 219 219 219 219 
219 219 219 219 219 219 219 219 219 219 219 219 219 219 219 219 219 219 
219 219 219 219 219 219 219 219 219 219 219 219 219 219 219 219 219 219 
219 219 219 219 219 219 219 219 219 219 219 219 219 219 219 219 219 219 
219 219 219 219 219 219 219 219 219 219 219 219 219 219 219 219 219 219 
219 219 219 219 219 219 219 219 219 219 219 219 219 219 219 219 219 219 
219 219 219 219 219 219 219 219 219 219 219 219 219 219 219 219 219 219 
219 219 219 219 219 219 219 219 219 219 219 219 219 219 219 219 219 219 
219 219 219 219 219 219 219 219 219 219 219 219 219 219 219 219 219 219 
219 219 219 219 219 219 219 219 219 219 219 219 219 219 219 219 219 219 
219 219 219 219 219 219 219 219 219 219 219 219 219 219 219 219 219 219 
219 219 219 219 219 219 219 219 219 219 219 219 219 219 219 219 219 219 
219 219 219 219 219 219 219 219 219 219 219 219 219 219 219 219 219 219 
219 219 219 219 219 219 219 219 219 219 219 219 219 219 219 219 219 219 
219 219 219 219 219 219 219 219 219 219 219 219 219 219 219 219 219 219 
219 219 219 219 219 219 219 219 219 219 219 219 219 219 219 219 219 219 
219 219 219 219 219 219 219 219 219 219 219 219 219 219 219 219 219 219 
219 219 219 219 219 219 219 219 219 219 219 219 219 219 219 219 219 219 
219 219 219 219 219 219 219 219 219 219 219 219 219 219 219 219 219 219 
219 219 219 219 219 219 219 219 219 219 219 219 219 219 219 219 219 219 
219 219 219 219 219 219 219 219 219 219 219 219 219 219 219 219 219 219 
219 219 219 219 219 219 219 219 219 219 219 219 219 219 219 219 219 219 
219 219 219 219 219 219 219 219 219 219 219 219 219 219 219 219 219 219 
219 219 219 219 219 219 219 219 219 219 219 219 219 219 219 219 219 219 
219 219 219 219 219 219 219 219 219 219 219 219 219 219 219 219 219 219 
219 219 219 219 219 219 219 219 219 219 219 219 219 219 219 219 219 219 
219 219 219 219 219 219 219 219 219 219 219 219 219 219 219 219 219 219 
219 219 219 219 219 219 219 219 219 219 219 219 219 219 219 219 219 219 
219 219 219 219 219 219 219 219 219 219 219 219 219 219 219 219 219 219 
219 219 219 219 219 219 219 219 219 219 219 219 219 219 219 219 219 219 
219 219 219 219 219 219 219 219 219 219 219 219 219 219 219 219 219 219 
219 219 219 219 219 219 219 219 219 219 219 219 219 219 219 219 219 219 
219 219 219 219 219 219 219 219 219 219 219 219 219 219 219 219 219 219 
219 219 219 219 219 219 219 219 219 219 219 219 219 219 219 219 219 219 
219 219 219 219 219 219 219 219 219 219 219 219 219 219 219 219 219 219 
219 219 219 219 219 219 219 219 219 219 219 219 219 219 219 219 219 219 
219 219 219 219 219 219 219 219 219 219 219 219 219 219 219 219 219 219 
219 219 219 219 219 219 219 219 219 219 219 219 219 219 219 219 219 219 
219 219 219 219 219 219 219 219 219 219 219 219 219 219 219 219 219 219 
219 219 219 219 219 219 219 219 219 219 219 219 219 219 219 219 219 219 
219 219 219 219 219 219 219 219 219 219 219 219 219 219 219 219 219 219 
219 219 219 219 219 219 219 219 219 219 219 219 219 219 219 219 219 219 
219 219 219 219 219 219 219 219 219 219 219 219 219 219 219 219 219 219 
219 219 219 219 219 219 219 219 219 219 219 219 219 219 219 219 219 219 
219 219 219 219 219 219 219 219 219 219 219 219 219 219 219 219 219 219 
219 219 219 219 219 219 219 219 219 219 219 219 219 219 219 219 219 219 
219 219 219 219 219 219 219 219 219 219 219 219 219 219 219 219 219 219 
219 219 219 219 219 219 219 219 219 219 219 219 219 219 219 219 219 219 
219 219 219 219 219 219 219 219 219 219 219 219 219 219 219 219 219 219 
219 219 219 219 219 219 219 219 219 219 219 219 219 219 219 219 219 219 
219 219 219 219 219 219 219 219 219 219 219 219 219 219 219 219 219 219 
219 219 219 219 219 219 219 219 219 219 219 219 219 219 219 219 219 219 
219 219 219 219 219 219 219 219 219 219 219 219 219 219 219 219 219 219 
219 219 219 219 219 219 219 219 219 219 219 219 219 219 219 219 219 219 
219 219 219 219 219 219 219 219 219 219 219 219 219 219 219 219 219 219 
219 219 219 219 219 219 219 219 219 219 219 219 219 219 219 219 219 219 
219 219 219 219 219 219 219 219 219 219 219 219 219 219 219 219 219 219 
219 219 219 219 219 219 219 219 219 219 219 219 219 219 219 219 219 219 
219 219 219 219 219 219 219 219 219 219 219 219 219 219 219 219 219 219 
219 219 219 219 219 219 219 219 219 219 219 219 219 219 219 219 219 219 
219 219 219 219 219 219 219 219 219 219 219 219 219 219 219 219 219 219 
219 219 219 219 219 219 219 219 219 219 219 219 219 219 219 219 219 219 
219 219 219 219 219 219 219 219 219 219 219 219 219 219 219 219 219 219 
219 219 219 219 219 219 219 219 219 219 219 219 219 219 219 219 219 219 
219 219 219 219 219 219 219 219 219 219 219 219 219 219 219 219 219 219 
219 219 219 219 219 219 219 219 219 219 219 219 219 219 219 219 219 219 
219 219 219 219 219 219 219 219 219 219 219 219 219 219 219 219 219 219 
219 219 219 219 219 219 219 219 219 219 219 219 219 219 219 219 219 219 
219 219 219 219 219 219 219 219 219 219 219 219 219 219 219 219 219 219 
219 219 219 219 219 219 219 219 219 219 219 219 219 219 219 219 219 219 
219 219 219 219 219 219 219 219 219 219 219 219 219 219 219 219 219 219 
219 219 219 219 219 219 219 219 219 219 219 219 219 219 219 219 219 219 
219 219 219 219 219 219 219 219 219 219 219 219 219 219 219 219 219 219 
219 219 219 219 219 219 219 219 219 219 219 219 219 219 219 219 219 219 
219 219 219 219 219 219 219 219 219 219 219 219 219 219 219 219 219 219 
219 219 219 219 219 219 219 219 219 219 219 219 219 219 219 219 219 219 
219 219 219 219 219 219 219 219 219 219 219 219 219 219 219 219 219 219 
219 219 219 219 219 219 219 219 219 219 219 219 219 219 219 219 219 219 
219 219 219 219 219 219 219 219 219 219 219 219 219 219 219 219 219 219 
219 219 219 219 219 219 219 219 219 219 219 219 219 219 219 219 219 219 
219 219 219 219 219 219 219 219 219 219 219 219 219 219 219 219 219 219 
219 219 219 219 219 219 219 219 219 219 219 219 219 219 219 219 219 219 
219 219 219 219 219 219 219 219 219 219 219 219 219 219 219 219 219 219 
219 219 219 219 219 219 219 219 219 219 219 219 219 219 219 219 219 219 
219 219 219 219 219 219 219 219 219 219 219 219 219 219 219 219 219 219 
219 219 219 219 219 219 219 219 219 219 219 219 219 219 219 219 219 219 
219 219 219 219 219 219 219 219 219 219 219 219 219 219 219 219 219 219 
219 219 219 219 219 219 219 219 219 219 219 219 219 219 219 219 219 219 
219 219 219 219 219 219 219 219 219 219 219 219 219 219 219 219 219 219 
219 219 219 219 219 219 219 219 219 219 219 219 219 219 219 219 219 219 
219 219 219 219 219 219 219 219 219 219 219 219 219 219 219 219 219 219 
219 219 219 219 219 219 219 219 219 219 219 219 219 219 219 219 219 219 
219 219 219 219 219 219 219 219 219 219 219 219 219 219 219 219 219 219 
219 219 219 219 219 219 219 219 219 219 219 219 219 219 219 219 219 219 
219 219 219 219 219 219 219 219 219 219 219 219 219 219 219 219 219 219 
219 219 219 219 219 219 219 219 219 219 219 219 219 219 219 219 219 219 
219 219 219 219 219 219 219 219 219 219 219 219 219 219 219 219 219 219 
219 219 219 219 219 219 219 219 219 219 219 219 219 219 219 219 219 219 
219 219 219 219 219 219 219 219 219 219 219 219 219 219 219 219 219 219 
219 219 219 219 219 219 219 219 219 219 219 219 219 219 219 219 219 219 
219 219 219 219 219 219 219 219 219 219 219 219 219 219 219 219 219 219 
219 219 219 219 219 219 219 219 219 219 219 219 219 219 219 219 219 219 
219 219 219 219 219 219 219 219 219 219 219 219 219 219 219 219 219 219 
219 219 219 219 219 219 219 219 219 219 219 219 219 219 219 219 219 219 
219 219 219 219 219 219 219 219 219 219 219 219 219 219 219 219 219 219 
219 219 219 219 219 219 219 219 219 219 219 219 219 219 219 219 219 219 
219 219 219 219 219 219 219 219 219 219 219 219 219 219 219 219 219 219 
219 219 219 219 219 219 219 219 219 219 219 219 219 219 219 219 219 219 
219 219 219 219 219 219 219 219 219 219 219 219 219 219 219 219 219 219 
219 219 219 219 219 219 219 219 219 219 219 219 219 219 219 219 219 219 
219 219 219 219 219 219 219 219 219 219 219 219 219 219 219 219 219 219 
219 219 219 219 219 219 219 219 219 219 219 219 219 219 219 219 219 219 
219 219 219 219 219 219 219 219 219 219 219 219 219 219 219 219 219 219 
219 219 219 219 219 219 219 219 219 219 219 219 219 219 219 219 219 219 
219 219 219 219 219 219 219 219 219 219 219 219 219 219 219 219 219 219 
219 219 219 219 219 219 219 219 219 219 219 219 219 219 219 219 219 219 
219 219 219 219 219 219 219 219 219 219 219 219 219 219 219 219 219 219 
219 219 219 219 219 219 219 219 219 219 219 219 219 219 219 219 219 219 
219 219 219 219 219 219 219 219 219 219 219 219 219 219 219 219 219 219 
219 219 219 219 219 219 219 219 219 219 219 219 219 219 219 219 219 219 
219 219 219 219 219 219 219 219 219 219 219 219 219 219 219 219 219 219 
219 219 219 219 219 219 219 219 219 219 219 219 219 219 219 219 219 219 
219 219 219 219 219 219 219 219 219 219 219 219 219 219 219 219 219 219 
219 219 219 219 219 219 219 219 219 219 219 219 219 219 219 219 219 219 
219 219 219 219 219 219 219 219 219 219 219 219 219 219 219 219 219 219 
219 219 219 219 219 219 219 219 219 219 219 219 219 219 219 219 219 219 
219 219 219 219 219 219 219 219 219 219 219 219 219 219 219 219 219 219 
219 219 219 219 219 219 219 219 219 219 219 219 219 219 219 219 219 219 
219 219 219 219 219 219 219 219 219 219 219 219 219 219 219 219 219 219 
219 219 219 219 219 219 219 219 219 219 219 219 219 219 219 219 219 219 
219 219 219 219 219 219 219 219 219 219 219 219 219 219 219 219 219 219 
219 219 219 219 219 219 219 219 219 219 219 219 219 219 219 219 219 219 
219 219 219 219 219 219 219 219 219 219 219 219 219 219 219 219 219 219 
219 219 219 219 219 219 219 219 219 219 219 219 219 219 219 219 219 219 
219 219 219 219 219 219 219 219 219 219 219 219 219 219 219 219 219 219 
219 219 219 219 219 219 219 219 219 219 219 219 219 219 219 219 219 219 
219 219 219 219 219 219 219 219 219 219 219 219 219 219 219 219 219 219 
219 219 219 219 219 219 219 219 219 219 219 219 219 219 219 219 219 219 
219 219 219 219 219 219 219 219 219 219 219 219 219 219 219 219 219 219 
219 219 219 219 219 219 219 219 219 219 219 219 219 219 219 219 219 219 
219 219 219 219 219 219 219 219 219 219 219 219 219 219 219 219 219 219 
219 219 219 219 219 219 219 219 219 219 219 219 219 219 219 219 219 219 
219 219 219 219 219 219 219 219 219 219 219 219 219 219 219 219 219 219 
219 219 219 219 219 219 219 219 219 219 219 219 219 219 219 219 219 219 
219 219 219 219 219 219 219 219 219 219 219 219 219 219 219 219 219 219 
219 219 219 219 219 219 219 219 219 219 219 219 219 219 219 219 219 219 
219 219 219 219 219 219 219 219 219 219 219 219 219 219 219 219 219 219 
219 219 219 219 219 219 219 219 219 219 219 219 219 219 219 219 219 219 
219 219 219 219 219 219 219 219 219 219 219 219 219 219 219 219 219 219 
219 219 219 219 219 219 219 219 219 219 219 219 219 219 219 219 219 219 
219 219 219 219 219 219 219 219 219 219 219 219 219 219 219 219 219 219 
219 219 219 219 219 219 219 219 219 219 219 219 219 219 219 219 219 219 
219 219 219 219 219 219 219 219 219 219 219 219 219 219 219 219 219 219 
219 219 219 219 219 219 219 219 219 219 219 219 219 219 219 219 219 219 
219 219 219 219 219 219 219 219 219 219 219 219 219 219 219 219 219 219 
219 219 219 219 219 219 219 219 219 219 219 219 219 219 219 219 219 219 
219 219 219 219 219 219 219 219 219 219 219 219 219 219 219 219 219 219 
182 182 182 182 182 182 182 182 182 182 182 182 182 182 182 182 182 182 
182 182 182 182 182 182 182 182 182 182 182 182 182 182 182 182 182 182 
182 182 182 182 182 182 182 182 182 182 182 182 182 182 182 182 182 182 
182 182 182 182 182 182 182 182 182 182 182 182 182 182 182 182 182 182 
182 182 182 182 182 182 182 182 182 182 182 182 182 182 182 182 182 182 
182 182 182 182 182 182 182 182 182 182 182 182 182 182 182 182 182 182 
182 182 182 182 182 182 182 182 182 182 182 182 182 182 182 182 182 182 
182 182 182 182 182 182 182 182 182 182 182 182 182 182 182 182 182 182 
182 182 182 182 182 182 182 182 182 182 182 182 182 182 182 182 182 182 
182 182 182 182 182 182 182 182 182 182 182 182 182 182 182 182 182 182 
182 182 182 182 182 182 182 182 182 182 182 182 182 182 182 182 182 182 
182 182 182 182 182 182 182 182 182 182 182 182 182 182 182 182 182 182 
182 182 182 182 182 182 182 182 182 182 182 182 182 182 182 182 182 182 
182 182 182 182 182 182 182 182 182 182 182 182 182 182 182 182 182 182 
182 182 182 182 182 182 182 182 182 182 182 182 182 182 182 182 182 182 
182 182 182 182 182 182 182 182 182 182 182 182 182 182 182 182 182 182 
182 182 182 182 182 182 182 182 182 182 182 182 182 182 182 182 182 182 
182 182 182 182 182 182 182 182 182 182 182 182 182 182 182 182 182 182 
182 182 182 182 182 182 182 182 182 182 182 182 182 182 182 182 182 182 
182 182 182 182 182 182 182 182 182 182 182 182 182 182 182 182 182 182 
182 182 182 182 182 182 182 182 182 182 182 182 182 182 182 182 182 182 
182 182 182 182 182 182 182 182 182 182 182 182 182 182 182 182 182 182 
182 182 182 182 182 182 182 182 182 182 182 182 182 182 182 182 182 182 
182 182 182 182 182 182 182 182 182 182 182 182 182 182 182 182 182 182 
182 182 182 182 182 182 182 182 182 182 182 182 182 182 182 182 182 182 
182 182 182 182 182 182 182 182 182 182 182 182 182 182 182 182 182 182 
182 182 182 182 182 182 182 182 182 182 182 182 182 182 182 182 182 182 
182 182 182 182 182 182 182 182 182 182 182 182 182 182 182 182 182 182 
182 182 182 182 182 182 182 182 182 182 182 182 182 182 182 182 182 182 
182 182 182 182 182 182 182 182 182 182 182 182 182 182 182 182 182 182 
182 182 182 182 182 182 182 182 182 182 182 182 182 182 182 182 182 182 
182 182 182 182 182 182 182 182 182 182 182 182 182 182 182 182 182 182 
182 182 182 182 182 182 182 182 182 182 182 182 182 182 182 182 182 182 
182 182 182 182 182 182 182 182 182 182 182 182 182 182 182 182 182 182 
182 182 182 182 182 182 182 182 182 182 182 182 182 182 182 182 182 182 
182 182 182 182 182 182 182 182 182 182 182 182 182 182 182 182 182 182 
182 182 182 182 182 182 182 182 182 182 182 182 182 182 182 182 182 182 
182 182 182 182 182 182 182 182 182 182 182 182 182 182 182 182 182 182 
182 182 182 182 182 182 182 182 182 182 182 182 182 182 182 182 182 182 
182 182 182 182 182 182 182 182 182 182 182 182 182 182 182 182 182 182 
182 182 182 182 182 182 182 182 182 182 182 182 182 182 182 182 182 182 
182 182 182 182 182 182 182 182 182 182 182 182 182 182 182 182 182 182 
182 182 182 182 182 182 182 182 182 182 182 182 182 182 182 182 182 182 
182 182 182 182 182 182 182 182 182 182 182 182 182 182 182 182 182 182 
182 182 182 182 182 182 182 182 182 182 182 182 182 182 182 182 182 182 
182 182 182 182 182 182 182 182 182 182 182 182 182 182 182 182 182 182 
182 182 182 182 182 182 182 182 182 182 182 182 182 182 182 182 182 182 
182 182 182 182 182 182 182 182 182 182 182 182 182 182 182 182 182 182 
182 182 182 182 182 182 182 182 182 182 182 182 182 182 182 182 182 182 
182 182 182 182 182 182 182 182 182 182 182 182 182 182 182 182 182 182 
182 182 182 182 182 182 182 182 182 182 182 182 182 182 182 182 182 182 
182 182 182 182 182 182 182 182 182 182 182 182 182 182 182 182 182 182 
182 182 182 182 182 182 182 182 182 182 182 182 182 182 182 182 182 182 
182 182 182 182 182 182 182 182 182 182 182 182 182 182 182 182 182 182 
182 182 182 182 182 182 182 182 182 182 182 182 182 182 182 182 182 182 
182 182 182 182 182 182 182 182 182 182 182 182 182 182 182 182 182 182 
182 182 182 182 182 182 182 182 182 182 182 182 182 182 182 182 182 182 
182 182 182 182 182 182 182 182 182 182 182 182 182 182 182 182 182 182 
182 182 182 182 182 182 182 182 182 182 182 182 182 182 182 182 182 182 
182 182 182 182 182 182 182 182 182 182 182 182 182 182 182 182 182 182 
182 182 182 182 182 182 182 182 182 182 182 182 182 182 182 182 182 182 
182 182 182 182 182 182 182 182 182 182 182 182 182 182 182 182 182 182 
182 182 182 182 182 182 182 182 182 182 182 182 182 182 182 182 182 182 
182 182 182 182 182 182 182 182 182 182 182 182 182 182 182 182 182 182 
182 182 182 182 182 182 182 182 182 182 182 182 182 182 182 182 182 182 
182 182 182 182 182 182 182 182 182 182 182 182 182 182 182 182 182 182 
182 182 182 182 182 182 182 182 182 182 182 182 182 182 182 182 182 182 
182 182 182 182 182 182 182 182 182 182 182 182 182 182 182 182 182 182 
182 182 182 182 182 182 182 182 182 182 182 182 182 182 182 182 182 182 
182 182 182 182 182 182 182 182 182 182 182 182 182 182 182 182 182 182 
182 182 182 182 182 182 182 182 182 182 182 182 182 182 182 182 182 182 
182 182 182 182 182 182 182 182 182 182 182 182 182 182 182 182 182 182 
182 182 182 182 182 182 182 182 182 182 182 182 182 182 182 182 182 182 
182 182 182 182 182 182 182 182 182 182 182 182 182 182 182 182 182 182 
182 182 182 182 182 182 182 182 182 182 182 182 182 182 182 182 182 182 
182 182 182 182 182 182 182 182 182 182 182 182 182 182 182 182 182 182 
182 182 182 182 182 182 182 182 182 182 182 182 182 182 182 182 182 182 
182 182 182 182 182 182 182 182 182 182 182 182 182 182 182 182 182 182 
182 182 182 182 182 182 182 182 182 182 182 182 182 182 182 182 182 182 
182 182 182 182 182 182 182 182 182 182 182 182 182 182 182 182 182 182 
182 182 182 182 182 182 182 182 182 182 182 182 182 182 182 182 182 182 
182 182 182 182 182 182 182 182 182 182 182 182 182 182 182 182 182 182 
182 182 182 182 182 182 182 182 182 182 182 182 182 182 182 182 182 182 
182 182 182 182 182 182 182 182 182 182 182 182 182 182 182 182 182 182 
182 182 182 182 182 182 182 182 182 182 182 182 182 182 182 182 182 182 
182 182 182 182 182 182 182 182 182 182 182 182 182 182 182 182 182 182 
182 182 182 182 182 182 182 182 182 182 182 182 182 182 182 182 182 182 
182 182 182 182 182 182 182 182 182 182 182 182 182 182 182 182 182 182 
182 182 182 182 182 182 182 182 182 182 182 182 182 182 182 182 182 182 
182 182 182 182 182 182 182 182 182 182 182 182 182 182 182 182 182 182 
182 182 182 182 182 182 182 182 182 182 182 182 182 182 182 182 182 182 
182 182 182 182 182 182 182 182 182 182 182 182 182 182 182 182 182 182 
182 182 182 182 182 182 182 182 182 182 182 182 182 182 182 182 182 182 
182 182 182 182 182 182 182 182 182 182 182 182 182 182 182 182 182 182 
182 182 182 182 182 182 182 182 182 182 182 182 182 182 182 182 182 182 
182 182 182 182 182 182 182 182 182 182 182 182 182 182 182 182 182 182 
182 182 182 182 182 182 182 182 182 182 182 182 182 182 182 182 182 182 
182 182 182 182 182 182 182 182 182 182 182 182 182 182 182 182 182 182 
182 182 182 182 182 182 182 182 182 182 182 182 182 182 182 182 182 182 
182 182 182 182 182 182 182 182 182 182 182 182 182 182 182 182 182 182 
182 182 182 182 182 182 182 182 182 182 182 182 182 182 182 182 182 182 
182 182 182 182 182 182 182 182 182 182 182 182 182 182 182 182 182 182 
182 182 182 182 182 182 182 182 182 182 182 182 182 182 182 182 182 182 
182 182 182 182 182 182 182 182 182 182 182 182 182 182 182 182 182 182 
182 182 182 182 182 182 182 182 182 182 182 182 182 182 182 182 182 182 
182 182 182 182 182 182 182 182 182 182 182 182 182 182 182 182 182 182 
182 182 182 182 182 182 182 182 182 182 182 182 182 182 182 182 182 182 
182 182 182 182 182 182 182 182 182 182 182 182 182 182 182 182 182 182 
182 182 182 182 182 182 182 182 182 182 182 182 182 182 182 182 182 182 
182 182 182 182 182 182 182 182 182 182 182 182 182 182 182 182 182 182 
182 182 182 182 182 182 182 182 182 182 182 182 182 182 182 182 182 182 
182 182 182 182 182 182 182 182 182 182 182 182 182 182 182 182 182 182 
182 182 182 182 182 182 182 182 182 182 182 182 182 182 182 182 182 182 
182 182 182 182 182 182 182 182 182 182 182 182 182 182 182 182 182 182 
182 182 182 182 182 182 182 182 182 182 182 182 182 182 182 182 182 182 
182 182 182 182 182 182 182 182 182 182 182 182 182 182 182 182 182 182 
182 182 182 182 182 182 182 182 182 182 182 182 182 182 182 182 182 182 
182 182 182 182 182 182 182 182 182 182 182 182 182 182 182 182 182 182 
182 182 182 182 182 182 182 182 182 182 182 182 182 182 182 182 182 182 
182 182 182 182 182 182 182 182 182 182 182 182 182 182 182 182 182 182 
182 182 182 182 182 182 182 182 182 182 182 182 182 182 182 182 182 182 
182 182 182 182 182 182 182 182 182 182 182 182 182 182 182 182 182 182 
182 182 182 182 182 182 182 182 182 182 182 182 182 182 182 182 182 182 
182 182 182 182 182 182 182 182 182 182 182 182 182 182 182 182 182 182 
182 182 182 182 182 182 182 182 182 182 182 182 182 182 182 182 182 182 
182 182 182 182 182 182 182 182 182 182 182 182 182 182 182 182 182 182 
182 182 182 182 182 182 182 182 182 182 182 182 182 182 182 182 182 182 
182 182 182 182 182 182 182 182 182 182 182 182 182 182 182 182 182 182 
182 182 182 182 182 182 182 182 182 182 182 182 182 182 182 182 182 182 
182 182 182 182 182 182 182 182 182 182 182 182 182 182 182 182 182 182 
182 182 182 182 182 182 182 182 182 182 182 182 182 182 182 182 182 182 
182 182 182 182 182 182 182 182 182 182 182 182 182 182 182 182 182 182 
182 182 182 182 182 182 182 182 182 182 182 182 182 182 182 182 182 182 
182 182 182 182 182 182 182 182 182 182 182 182 182 182 182 182 182 182 
182 182 182 182 182 182 182 182 182 182 182 182 182 182 182 182 182 182 
182 182 182 182 182 182 182 182 182 182 182 182 182 182 182 182 182 182 
182 182 182 182 182 182 182 182 182 182 182 182 182 182 182 182 182 182 
182 182 182 182 182 182 182 182 182 182 182 182 182 182 182 182 182 182 
182 182 182 182 182 182 182 182 182 182 182 182 182 182 182 182 182 182 
182 182 182 182 182 182 182 182 182 182 182 182 182 182 182 182 182 182 
182 182 182 182 182 182 182 182 182 182 182 182 182 182 182 182 182 182 
182 182 182 182 182 182 182 182 182 182 182 182 182 182 182 182 182 182 
182 182 182 182 182 182 182 182 182 182 182 182 182 182 182 182 182 182 
182 182 182 182 182 182 182 182 182 182 182 182 182 182 182 182 182 182 
182 182 182 182 182 182 182 182 182 182 182 182 182 182 182 182 182 182 
182 182 182 182 182 182 182 182 182 182 182 182 182 182 182 182 182 182 
182 182 182 182 182 182 182 182 182 182 182 182 182 182 182 182 182 182 
182 182 182 182 182 182 182 182 182 182 182 182 182 182 182 182 182 182 
182 182 182 182 182 182 182 182 182 182 182 182 182 182 182 182 182 182 
182 182 182 182 182 182 182 182 182 182 182 182 182 182 182 182 182 182 
182 182 182 182 182 182 182 182 182 182 182 182 182 182 182 182 182 182 
182 182 182 182 182 182 182 182 182 182 182 182 182 182 182 182 182 182 
182 182 182 182 182 182 182 182 182 182 182 182 182 182 182 182 182 182 
182 182 182 182 182 182 182 182 182 182 182 182 182 182 182 182 182 182 
182 182 182 182 182 182 182 182 182 182 182 182 182 182 182 182 182 182 
182 182 182 182 182 182 182 182 182 182 182 182 182 182 182 182 182 182 
182 182 182 182 182 182 182 182 182 182 182 182 182 182 182 182 182 182 
182 182 182 182 182 182 182 182 182 182 182 182 182 182 182 182 182 182 
182 182 182 182 182 182 182 182 182 182 182 182 182 182 182 182 182 182 
182 182 182 182 182 182 182 182 182 182 182 182 182 182 182 182 182 182 
182 182 182 182 182 182 182 182 182 182 182 182 182 182 182 182 182 182 
182 182 182 182 182 182 182 182 182 182 182 182 182 182 182 182 182 182 
182 182 182 182 182 182 182 182 182 182 182 182 182 182 182 182 182 182 
182 182 182 182 182 182 182 182 182 182 182 182 182 182 182 182 182 182 
182 182 182 182 182 182 182 182 182 182 182 182 182 182 182 182 182 182 
182 182 182 182 182 182 182 182 182 182 182 182 182 182 182 182 182 182 
182 182 182 182 182 182 182 182 182 182 182 182 182 182 182 182 182 182 
182 182 182 182 182 182 182 182 182 182 182 182 182 182 182 182 182 182 
182 182 182 182 182 182 182 182 182 182 182 182 182 182 182 182 182 182 
182 182 182 182 182 182 182 182 182 182 182 182 182 182 182 182 182 182 
182 182 182 182 182 182 182 182 182 182 182 182 182 182 182 182 182 182 
182 182 182 182 182 182 182 182 182 182 182 182 182 182 182 182 182 182 
182 182 182 182 182 182 182 182 182 182 182 182 182 182 182 182 182 182 
182 182 182 182 182 182 182 182 182 182 182 182 182 182 182 182 182 182 
182 182 182 182 182 182 182 182 182 182 182 182 182 182 182 182 182 182 
182 182 182 182 182 182 182 182 182 182 182 182 182 182 182 182 182 182 
182 182 182 182 182 182 182 182 182 182 182 182 182 182 182 182 182 182 
182 182 182 182 182 182 182 182 182 182 182 182 182 182 182 182 182 182 
182 182 182 182 182 182 182 182 182 182 182 182 182 182 182 182 182 182 
182 182 182 182 182 182 182 182 182 182 182 182 182 182 182 182 182 182 
182 182 182 182 182 182 182 182 182 182 182 182 182 182 182 182 182 182 
182 182 182 182 182 182 182 182 182 182 182 182 182 182 182 182 182 182 
182 182 182 182 182 182 182 182 182 182 182 182 182 182 182 182 182 182 
182 182 182 182 182 182 182 182 182 182 182 182 182 182 182 182 182 182 
182 182 182 182 182 182 182 182 182 182 182 182 182 182 182 182 182 182 
182 182 182 182 182 182 182 182 182 182 182 182 182 182 182 182 182 182 
182 182 182 182 182 182 182 182 182 182 182 182 182 182 182 182 182 182 
182 182 182 182 182 182 182 182 182 182 182 182 182 182 182 182 182 182 
182 182 182 182 182 182 182 182 182 182 182 182 182 182 182 182 182 182 
182 182 182 182 182 182 182 182 182 182 182 182 182 182 182 182 182 182 
182 182 182 182 182 182 182 182 182 182 182 182 182 182 182 182 182 182 
182 182 182 182 182 182 182 182 182 182 182 182 182 182 182 182 182 182 
182 182 182 182 182 182 182 182 182 182 182 182 182 182 182 182 182 182 
182 182 182 182 182 182 182 182 182 182 182 182 182 182 182 182 182 182 
182 182 182 182 182 182 182 182 182 182 182 182 182 182 182 182 182 182 
182 182 182 182 182 182 182 182 182 182 182 182 182 182 182 182 182 182 
182 182 182 182 182 182 182 182 182 182 182 182 182 182 182 182 182 182 
182 182 182 182 182 182 182 182 182 182 182 182 182 182 182 182 182 182 
182 182 182 182 182 182 182 182 182 182 182 182 182 182 182 182 182 182 
182 182 182 182 182 182 182 182 182 182 182 182 182 182 182 182 182 182 
182 182 182 182 182 182 182 182 182 182 182 182 182 182 182 182 182 182 
182 182 182 182 182 182 182 182 182 182 182 182 182 182 182 182 182 182 
182 182 182 182 182 182 182 182 182 182 182 182 182 182 182 182 182 182 
182 182 182 182 182 182 182 182 182 182 182 182 182 182 182 182 182 182 
182 182 182 182 182 182 182 182 182 182 182 182 182 182 182 182 182 182 
182 182 182 182 182 182 182 182 182 182 182 182 182 182 182 182 182 182 
182 182 182 182 182 182 182 182 182 182 182 182 182 182 182 182 182 182 
182 182 182 182 182 182 182 182 182 182 182 182 182 182 182 182 182 182 
182 182 182 182 182 182 182 182 182 182 182 182 182 182 182 182 182 182 
182 182 182 182 182 182 182 182 182 182 182 182 182 182 182 182 182 182 
182 182 182 182 182 182 182 182 182 182 182 182 182 182 182 182 182 182 
182 182 182 182 182 182 182 182 182 182 182 182 182 182 182 182 182 182 
182 182 182 182 182 182 182 182 182 182 182 182 182 182 182 182 182 182 
182 182 182 182 182 182 182 182 182 182 182 182 182 182 182 182 182 182 
182 182 182 182 182 182 182 182 182 182 182 182 182 182 182 182 182 182 
182 182 182 182 182 182 182 182 182 182 182 182 182 182 182 182 182 182 
182 182 182 182 182 182 182 182 182 182 182 182 182 182 182 182 182 182 
182 182 182 182 182 182 182 182 182 182 182 182 182 182 182 182 182 182 
182 182 182 182 182 182 182 182 182 182 182 182 182 182 182 182 182 182 
182 182 182 182 182 182 182 182 182 182 182 182 182 182 182 182 182 182 
182 182 182 182 182 182 182 182 182 182 182 182 182 182 182 182 182 182 
182 182 182 182 182 182 182 182 182 182 182 182 182 182 182 182 182 182 
182 182 182 182 182 182 182 182 182 182 182 182 182 182 182 182 182 182 
182 182 182 182 182 182 182 182 182 182 182 182 182 182 182 182 182 182 
182 182 182 182 182 182 182 182 182 182 182 182 182 182 182 182 182 182 
182 182 182 182 182 182 182 182 182 182 182 182 182 182 182 182 182 182 
182 182 182 182 182 182 182 182 182 182 182 182 182 182 182 182 182 182 
182 182 182 182 182 182 182 182 182 182 182 182 182 182 182 182 182 182 
182 182 182 182 182 182 182 182 182 182 182 182 182 182 182 182 182 182 
182 182 182 182 182 182 182 182 182 182 182 182 182 182 182 182 182 182 
182 182 182 182 182 182 182 182 182 182 182 182 182 182 182 182 182 182 
182 182 182 182 182 182 182 182 182 182 182 182 182 182 182 182 182 182 
182 182 182 182 182 182 182 182 182 182 182 182 182 182 182 182 182 182 
182 182 182 182 182 182 182 182 182 182 182 182 182 182 182 182 182 182 
182 182 182 182 182 182 182 182 182 182 182 182 182 182 182 182 182 182 
182 182 182 182 182 182 182 182 182 182 182 182 182 182 182 182 182 182 
182 182 182 182 182 182 182 182 182 182 182 182 182 182 182 182 182 182 
182 182 182 182 182 182 182 182 182 182 182 182 182 182 182 182 182 182 
182 182 182 182 182 182 182 182 182 182 182 182 182 182 182 182 182 182 
182 182 182 182 182 182 182 182 182 182 182 182 182 182 182 182 182 182 
182 182 182 182 182 182 182 182 182 182 182 182 182 182 182 182 182 182 
182 182 182 182 182 182 182 182 182 182 182 182 182 182 182 182 182 182 
182 182 182 182 182 182 182 182 182 182 182 182 182 182 182 182 182 182 
182 182 182 182 182 182 182 182 182 182 182 182 182 182 182 182 182 182 
182 182 182 182 182 182 182 182 182 182 182 182 182 182 182 182 182 182 
182 182 182 182 182 182 182 182 182 182 182 182 182 182 182 182 182 182 
182 182 182 182 182 182 182 182 182 182 182 182 182 182 182 182 182 182 
182 182 182 182 182 182 182 182 182 182 182 182 182 182 182 182 182 182 
182 182 182 182 182 182 182 182 182 182 182 182 182 182 182 182 182 182 
182 182 182 182 182 182 182 182 182 182 182 182 182 182 182 182 182 182 
182 182 182 182 182 182 182 182 182 182 182 182 182 182 182 182 182 182 
182 182 182 182 182 182 182 182 182 182 182 182 182 182 182 182 182 182 
182 182 182 182 182 182 182 182 182 182 182 182 182 182 182 182 182 182 
182 182 182 182 182 182 182 182 182 182 182 182 182 182 182 182 182 182 
182 182 182 182 182 182 182 182 182 182 182 182 182 182 182 182 182 182 
182 182 182 182 182 182 182 182 182 182 182 182 182 182 182 182 182 182 
182 182 182 182 182 182 182 182 182 182 182 182 182 182 182 182 182 182 
182 182 182 182 182 182 182 182 182 182 182 182 182 182 182 182 182 182 
182 182 182 182 182 182 182 182 182 182 182 182 182 182 182 182 182 182 
182 182 182 182 182 182 182 182 182 182 182 182 182 182 182 182 182 182 
182 182 182 182 182 182 182 182 182 182 182 182 182 182 182 182 182 182 
182 182 182 182 182 182 182 182 182 182 182 182 182 182 182 182 182 182 
182 182 182 182 182 182 182 182 182 182 182 182 182 182 182 182 182 182 
182 182 182 182 182 182 182 182 182 182 182 182 182 182 182 182 182 182 
182 182 182 182 182 182 182 182 182 182 182 182 182 182 182 182 182 182 
182 182 182 182 182 182 182 182 182 182 182 182 182 182 182 182 182 182 
182 182 182 182 182 182 182 182 182 182 182 182 182 182 182 182 182 182 
182 182 182 182 182 182 182 182 182 182 182 182 182 182 182 182 182 182 
182 182 182 182 182 182 182 182 182 182 182 182 182 182 182 182 182 182 
182 182 182 182 182 182 182 182 182 182 182 182 182 182 182 182 182 182 
182 182 182 182 182 182 182 182 182 182 182 182 182 182 182 182 182 182 
182 182 182 182 182 182 182 182 182 182 182 182 182 182 182 182 182 182 
182 182 182 182 182 182 182 182 182 182 182 182 182 182 182 182 182 182 
182 182 182 182 182 182 182 182 182 182 182 182 182 182 182 182 182 182 
182 182 182 182 182 182 182 182 182 182 182 182 182 182 182 182 182 182 
182 182 182 182 182 182 182 182 182 182 182 182 182 182 182 182 182 182 
182 182 182 182 182 182 182 182 182 182 182 182 182 182 182 182 182 182 
182 182 182 182 182 182 182 182 182 182 182 182 182 182 182 182 182 182 
182 182 182 182 182 182 182 182 182 182 182 182 182 182 182 182 182 182 
182 182 182 182 182 182 182 182 182 182 182 182 182 182 182 182 182 182 
182 182 182 182 182 182 182 182 182 182 182 182 182 182 182 182 182 182 
182 182 182 182 182 182 182 182 182 182 182 182 182 182 182 182 182 182 
182 182 182 182 182 182 182 182 182 182 182 182 182 182 182 182 182 182 
182 182 182 182 182 182 182 182 182 182 182 182 182 182 182 182 182 182 
182 182 182 182 182 182 182 182 182 182 182 182 182 182 182 182 182 182 
182 182 182 182 182 182 182 182 182 182 182 182 182 182 182 182 182 182 
182 182 182 182 182 182 182 182 182 182 182 182 182 182 182 182 182 182 
182 182 182 182 182 182 182 182 182 182 182 182 182 182 182 182 182 182 
182 182 182 182 182 182 182 182 182 182 182 182 182 182 182 182 182 182 
182 182 182 182 182 182 182 182 182 182 182 182 182 182 182 182 182 182 
182 182 182 182 182 182 182 182 182 182 182 182 182 182 182 182 182 182 
182 182 182 182 182 182 182 182 182 182 182 182 182 182 182 182 182 182 
182 182 182 182 182 182 182 182 182 182 182 182 182 182 182 182 182 182 
182 182 182 182 182 182 182 182 182 182 182 182 182 182 182 182 182 182 
182 182 182 182 182 182 182 182 182 182 182 182 182 182 182 182 182 182 
182 182 182 182 182 182 182 182 182 182 182 182 182 182 182 182 182 182 
182 182 182 182 182 182 182 182 182 182 182 182 182 182 182 182 182 182 
182 182 182 182 182 182 182 182 182 182 182 182 182 182 182 182 182 182 
182 182 182 182 182 182 182 182 182 182 182 182 182 182 182 182 182 182 
182 182 182 182 182 182 182 182 182 182 182 182 182 182 182 182 182 182 
182 182 182 182 182 182 182 182 182 182 182 182 182 182 182 182 182 182 
182 182 182 182 182 182 182 182 182 182 182 182 182 182 182 182 182 182 
182 182 182 182 182 182 182 182 182 182 182 182 182 182 182 182 182 182 
182 182 182 182 182 182 182 182 182 182 182 182 182 182 182 182 182 182 
182 182 182 182 182 182 182 182 182 182 182 182 182 182 182 182 182 182 
182 182 182 182 182 182 182 182 182 182 182 182 182 182 182 182 182 182 
182 182 182 182 182 182 182 182 182 182 182 182 182 182 182 182 182 182 
182 182 182 182 182 182 182 182 182 182 182 182 182 182 182 182 182 182 
182 182 182 182 182 182 182 182 182 182 182 182 182 182 182 182 182 182 
182 182 182 182 182 182 182 182 182 182 182 182 182 182 182 182 182 182 
182 182 182 182 182 182 182 182 182 182 182 182 182 182 182 182 182 182 
182 182 182 182 182 182 182 182 182 182 182 182 182 182 182 182 182 182 
182 182 182 182 182 182 182 182 182 182 182 182 182 182 182 182 182 182 
182 182 182 182 182 182 182 182 182 182 182 182 182 182 182 182 182 182 
182 182 182 182 182 182 182 182 182 182 182 182 182 182 182 182 182 182 
182 182 182 182 182 182 182 182 182 182 182 182 182 182 182 182 182 182 
182 182 182 182 182 182 182 182 182 182 182 182 182 182 182 182 182 182 
182 182 182 182 182 182 182 182 182 182 182 182 182 182 182 182 182 182 
182 182 182 182 182 182 182 182 182 182 182 182 182 182 182 182 182 182 
182 182 182 182 182 182 182 182 182 182 182 182 182 182 182 182 182 182 
182 182 182 182 182 182 182 182 182 182 182 182 182 182 182 182 182 182 
182 182 182 182 182 182 182 182 182 182 182 182 182 182 182 182 182 182 
182 182 182 182 182 182 182 182 182 182 182 182 182 182 182 182 182 182 
182 182 182 182 182 182 182 182 182 182 182 182 182 182 182 182 182 182 
182 182 182 182 182 182 182 182 182 182 182 182 182 182 182 182 182 182 
182 182 182 182 182 182 182 182 182 182 182 182 182 182 182 182 182 182 
182 182 182 182 182 182 182 182 182 182 182 182 182 182 182 182 182 182 
182 182 182 182 182 182 182 182 182 182 182 182 182 182 182 182 182 182 
182 182 182 182 182 182 182 182 182 182 182 182 182 182 182 182 182 182 
182 182 182 182 182 182 182 182 182 182 182 182 182 182 182 182 182 182 
182 182 182 182 182 182 182 182 182 182 182 182 182 182 182 182 182 182 
182 182 182 182 182 182 182 182 182 182 182 182 182 182 182 182 182 182 
182 182 182 182 182 182 182 182 182 182 182 182 182 182 182 182 182 182 
182 182 182 182 182 182 182 182 182 182 182 182 182 182 182 182 182 182 
182 182 182 182 182 182 182 182 182 182 182 182 182 182 182 182 182 182 
182 182 182 182 182 182 182 182 182 182 182 182 182 182 182 182 182 182 
182 182 182 182 182 182 182 182 182 182 182 182 182 182 182 182 182 182 
182 182 182 182 182 182 182 182 182 182 182 182 182 182 182 182 182 182 
182 182 182 182 182 182 182 182 182 182 182 182 182 182 182 182 182 182 
182 182 182 182 182 182 182 182 182 182 182 182 182 182 182 182 182 182 
182 182 182 182 182 182 182 182 182 182 182 182 182 182 182 182 182 182 
182 182 182 182 182 182 182 182 182 182 182 182 182 182 182 182 182 182 
182 182 182 182 182 182 182 182 182 182 182 182 182 182 182 182 182 182 
182 182 182 182 182 182 182 182 182 182 182 182 182 182 182 182 182 182 
182 182 182 182 182 182 182 182 182 182 182 182 182 182 182 182 182 182 
182 182 182 182 182 182 182 182 182 182 182 182 182 182 182 182 182 182 
182 182 182 182 182 182 182 182 182 182 182 182 182 182 182 182 182 182 
182 182 182 182 182 182 182 182 182 182 182 182 182 182 182 182 182 182 
182 182 182 182 182 182 182 182 182 182 182 182 182 182 182 182 182 182 
182 182 182 182 182 182 182 182 182 182 182 182 182 182 182 182 182 182 
182 182 182 182 182 182 182 182 182 182 182 182 182 182 182 182 182 182 
182 182 182 182 182 182 182 182 182 182 182 182 182 182 182 182 182 182 
182 182 182 182 182 182 182 182 182 182 182 182 182 182 182 182 182 182 
182 182 182 182 182 182 182 182 182 182 182 182 182 182 182 182 182 182 
182 182 182 182 182 182 182 182 182 182 182 182 182 182 182 182 182 182 
182 182 182 182 182 182 182 182 182 182 182 182 182 182 182 182 182 182 
182 182 182 182 182 182 182 182 182 182 182 182 182 182 182 182 182 182 
182 182 182 182 182 182 182 182 182 182 182 182 182 182 182 182 182 182 
182 182 182 182 182 182 182 182 182 182 182 182 182 182 182 182 182 182 
182 182 182 182 182 182 182 182 182 182 182 182 182 182 182 182 182 182 
182 182 182 182 182 182 182 182 182 182 182 182 182 182 182 182 182 182 
182 182 182 182 182 182 182 182 182 182 182 182 182 182 182 182 182 182 
182 182 182 182 182 182 182 182 182 182 182 182 182 182 182 182 182 182 
182 182 182 182 182 182 182 182 182 182 182 182 182 182 182 182 182 182 
182 182 182 182 182 182 182 182 182 182 182 182 182 182 182 182 182 182 
182 182 182 182 182 182 182 182 182 182 182 182 182 182 182 182 182 182 
182 182 182 182 182 182 182 182 182 182 182 182 182 182 182 182 182 182 
182 182 182 182 182 182 182 182 182 182 182 182 182 182 182 182 182 182 
182 182 182 182 182 182 182 182 182 182 182 182 182 182 182 182 182 182 
182 182 182 182 182 182 182 182 182 182 182 182 182 182 182 182 182 182 
182 182 182 182 182 182 182 182 182 182 182 182 182 182 182 182 182 182 
182 182 182 182 182 182 182 182 182 182 182 182 182 182 182 182 182 182 
182 182 182 182 182 182 182 182 182 182 182 182 182 182 182 182 182 182 
182 182 182 182 182 182 182 182 182 182 182 182 182 182 182 182 182 182 
182 182 182 182 182 182 182 182 182 182 182 182 182 182 182 182 182 182 
182 182 182 182 182 182 182 182 182 182 182 182 182 182 182 182 182 182 
182 182 182 182 182 182 182 182 182 182 182 182 182 182 182 182 182 182 
182 182 182 182 182 182 182 182 182 182 182 182 182 182 182 182 182 182 
182 182 182 182 182 182 182 182 182 182 182 182 182 182 182 182 182 182 
182 182 182 182 182 182 182 182 182 182 182 182 182 182 182 182 182 182 
182 182 182 182 182 182 182 182 182 182 182 182 182 182 182 182 182 182 
182 182 182 182 182 182 182 182 182 182 182 182 182 182 182 182 182 182 
182 182 182 182 182 182 182 182 182 182 182 182 182 182 182 182 182 182 
182 182 182 182 182 182 182 182 182 182 182 182 182 182 182 182 182 182 
182 182 182 182 182 182 182 182 182 182 182 182 182 182 182 182 182 182 
182 182 182 182 182 182 182 182 182 182 182 182 182 182 182 182 182 182 
182 182 182 182 182 182 182 182 182 182 182 182 182 182 182 182 182 182 
182 182 182 182 182 182 182 182 182 182 182 182 182 182 182 182 182 182 
182 182 182 182 182 182 182 182 182 182 182 182 182 182 182 182 182 182 
182 182 182 182 182 182 182 182 182 182 182 182 182 182 182 182 182 182 
182 182 182 182 182 182 182 182 182 182 182 182 182 182 182 182 182 182 
182 182 182 182 182 182 182 182 182 182 182 182 182 182 182 182 182 182 
182 182 182 182 182 182 182 182 182 182 182 182 182 182 182 182 182 182 
182 182 182 182 182 182 182 182 182 182 182 182 182 182 182 182 182 182 
182 182 182 182 182 182 182 182 182 182 182 182 182 182 182 182 182 182 
182 182 182 182 182 182 182 182 182 182 182 182 182 182 182 182 182 182 
182 182 182 182 182 182 182 182 182 182 182 182 182 182 182 182 182 182 
182 182 182 182 182 182 182 182 182 182 182 182 182 182 182 182 182 182 
182 182 182 182 182 182 182 182 182 182 182 182 182 182 182 182 182 182 
182 182 182 182 182 182 182 182 182 182 182 182 182 182 182 182 182 182 
182 182 182 182 182 182 182 182 182 182 182 182 182 182 182 182 182 182 
182 182 182 182 182 182 182 182 182 182 182 182 182 182 182 182 182 182 
182 182 182 182 182 182 182 182 182 182 182 182 182 182 182 182 182 182 
182 182 182 182 182 182 182 182 182 182 182 182 182 182 182 182 182 182 
182 182 182 182 182 182 182 182 182 182 182 182 182 182 182 182 182 182 
182 182 182 182 182 182 182 182 182 182 182 182 182 182 182 182 182 182 
182 182 182 182 182 182 182 182 182 182 182 182 182 182 182 182 182 182 
182 182 182 182 182 182 182 182 182 182 182 182 182 182 182 182 182 182 
182 182 182 182 182 182 182 182 182 182 182 182 182 182 182 182 182 182 
182 182 182 182 182 182 182 182 182 182 182 182 182 182 182 182 182 182 
182 182 182 182 182 182 182 182 182 182 182 182 182 182 182 182 182 182 
182 182 182 182 182 182 182 182 182 182 182 182 182 182 182 182 182 182 
182 182 182 182 182 182 182 182 182 182 182 182 182 182 182 182 182 182 
182 182 182 182 182 182 182 182 182 182 182 182 182 182 182 182 182 182 
182 182 182 182 182 182 182 182 182 182 182 182 182 182 182 182 182 182 
182 182 182 182 182 182 182 182 182 182 182 182 182 182 182 182 182 182 
182 182 182 182 182 182 182 182 182 182 182 182 182 182 182 182 182 182 
182 182 182 182 182 182 182 182 182 182 182 182 182 182 182 182 182 182 
182 182 182 182 182 182 182 182 182 182 182 182 182 182 182 182 182 182 
182 182 182 182 182 182 182 182 182 182 182 182 182 182 182 182 182 182 
182 182 182 182 182 182 182 182 182 182 182 182 182 182 182 182 182 182 
182 182 182 182 182 182 182 182 182 182 182 182 182 182 182 182 182 182 
182 182 182 182 182 182 182 182 182 182 182 182 182 182 182 182 182 182 
182 182 182 182 182 182 182 182 182 182 182 182 182 182 182 182 182 182 
182 182 182 182 182 182 182 182 182 182 182 182 182 182 182 182 182 182 
182 182 182 182 182 182 182 182 182 182 182 182 182 182 182 182 182 182 
182 182 182 182 182 182 182 182 182 182 182 182 182 182 182 182 182 182 
182 182 182 182 182 182 182 182 182 182 182 182 182 182 182 182 182 182 
182 182 182 182 182 182 182 182 182 182 182 182 182 182 182 182 182 182 
182 182 182 182 182 182 182 182 182 182 182 182 182 182 182 182 182 182 
182 182 182 182 182 182 182 182 182 182 182 182 182 182 182 182 182 182 
182 182 182 182 182 182 182 182 182 182 182 182 182 182 182 182 182 182 
182 182 182 182 182 182 182 182 182 182 182 182 182 182 182 182 182 182 
182 182 182 182 182 182 182 182 182 182 182 182 182 182 182 182 182 182 
182 182 182 182 182 182 182 182 182 182 182 182 182 182 182 182 182 182 
182 182 182 182 182 182 182 182 182 182 182 182 182 182 182 182 182 182 
182 182 182 182 182 182 182 182 182 182 182 182 182 182 182 182 182 182 
182 182 182 182 182 182 182 182 182 182 182 182 182 182 182 182 182 182 
182 182 182 182 182 182 182 182 182 182 182 182 182 182 182 182 182 182 
182 182 182 182 182 182 182 182 182 182 182 182 182 182 182 182 182 182 
182 182 182 182 182 182 182 182 182 182 182 182 182 182 182 182 182 182 
182 182 182 182 182 182 182 182 182 182 182 182 182 182 182 182 182 182 
182 182 182 182 182 182 182 182 182 182 182 182 182 182 182 182 182 182 
182 182 182 182 182 182 182 182 182 182 182 182 182 182 182 182 182 182 
182 182 182 182 182 182 182 182 182 182 182 182 182 182 182 182 182 182 
182 182 182 182 182 182 182 182 182 182 182 182 182 182 182 182 182 182 
182 182 182 182 182 182 182 182 182 182 182 182 182 182 182 182 182 182 
182 182 182 182 182 182 182 182 182 182 182 182 182 182 182 182 182 182 
182 182 182 182 182 182 182 182 182 182 182 182 182 182 182 182 182 182 
182 182 182 182 182 182 182 182 182 182 182 182 182 182 182 182 182 182 
182 182 182 182 182 182 182 182 182 182 182 182 182 182 182 182 182 182 
182 182 182 182 182 182 182 182 182 182 182 182 182 182 182 182 182 182 
182 182 182 182 182 182 182 182 182 182 182 182 182 182 182 182 182 182 
182 182 182 182 182 182 182 182 182 182 182 182 182 182 182 182 182 182 
182 182 182 182 182 182 182 182 182 182 182 182 182 182 182 182 182 182 
182 182 182 182 182 182 182 182 182 182 182 182 182 182 182 182 182 182 
182 182 182 182 182 182 182 182 182 182 182 182 182 182 182 182 182 182 
182 182 182 182 182 182 182 182 182 182 182 182 182 182 182 182 182 182 
182 182 182 182 182 182 182 182 182 182 182 182 182 182 182 182 182 182 
182 182 182 182 182 182 182 182 182 182 182 182 182 182 182 182 182 182 
182 182 182 182 182 182 182 182 182 182 182 182 182 182 182 182 182 182 
182 182 182 182 182 182 182 182 182 182 182 182 182 182 182 182 182 182 
182 182 182 182 182 182 182 182 182 182 182 182 182 182 182 182 182 182 
182 182 182 182 182 182 182 182 182 182 182 182 182 182 182 182 182 182 
182 182 182 182 182 182 182 182 182 182 182 182 182 182 182 182 182 182 
182 182 182 182 182 182 182 182 182 182 182 182 182 182 182 182 182 182 
182 182 182 182 182 182 182 182 182 182 182 182 182 182 182 182 182 182 
182 182 182 182 182 182 182 182 182 182 182 182 182 182 182 182 182 182 
182 182 182 182 182 182 182 182 182 182 182 182 182 182 182 182 182 182 
182 182 182 182 182 182 182 182 182 182 182 182 182 182 182 182 182 182 
182 182 182 182 182 182 182 182 182 182 182 182 182 182 182 182 182 182 
182 182 182 182 182 182 182 182 182 182 182 182 182 182 182 182 182 182 
182 182 182 182 182 182 182 182 182 182 182 182 182 182 182 182 182 182 
182 182 182 182 182 182 182 182 182 182 182 182 182 182 182 182 182 182 
182 182 182 182 182 182 182 182 182 182 182 182 182 182 182 182 182 182 
182 182 182 182 182 182 182 182 182 182 182 182 182 182 182 182 182 182 
182 182 182 182 182 182 182 182 182 182 182 182 182 182 182 182 182 182 
182 182 182 182 182 182 182 182 182 182 182 182 182 182 182 182 182 182 
182 182 182 182 182 182 182 182 182 182 182 182 182 182 182 182 182 182 
182 182 182 182 182 182 182 182 182 182 182 182 182 182 182 182 182 182 
182 182 182 182 182 182 182 182 182 182 182 182 182 182 182 182 182 182 
182 182 182 182 182 182 182 182 182 182 182 182 182 182 182 182 182 182 
182 182 182 182 182 182 182 182 182 182 182 182 182 182 182 182 182 182 
182 182 182 182 182 182 182 182 182 182 182 182 182 182 182 182 182 182 
182 182 182 182 182 182 182 182 182 182 182 182 182 182 182 182 182 182 
182 182 182 182 182 182 182 182 182 182 182 182 182 182 182 182 182 182 
182 182 182 182 182 182 182 182 182 182 182 182 182 182 182 182 182 182 
182 182 182 182 182 182 182 182 182 182 182 182 182 182 182 182 182 182 
182 182 182 182 182 182 182 182 182 182 182 182 182 182 182 182 182 182 
182 182 182 182 182 182 182 182 182 182 182 182 182 182 182 182 182 182 
182 182 182 182 182 182 182 182 182 182 182 182 182 182 182 182 182 182 
182 182 182 182 182 182 182 182 182 182 182 182 182 182 182 182 182 182 
182 182 182 182 182 182 182 182 182 182 182 182 182 182 182 182 182 182 
182 182 182 182 182 182 182 182 182 182 182 182 182 182 182 182 182 182 
182 182 182 182 182 182 182 182 182 182 182 182 182 182 182 182 182 182 
182 182 182 182 182 182 182 182 182 182 182 182 182 182 182 182 182 182 
182 182 182 182 182 182 182 182 182 182 182 182 182 182 182 182 182 182 
182 182 182 182 182 182 182 182 182 182 182 182 182 182 182 182 182 182 
182 182 182 182 182 182 182 182 182 182 182 182 182 182 182 182 182 182 
182 182 182 182 182 182 182 182 182 182 182 182 182 182 182 182 182 182 
182 182 182 182 182 182 182 182 182 182 182 182 182 182 182 182 182 182 
182 182 182 182 182 182 182 182 182 182 182 182 182 182 182 182 182 182 
182 182 182 182 182 182 182 182 182 182 182 182 182 182 182 182 182 182 
182 182 182 182 182 182 182 182 182 182 182 182 182 182 182 182 182 182 
182 182 182 182 182 182 182 182 182 182 182 182 182 182 182 182 182 182 
182 182 182 182 182 182 182 182 182 182 182 182 182 182 182 182 182 182 
182 182 182 182 182 182 182 182 182 182 182 182 182 182 182 182 182 182 
182 182 182 182 182 182 182 182 182 182 182 182 182 182 182 182 182 182 
182 182 182 182 182 182 182 182 182 182 182 182 182 182 182 182 182 182 
182 182 182 182 182 182 182 182 182 182 182 182 182 182 182 182 182 182 
182 182 182 182 182 182 182 182 182 182 182 182 182 182 182 182 182 182 
182 182 182 182 182 182 182 182 182 182 182 182 182 182 182 182 182 182 
182 182 182 182 182 182 182 182 182 182 182 182 182 182 182 182 182 182 
182 182 182 182 182 182 182 182 182 182 182 182 182 182 182 182 182 182 
182 182 182 182 182 182 182 182 182 182 182 182 182 182 182 182 182 182 
182 182 182 182 182 182 182 182 182 182 182 182 182 182 182 182 182 182 
182 182 182 182 182 182 182 182 182 182 182 182 182 182 182 182 182 182 
182 182 182 182 182 182 182 182 182 182 182 182 182 182 182 182 182 182 
182 182 182 182 182 182 182 182 182 182 182 182 182 182 182 182 182 182 
182 182 182 182 182 182 182 182 182 182 182 182 182 182 182 182 182 182 
182 182 182 182 182 182 182 182 182 182 182 182 182 182 182 182 182 182 
182 182 182 182 182 182 182 182 182 182 182 182 182 182 182 182 182 182 
182 182 182 182 182 182 182 182 182 182 182 182 182 182 182 182 182 182 
182 182 182 182 182 182 182 182 182 182 182 182 182 182 182 182 182 182 
182 182 182 182 182 182 182 182 182 182 182 182 182 182 182 182 182 182 
182 182 182 182 182 182 182 182 182 182 182 182 182 182 182 182 182 182 
182 182 182 182 182 182 182 182 182 182 182 182 182 182 182 182 182 182 
182 182 182 182 182 182 182 182 182 182 182 182 182 182 182 182 182 182 
182 182 182 182 182 182 182 182 182 182 182 182 182 182 182 182 182 182 
182 182 182 182 182 182 182 182 182 182 182 182 182 182 182 182 182 182 
182 182 182 182 182 182 182 182 182 182 182 182 182 182 182 182 182 182 
182 182 182 182 182 182 182 182 182 182 182 182 182 182 182 182 182 182 
182 182 182 182 182 182 182 182 182 182 182 182 182 182 182 182 182 182 
182 182 182 182 182 182 182 182 182 182 182 182 182 182 182 182 182 182 
182 182 182 182 182 182 182 182 182 182 182 182 182 182 182 182 182 182 
182 182 182 182 182 182 182 182 182 182 182 182 182 182 182 182 182 182 
182 182 182 182 182 182 182 182 182 182 182 182 182 182 182 182 182 182 
182 182 182 182 182 182 182 182 182 182 182 182 182 182 182 182 182 182 
182 182 182 182 182 182 182 182 182 182 182 182 182 182 182 182 182 182 
182 182 182 182 182 182 182 182 182 182 182 182 182 182 182 182 182 182 
182 182 182 182 182 182 182 182 182 182 182 182 182 182 182 182 182 182 
182 182 182 182 182 182 182 182 182 182 182 182 182 182 182 182 182 182 
182 182 182 182 182 182 182 182 182 182 182 182 182 182 182 182 182 182 
182 182 182 182 182 182 182 182 182 182 182 182 182 182 182 182 182 182 
182 182 182 182 182 182 182 182 182 182 182 182 182 182 182 182 182 182 
182 182 182 182 182 182 182 182 182 182 182 182 182 182 182 182 182 182 
182 182 182 182 182 182 182 182 182 182 182 182 182 182 182 182 182 182 
182 182 182 182 182 182 182 182 182 182 182 182 182 182 182 182 182 182 
182 182 182 182 182 182 182 182 182 182 182 182 182 182 182 182 182 182 
182 182 182 182 182 182 182 182 182 182 182 182 182 182 182 182 182 182 
182 182 182 182 182 182 182 182 182 182 182 182 182 182 182 182 182 182 
182 182 182 182 182 182 182 182 182 182 182 182 182 182 182 182 182 182 
182 182 182 182 182 182 182 182 182 182 182 182 182 182 182 182 182 182 
182 182 182 182 182 182 182 182 182 182 182 182 182 182 182 182 182 182 
182 182 182 182 182 182 182 182 182 182 182 182 182 182 182 182 182 182 
182 182 182 182 182 182 182 182 182 182 182 182 182 182 182 182 182 182 
182 182 182 182 182 182 182 182 182 182 182 182 182 182 182 182 182 182 
182 182 182 182 182 182 182 182 182 182 182 182 182 182 182 182 182 182 
182 182 182 182 182 182 182 182 182 182 182 182 182 182 182 182 182 182 
182 182 182 182 182 182 182 182 182 182 182 182 182 182 182 182 182 182 
182 182 182 182 182 182 182 182 182 182 182 182 182 182 182 182 182 182 
182 182 182 182 182 182 182 182 182 182 182 182 182 182 182 182 182 182 
182 182 182 182 182 182 182 182 182 182 182 182 182 182 182 182 182 182 
182 182 182 182 182 182 182 182 182 182 182 182 182 182 182 182 182 182 
182 182 182 182 182 182 182 182 182 182 182 182 182 182 182 182 182 182 
182 182 182 182 182 182 182 182 182 182 182 182 182 182 182 182 182 182 
182 182 182 182 182 182 182 182 182 182 182 182 182 182 182 182 182 182 
182 182 182 182 182 182 182 182 182 182 182 182 182 182 182 182 182 182 
182 182 182 182 182 182 182 182 182 182 182 182 182 182 182 182 182 182 
182 182 182 182 182 182 182 182 182 182 182 182 182 182 182 182 182 182 
182 182 182 182 182 182 182 182 182 182 182 182 182 182 182 182 182 182 
182 182 182 182 182 182 182 182 182 182 182 182 182 182 182 182 182 182 
182 182 182 182 182 182 182 182 182 182 182 182 182 182 182 182 182 182 
182 182 182 182 182 182 182 182 182 182 182 182 182 182 182 182 182 182 
182 182 182 182 182 182 182 182 182 182 182 182 182 182 182 182 182 182 
182 182 182 182 182 182 182 182 182 182 182 182 182 182 182 182 182 182 
182 182 182 182 182 182 182 182 182 182 182 182 182 182 182 182 182 182 
182 182 182 182 182 182 182 182 182 182 182 182 182 182 182 182 182 182 
182 182 182 182 182 182 182 182 182 182 182 182 182 182 182 182 182 182 
182 182 182 182 182 182 182 182 182 182 182 182 182 182 182 182 182 182 
182 182 182 182 182 182 182 182 182 182 182 182 182 182 182 182 182 182 
182 182 182 182 182 182 182 182 182 182 182 182 182 182 182 182 182 182 
182 182 182 182 182 182 182 182 182 182 182 182 182 182 182 182 182 182 
182 182 182 182 182 182 182 182 182 182 182 182 182 182 182 182 182 182 
182 182 182 182 182 182 182 182 182 182 182 182 182 182 182 182 182 182 
182 182 182 182 182 182 182 182 182 182 182 182 182 182 182 182 182 182 
182 182 182 182 182 182 182 182 182 182 182 182 182 182 182 182 182 182 
182 182 182 182 182 182 182 182 182 182 182 182 182 182 182 182 182 182 
182 182 182 182 182 182 182 182 182 182 182 182 182 182 182 182 182 182 
182 182 182 182 182 182 182 182 182 182 182 182 182 182 182 182 182 182 
182 182 182 182 182 182 182 182 182 182 182 182 182 182 182 182 182 182 
182 182 182 182 182 182 182 182 182 182 182 182 182 182 182 182 182 182 
182 182 182 182 182 182 182 182 182 182 182 182 182 182 182 182 182 182 
182 182 182 182 182 182 182 182 182 182 182 182 182 182 182 182 182 182 
182 182 182 182 182 182 182 182 182 182 182 182 182 182 182 182 182 182 
182 182 182 182 182 182 182 182 182 182 182 182 182 182 182 182 182 182 
182 182 182 182 182 182 182 182 182 182 182 182 182 182 182 182 182 182 
182 182 182 182 182 182 182 182 182 182 182 182 182 182 182 182 182 182 
182 182 182 182 182 182 182 182 182 182 182 182 182 182 182 182 182 182 
182 182 182 182 182 182 182 182 182 182 182 182 182 182 182 182 182 182 
146 146 146 146 146 146 146 146 146 146 146 146 146 146 146 146 146 146 
146 146 146 146 146 146 146 146 146 146 146 146 146 146 146 146 146 146 
146 146 146 146 146 146 146 146 146 146 146 146 146 146 146 146 146 146 
146 146 146 146 146 146 146 146 146 146 146 146 146 146 146 146 146 146 
146 146 146 146 146 146 146 146 146 146 146 146 146 146 146 146 146 146 
146 146 146 146 146 146 146 146 146 146 146 146 146 146 146 146 146 146 
146 146 146 146 146 146 146 146 146 146 146 146 146 146 146 146 146 146 
146 146 146 146 146 146 146 146 146 146 146 146 146 146 146 146 146 146 
146 146 146 146 146 146 146 146 146 146 146 146 146 146 146 146 146 146 
146 146 146 146 146 146 146 146 146 146 146 146 146 146 146 146 146 146 
146 146 146 146 146 146 146 146 146 146 146 146 146 146 146 146 146 146 
146 146 146 146 146 146 146 146 146 146 146 146 146 146 146 146 146 146 
146 146 146 146 146 146 146 146 146 146 146 146 146 146 146 146 146 146 
146 146 146 146 146 146 146 146 146 146 146 146 146 146 146 146 146 146 
146 146 146 146 146 146 146 146 146 146 146 146 146 146 146 146 146 146 
146 146 146 146 146 146 146 146 146 146 146 146 146 146 146 146 146 146 
146 146 146 146 146 146 146 146 146 146 146 146 146 146 146 146 146 146 
146 146 146 146 146 146 146 146 146 146 146 146 146 146 146 146 146 146 
146 146 146 146 146 146 146 146 146 146 146 146 146 146 146 146 146 146 
146 146 146 146 146 146 146 146 146 146 146 146 146 146 146 146 146 146 
146 146 146 146 146 146 146 146 146 146 146 146 146 146 146 146 146 146 
146 146 146 146 146 146 146 146 146 146 146 146 146 146 146 146 146 146 
146 146 146 146 146 146 146 146 146 146 146 146 146 146 146 146 146 146 
146 146 146 146 146 146 146 146 146 146 146 146 146 146 146 146 146 146 
146 146 146 146 146 146 146 146 146 146 146 146 146 146 146 146 146 146 
146 146 146 146 146 146 146 146 146 146 146 146 146 146 146 146 146 146 
146 146 146 146 146 146 146 146 146 146 146 146 146 146 146 146 146 146 
146 146 146 146 146 146 146 146 146 146 146 146 146 146 146 146 146 146 
146 146 146 146 146 146 146 146 146 146 146 146 146 146 146 146 146 146 
146 146 146 146 146 146 146 146 146 146 146 146 146 146 146 146 146 146 
146 146 146 146 146 146 146 146 146 146 146 146 146 146 146 146 146 146 
146 146 146 146 146 146 146 146 146 146 146 146 146 146 146 146 146 146 
146 146 146 146 146 146 146 146 146 146 146 146 146 146 146 146 146 146 
146 146 146 146 146 146 146 146 146 146 146 146 146 146 146 146 146 146 
146 146 146 146 146 146 146 146 146 146 146 146 146 146 146 146 146 146 
146 146 146 146 146 146 146 146 146 146 146 146 146 146 146 146 146 146 
146 146 146 146 146 146 146 146 146 146 146 146 146 146 146 146 146 146 
146 146 146 146 146 146 146 146 146 146 146 146 146 146 146 146 146 146 
146 146 146 146 146 146 146 146 146 146 146 146 146 146 146 146 146 146 
146 146 146 146 146 146 146 146 146 146 146 146 146 146 146 146 146 146 
146 146 146 146 146 146 146 146 146 146 146 146 146 146 146 146 146 146 
146 146 146 146 146 146 146 146 146 146 146 146 146 146 146 146 146 146 
146 146 146 146 146 146 146 146 146 146 146 146 146 146 146 146 146 146 
146 146 146 146 146 146 146 146 146 146 146 146 146 146 146 146 146 146 
146 146 146 146 146 146 146 146 146 146 146 146 146 146 146 146 146 146 
146 146 146 146 146 146 146 146 146 146 146 146 146 146 146 146 146 146 
146 146 146 146 146 146 146 146 146 146 146 146 146 146 146 146 146 146 
146 146 146 146 146 146 146 146 146 146 146 146 146 146 146 146 146 146 
146 146 146 146 146 146 146 146 146 146 146 146 146 146 146 146 146 146 
146 146 146 146 146 146 146 146 146 146 146 146 146 146 146 146 146 146 
146 146 146 146 146 146 146 146 146 146 146 146 146 146 146 146 146 146 
146 146 146 146 146 146 146 146 146 146 146 146 146 146 146 146 146 146 
146 146 146 146 146 146 146 146 146 146 146 146 146 146 146 146 146 146 
146 146 146 146 146 146 146 146 146 146 146 146 146 146 146 146 146 146 
146 146 146 146 146 146 146 146 146 146 146 146 146 146 146 146 146 146 
146 146 146 146 146 146 146 146 146 146 146 146 146 146 146 146 146 146 
146 146 146 146 146 146 146 146 146 146 146 146 146 146 146 146 146 146 
146 146 146 146 146 146 146 146 146 146 146 146 146 146 146 146 146 146 
146 146 146 146 146 146 146 146 146 146 146 146 146 146 146 146 146 146 
146 146 146 146 146 146 146 146 146 146 146 146 146 146 146 146 146 146 
146 146 146 146 146 146 146 146 146 146 146 146 146 146 146 146 146 146 
146 146 146 146 146 146 146 146 146 146 146 146 146 146 146 146 146 146 
146 146 146 146 146 146 146 146 146 146 146 146 146 146 146 146 146 146 
146 146 146 146 146 146 146 146 146 146 146 146 146 146 146 146 146 146 
146 146 146 146 146 146 146 146 146 146 146 146 146 146 146 146 146 146 
146 146 146 146 146 146 146 146 146 146 146 146 146 146 146 146 146 146 
146 146 146 146 146 146 146 146 146 146 146 146 146 146 146 146 146 146 
146 146 146 146 146 146 146 146 146 146 146 146 146 146 146 146 146 146 
146 146 146 146 146 146 146 146 146 146 146 146 146 146 146 146 146 146 
146 146 146 146 146 146 146 146 146 146 146 146 146 146 146 146 146 146 
146 146 146 146 146 146 146 146 146 146 146 146 146 146 146 146 146 146 
146 146 146 146 146 146 146 146 146 146 146 146 146 146 146 146 146 146 
146 146 146 146 146 146 146 146 146 146 146 146 146 146 146 146 146 146 
146 146 146 146 146 146 146 146 146 146 146 146 146 146 146 146 146 146 
146 146 146 146 146 146 146 146 146 146 146 146 146 146 146 146 146 146 
146 146 146 146 146 146 146 146 146 146 146 146 146 146 146 146 146 146 
146 146 146 146 146 146 146 146 146 146 146 146 146 146 146 146 146 146 
146 146 146 146 146 146 146 146 146 146 146 146 146 146 146 146 146 146 
146 146 146 146 146 146 146 146 146 146 146 146 146 146 146 146 146 146 
146 146 146 146 146 146 146 146 146 146 146 146 146 146 146 146 146 146 
146 146 146 146 146 146 146 146 146 146 146 146 146 146 146 146 146 146 
146 146 146 146 146 146 146 146 146 146 146 146 146 146 146 146 146 146 
146 146 146 146 146 146 146 146 146 146 146 146 146 146 146 146 146 146 
146 146 146 146 146 146 146 146 146 146 146 146 146 146 146 146 146 146 
146 146 146 146 146 146 146 146 146 146 146 146 146 146 146 146 146 146 
146 146 146 146 146 146 146 146 146 146 146 146 146 146 146 146 146 146 
146 146 146 146 146 146 146 146 146 146 146 146 146 146 146 146 146 146 
146 146 146 146 146 146 146 146 146 146 146 146 146 146 146 146 146 146 
146 146 146 146 146 146 146 146 146 146 146 146 146 146 146 146 146 146 
146 146 146 146 146 146 146 146 146 146 146 146 146 146 146 146 146 146 
146 146 146 146 146 146 146 146 146 146 146 146 146 146 146 146 146 146 
146 146 146 146 146 146 146 146 146 146 146 146 146 146 146 146 146 146 
146 146 146 146 146 146 146 146 146 146 146 146 146 146 146 146 146 146 
146 146 146 146 146 146 146 146 146 146 146 146 146 146 146 146 146 146 
146 146 146 146 146 146 146 146 146 146 146 146 146 146 146 146 146 146 
146 146 146 146 146 146 146 146 146 146 146 146 146 146 146 146 146 146 
146 146 146 146 146 146 146 146 146 146 146 146 146 146 146 146 146 146 
146 146 146 146 146 146 146 146 146 146 146 146 146 146 146 146 146 146 
146 146 146 146 146 146 146 146 146 146 146 146 146 146 146 146 146 146 
146 146 146 146 146 146 146 146 146 146 146 146 146 146 146 146 146 146 
146 146 146 146 146 146 146 146 146 146 146 146 146 146 146 146 146 146 
146 146 146 146 146 146 146 146 146 146 146 146 146 146 146 146 146 146 
146 146 146 146 146 146 146 146 146 146 146 146 146 146 146 146 146 146 
146 146 146 146 146 146 146 146 146 146 146 146 146 146 146 146 146 146 
146 146 146 146 146 146 146 146 146 146 146 146 146 146 146 146 146 146 
146 146 146 146 146 146 146 146 146 146 146 146 146 146 146 146 146 146 
146 146 146 146 146 146 146 146 146 146 146 146 146 146 146 146 146 146 
146 146 146 146 146 146 146 146 146 146 146 146 146 146 146 146 146 146 
146 146 146 146 146 146 146 146 146 146 146 146 146 146 146 146 146 146 
146 146 146 146 146 146 146 146 146 146 146 146 146 146 146 146 146 146 
146 146 146 146 146 146 146 146 146 146 146 146 146 146 146 146 146 146 
146 146 146 146 146 146 146 146 146 146 146 146 146 146 146 146 146 146 
146 146 146 146 146 146 146 146 146 146 146 146 146 146 146 146 146 146 
146 146 146 146 146 146 146 146 146 146 146 146 146 146 146 146 146 146 
146 146 146 146 146 146 146 146 146 146 146 146 146 146 146 146 146 146 
146 146 146 146 146 146 146 146 146 146 146 146 146 146 146 146 146 146 
146 146 146 146 146 146 146 146 146 146 146 146 146 146 146 146 146 146 
146 146 146 146 146 146 146 146 146 146 146 146 146 146 146 146 146 146 
146 146 146 146 146 146 146 146 146 146 146 146 146 146 146 146 146 146 
146 146 146 146 146 146 146 146 146 146 146 146 146 146 146 146 146 146 
146 146 146 146 146 146 146 146 146 146 146 146 146 146 146 146 146 146 
146 146 146 146 146 146 146 146 146 146 146 146 146 146 146 146 146 146 
146 146 146 146 146 146 146 146 146 146 146 146 146 146 146 146 146 146 
146 146 146 146 146 146 146 146 146 146 146 146 146 146 146 146 146 146 
146 146 146 146 146 146 146 146 146 146 146 146 146 146 146 146 146 146 
146 146 146 146 146 146 146 146 146 146 146 146 146 146 146 146 146 146 
146 146 146 146 146 146 146 146 146 146 146 146 146 146 146 146 146 146 
146 146 146 146 146 146 146 146 146 146 146 146 146 146 146 146 146 146 
146 146 146 146 146 146 146 146 146 146 146 146 146 146 146 146 146 146 
146 146 146 146 146 146 146 146 146 146 146 146 146 146 146 146 146 146 
146 146 146 146 146 146 146 146 146 146 146 146 146 146 146 146 146 146 
146 146 146 146 146 146 146 146 146 146 146 146 146 146 146 146 146 146 
146 146 146 146 146 146 146 146 146 146 146 146 146 146 146 146 146 146 
146 146 146 146 146 146 146 146 146 146 146 146 146 146 146 146 146 146 
146 146 146 146 146 146 146 146 146 146 146 146 146 146 146 146 146 146 
146 146 146 146 146 146 146 146 146 146 146 146 146 146 146 146 146 146 
146 146 146 146 146 146 146 146 146 146 146 146 146 146 146 146 146 146 
146 146 146 146 146 146 146 146 146 146 146 146 146 146 146 146 146 146 
146 146 146 146 146 146 146 146 146 146 146 146 146 146 146 146 146 146 
146 146 146 146 146 146 146 146 146 146 146 146 146 146 146 146 146 146 
146 146 146 146 146 146 146 146 146 146 146 146 146 146 146 146 146 146 
146 146 146 146 146 146 146 146 146 146 146 146 146 146 146 146 146 146 
146 146 146 146 146 146 146 146 146 146 146 146 146 146 146 146 146 146 
146 146 146 146 146 146 146 146 146 146 146 146 146 146 146 146 146 146 
146 146 146 146 146 146 146 146 146 146 146 146 146 146 146 146 146 146 
146 146 146 146 146 146 146 146 146 146 146 146 146 146 146 146 146 146 
146 146 146 146 146 146 146 146 146 146 146 146 146 146 146 146 146 146 
146 146 146 146 146 146 146 146 146 146 146 146 146 146 146 146 146 146 
146 146 146 146 146 146 146 146 146 146 146 146 146 146 146 146 146 146 
146 146 146 146 146 146 146 146 146 146 146 146 146 146 146 146 146 146 
146 146 146 146 146 146 146 146 146 146 146 146 146 146 146 146 146 146 
146 146 146 146 146 146 146 146 146 146 146 146 146 146 146 146 146 146 
146 146 146 146 146 146 146 146 146 146 146 146 146 146 146 146 146 146 
146 146 146 146 146 146 146 146 146 146 146 146 146 146 146 146 146 146 
146 146 146 146 146 146 146 146 146 146 146 146 146 146 146 146 146 146 
146 146 146 146 146 146 146 146 146 146 146 146 146 146 146 146 146 146 
146 146 146 146 146 146 146 146 146 146 146 146 146 146 146 146 146 146 
146 146 146 146 146 146 146 146 146 146 146 146 146 146 146 146 146 146 
146 146 146 146 146 146 146 146 146 146 146 146 146 146 146 146 146 146 
146 146 146 146 146 146 146 146 146 146 146 146 146 146 146 146 146 146 
146 146 146 146 146 146 146 146 146 146 146 146 146 146 146 146 146 146 
146 146 146 146 146 146 146 146 146 146 146 146 146 146 146 146 146 146 
146 146 146 146 146 146 146 146 146 146 146 146 146 146 146 146 146 146 
146 146 146 146 146 146 146 146 146 146 146 146 146 146 146 146 146 146 
146 146 146 146 146 146 146 146 146 146 146 146 146 146 146 146 146 146 
146 146 146 146 146 146 146 146 146 146 146 146 146 146 146 146 146 146 
146 146 146 146 146 146 146 146 146 146 146 146 146 146 146 146 146 146 
146 146 146 146 146 146 146 146 146 146 146 146 146 146 146 146 146 146 
146 146 146 146 146 146 146 146 146 146 146 146 146 146 146 146 146 146 
146 146 146 146 146 146 146 146 146 146 146 146 146 146 146 146 146 146 
146 146 146 146 146 146 146 146 146 146 146 146 146 146 146 146 146 146 
146 146 146 146 146 146 146 146 146 146 146 146 146 146 146 146 146 146 
146 146 146 146 146 146 146 146 146 146 146 146 146 146 146 146 146 146 
146 146 146 146 146 146 146 146 146 146 146 146 146 146 146 146 146 146 
146 146 146 146 146 146 146 146 146 146 146 146 146 146 146 146 146 146 
146 146 146 146 146 146 146 146 146 146 146 146 146 146 146 146 146 146 
146 146 146 146 146 146 146 146 146 146 146 146 146 146 146 146 146 146 
146 146 146 146 146 146 146 146 146 146 146 146 146 146 146 146 146 146 
146 146 146 146 146 146 146 146 146 146 146 146 146 146 146 146 146 146 
146 146 146 146 146 146 146 146 146 146 146 146 146 146 146 146 146 146 
146 146 146 146 146 146 146 146 146 146 146 146 146 146 146 146 146 146 
146 146 146 146 146 146 146 146 146 146 146 146 146 146 146 146 146 146 
146 146 146 146 146 146 146 146 146 146 146 146 146 146 146 146 146 146 
146 146 146 146 146 146 146 146 146 146 146 146 146 146 146 146 146 146 
146 146 146 146 146 146 146 146 146 146 146 146 146 146 146 146 146 146 
146 146 146 146 146 146 146 146 146 146 146 146 146 146 146 146 146 146 
146 146 146 146 146 146 146 146 146 146 146 146 146 146 146 146 146 146 
146 146 146 146 146 146 146 146 146 146 146 146 146 146 146 146 146 146 
146 146 146 146 146 146 146 146 146 146 146 146 146 146 146 146 146 146 
146 146 146 146 146 146 146 146 146 146 146 146 146 146 146 146 146 146 
146 146 146 146 146 146 146 146 146 146 146 146 146 146 146 146 146 146 
146 146 146 146 146 146 146 146 146 146 146 146 146 146 146 146 146 146 
146 146 146 146 146 146 146 146 146 146 146 146 146 146 146 146 146 146 
146 146 146 146 146 146 146 146 146 146 146 146 146 146 146 146 146 146 
146 146 146 146 146 146 146 146 146 146 146 146 146 146 146 146 146 146 
146 146 146 146 146 146 146 146 146 146 146 146 146 146 146 146 146 146 
146 146 146 146 146 146 146 146 146 146 146 146 146 146 146 146 146 146 
146 146 146 146 146 146 146 146 146 146 146 146 146 146 146 146 146 146 
146 146 146 146 146 146 146 146 146 146 146 146 146 146 146 146 146 146 
146 146 146 146 146 146 146 146 146 146 146 146 146 146 146 146 146 146 
146 146 146 146 146 146 146 146 146 146 146 146 146 146 146 146 146 146 
146 146 146 146 146 146 146 146 146 146 146 146 146 146 146 146 146 146 
146 146 146 146 146 146 146 146 146 146 146 146 146 146 146 146 146 146 
146 146 146 146 146 146 146 146 146 146 146 146 146 146 146 146 146 146 
146 146 146 146 146 146 146 146 146 146 146 146 146 146 146 146 146 146 
146 146 146 146 146 146 146 146 146 146 146 146 146 146 146 146 146 146 
146 146 146 146 146 146 146 146 146 146 146 146 146 146 146 146 146 146 
146 146 146 146 146 146 146 146 146 146 146 146 146 146 146 146 146 146 
146 146 146 146 146 146 146 146 146 146 146 146 146 146 146 146 146 146 
146 146 146 146 146 146 146 146 146 146 146 146 146 146 146 146 146 146 
146 146 146 146 146 146 146 146 146 146 146 146 146 146 146 146 146 146 
146 146 146 146 146 146 146 146 146 146 146 146 146 146 146 146 146 146 
146 146 146 146 146 146 146 146 146 146 146 146 146 146 146 146 146 146 
146 146 146 146 146 146 146 146 146 146 146 146 146 146 146 146 146 146 
146 146 146 146 146 146 146 146 146 146 146 146 146 146 146 146 146 146 
146 146 146 146 146 146 146 146 146 146 146 146 146 146 146 146 146 146 
146 146 146 146 146 146 146 146 146 146 146 146 146 146 146 146 146 146 
146 146 146 146 146 146 146 146 146 146 146 146 146 146 146 146 146 146 
146 146 146 146 146 146 146 146 146 146 146 146 146 146 146 146 146 146 
146 146 146 146 146 146 146 146 146 146 146 146 146 146 146 146 146 146 
146 146 146 146 146 146 146 146 146 146 146 146 146 146 146 146 146 146 
146 146 146 146 146 146 146 146 146 146 146 146 146 146 146 146 146 146 
146 146 146 146 146 146 146 146 146 146 146 146 146 146 146 146 146 146 
146 146 146 146 146 146 146 146 146 146 146 146 146 146 146 146 146 146 
146 146 146 146 146 146 146 146 146 146 146 146 146 146 146 146 146 146 
146 146 146 146 146 146 146 146 146 146 146 146 146 146 146 146 146 146 
146 146 146 146 146 146 146 146 146 146 146 146 146 146 146 146 146 146 
146 146 146 146 146 146 146 146 146 146 146 146 146 146 146 146 146 146 
146 146 146 146 146 146 146 146 146 146 146 146 146 146 146 146 146 146 
146 146 146 146 146 146 146 146 146 146 146 146 146 146 146 146 146 146 
146 146 146 146 146 146 146 146 146 146 146 146 146 146 146 146 146 146 
146 146 146 146 146 146 146 146 146 146 146 146 146 146 146 146 146 146 
146 146 146 146 146 146 146 146 146 146 146 146 146 146 146 146 146 146 
146 146 146 146 146 146 146 146 146 146 146 146 146 146 146 146 146 146 
146 146 146 146 146 146 146 146 146 146 146 146 146 146 146 146 146 146 
146 146 146 146 146 146 146 146 146 146 146 146 146 146 146 146 146 146 
146 146 146 146 146 146 146 146 146 146 146 146 146 146 146 146 146 146 
146 146 146 146 146 146 146 146 146 146 146 146 146 146 146 146 146 146 
146 146 146 146 146 146 146 146 146 146 146 146 146 146 146 146 146 146 
146 146 146 146 146 146 146 146 146 146 146 146 146 146 146 146 146 146 
146 146 146 146 146 146 146 146 146 146 146 146 146 146 146 146 146 146 
146 146 146 146 146 146 146 146 146 146 146 146 146 146 146 146 146 146 
146 146 146 146 146 146 146 146 146 146 146 146 146 146 146 146 146 146 
146 146 146 146 146 146 146 146 146 146 146 146 146 146 146 146 146 146 
146 146 146 146 146 146 146 146 146 146 146 146 146 146 146 146 146 146 
146 146 146 146 146 146 146 146 146 146 146 146 146 146 146 146 146 146 
146 146 146 146 146 146 146 146 146 146 146 146 146 146 146 146 146 146 
146 146 146 146 146 146 146 146 146 146 146 146 146 146 146 146 146 146 
146 146 146 146 146 146 146 146 146 146 146 146 146 146 146 146 146 146 
146 146 146 146 146 146 146 146 146 146 146 146 146 146 146 146 146 146 
146 146 146 146 146 146 146 146 146 146 146 146 146 146 146 146 146 146 
146 146 146 146 146 146 146 146 146 146 146 146 146 146 146 146 146 146 
146 146 146 146 146 146 146 146 146 146 146 146 146 146 146 146 146 146 
146 146 146 146 146 146 146 146 146 146 146 146 146 146 146 146 146 146 
146 146 146 146 146 146 146 146 146 146 146 146 146 146 146 146 146 146 
146 146 146 146 146 146 146 146 146 146 146 146 146 146 146 146 146 146 
146 146 146 146 146 146 146 146 146 146 146 146 146 146 146 146 146 146 
146 146 146 146 146 146 146 146 146 146 146 146 146 146 146 146 146 146 
146 146 146 146 146 146 146 146 146 146 146 146 146 146 146 146 146 146 
146 146 146 146 146 146 146 146 146 146 146 146 146 146 146 146 146 146 
146 146 146 146 146 146 146 146 146 146 146 146 146 146 146 146 146 146 
146 146 146 146 146 146 146 146 146 146 146 146 146 146 146 146 146 146 
146 146 146 146 146 146 146 146 146 146 146 146 146 146 146 146 146 146 
146 146 146 146 146 146 146 146 146 146 146 146 146 146 146 146 146 146 
146 146 146 146 146 146 146 146 146 146 146 146 146 146 146 146 146 146 
146 146 146 146 146 146 146 146 146 146 146 146 146 146 146 146 146 146 
146 146 146 146 146 146 146 146 146 146 146 146 146 146 146 146 146 146 
146 146 146 146 146 146 146 146 146 146 146 146 146 146 146 146 146 146 
146 146 146 146 146 146 146 146 146 146 146 146 146 146 146 146 146 146 
146 146 146 146 146 146 146 146 146 146 146 146 146 146 146 146 146 146 
146 146 146 146 146 146 146 146 146 146 146 146 146 146 146 146 146 146 
146 146 146 146 146 146 146 146 146 146 146 146 146 146 146 146 146 146 
146 146 146 146 146 146 146 146 146 146 146 146 146 146 146 146 146 146 
146 146 146 146 146 146 146 146 146 146 146 146 146 146 146 146 146 146 
146 146 146 146 146 146 146 146 146 146 146 146 146 146 146 146 146 146 
146 146 146 146 146 146 146 146 146 146 146 146 146 146 146 146 146 146 
146 146 146 146 146 146 146 146 146 146 146 146 146 146 146 146 146 146 
146 146 146 146 146 146 146 146 146 146 146 146 146 146 146 146 146 146 
146 146 146 146 146 146 146 146 146 146 146 146 146 146 146 146 146 146 
146 146 146 146 146 146 146 146 146 146 146 146 146 146 146 146 146 146 
146 146 146 146 146 146 146 146 146 146 146 146 146 146 146 146 146 146 
146 146 146 146 146 146 146 146 146 146 146 146 146 146 146 146 146 146 
146 146 146 146 146 146 146 146 146 146 146 146 146 146 146 146 146 146 
146 146 146 146 146 146 146 146 146 146 146 146 146 146 146 146 146 146 
146 146 146 146 146 146 146 146 146 146 146 146 146 146 146 146 146 146 
146 146 146 146 146 146 146 146 146 146 146 146 146 146 146 146 146 146 
146 146 146 146 146 146 146 146 146 146 146 146 146 146 146 146 146 146 
146 146 146 146 146 146 146 146 146 146 146 146 146 146 146 146 146 146 
146 146 146 146 146 146 146 146 146 146 146 146 146 146 146 146 146 146 
146 146 146 146 146 146 146 146 146 146 146 146 146 146 146 146 146 146 
146 146 146 146 146 146 146 146 146 146 146 146 146 146 146 146 146 146 
146 146 146 146 146 146 146 146 146 146 146 146 146 146 146 146 146 146 
146 146 146 146 146 146 146 146 146 146 146 146 146 146 146 146 146 146 
146 146 146 146 146 146 146 146 146 146 146 146 146 146 146 146 146 146 
146 146 146 146 146 146 146 146 146 146 146 146 146 146 146 146 146 146 
146 146 146 146 146 146 146 146 146 146 146 146 146 146 146 146 146 146 
146 146 146 146 146 146 146 146 146 146 146 146 146 146 146 146 146 146 
146 146 146 146 146 146 146 146 146 146 146 146 146 146 146 146 146 146 
146 146 146 146 146 146 146 146 146 146 146 146 146 146 146 146 146 146 
146 146 146 146 146 146 146 146 146 146 146 146 146 146 146 146 146 146 
146 146 146 146 146 146 146 146 146 146 146 146 146 146 146 146 146 146 
146 146 146 146 146 146 146 146 146 146 146 146 146 146 146 146 146 146 
146 146 146 146 146 146 146 146 146 146 146 146 146 146 146 146 146 146 
146 146 146 146 146 146 146 146 146 146 146 146 146 146 146 146 146 146 
146 146 146 146 146 146 146 146 146 146 146 146 146 146 146 146 146 146 
146 146 146 146 146 146 146 146 146 146 146 146 146 146 146 146 146 146 
146 146 146 146 146 146 146 146 146 146 146 146 146 146 146 146 146 146 
146 146 146 146 146 146 146 146 146 146 146 146 146 146 146 146 146 146 
146 146 146 146 146 146 146 146 146 146 146 146 146 146 146 146 146 146 
146 146 146 146 146 146 146 146 146 146 146 146 146 146 146 146 146 146 
146 146 146 146 146 146 146 146 146 146 146 146 146 146 146 146 146 146 
146 146 146 146 146 146 146 146 146 146 146 146 146 146 146 146 146 146 
146 146 146 146 146 146 146 146 146 146 146 146 146 146 146 146 146 146 
146 146 146 146 146 146 146 146 146 146 146 146 146 146 146 146 146 146 
146 146 146 146 146 146 146 146 146 146 146 146 146 146 146 146 146 146 
146 146 146 146 146 146 146 146 146 146 146 146 146 146 146 146 146 146 
146 146 146 146 146 146 146 146 146 146 146 146 146 146 146 146 146 146 
146 146 146 146 146 146 146 146 146 146 146 146 146 146 146 146 146 146 
146 146 146 146 146 146 146 146 146 146 146 146 146 146 146 146 146 146 
146 146 146 146 146 146 146 146 146 146 146 146 146 146 146 146 146 146 
146 146 146 146 146 146 146 146 146 146 146 146 146 146 146 146 146 146 
146 146 146 146 146 146 146 146 146 146 146 146 146 146 146 146 146 146 
146 146 146 146 146 146 146 146 146 146 146 146 146 146 146 146 146 146 
146 146 146 146 146 146 146 146 146 146 146 146 146 146 146 146 146 146 
146 146 146 146 146 146 146 146 146 146 146 146 146 146 146 146 146 146 
146 146 146 146 146 146 146 146 146 146 146 146 146 146 146 146 146 146 
146 146 146 146 146 146 146 146 146 146 146 146 146 146 146 146 146 146 
146 146 146 146 146 146 146 146 146 146 146 146 146 146 146 146 146 146 
146 146 146 146 146 146 146 146 146 146 146 146 146 146 146 146 146 146 
146 146 146 146 146 146 146 146 146 146 146 146 146 146 146 146 146 146 
146 146 146 146 146 146 146 146 146 146 146 146 146 146 146 146 146 146 
146 146 146 146 146 146 146 146 146 146 146 146 146 146 146 146 146 146 
146 146 146 146 146 146 146 146 146 146 146 146 146 146 146 146 146 146 
146 146 146 146 146 146 146 146 146 146 146 146 146 146 146 146 146 146 
146 146 146 146 146 146 146 146 146 146 146 146 146 146 146 146 146 146 
146 146 146 146 146 146 146 146 146 146 146 146 146 146 146 146 146 146 
146 146 146 146 146 146 146 146 146 146 146 146 146 146 146 146 146 146 
146 146 146 146 146 146 146 146 146 146 146 146 146 146 146 146 146 146 
146 146 146 146 146 146 146 146 146 146 146 146 146 146 146 146 146 146 
146 146 146 146 146 146 146 146 146 146 146 146 146 146 146 146 146 146 
146 146 146 146 146 146 146 146 146 146 146 146 146 146 146 146 146 146 
146 146 146 146 146 146 146 146 146 146 146 146 146 146 146 146 146 146 
146 146 146 146 146 146 146 146 146 146 146 146 146 146 146 146 146 146 
146 146 146 146 146 146 146 146 146 146 146 146 146 146 146 146 146 146 
146 146 146 146 146 146 146 146 146 146 146 146 146 146 146 146 146 146 
146 146 146 146 146 146 146 146 146 146 146 146 146 146 146 146 146 146 
146 146 146 146 146 146 146 146 146 146 146 146 146 146 146 146 146 146 
146 146 146 146 146 146 146 146 146 146 146 146 146 146 146 146 146 146 
146 146 146 146 146 146 146 146 146 146 146 146 146 146 146 146 146 146 
146 146 146 146 146 146 146 146 146 146 146 146 146 146 146 146 146 146 
146 146 146 146 146 146 146 146 146 146 146 146 146 146 146 146 146 146 
146 146 146 146 146 146 146 146 146 146 146 146 146 146 146 146 146 146 
146 146 146 146 146 146 146 146 146 146 146 146 146 146 146 146 146 146 
146 146 146 146 146 146 146 146 146 146 146 146 146 146 146 146 146 146 
146 146 146 146 146 146 146 146 146 146 146 146 146 146 146 146 146 146 
146 146 146 146 146 146 146 146 146 146 146 146 146 146 146 146 146 146 
146 146 146 146 146 146 146 146 146 146 146 146 146 146 146 146 146 146 
146 146 146 146 146 146 146 146 146 146 146 146 146 146 146 146 146 146 
146 146 146 146 146 146 146 146 146 146 146 146 146 146 146 146 146 146 
146 146 146 146 146 146 146 146 146 146 146 146 146 146 146 146 146 146 
146 146 146 146 146 146 146 146 146 146 146 146 146 146 146 146 146 146 
146 146 146 146 146 146 146 146 146 146 146 146 146 146 146 146 146 146 
146 146 146 146 146 146 146 146 146 146 146 146 146 146 146 146 146 146 
146 146 146 146 146 146 146 146 146 146 146 146 146 146 146 146 146 146 
146 146 146 146 146 146 146 146 146 146 146 146 146 146 146 146 146 146 
146 146 146 146 146 146 146 146 146 146 146 146 146 146 146 146 146 146 
146 146 146 146 146 146 146 146 146 146 146 146 146 146 146 146 146 146 
146 146 146 146 146 146 146 146 146 146 146 146 146 146 146 146 146 146 
146 146 146 146 146 146 146 146 146 146 146 146 146 146 146 146 146 146 
146 146 146 146 146 146 146 146 146 146 146 146 146 146 146 146 146 146 
146 146 146 146 146 146 146 146 146 146 146 146 146 146 146 146 146 146 
146 146 146 146 146 146 146 146 146 146 146 146 146 146 146 146 146 146 
146 146 146 146 146 146 146 146 146 146 146 146 146 146 146 146 146 146 
146 146 146 146 146 146 146 146 146 146 146 146 146 146 146 146 146 146 
146 146 146 146 146 146 146 146 146 146 146 146 146 146 146 146 146 146 
146 146 146 146 146 146 146 146 146 146 146 146 146 146 146 146 146 146 
146 146 146 146 146 146 146 146 146 146 146 146 146 146 146 146 146 146 
146 146 146 146 146 146 146 146 146 146 146 146 146 146 146 146 146 146 
146 146 146 146 146 146 146 146 146 146 146 146 146 146 146 146 146 146 
146 146 146 146 146 146 146 146 146 146 146 146 146 146 146 146 146 146 
146 146 146 146 146 146 146 146 146 146 146 146 146 146 146 146 146 146 
146 146 146 146 146 146 146 146 146 146 146 146 146 146 146 146 146 146 
146 146 146 146 146 146 146 146 146 146 146 146 146 146 146 146 146 146 
146 146 146 146 146 146 146 146 146 146 146 146 146 146 146 146 146 146 
146 146 146 146 146 146 146 146 146 146 146 146 146 146 146 146 146 146 
146 146 146 146 146 146 146 146 146 146 146 146 146 146 146 146 146 146 
146 146 146 146 146 146 146 146 146 146 146 146 146 146 146 146 146 146 
146 146 146 146 146 146 146 146 146 146 146 146 146 146 146 146 146 146 
146 146 146 146 146 146 146 146 146 146 146 146 146 146 146 146 146 146 
146 146 146 146 146 146 146 146 146 146 146 146 146 146 146 146 146 146 
146 146 146 146 146 146 146 146 146 146 146 146 146 146 146 146 146 146 
146 146 146 146 146 146 146 146 146 146 146 146 146 146 146 146 146 146 
146 146 146 146 146 146 146 146 146 146 146 146 146 146 146 146 146 146 
146 146 146 146 146 146 146 146 146 146 146 146 146 146 146 146 146 146 
146 146 146 146 146 146 146 146 146 146 146 146 146 146 146 146 146 146 
146 146 146 146 146 146 146 146 146 146 146 146 146 146 146 146 146 146 
146 146 146 146 146 146 146 146 146 146 146 146 146 146 146 146 146 146 
146 146 146 146 146 146 146 146 146 146 146 146 146 146 146 146 146 146 
146 146 146 146 146 146 146 146 146 146 146 146 146 146 146 146 146 146 
146 146 146 146 146 146 146 146 146 146 146 146 146 146 146 146 146 146 
146 146 146 146 146 146 146 146 146 146 146 146 146 146 146 146 146 146 
146 146 146 146 146 146 146 146 146 146 146 146 146 146 146 146 146 146 
146 146 146 146 146 146 146 146 146 146 146 146 146 146 146 146 146 146 
146 146 146 146 146 146 146 146 146 146 146 146 146 146 146 146 146 146 
146 146 146 146 146 146 146 146 146 146 146 146 146 146 146 146 146 146 
146 146 146 146 146 146 146 146 146 146 146 146 146 146 146 146 146 146 
146 146 146 146 146 146 146 146 146 146 146 146 146 146 146 146 146 146 
146 146 146 146 146 146 146 146 146 146 146 146 146 146 146 146 146 146 
146 146 146 146 146 146 146 146 146 146 146 146 146 146 146 146 146 146 
146 146 146 146 146 146 146 146 146 146 146 146 146 146 146 146 146 146 
146 146 146 146 146 146 146 146 146 146 146 146 146 146 146 146 146 146 
146 146 146 146 146 146 146 146 146 146 146 146 146 146 146 146 146 146 
146 146 146 146 146 146 146 146 146 146 146 146 146 146 146 146 146 146 
146 146 146 146 146 146 146 146 146 146 146 146 146 146 146 146 146 146 
146 146 146 146 146 146 146 146 146 146 146 146 146 146 146 146 146 146 
146 146 146 146 146 146 146 146 146 146 146 146 146 146 146 146 146 146 
146 146 146 146 146 146 146 146 146 146 146 146 146 146 146 146 146 146 
146 146 146 146 146 146 146 146 146 146 146 146 146 146 146 146 146 146 
146 146 146 146 146 146 146 146 146 146 146 146 146 146 146 146 146 146 
146 146 146 146 146 146 146 146 146 146 146 146 146 146 146 146 146 146 
146 146 146 146 146 146 146 146 146 146 146 146 146 146 146 146 146 146 
146 146 146 146 146 146 146 146 146 146 146 146 146 146 146 146 146 146 
146 146 146 146 146 146 146 146 146 146 146 146 146 146 146 146 146 146 
146 146 146 146 146 146 146 146 146 146 146 146 146 146 146 146 146 146 
146 146 146 146 146 146 146 146 146 146 146 146 146 146 146 146 146 146 
146 146 146 146 146 146 146 146 146 146 146 146 146 146 146 146 146 146 
146 146 146 146 146 146 146 146 146 146 146 146 146 146 146 146 146 146 
146 146 146 146 146 146 146 146 146 146 146 146 146 146 146 146 146 146 
146 146 146 146 146 146 146 146 146 146 146 146 146 146 146 146 146 146 
146 146 146 146 146 146 146 146 146 146 146 146 146 146 146 146 146 146 
146 146 146 146 146 146 146 146 146 146 146 146 146 146 146 146 146 146 
146 146 146 146 146 146 146 146 146 146 146 146 146 146 146 146 146 146 
146 146 146 146 146 146 146 146 146 146 146 146 146 146 146 146 146 146 
146 146 146 146 146 146 146 146 146 146 146 146 146 146 146 146 146 146 
146 146 146 146 146 146 146 146 146 146 146 146 146 146 146 146 146 146 
146 146 146 146 146 146 146 146 146 146 146 146 146 146 146 146 146 146 
146 146 146 146 146 146 146 146 146 146 146 146 146 146 146 146 146 146 
146 146 146 146 146 146 146 146 146 146 146 146 146 146 146 146 146 146 
146 146 146 146 146 146 146 146 146 146 146 146 146 146 146 146 146 146 
146 146 146 146 146 146 146 146 146 146 146 146 146 146 146 146 146 146 
146 146 146 146 146 146 146 146 146 146 146 146 146 146 146 146 146 146 
146 146 146 146 146 146 146 146 146 146 146 146 146 146 146 146 146 146 
146 146 146 146 146 146 146 146 146 146 146 146 146 146 146 146 146 146 
146 146 146 146 146 146 146 146 146 146 146 146 146 146 146 146 146 146 
146 146 146 146 146 146 146 146 146 146 146 146 146 146 146 146 146 146 
146 146 146 146 146 146 146 146 146 146 146 146 146 146 146 146 146 146 
146 146 146 146 146 146 146 146 146 146 146 146 146 146 146 146 146 146 
146 146 146 146 146 146 146 146 146 146 146 146 146 146 146 146 146 146 
146 146 146 146 146 146 146 146 146 146 146 146 146 146 146 146 146 146 
146 146 146 146 146 146 146 146 146 146 146 146 146 146 146 146 146 146 
146 146 146 146 146 146 146 146 146 146 146 146 146 146 146 146 146 146 
146 146 146 146 146 146 146 146 146 146 146 146 146 146 146 146 146 146 
146 146 146 146 146 146 146 146 146 146 146 146 146 146 146 146 146 146 
146 146 146 146 146 146 146 146 146 146 146 146 146 146 146 146 146 146 
146 146 146 146 146 146 146 146 146 146 146 146 146 146 146 146 146 146 
146 146 146 146 146 146 146 146 146 146 146 146 146 146 146 146 146 146 
146 146 146 146 146 146 146 146 146 146 146 146 146 146 146 146 146 146 
146 146 146 146 146 146 146 146 146 146 146 146 146 146 146 146 146 146 
146 146 146 146 146 146 146 146 146 146 146 146 146 146 146 146 146 146 
146 146 146 146 146 146 146 146 146 146 146 146 146 146 146 146 146 146 
146 146 146 146 146 146 146 146 146 146 146 146 146 146 146 146 146 146 
146 146 146 146 146 146 146 146 146 146 146 146 146 146 146 146 146 146 
146 146 146 146 146 146 146 146 146 146 146 146 146 146 146 146 146 146 
146 146 146 146 146 146 146 146 146 146 146 146 146 146 146 146 146 146 
146 146 146 146 146 146 146 146 146 146 146 146 146 146 146 146 146 146 
146 146 146 146 146 146 146 146 146 146 146 146 146 146 146 146 146 146 
146 146 146 146 146 146 146 146 146 146 146 146 146 146 146 146 146 146 
146 146 146 146 146 146 146 146 146 146 146 146 146 146 146 146 146 146 
146 146 146 146 146 146 146 146 146 146 146 146 146 146 146 146 146 146 
146 146 146 146 146 146 146 146 146 146 146 146 146 146 146 146 146 146 
146 146 146 146 146 146 146 146 146 146 146 146 146 146 146 146 146 146 
146 146 146 146 146 146 146 146 146 146 146 146 146 146 146 146 146 146 
146 146 146 146 146 146 146 146 146 146 146 146 146 146 146 146 146 146 
146 146 146 146 146 146 146 146 146 146 146 146 146 146 146 146 146 146 
146 146 146 146 146 146 146 146 146 146 146 146 146 146 146 146 146 146 
146 146 146 146 146 146 146 146 146 146 146 146 146 146 146 146 146 146 
146 146 146 146 146 146 146 146 146 146 146 146 146 146 146 146 146 146 
146 146 146 146 146 146 146 146 146 146 146 146 146 146 146 146 146 146 
146 146 146 146 146 146 146 146 146 146 146 146 146 146 146 146 146 146 
146 146 146 146 146 146 146 146 146 146 146 146 146 146 146 146 146 146 
146 146 146 146 146 146 146 146 146 146 146 146 146 146 146 146 146 146 
146 146 146 146 146 146 146 146 146 146 146 146 146 146 146 146 146 146 
146 146 146 146 146 146 146 146 146 146 146 146 146 146 146 146 146 146 
146 146 146 146 146 146 146 146 146 146 146 146 146 146 146 146 146 146 
146 146 146 146 146 146 146 146 146 146 146 146 146 146 146 146 146 146 
146 146 146 146 146 146 146 146 146 146 146 146 146 146 146 146 146 146 
146 146 146 146 146 146 146 146 146 146 146 146 146 146 146 146 146 146 
146 146 146 146 146 146 146 146 146 146 146 146 146 146 146 146 146 146 
146 146 146 146 146 146 146 146 146 146 146 146 146 146 146 146 146 146 
146 146 146 146 146 146 146 146 146 146 146 146 146 146 146 146 146 146 
146 146 146 146 146 146 146 146 146 146 146 146 146 146 146 146 146 146 
146 146 146 146 146 146 146 146 146 146 146 146 146 146 146 146 146 146 
146 146 146 146 146 146 146 146 146 146 146 146 146 146 146 146 146 146 
146 146 146 146 146 146 146 146 146 146 146 146 146 146 146 146 146 146 
146 146 146 146 146 146 146 146 146 146 146 146 146 146 146 146 146 146 
146 146 146 146 146 146 146 146 146 146 146 146 146 146 146 146 146 146 
146 146 146 146 146 146 146 146 146 146 146 146 146 146 146 146 146 146 
146 146 146 146 146 146 146 146 146 146 146 146 146 146 146 146 146 146 
146 146 146 146 146 146 146 146 146 146 146 146 146 146 146 146 146 146 
146 146 146 146 146 146 146 146 146 146 146 146 146 146 146 146 146 146 
146 146 146 146 146 146 146 146 146 146 146 146 146 146 146 146 146 146 
146 146 146 146 146 146 146 146 146 146 146 146 146 146 146 146 146 146 
146 146 146 146 146 146 146 146 146 146 146 146 146 146 146 146 146 146 
146 146 146 146 146 146 146 146 146 146 146 146 146 146 146 146 146 146 
146 146 146 146 146 146 146 146 146 146 146 146 146 146 146 146 146 146 
146 146 146 146 146 146 146 146 146 146 146 146 146 146 146 146 146 146 
146 146 146 146 146 146 146 146 146 146 146 146 146 146 146 146 146 146 
146 146 146 146 146 146 146 146 146 146 146 146 146 146 146 146 146 146 
146 146 146 146 146 146 146 146 146 146 146 146 146 146 146 146 146 146 
146 146 146 146 146 146 146 146 146 146 146 146 146 146 146 146 146 146 
146 146 146 146 146 146 146 146 146 146 146 146 146 146 146 146 146 146 
146 146 146 146 146 146 146 146 146 146 146 146 146 146 146 146 146 146 
146 146 146 146 146 146 146 146 146 146 146 146 146 146 146 146 146 146 
146 146 146 146 146 146 146 146 146 146 146 146 146 146 146 146 146 146 
146 146 146 146 146 146 146 146 146 146 146 146 146 146 146 146 146 146 
146 146 146 146 146 146 146 146 146 146 146 146 146 146 146 146 146 146 
146 146 146 146 146 146 146 146 146 146 146 146 146 146 146 146 146 146 
146 146 146 146 146 146 146 146 146 146 146 146 146 146 146 146 146 146 
146 146 146 146 146 146 146 146 146 146 146 146 146 146 146 146 146 146 
146 146 146 146 146 146 146 146 146 146 146 146 146 146 146 146 146 146 
146 146 146 146 146 146 146 146 146 146 146 146 146 146 146 146 146 146 
146 146 146 146 146 146 146 146 146 146 146 146 146 146 146 146 146 146 
146 146 146 146 146 146 146 146 146 146 146 146 146 146 146 146 146 146 
146 146 146 146 146 146 146 146 146 146 146 146 146 146 146 146 146 146 
146 146 146 146 146 146 146 146 146 146 146 146 146 146 146 146 146 146 
146 146 146 146 146 146 146 146 146 146 146 146 146 146 146 146 146 146 
146 146 146 146 146 146 146 146 146 146 146 146 146 146 146 146 146 146 
146 146 146 146 146 146 146 146 146 146 146 146 146 146 146 146 146 146 
146 146 146 146 146 146 146 146 146 146 146 146 146 146 146 146 146 146 
146 146 146 146 146 146 146 146 146 146 146 146 146 146 146 146 146 146 
146 146 146 146 146 146 146 146 146 146 146 146 146 146 146 146 146 146 
146 146 146 146 146 146 146 146 146 146 146 146 146 146 146 146 146 146 
146 146 146 146 146 146 146 146 146 146 146 146 146 146 146 146 146 146 
146 146 146 146 146 146 146 146 146 146 146 146 146 146 146 146 146 146 
146 146 146 146 146 146 146 146 146 146 146 146 146 146 146 146 146 146 
146 146 146 146 146 146 146 146 146 146 146 146 146 146 146 146 146 146 
146 146 146 146 146 146 146 146 146 146 146 146 146 146 146 146 146 146 
146 146 146 146 146 146 146 146 146 146 146 146 146 146 146 146 146 146 
146 146 146 146 146 146 146 146 146 146 146 146 146 146 146 146 146 146 
146 146 146 146 146 146 146 146 146 146 146 146 146 146 146 146 146 146 
146 146 146 146 146 146 146 146 146 146 146 146 146 146 146 146 146 146 
146 146 146 146 146 146 146 146 146 146 146 146 146 146 146 146 146 146 
146 146 146 146 146 146 146 146 146 146 146 146 146 146 146 146 146 146 
146 146 146 146 146 146 146 146 146 146 146 146 146 146 146 146 146 146 
146 146 146 146 146 146 146 146 146 146 146 146 146 146 146 146 146 146 
146 146 146 146 146 146 146 146 146 146 146 146 146 146 146 146 146 146 
146 146 146 146 146 146 146 146 146 146 146 146 146 146 146 146 146 146 
146 146 146 146 146 146 146 146 146 146 146 146 146 146 146 146 146 146 
146 146 146 146 146 146 146 146 146 146 146 146 146 146 146 146 146 146 
146 146 146 146 146 146 146 146 146 146 146 146 146 146 146 146 146 146 
146 146 146 146 146 146 146 146 146 146 146 146 146 146 146 146 146 146 
146 146 146 146 146 146 146 146 146 146 146 146 146 146 146 146 146 146 
146 146 146 146 146 146 146 146 146 146 146 146 146 146 146 146 146 146 
146 146 146 146 146 146 146 146 146 146 146 146 146 146 146 146 146 146 
146 146 146 146 146 146 146 146 146 146 146 146 146 146 146 146 146 146 
146 146 146 146 146 146 146 146 146 146 146 146 146 146 146 146 146 146 
146 146 146 146 146 146 146 146 146 146 146 146 146 146 146 146 146 146 
146 146 146 146 146 146 146 146 146 146 146 146 146 146 146 146 146 146 
146 146 146 146 146 146 146 146 146 146 146 146 146 146 146 146 146 146 
146 146 146 146 146 146 146 146 146 146 146 146 146 146 146 146 146 146 
146 146 146 146 146 146 146 146 146 146 146 146 146 146 146 146 146 146 
146 146 146 146 146 146 146 146 146 146 146 146 146 146 146 146 146 146 
146 146 146 146 146 146 146 146 146 146 146 146 146 146 146 146 146 146 
146 146 146 146 146 146 146 146 146 146 146 146 146 146 146 146 146 146 
146 146 146 146 146 146 146 146 146 146 146 146 146 146 146 146 146 146 
146 146 146 146 146 146 146 146 146 146 146 146 146 146 146 146 146 146 
146 146 146 146 146 146 146 146 146 146 146 146 146 146 146 146 146 146 
146 146 146 146 146 146 146 146 146 146 146 146 146 146 146 146 146 146 
146 146 146 146 146 146 146 146 146 146 146 146 146 146 146 146 146 146 
146 146 146 146 146 146 146 146 146 146 146 146 146 146 146 146 146 146 
146 146 146 146 146 146 146 146 146 146 146 146 146 146 146 146 146 146 
146 146 146 146 146 146 146 146 146 146 146 146 146 146 146 146 146 146 
146 146 146 146 146 146 146 146 146 146 146 146 146 146 146 146 146 146 
146 146 146 146 146 146 146 146 146 146 146 146 146 146 146 146 146 146 
146 146 146 146 146 146 146 146 146 146 146 146 146 146 146 146 146 146 
146 146 146 146 146 146 146 146 146 146 146 146 146 146 146 146 146 146 
146 146 146 146 146 146 146 146 146 146 146 146 146 146 146 146 146 146 
146 146 146 146 146 146 146 146 146 146 146 146 146 146 146 146 146 146 
146 146 146 146 146 146 146 146 146 146 146 146 146 146 146 146 146 146 
146 146 146 146 146 146 146 146 146 146 146 146 146 146 146 146 146 146 
146 146 146 146 146 146 146 146 146 146 146 146 146 146 146 146 146 146 
146 146 146 146 146 146 146 146 146 146 146 146 146 146 146 146 146 146 
146 146 146 146 146 146 146 146 146 146 146 146 146 146 146 146 146 146 
146 146 146 146 146 146 146 146 146 146 146 146 146 146 146 146 146 146 
146 146 146 146 146 146 146 146 146 146 146 146 146 146 146 146 146 146 
146 146 146 146 146 146 146 146 146 146 146 146 146 146 146 146 146 146 
146 146 146 146 146 146 146 146 146 146 146 146 146 146 146 146 146 146 
146 146 146 146 146 146 146 146 146 146 146 146 146 146 146 146 146 146 
146 146 146 146 146 146 146 146 146 146 146 146 146 146 146 146 146 146 
146 146 146 146 146 146 146 146 146 146 146 146 146 146 146 146 146 146 
146 146 146 146 146 146 146 146 146 146 146 146 146 146 146 146 146 146 
146 146 146 146 146 146 146 146 146 146 146 146 146 146 146 146 146 146 
146 146 146 146 146 146 146 146 146 146 146 146 146 146 146 146 146 146 
146 146 146 146 146 146 146 146 146 146 146 146 146 146 146 146 146 146 
146 146 146 146 146 146 146 146 146 146 146 146 146 146 146 146 146 146 
146 146 146 146 146 146 146 146 146 146 146 146 146 146 146 146 146 146 
146 146 146 146 146 146 146 146 146 146 146 146 146 146 146 146 146 146 
146 146 146 146 146 146 146 146 146 146 146 146 146 146 146 146 146 146 
146 146 146 146 146 146 146 146 146 146 146 146 146 146 146 146 146 146 
146 146 146 146 146 146 146 146 146 146 146 146 146 146 146 146 146 146 
109 109 109 109 109 109 109 109 109 109 109 109 109 109 109 109 109 109 
109 109 109 109 109 109 109 109 109 109 109 109 109 109 109 109 109 109 
109 109 109 109 109 109 109 109 109 109 109 109 109 109 109 109 109 109 
109 109 109 109 109 109 109 109 109 109 109 109 109 109 109 109 109 109 
109 109 109 109 109 109 109 109 109 109 109 109 109 109 109 109 109 109 
109 109 109 109 109 109 109 109 109 109 109 109 109 109 109 109 109 109 
109 109 109 109 109 109 109 109 109 109 109 109 109 109 109 109 109 109 
109 109 109 109 109 109 109 109 109 109 109 109 109 109 109 109 109 109 
109 109 109 109 109 109 109 109 109 109 109 109 109 109 109 109 109 109 
109 109 109 109 109 109 109 109 109 109 109 109 109 109 109 109 109 109 
109 109 109 109 109 109 109 109 109 109 109 109 109 109 109 109 109 109 
109 109 109 109 109 109 109 109 109 109 109 109 109 109 109 109 109 109 
109 109 109 109 109 109 109 109 109 109 109 109 109 109 109 109 109 109 
109 109 109 109 109 109 109 109 109 109 109 109 109 109 109 109 109 109 
109 109 109 109 109 109 109 109 109 109 109 109 109 109 109 109 109 109 
109 109 109 109 109 109 109 109 109 109 109 109 109 109 109 109 109 109 
109 109 109 109 109 109 109 109 109 109 109 109 109 109 109 109 109 109 
109 109 109 109 109 109 109 109 109 109 109 109 109 109 109 109 109 109 
109 109 109 109 109 109 109 109 109 109 109 109 109 109 109 109 109 109 
109 109 109 109 109 109 109 109 109 109 109 109 109 109 109 109 109 109 
109 109 109 109 109 109 109 109 109 109 109 109 109 109 109 109 109 109 
109 109 109 109 109 109 109 109 109 109 109 109 109 109 109 109 109 109 
109 109 109 109 109 109 109 109 109 109 109 109 109 109 109 109 109 109 
109 109 109 109 109 109 109 109 109 109 109 109 109 109 109 109 109 109 
109 109 109 109 109 109 109 109 109 109 109 109 109 109 109 109 109 109 
109 109 109 109 109 109 109 109 109 109 109 109 109 109 109 109 109 109 
109 109 109 109 109 109 109 109 109 109 109 109 109 109 109 109 109 109 
109 109 109 109 109 109 109 109 109 109 109 109 109 109 109 109 109 109 
109 109 109 109 109 109 109 109 109 109 109 109 109 109 109 109 109 109 
109 109 109 109 109 109 109 109 109 109 109 109 109 109 109 109 109 109 
109 109 109 109 109 109 109 109 109 109 109 109 109 109 109 109 109 109 
109 109 109 109 109 109 109 109 109 109 109 109 109 109 109 109 109 109 
109 109 109 109 109 109 109 109 109 109 109 109 109 109 109 109 109 109 
109 109 109 109 109 109 109 109 109 109 109 109 109 109 109 109 109 109 
109 109 109 109 109 109 109 109 109 109 109 109 109 109 109 109 109 109 
109 109 109 109 109 109 109 109 109 109 109 109 109 109 109 109 109 109 
109 109 109 109 109 109 109 109 109 109 109 109 109 109 109 109 109 109 
109 109 109 109 109 109 109 109 109 109 109 109 109 109 109 109 109 109 
109 109 109 109 109 109 109 109 109 109 109 109 109 109 109 109 109 109 
109 109 109 109 109 109 109 109 109 109 109 109 109 109 109 109 109 109 
109 109 109 109 109 109 109 109 109 109 109 109 109 109 109 109 109 109 
109 109 109 109 109 109 109 109 109 109 109 109 109 109 109 109 109 109 
109 109 109 109 109 109 109 109 109 109 109 109 109 109 109 109 109 109 
109 109 109 109 109 109 109 109 109 109 109 109 109 109 109 109 109 109 
109 109 109 109 109 109 109 109 109 109 109 109 109 109 109 109 109 109 
109 109 109 109 109 109 109 109 109 109 109 109 109 109 109 109 109 109 
109 109 109 109 109 109 109 109 109 109 109 109 109 109 109 109 109 109 
109 109 109 109 109 109 109 109 109 109 109 109 109 109 109 109 109 109 
109 109 109 109 109 109 109 109 109 109 109 109 109 109 109 109 109 109 
109 109 109 109 109 109 109 109 109 109 109 109 109 109 109 109 109 109 
109 109 109 109 109 109 109 109 109 109 109 109 109 109 109 109 109 109 
109 109 109 109 109 109 109 109 109 109 109 109 109 109 109 109 109 109 
109 109 109 109 109 109 109 109 109 109 109 109 109 109 109 109 109 109 
109 109 109 109 109 109 109 109 109 109 109 109 109 109 109 109 109 109 
109 109 109 109 109 109 109 109 109 109 109 109 109 109 109 109 109 109 
109 109 109 109 109 109 109 109 109 109 109 109 109 109 109 109 109 109 
109 109 109 109 109 109 109 109 109 109 109 109 109 109 109 109 109 109 
109 109 109 109 109 109 109 109 109 109 109 109 109 109 109 109 109 109 
109 109 109 109 109 109 109 109 109 109 109 109 109 109 109 109 109 109 
109 109 109 109 109 109 109 109 109 109 109 109 109 109 109 109 109 109 
109 109 109 109 109 109 109 109 109 109 109 109 109 109 109 109 109 109 
109 109 109 109 109 109 109 109 109 109 109 109 109 109 109 109 109 109 
109 109 109 109 109 109 109 109 109 109 109 109 109 109 109 109 109 109 
109 109 109 109 109 109 109 109 109 109 109 109 109 109 109 109 109 109 
109 109 109 109 109 109 109 109 109 109 109 109 109 109 109 109 109 109 
109 109 109 109 109 109 109 109 109 109 109 109 109 109 109 109 109 109 
109 109 109 109 109 109 109 109 109 109 109 109 109 109 109 109 109 109 
109 109 109 109 109 109 109 109 109 109 109 109 109 109 109 109 109 109 
109 109 109 109 109 109 109 109 109 109 109 109 109 109 109 109 109 109 
109 109 109 109 109 109 109 109 109 109 109 109 109 109 109 109 109 109 
109 109 109 109 109 109 109 109 109 109 109 109 109 109 109 109 109 109 
109 109 109 109 109 109 109 109 109 109 109 109 109 109 109 109 109 109 
109 109 109 109 109 109 109 109 109 109 109 109 109 109 109 109 109 109 
109 109 109 109 109 109 109 109 109 109 109 109 109 109 109 109 109 109 
109 109 109 109 109 109 109 109 109 109 109 109 109 109 109 109 109 109 
109 109 109 109 109 109 109 109 109 109 109 109 109 109 109 109 109 109 
109 109 109 109 109 109 109 109 109 109 109 109 109 109 109 109 109 109 
109 109 109 109 109 109 109 109 109 109 109 109 109 109 109 109 109 109 
109 109 109 109 109 109 109 109 109 109 109 109 109 109 109 109 109 109 
109 109 109 109 109 109 109 109 109 109 109 109 109 109 109 109 109 109 
109 109 109 109 109 109 109 109 109 109 109 109 109 109 109 109 109 109 
109 109 109 109 109 109 109 109 109 109 109 109 109 109 109 109 109 109 
109 109 109 109 109 109 109 109 109 109 109 109 109 109 109 109 109 109 
109 109 109 109 109 109 109 109 109 109 109 109 109 109 109 109 109 109 
109 109 109 109 109 109 109 109 109 109 109 109 109 109 109 109 109 109 
109 109 109 109 109 109 109 109 109 109 109 109 109 109 109 109 109 109 
109 109 109 109 109 109 109 109 109 109 109 109 109 109 109 109 109 109 
109 109 109 109 109 109 109 109 109 109 109 109 109 109 109 109 109 109 
109 109 109 109 109 109 109 109 109 109 109 109 109 109 109 109 109 109 
109 109 109 109 109 109 109 109 109 109 109 109 109 109 109 109 109 109 
109 109 109 109 109 109 109 109 109 109 109 109 109 109 109 109 109 109 
109 109 109 109 109 109 109 109 109 109 109 109 109 109 109 109 109 109 
109 109 109 109 109 109 109 109 109 109 109 109 109 109 109 109 109 109 
109 109 109 109 109 109 109 109 109 109 109 109 109 109 109 109 109 109 
109 109 109 109 109 109 109 109 109 109 109 109 109 109 109 109 109 109 
109 109 109 109 109 109 109 109 109 109 109 109 109 109 109 109 109 109 
109 109 109 109 109 109 109 109 109 109 109 109 109 109 109 109 109 109 
109 109 109 109 109 109 109 109 109 109 109 109 109 109 109 109 109 109 
109 109 109 109 109 109 109 109 109 109 109 109 109 109 109 109 109 109 
109 109 109 109 109 109 109 109 109 109 109 109 109 109 109 109 109 109 
109 109 109 109 109 109 109 109 109 109 109 109 109 109 109 109 109 109 
109 109 109 109 109 109 109 109 109 109 109 109 109 109 109 109 109 109 
109 109 109 109 109 109 109 109 109 109 109 109 109 109 109 109 109 109 
109 109 109 109 109 109 109 109 109 109 109 109 109 109 109 109 109 109 
109 109 109 109 109 109 109 109 109 109 109 109 109 109 109 109 109 109 
109 109 109 109 109 109 109 109 109 109 109 109 109 109 109 109 109 109 
109 109 109 109 109 109 109 109 109 109 109 109 109 109 109 109 109 109 
109 109 109 109 109 109 109 109 109 109 109 109 109 109 109 109 109 109 
109 109 109 109 109 109 109 109 109 109 109 109 109 109 109 109 109 109 
109 109 109 109 109 109 109 109 109 109 109 109 109 109 109 109 109 109 
109 109 109 109 109 109 109 109 109 109 109 109 109 109 109 109 109 109 
109 109 109 109 109 109 109 109 109 109 109 109 109 109 109 109 109 109 
109 109 109 109 109 109 109 109 109 109 109 109 109 109 109 109 109 109 
109 109 109 109 109 109 109 109 109 109 109 109 109 109 109 109 109 109 
109 109 109 109 109 109 109 109 109 109 109 109 109 109 109 109 109 109 
109 109 109 109 109 109 109 109 109 109 109 109 109 109 109 109 109 109 
109 109 109 109 109 109 109 109 109 109 109 109 109 109 109 109 109 109 
109 109 109 109 109 109 109 109 109 109 109 109 109 109 109 109 109 109 
109 109 109 109 109 109 109 109 109 109 109 109 109 109 109 109 109 109 
109 109 109 109 109 109 109 109 109 109 109 109 109 109 109 109 109 109 
109 109 109 109 109 109 109 109 109 109 109 109 109 109 109 109 109 109 
109 109 109 109 109 109 109 109 109 109 109 109 109 109 109 109 109 109 
109 109 109 109 109 109 109 109 109 109 109 109 109 109 109 109 109 109 
109 109 109 109 109 109 109 109 109 109 109 109 109 109 109 109 109 109 
109 109 109 109 109 109 109 109 109 109 109 109 109 109 109 109 109 109 
109 109 109 109 109 109 109 109 109 109 109 109 109 109 109 109 109 109 
109 109 109 109 109 109 109 109 109 109 109 109 109 109 109 109 109 109 
109 109 109 109 109 109 109 109 109 109 109 109 109 109 109 109 109 109 
109 109 109 109 109 109 109 109 109 109 109 109 109 109 109 109 109 109 
109 109 109 109 109 109 109 109 109 109 109 109 109 109 109 109 109 109 
109 109 109 109 109 109 109 109 109 109 109 109 109 109 109 109 109 109 
109 109 109 109 109 109 109 109 109 109 109 109 109 109 109 109 109 109 
109 109 109 109 109 109 109 109 109 109 109 109 109 109 109 109 109 109 
109 109 109 109 109 109 109 109 109 109 109 109 109 109 109 109 109 109 
109 109 109 109 109 109 109 109 109 109 109 109 109 109 109 109 109 109 
109 109 109 109 109 109 109 109 109 109 109 109 109 109 109 109 109 109 
109 109 109 109 109 109 109 109 109 109 109 109 109 109 109 109 109 109 
109 109 109 109 109 109 109 109 109 109 109 109 109 109 109 109 109 109 
109 109 109 109 109 109 109 109 109 109 109 109 109 109 109 109 109 109 
109 109 109 109 109 109 109 109 109 109 109 109 109 109 109 109 109 109 
109 109 109 109 109 109 109 109 109 109 109 109 109 109 109 109 109 109 
109 109 109 109 109 109 109 109 109 109 109 109 109 109 109 109 109 109 
109 109 109 109 109 109 109 109 109 109 109 109 109 109 109 109 109 109 
109 109 109 109 109 109 109 109 109 109 109 109 109 109 109 109 109 109 
109 109 109 109 109 109 109 109 109 109 109 109 109 109 109 109 109 109 
109 109 109 109 109 109 109 109 109 109 109 109 109 109 109 109 109 109 
109 109 109 109 109 109 109 109 109 109 109 109 109 109 109 109 109 109 
109 109 109 109 109 109 109 109 109 109 109 109 109 109 109 109 109 109 
109 109 109 109 109 109 109 109 109 109 109 109 109 109 109 109 109 109 
109 109 109 109 109 109 109 109 109 109 109 109 109 109 109 109 109 109 
109 109 109 109 109 109 109 109 109 109 109 109 109 109 109 109 109 109 
109 109 109 109 109 109 109 109 109 109 109 109 109 109 109 109 109 109 
109 109 109 109 109 109 109 109 109 109 109 109 109 109 109 109 109 109 
109 109 109 109 109 109 109 109 109 109 109 109 109 109 109 109 109 109 
109 109 109 109 109 109 109 109 109 109 109 109 109 109 109 109 109 109 
109 109 109 109 109 109 109 109 109 109 109 109 109 109 109 109 109 109 
109 109 109 109 109 109 109 109 109 109 109 109 109 109 109 109 109 109 
109 109 109 109 109 109 109 109 109 109 109 109 109 109 109 109 109 109 
109 109 109 109 109 109 109 109 109 109 109 109 109 109 109 109 109 109 
109 109 109 109 109 109 109 109 109 109 109 109 109 109 109 109 109 109 
109 109 109 109 109 109 109 109 109 109 109 109 109 109 109 109 109 109 
109 109 109 109 109 109 109 109 109 109 109 109 109 109 109 109 109 109 
109 109 109 109 109 109 109 109 109 109 109 109 109 109 109 109 109 109 
109 109 109 109 109 109 109 109 109 109 109 109 109 109 109 109 109 109 
109 109 109 109 109 109 109 109 109 109 109 109 109 109 109 109 109 109 
109 109 109 109 109 109 109 109 109 109 109 109 109 109 109 109 109 109 
109 109 109 109 109 109 109 109 109 109 109 109 109 109 109 109 109 109 
109 109 109 109 109 109 109 109 109 109 109 109 109 109 109 109 109 109 
109 109 109 109 109 109 109 109 109 109 109 109 109 109 109 109 109 109 
109 109 109 109 109 109 109 109 109 109 109 109 109 109 109 109 109 109 
109 109 109 109 109 109 109 109 109 109 109 109 109 109 109 109 109 109 
109 109 109 109 109 109 109 109 109 109 109 109 109 109 109 109 109 109 
109 109 109 109 109 109 109 109 109 109 109 109 109 109 109 109 109 109 
109 109 109 109 109 109 109 109 109 109 109 109 109 109 109 109 109 109 
109 109 109 109 109 109 109 109 109 109 109 109 109 109 109 109 109 109 
109 109 109 109 109 109 109 109 109 109 109 109 109 109 109 109 109 109 
109 109 109 109 109 109 109 109 109 109 109 109 109 109 109 109 109 109 
109 109 109 109 109 109 109 109 109 109 109 109 109 109 109 109 109 109 
109 109 109 109 109 109 109 109 109 109 109 109 109 109 109 109 109 109 
109 109 109 109 109 109 109 109 109 109 109 109 109 109 109 109 109 109 
109 109 109 109 109 109 109 109 109 109 109 109 109 109 109 109 109 109 
109 109 109 109 109 109 109 109 109 109 109 109 109 109 109 109 109 109 
109 109 109 109 109 109 109 109 109 109 109 109 109 109 109 109 109 109 
109 109 109 109 109 109 109 109 109 109 109 109 109 109 109 109 109 109 
109 109 109 109 109 109 109 109 109 109 109 109 109 109 109 109 109 109 
109 109 109 109 109 109 109 109 109 109 109 109 109 109 109 109 109 109 
109 109 109 109 109 109 109 109 109 109 109 109 109 109 109 109 109 109 
109 109 109 109 109 109 109 109 109 109 109 109 109 109 109 109 109 109 
109 109 109 109 109 109 109 109 109 109 109 109 109 109 109 109 109 109 
109 109 109 109 109 109 109 109 109 109 109 109 109 109 109 109 109 109 
109 109 109 109 109 109 109 109 109 109 109 109 109 109 109 109 109 109 
109 109 109 109 109 109 109 109 109 109 109 109 109 109 109 109 109 109 
109 109 109 109 109 109 109 109 109 109 109 109 109 109 109 109 109 109 
109 109 109 109 109 109 109 109 109 109 109 109 109 109 109 109 109 109 
109 109 109 109 109 109 109 109 109 109 109 109 109 109 109 109 109 109 
109 109 109 109 109 109 109 109 109 109 109 109 109 109 109 109 109 109 
109 109 109 109 109 109 109 109 109 109 109 109 109 109 109 109 109 109 
109 109 109 109 109 109 109 109 109 109 109 109 109 109 109 109 109 109 
109 109 109 109 109 109 109 109 109 109 109 109 109 109 109 109 109 109 
109 109 109 109 109 109 109 109 109 109 109 109 109 109 109 109 109 109 
109 109 109 109 109 109 109 109 109 109 109 109 109 109 109 109 109 109 
109 109 109 109 109 109 109 109 109 109 109 109 109 109 109 109 109 109 
109 109 109 109 109 109 109 109 109 109 109 109 109 109 109 109 109 109 
109 109 109 109 109 109 109 109 109 109 109 109 109 109 109 109 109 109 
109 109 109 109 109 109 109 109 109 109 109 109 109 109 109 109 109 109 
109 109 109 109 109 109 109 109 109 109 109 109 109 109 109 109 109 109 
109 109 109 109 109 109 109 109 109 109 109 109 109 109 109 109 109 109 
109 109 109 109 109 109 109 109 109 109 109 109 109 109 109 109 109 109 
109 109 109 109 109 109 109 109 109 109 109 109 109 109 109 109 109 109 
109 109 109 109 109 109 109 109 109 109 109 109 109 109 109 109 109 109 
109 109 109 109 109 109 109 109 109 109 109 109 109 109 109 109 109 109 
109 109 109 109 109 109 109 109 109 109 109 109 109 109 109 109 109 109 
109 109 109 109 109 109 109 109 109 109 109 109 109 109 109 109 109 109 
109 109 109 109 109 109 109 109 109 109 109 109 109 109 109 109 109 109 
109 109 109 109 109 109 109 109 109 109 109 109 109 109 109 109 109 109 
109 109 109 109 109 109 109 109 109 109 109 109 109 109 109 109 109 109 
109 109 109 109 109 109 109 109 109 109 109 109 109 109 109 109 109 109 
109 109 109 109 109 109 109 109 109 109 109 109 109 109 109 109 109 109 
109 109 109 109 109 109 109 109 109 109 109 109 109 109 109 109 109 109 
109 109 109 109 109 109 109 109 109 109 109 109 109 109 109 109 109 109 
109 109 109 109 109 109 109 109 109 109 109 109 109 109 109 109 109 109 
109 109 109 109 109 109 109 109 109 109 109 109 109 109 109 109 109 109 
109 109 109 109 109 109 109 109 109 109 109 109 109 109 109 109 109 109 
109 109 109 109 109 109 109 109 109 109 109 109 109 109 109 109 109 109 
109 109 109 109 109 109 109 109 109 109 109 109 109 109 109 109 109 109 
109 109 109 109 109 109 109 109 109 109 109 109 109 109 109 109 109 109 
109 109 109 109 109 109 109 109 109 109 109 109 109 109 109 109 109 109 
109 109 109 109 109 109 109 109 109 109 109 109 109 109 109 109 109 109 
109 109 109 109 109 109 109 109 109 109 109 109 109 109 109 109 109 109 
109 109 109 109 109 109 109 109 109 109 109 109 109 109 109 109 109 109 
109 109 109 109 109 109 109 109 109 109 109 109 109 109 109 109 109 109 
109 109 109 109 109 109 109 109 109 109 109 109 109 109 109 109 109 109 
109 109 109 109 109 109 109 109 109 109 109 109 109 109 109 109 109 109 
109 109 109 109 109 109 109 109 109 109 109 109 109 109 109 109 109 109 
109 109 109 109 109 109 109 109 109 109 109 109 109 109 109 109 109 109 
109 109 109 109 109 109 109 109 109 109 109 109 109 109 109 109 109 109 
109 109 109 109 109 109 109 109 109 109 109 109 109 109 109 109 109 109 
109 109 109 109 109 109 109 109 109 109 109 109 109 109 109 109 109 109 
109 109 109 109 109 109 109 109 109 109 109 109 109 109 109 109 109 109 
109 109 109 109 109 109 109 109 109 109 109 109 109 109 109 109 109 109 
109 109 109 109 109 109 109 109 109 109 109 109 109 109 109 109 109 109 
109 109 109 109 109 109 109 109 109 109 109 109 109 109 109 109 109 109 
109 109 109 109 109 109 109 109 109 109 109 109 109 109 109 109 109 109 
109 109 109 109 109 109 109 109 109 109 109 109 109 109 109 109 109 109 
109 109 109 109 109 109 109 109 109 109 109 109 109 109 109 109 109 109 
109 109 109 109 109 109 109 109 109 109 109 109 109 109 109 109 109 109 
109 109 109 109 109 109 109 109 109 109 109 109 109 109 109 109 109 109 
109 109 109 109 109 109 109 109 109 109 109 109 109 109 109 109 109 109 
109 109 109 109 109 109 109 109 109 109 109 109 109 109 109 109 109 109 
109 109 109 109 109 109 109 109 109 109 109 109 109 109 109 109 109 109 
109 109 109 109 109 109 109 109 109 109 109 109 109 109 109 109 109 109 
109 109 109 109 109 109 109 109 109 109 109 109 109 109 109 109 109 109 
109 109 109 109 109 109 109 109 109 109 109 109 109 109 109 109 109 109 
109 109 109 109 109 109 109 109 109 109 109 109 109 109 109 109 109 109 
109 109 109 109 109 109 109 109 109 109 109 109 109 109 109 109 109 109 
109 109 109 109 109 109 109 109 109 109 109 109 109 109 109 109 109 109 
109 109 109 109 109 109 109 109 109 109 109 109 109 109 109 109 109 109 
109 109 109 109 109 109 109 109 109 109 109 109 109 109 109 109 109 109 
109 109 109 109 109 109 109 109 109 109 109 109 109 109 109 109 109 109 
109 109 109 109 109 109 109 109 109 109 109 109 109 109 109 109 109 109 
109 109 109 109 109 109 109 109 109 109 109 109 109 109 109 109 109 109 
109 109 109 109 109 109 109 109 109 109 109 109 109 109 109 109 109 109 
109 109 109 109 109 109 109 109 109 109 109 109 109 109 109 109 109 109 
109 109 109 109 109 109 109 109 109 109 109 109 109 109 109 109 109 109 
109 109 109 109 109 109 109 109 109 109 109 109 109 109 109 109 109 109 
109 109 109 109 109 109 109 109 109 109 109 109 109 109 109 109 109 109 
109 109 109 109 109 109 109 109 109 109 109 109 109 109 109 109 109 109 
109 109 109 109 109 109 109 109 109 109 109 109 109 109 109 109 109 109 
109 109 109 109 109 109 109 109 109 109 109 109 109 109 109 109 109 109 
109 109 109 109 109 109 109 109 109 109 109 109 109 109 109 109 109 109 
109 109 109 109 109 109 109 109 109 109 109 109 109 109 109 109 109 109 
109 109 109 109 109 109 109 109 109 109 109 109 109 109 109 109 109 109 
109 109 109 109 109 109 109 109 109 109 109 109 109 109 109 109 109 109 
109 109 109 109 109 109 109 109 109 109 109 109 109 109 109 109 109 109 
109 109 109 109 109 109 109 109 109 109 109 109 109 109 109 109 109 109 
109 109 109 109 109 109 109 109 109 109 109 109 109 109 109 109 109 109 
109 109 109 109 109 109 109 109 109 109 109 109 109 109 109 109 109 109 
109 109 109 109 109 109 109 109 109 109 109 109 109 109 109 109 109 109 
109 109 109 109 109 109 109 109 109 109 109 109 109 109 109 109 109 109 
109 109 109 109 109 109 109 109 109 109 109 109 109 109 109 109 109 109 
109 109 109 109 109 109 109 109 109 109 109 109 109 109 109 109 109 109 
109 109 109 109 109 109 109 109 109 109 109 109 109 109 109 109 109 109 
109 109 109 109 109 109 109 109 109 109 109 109 109 109 109 109 109 109 
109 109 109 109 109 109 109 109 109 109 109 109 109 109 109 109 109 109 
109 109 109 109 109 109 109 109 109 109 109 109 109 109 109 109 109 109 
109 109 109 109 109 109 109 109 109 109 109 109 109 109 109 109 109 109 
109 109 109 109 109 109 109 109 109 109 109 109 109 109 109 109 109 109 
109 109 109 109 109 109 109 109 109 109 109 109 109 109 109 109 109 109 
109 109 109 109 109 109 109 109 109 109 109 109 109 109 109 109 109 109 
109 109 109 109 109 109 109 109 109 109 109 109 109 109 109 109 109 109 
109 109 109 109 109 109 109 109 109 109 109 109 109 109 109 109 109 109 
109 109 109 109 109 109 109 109 109 109 109 109 109 109 109 109 109 109 
109 109 109 109 109 109 109 109 109 109 109 109 109 109 109 109 109 109 
109 109 109 109 109 109 109 109 109 109 109 109 109 109 109 109 109 109 
109 109 109 109 109 109 109 109 109 109 109 109 109 109 109 109 109 109 
109 109 109 109 109 109 109 109 109 109 109 109 109 109 109 109 109 109 
109 109 109 109 109 109 109 109 109 109 109 109 109 109 109 109 109 109 
109 109 109 109 109 109 109 109 109 109 109 109 109 109 109 109 109 109 
109 109 109 109 109 109 109 109 109 109 109 109 109 109 109 109 109 109 
109 109 109 109 109 109 109 109 109 109 109 109 109 109 109 109 109 109 
109 109 109 109 109 109 109 109 109 109 109 109 109 109 109 109 109 109 
109 109 109 109 109 109 109 109 109 109 109 109 109 109 109 109 109 109 
109 109 109 109 109 109 109 109 109 109 109 109 109 109 109 109 109 109 
109 109 109 109 109 109 109 109 109 109 109 109 109 109 109 109 109 109 
109 109 109 109 109 109 109 109 109 109 109 109 109 109 109 109 109 109 
109 109 109 109 109 109 109 109 109 109 109 109 109 109 109 109 109 109 
109 109 109 109 109 109 109 109 109 109 109 109 109 109 109 109 109 109 
109 109 109 109 109 109 109 109 109 109 109 109 109 109 109 109 109 109 
109 109 109 109 109 109 109 109 109 109 109 109 109 109 109 109 109 109 
109 109 109 109 109 109 109 109 109 109 109 109 109 109 109 109 109 109 
109 109 109 109 109 109 109 109 109 109 109 109 109 109 109 109 109 109 
109 109 109 109 109 109 109 109 109 109 109 109 109 109 109 109 109 109 
109 109 109 109 109 109 109 109 109 109 109 109 109 109 109 109 109 109 
109 109 109 109 109 109 109 109 109 109 109 109 109 109 109 109 109 109 
109 109 109 109 109 109 109 109 109 109 109 109 109 109 109 109 109 109 
109 109 109 109 109 109 109 109 109 109 109 109 109 109 109 109 109 109 
109 109 109 109 109 109 109 109 109 109 109 109 109 109 109 109 109 109 
109 109 109 109 109 109 109 109 109 109 109 109 109 109 109 109 109 109 
109 109 109 109 109 109 109 109 109 109 109 109 109 109 109 109 109 109 
109 109 109 109 109 109 109 109 109 109 109 109 109 109 109 109 109 109 
109 109 109 109 109 109 109 109 109 109 109 109 109 109 109 109 109 109 
109 109 109 109 109 109 109 109 109 109 109 109 109 109 109 109 109 109 
109 109 109 109 109 109 109 109 109 109 109 109 109 109 109 109 109 109 
109 109 109 109 109 109 109 109 109 109 109 109 109 109 109 109 109 109 
109 109 109 109 109 109 109 109 109 109 109 109 109 109 109 109 109 109 
109 109 109 109 109 109 109 109 109 109 109 109 109 109 109 109 109 109 
109 109 109 109 109 109 109 109 109 109 109 109 109 109 109 109 109 109 
109 109 109 109 109 109 109 109 109 109 109 109 109 109 109 109 109 109 
109 109 109 109 109 109 109 109 109 109 109 109 109 109 109 109 109 109 
109 109 109 109 109 109 109 109 109 109 109 109 109 109 109 109 109 109 
109 109 109 109 109 109 109 109 109 109 109 109 109 109 109 109 109 109 
109 109 109 109 109 109 109 109 109 109 109 109 109 109 109 109 109 109 
109 109 109 109 109 109 109 109 109 109 109 109 109 109 109 109 109 109 
109 109 109 109 109 109 109 109 109 109 109 109 109 109 109 109 109 109 
109 109 109 109 109 109 109 109 109 109 109 109 109 109 109 109 109 109 
109 109 109 109 109 109 109 109 109 109 109 109 109 109 109 109 109 109 
109 109 109 109 109 109 109 109 109 109 109 109 109 109 109 109 109 109 
109 109 109 109 109 109 109 109 109 109 109 109 109 109 109 109 109 109 
109 109 109 109 109 109 109 109 109 109 109 109 109 109 109 109 109 109 
109 109 109 109 109 109 109 109 109 109 109 109 109 109 109 109 109 109 
109 109 109 109 109 109 109 109 109 109 109 109 109 109 109 109 109 109 
109 109 109 109 109 109 109 109 109 109 109 109 109 109 109 109 109 109 
109 109 109 109 109 109 109 109 109 109 109 109 109 109 109 109 109 109 
109 109 109 109 109 109 109 109 109 109 109 109 109 109 109 109 109 109 
109 109 109 109 109 109 109 109 109 109 109 109 109 109 109 109 109 109 
109 109 109 109 109 109 109 109 109 109 109 109 109 109 109 109 109 109 
109 109 109 109 109 109 109 109 109 109 109 109 109 109 109 109 109 109 
109 109 109 109 109 109 109 109 109 109 109 109 109 109 109 109 109 109 
109 109 109 109 109 109 109 109 109 109 109 109 109 109 109 109 109 109 
109 109 109 109 109 109 109 109 109 109 109 109 109 109 109 109 109 109 
109 109 109 109 109 109 109 109 109 109 109 109 109 109 109 109 109 109 
109 109 109 109 109 109 109 109 109 109 109 109 109 109 109 109 109 109 
109 109 109 109 109 109 109 109 109 109 109 109 109 109 109 109 109 109 
109 109 109 109 109 109 109 109 109 109 109 109 109 109 109 109 109 109 
109 109 109 109 109 109 109 109 109 109 109 109 109 109 109 109 109 109 
109 109 109 109 109 109 109 109 109 109 109 109 109 109 109 109 109 109 
109 109 109 109 109 109 109 109 109 109 109 109 109 109 109 109 109 109 
109 109 109 109 109 109 109 109 109 109 109 109 109 109 109 109 109 109 
109 109 109 109 109 109 109 109 109 109 109 109 109 109 109 109 109 109 
109 109 109 109 109 109 109 109 109 109 109 109 109 109 109 109 109 109 
109 109 109 109 109 109 109 109 109 109 109 109 109 109 109 109 109 109 
109 109 109 109 109 109 109 109 109 109 109 109 109 109 109 109 109 109 
109 109 109 109 109 109 109 109 109 109 109 109 109 109 109 109 109 109 
109 109 109 109 109 109 109 109 109 109 109 109 109 109 109 109 109 109 
109 109 109 109 109 109 109 109 109 109 109 109 109 109 109 109 109 109 
109 109 109 109 109 109 109 109 109 109 109 109 109 109 109 109 109 109 
109 109 109 109 109 109 109 109 109 109 109 109 109 109 109 109 109 109 
109 109 109 109 109 109 109 109 109 109 109 109 109 109 109 109 109 109 
109 109 109 109 109 109 109 109 109 109 109 109 109 109 109 109 109 109 
109 109 109 109 109 109 109 109 109 109 109 109 109 109 109 109 109 109 
109 109 109 109 109 109 109 109 109 109 109 109 109 109 109 109 109 109 
109 109 109 109 109 109 109 109 109 109 109 109 109 109 109 109 109 109 
109 109 109 109 109 109 109 109 109 109 109 109 109 109 109 109 109 109 
109 109 109 109 109 109 109 109 109 109 109 109 109 109 109 109 109 109 
109 109 109 109 109 109 109 109 109 109 109 109 109 109 109 109 109 109 
109 109 109 109 109 109 109 109 109 109 109 109 109 109 109 109 109 109 
109 109 109 109 109 109 109 109 109 109 109 109 109 109 109 109 109 109 
109 109 109 109 109 109 109 109 109 109 109 109 109 109 109 109 109 109 
109 109 109 109 109 109 109 109 109 109 109 109 109 109 109 109 109 109 
109 109 109 109 109 109 109 109 109 109 109 109 109 109 109 109 109 109 
109 109 109 109 109 109 109 109 109 109 109 109 109 109 109 109 109 109 
109 109 109 109 109 109 109 109 109 109 109 109 109 109 109 109 109 109 
109 109 109 109 109 109 109 109 109 109 109 109 109 109 109 109 109 109 
109 109 109 109 109 109 109 109 109 109 109 109 109 109 109 109 109 109 
109 109 109 109 109 109 109 109 109 109 109 109 109 109 109 109 109 109 
109 109 109 109 109 109 109 109 109 109 109 109 109 109 109 109 109 109 
109 109 109 109 109 109 109 109 109 109 109 109 109 109 109 109 109 109 
109 109 109 109 109 109 109 109 109 109 109 109 109 109 109 109 109 109 
109 109 109 109 109 109 109 109 109 109 109 109 109 109 109 109 109 109 
109 109 109 109 109 109 109 109 109 109 109 109 109 109 109 109 109 109 
109 109 109 109 109 109 109 109 109 109 109 109 109 109 109 109 109 109 
109 109 109 109 109 109 109 109 109 109 109 109 109 109 109 109 109 109 
109 109 109 109 109 109 109 109 109 109 109 109 109 109 109 109 109 109 
109 109 109 109 109 109 109 109 109 109 109 109 109 109 109 109 109 109 
109 109 109 109 109 109 109 109 109 109 109 109 109 109 109 109 109 109 
109 109 109 109 109 109 109 109 109 109 109 109 109 109 109 109 109 109 
109 109 109 109 109 109 109 109 109 109 109 109 109 109 109 109 109 109 
109 109 109 109 109 109 109 109 109 109 109 109 109 109 109 109 109 109 
109 109 109 109 109 109 109 109 109 109 109 109 109 109 109 109 109 109 
109 109 109 109 109 109 109 109 109 109 109 109 109 109 109 109 109 109 
109 109 109 109 109 109 109 109 109 109 109 109 109 109 109 109 109 109 
109 109 109 109 109 109 109 109 109 109 109 109 109 109 109 109 109 109 
109 109 109 109 109 109 109 109 109 109 109 109 109 109 109 109 109 109 
109 109 109 109 109 109 109 109 109 109 109 109 109 109 109 109 109 109 
109 109 109 109 109 109 109 109 109 109 109 109 109 109 109 109 109 109 
109 109 109 109 109 109 109 109 109 109 109 109 109 109 109 109 109 109 
109 109 109 109 109 109 109 109 109 109 109 109 109 109 109 109 109 109 
109 109 109 109 109 109 109 109 109 109 109 109 109 109 109 109 109 109 
109 109 109 109 109 109 109 109 109 109 109 109 109 109 109 109 109 109 
109 109 109 109 109 109 109 109 109 109 109 109 109 109 109 109 109 109 
109 109 109 109 109 109 109 109 109 109 109 109 109 109 109 109 109 109 
109 109 109 109 109 109 109 109 109 109 109 109 109 109 109 109 109 109 
109 109 109 109 109 109 109 109 109 109 109 109 109 109 109 109 109 109 
109 109 109 109 109 109 109 109 109 109 109 109 109 109 109 109 109 109 
109 109 109 109 109 109 109 109 109 109 109 109 109 109 109 109 109 109 
109 109 109 109 109 109 109 109 109 109 109 109 109 109 109 109 109 109 
109 109 109 109 109 109 109 109 109 109 109 109 109 109 109 109 109 109 
109 109 109 109 109 109 109 109 109 109 109 109 109 109 109 109 109 109 
109 109 109 109 109 109 109 109 109 109 109 109 109 109 109 109 109 109 
109 109 109 109 109 109 109 109 109 109 109 109 109 109 109 109 109 109 
109 109 109 109 109 109 109 109 109 109 109 109 109 109 109 109 109 109 
109 109 109 109 109 109 109 109 109 109 109 109 109 109 109 109 109 109 
109 109 109 109 109 109 109 109 109 109 109 109 109 109 109 109 109 109 
109 109 109 109 109 109 109 109 109 109 109 109 109 109 109 109 109 109 
109 109 109 109 109 109 109 109 109 109 109 109 109 109 109 109 109 109 
109 109 109 109 109 109 109 109 109 109 109 109 109 109 109 109 109 109 
109 109 109 109 109 109 109 109 109 109 109 109 109 109 109 109 109 109 
109 109 109 109 109 109 109 109 109 109 109 109 109 109 109 109 109 109 
109 109 109 109 109 109 109 109 109 109 109 109 109 109 109 109 109 109 
109 109 109 109 109 109 109 109 109 109 109 109 109 109 109 109 109 109 
109 109 109 109 109 109 109 109 109 109 109 109 109 109 109 109 109 109 
109 109 109 109 109 109 109 109 109 109 109 109 109 109 109 109 109 109 
109 109 109 109 109 109 109 109 109 109 109 109 109 109 109 109 109 109 
109 109 109 109 109 109 109 109 109 109 109 109 109 109 109 109 109 109 
109 109 109 109 109 109 109 109 109 109 109 109 109 109 109 109 109 109 
109 109 109 109 109 109 109 109 109 109 109 109 109 109 109 109 109 109 
109 109 109 109 109 109 109 109 109 109 109 109 109 109 109 109 109 109 
109 109 109 109 109 109 109 109 109 109 109 109 109 109 109 109 109 109 
109 109 109 109 109 109 109 109 109 109 109 109 109 109 109 109 109 109 
109 109 109 109 109 109 109 109 109 109 109 109 109 109 109 109 109 109 
109 109 109 109 109 109 109 109 109 109 109 109 109 109 109 109 109 109 
109 109 109 109 109 109 109 109 109 109 109 109 109 109 109 109 109 109 
109 109 109 109 109 109 109 109 109 109 109 109 109 109 109 109 109 109 
109 109 109 109 109 109 109 109 109 109 109 109 109 109 109 109 109 109 
109 109 109 109 109 109 109 109 109 109 109 109 109 109 109 109 109 109 
109 109 109 109 109 109 109 109 109 109 109 109 109 109 109 109 109 109 
109 109 109 109 109 109 109 109 109 109 109 109 109 109 109 109 109 109 
109 109 109 109 109 109 109 109 109 109 109 109 109 109 109 109 109 109 
109 109 109 109 109 109 109 109 109 109 109 109 109 109 109 109 109 109 
109 109 109 109 109 109 109 109 109 109 109 109 109 109 109 109 109 109 
109 109 109 109 109 109 109 109 109 109 109 109 109 109 109 109 109 109 
109 109 109 109 109 109 109 109 109 109 109 109 109 109 109 109 109 109 
109 109 109 109 109 109 109 109 109 109 109 109 109 109 109 109 109 109 
109 109 109 109 109 109 109 109 109 109 109 109 109 109 109 109 109 109 
109 109 109 109 109 109 109 109 109 109 109 109 109 109 109 109 109 109 
109 109 109 109 109 109 109 109 109 109 109 109 109 109 109 109 109 109 
109 109 109 109 109 109 109 109 109 109 109 109 109 109 109 109 109 109 
109 109 109 109 109 109 109 109 109 109 109 109 109 109 109 109 109 109 
109 109 109 109 109 109 109 109 109 109 109 109 109 109 109 109 109 109 
109 109 109 109 109 109 109 109 109 109 109 109 109 109 109 109 109 109 
109 109 109 109 109 109 109 109 109 109 109 109 109 109 109 109 109 109 
109 109 109 109 109 109 109 109 109 109 109 109 109 109 109 109 109 109 
109 109 109 109 109 109 109 109 109 109 109 109 109 109 109 109 109 109 
109 109 109 109 109 109 109 109 109 109 109 109 109 109 109 109 109 109 
109 109 109 109 109 109 109 109 109 109 109 109 109 109 109 109 109 109 
109 109 109 109 109 109 109 109 109 109 109 109 109 109 109 109 109 109 
109 109 109 109 109 109 109 109 109 109 109 109 109 109 109 109 109 109 
109 109 109 109 109 109 109 109 109 109 109 109 109 109 109 109 109 109 
109 109 109 109 109 109 109 109 109 109 109 109 109 109 109 109 109 109 
109 109 109 109 109 109 109 109 109 109 109 109 109 109 109 109 109 109 
109 109 109 109 109 109 109 109 109 109 109 109 109 109 109 109 109 109 
109 109 109 109 109 109 109 109 109 109 109 109 109 109 109 109 109 109 
109 109 109 109 109 109 109 109 109 109 109 109 109 109 109 109 109 109 
109 109 109 109 109 109 109 109 109 109 109 109 109 109 109 109 109 109 
109 109 109 109 109 109 109 109 109 109 109 109 109 109 109 109 109 109 
109 109 109 109 109 109 109 109 109 109 109 109 109 109 109 109 109 109 
109 109 109 109 109 109 109 109 109 109 109 109 109 109 109 109 109 109 
109 109 109 109 109 109 109 109 109 109 109 109 109 109 109 109 109 109 
109 109 109 109 109 109 109 109 109 109 109 109 109 109 109 109 109 109 
109 109 109 109 109 109 109 109 109 109 109 109 109 109 109 109 109 109 
109 109 109 109 109 109 109 109 109 109 109 109 109 109 109 109 109 109 
109 109 109 109 109 109 109 109 109 109 109 109 109 109 109 109 109 109 
109 109 109 109 109 109 109 109 109 109 109 109 109 109 109 109 109 109 
109 109 109 109 109 109 109 109 109 109 109 109 109 109 109 109 109 109 
109 109 109 109 109 109 109 109 109 109 109 109 109 109 109 109 109 109 
109 109 109 109 109 109 109 109 109 109 109 109 109 109 109 109 109 109 
109 109 109 109 109 109 109 109 109 109 109 109 109 109 109 109 109 109 
109 109 109 109 109 109 109 109 109 109 109 109 109 109 109 109 109 109 
109 109 109 109 109 109 109 109 109 109 109 109 109 109 109 109 109 109 
109 109 109 109 109 109 109 109 109 109 109 109 109 109 109 109 109 109 
109 109 109 109 109 109 109 109 109 109 109 109 109 109 109 109 109 109 
109 109 109 109 109 109 109 109 109 109 109 109 109 109 109 109 109 109 
109 109 109 109 109 109 109 109 109 109 109 109 109 109 109 109 109 109 
109 109 109 109 109 109 109 109 109 109 109 109 109 109 109 109 109 109 
109 109 109 109 109 109 109 109 109 109 109 109 109 109 109 109 109 109 
109 109 109 109 109 109 109 109 109 109 109 109 109 109 109 109 109 109 
109 109 109 109 109 109 109 109 109 109 109 109 109 109 109 109 109 109 
109 109 109 109 109 109 109 109 109 109 109 109 109 109 109 109 109 109 
109 109 109 109 109 109 109 109 109 109 109 109 109 109 109 109 109 109 
109 109 109 109 109 109 109 109 109 109 109 109 109 109 109 109 109 109 
109 109 109 109 109 109 109 109 109 109 109 109 109 109 109 109 109 109 
109 109 109 109 109 109 109 109 109 109 109 109 109 109 109 109 109 109 
109 109 109 109 109 109 109 109 109 109 109 109 109 109 109 109 109 109 
109 109 109 109 109 109 109 109 109 109 109 109 109 109 109 109 109 109 
109 109 109 109 109 109 109 109 109 109 109 109 109 109 109 109 109 109 
109 109 109 109 109 109 109 109 109 109 109 109 109 109 109 109 109 109 
109 109 109 109 109 109 109 109 109 109 109 109 109 109 109 109 109 109 
109 109 109 109 109 109 109 109 109 109 109 109 109 109 109 109 109 109 
109 109 109 109 109 109 109 109 109 109 109 109 109 109 109 109 109 109 
109 109 109 109 109 109 109 109 109 109 109 109 109 109 109 109 109 109 
109 109 109 109 109 109 109 109 109 109 109 109 109 109 109 109 109 109 
109 109 109 109 109 109 109 109 109 109 109 109 109 109 109 109 109 109 
109 109 109 109 109 109 109 109 109 109 109 109 109 109 109 109 109 109 
109 109 109 109 109 109 109 109 109 109 109 109 109 109 109 109 109 109 
109 109 109 109 109 109 109 109 109 109 109 109 109 109 109 109 109 109 
109 109 109 109 109 109 109 109 109 109 109 109 109 109 109 109 109 109 
109 109 109 109 109 109 109 109 109 109 109 109 109 109 109 109 109 109 
109 109 109 109 109 109 109 109 109 109 109 109 109 109 109 109 109 109 
109 109 109 109 109 109 109 109 109 109 109 109 109 109 109 109 109 109 
109 109 109 109 109 109 109 109 109 109 109 109 109 109 109 109 109 109 
109 109 109 109 109 109 109 109 109 109 109 109 109 109 109 109 109 109 
109 109 109 109 109 109 109 109 109 109 109 109 109 109 109 109 109 109 
109 109 109 109 109 109 109 109 109 109 109 109 109 109 109 109 109 109 
109 109 109 109 109 109 109 109 109 109 109 109 109 109 109 109 109 109 
109 109 109 109 109 109 109 109 109 109 109 109 109 109 109 109 109 109 
109 109 109 109 109 109 109 109 109 109 109 109 109 109 109 109 109 109 
109 109 109 109 109 109 109 109 109 109 109 109 109 109 109 109 109 109 
109 109 109 109 109 109 109 109 109 109 109 109 109 109 109 109 109 109 
109 109 109 109 109 109 109 109 109 109 109 109 109 109 109 109 109 109 
109 109 109 109 109 109 109 109 109 109 109 109 109 109 109 109 109 109 
109 109 109 109 109 109 109 109 109 109 109 109 109 109 109 109 109 109 
109 109 109 109 109 109 109 109 109 109 109 109 109 109 109 109 109 109 
109 109 109 109 109 109 109 109 109 109 109 109 109 109 109 109 109 109 
109 109 109 109 109 109 109 109 109 109 109 109 109 109 109 109 109 109 
109 109 109 109 109 109 109 109 109 109 109 109 109 109 109 109 109 109 
109 109 109 109 109 109 109 109 109 109 109 109 109 109 109 109 109 109 
109 109 109 109 109 109 109 109 109 109 109 109 109 109 109 109 109 109 
109 109 109 109 109 109 109 109 109 109 109 109 109 109 109 109 109 109 
109 109 109 109 109 109 109 109 109 109 109 109 109 109 109 109 109 109 
109 109 109 109 109 109 109 109 109 109 109 109 109 109 109 109 109 109 
109 109 109 109 109 109 109 109 109 109 109 109 109 109 109 109 109 109 
109 109 109 109 109 109 109 109 109 109 109 109 109 109 109 109 109 109 
109 109 109 109 109 109 109 109 109 109 109 109 109 109 109 109 109 109 
109 109 109 109 109 109 109 109 109 109 109 109 109 109 109 109 109 109 
109 109 109 109 109 109 109 109 109 109 109 109 109 109 109 109 109 109 
109 109 109 109 109 109 109 109 109 109 109 109 109 109 109 109 109 109 
109 109 109 109 109 109 109 109 109 109 109 109 109 109 109 109 109 109 
109 109 109 109 109 109 109 109 109 109 109 109 109 109 109 109 109 109 
109 109 109 109 109 109 109 109 109 109 109 109 109 109 109 109 109 109 
109 109 109 109 109 109 109 109 109 109 109 109 109 109 109 109 109 109 
109 109 109 109 109 109 109 109 109 109 109 109 109 109 109 109 109 109 
109 109 109 109 109 109 109 109 109 109 109 109 109 109 109 109 109 109 
109 109 109 109 109 109 109 109 109 109 109 109 109 109 109 109 109 109 
109 109 109 109 109 109 109 109 109 109 109 109 109 109 109 109 109 109 
109 109 109 109 109 109 109 109 109 109 109 109 109 109 109 109 109 109 
109 109 109 109 109 109 109 109 109 109 109 109 109 109 109 109 109 109 
109 109 109 109 109 109 109 109 109 109 109 109 109 109 109 109 109 109 
109 109 109 109 109 109 109 109 109 109 109 109 109 109 109 109 109 109 
109 109 109 109 109 109 109 109 109 109 109 109 109 109 109 109 109 109 
109 109 109 109 109 109 109 109 109 109 109 109 109 109 109 109 109 109 
109 109 109 109 109 109 109 109 109 109 109 109 109 109 109 109 109 109 
109 109 109 109 109 109 109 109 109 109 109 109 109 109 109 109 109 109 
109 109 109 109 109 109 109 109 109 109 109 109 109 109 109 109 109 109 
109 109 109 109 109 109 109 109 109 109 109 109 109 109 109 109 109 109 
109 109 109 109 109 109 109 109 109 109 109 109 109 109 109 109 109 109 
109 109 109 109 109 109 109 109 109 109 109 109 109 109 109 109 109 109 
109 109 109 109 109 109 109 109 109 109 109 109 109 109 109 109 109 109 
109 109 109 109 109 109 109 109 109 109 109 109 109 109 109 109 109 109 
109 109 109 109 109 109 109 109 109 109 109 109 109 109 109 109 109 109 
109 109 109 109 109 109 109 109 109 109 109 109 109 109 109 109 109 109 
109 109 109 109 109 109 109 109 109 109 109 109 109 109 109 109 109 109 
109 109 109 109 109 109 109 109 109 109 109 109 109 109 109 109 109 109 
109 109 109 109 109 109 109 109 109 109 109 109 109 109 109 109 109 109 
109 109 109 109 109 109 109 109 109 109 109 109 109 109 109 109 109 109 
109 109 109 109 109 109 109 109 109 109 109 109 109 109 109 109 109 109 
109 109 109 109 109 109 109 109 109 109 109 109 109 109 109 109 109 109 
109 109 109 109 109 109 109 109 109 109 109 109 109 109 109 109 109 109 
109 109 109 109 109 109 109 109 109 109 109 109 109 109 109 109 109 109 
109 109 109 109 109 109 109 109 109 109 109 109 109 109 109 109 109 109 
109 109 109 109 109 109 109 109 109 109 109 109 109 109 109 109 109 109 
109 109 109 109 109 109 109 109 109 109 109 109 109 109 109 109 109 109 
109 109 109 109 109 109 109 109 109 109 109 109 109 109 109 109 109 109 
109 109 109 109 109 109 109 109 109 109 109 109 109 109 109 109 109 109 
109 109 109 109 109 109 109 109 109 109 109 109 109 109 109 109 109 109 
109 109 109 109 109 109 109 109 109 109 109 109 109 109 109 109 109 109 
109 109 109 109 109 109 109 109 109 109 109 109 109 109 109 109 109 109 
109 109 109 109 109 109 109 109 109 109 109 109 109 109 109 109 109 109 
109 109 109 109 109 109 109 109 109 109 109 109 109 109 109 109 109 109 
109 109 109 109 109 109 109 109 109 109 109 109 109 109 109 109 109 109 
109 109 109 109 109 109 109 109 109 109 109 109 109 109 109 109 109 109 
109 109 109 109 109 109 109 109 109 109 109 109 109 109 109 109 109 109 
109 109 109 109 109 109 109 109 109 109 109 109 109 109 109 109 109 109 
109 109 109 109 109 109 109 109 109 109 109 109 109 109 109 109 109 109 
109 109 109 109 109 109 109 109 109 109 109 109 109 109 109 109 109 109 
109 109 109 109 109 109 109 109 109 109 109 109 109 109 109 109 109 109 
109 109 109 109 109 109 109 109 109 109 109 109 109 109 109 109 109 109 
109 109 109 109 109 109 109 109 109 109 109 109 109 109 109 109 109 109 
109 109 109 109 109 109 109 109 109 109 109 109 109 109 109 109 109 109 
109 109 109 109 109 109 109 109 109 109 109 109 109 109 109 109 109 109 
109 109 109 109 109 109 109 109 109 109 109 109 109 109 109 109 109 109 
 73  73  73  73  73  73  73  73  73  73  73  73  73  73  73  73  73  73 
 73  73  73  73  73  73  73  73  73  73  73  73  73  73  73  73  73  73 
 73  73  73  73  73  73  73  73  73  73  73  73  73  73  73  73  73  73 
 73  73  73  73  73  73  73  73  73  73  73  73  73  73  73  73  73  73 
 73  73  73  73  73  73  73  73  73  73  73  73  73  73  73  73  73  73 
 73  73  73  73  73  73  73  73  73  73  73  73  73  73  73  73  73  73 
 73  73  73  73  73  73  73  73  73  73  73  73  73  73  73  73  73  73 
 73  73  73  73  73  73  73  73  73  73  73  73  73  73  73  73  73  73 
 73  73  73  73  73  73  73  73  73  73  73  73  73  73  73  73  73  73 
 73  73  73  73  73  73  73  73  73  73  73  73  73  73  73  73  73  73 
 73  73  73  73  73  73  73  73  73  73  73  73  73  73  73  73  73  73 
 73  73  73  73  73  73  73  73  73  73  73  73  73  73  73  73  73  73 
 73  73  73  73  73  73  73  73  73  73  73  73  73  73  73  73  73  73 
 73  73  73  73  73  73  73  73  73  73  73  73  73  73  73  73  73  73 
 73  73  73  73  73  73  73  73  73  73  73  73  73  73  73  73  73  73 
 73  73  73  73  73  73  73  73  73  73  73  73  73  73  73  73  73  73 
 73  73  73  73  73  73  73  73  73  73  73  73  73  73  73  73  73  73 
 73  73  73  73  73  73  73  73  73  73  73  73  73  73  73  73  73  73 
 73  73  73  73  73  73  73  73  73  73  73  73  73  73  73  73  73  73 
 73  73  73  73  73  73  73  73  73  73  73  73  73  73  73  73  73  73 
 73  73  73  73  73  73  73  73  73  73  73  73  73  73  73  73  73  73 
 73  73  73  73  73  73  73  73  73  73  73  73  73  73  73  73  73  73 
 73  73  73  73  73  73  73  73  73  73  73  73  73  73  73  73  73  73 
 73  73  73  73  73  73  73  73  73  73  73  73  73  73  73  73  73  73 
 73  73  73  73  73  73  73  73  73  73  73  73  73  73  73  73  73  73 
 73  73  73  73  73  73  73  73  73  73  73  73  73  73  73  73  73  73 
 73  73  73  73  73  73  73  73  73  73  73  73  73  73  73  73  73  73 
 73  73  73  73  73  73  73  73  73  73  73  73  73  73  73  73  73  73 
 73  73  73  73  73  73  73  73  73  73  73  73  73  73  73  73  73  73 
 73  73  73  73  73  73  73  73  73  73  73  73  73  73  73  73  73  73 
 73  73  73  73  73  73  73  73  73  73  73  73  73  73  73  73  73  73 
 73  73  73  73  73  73  73  73  73  73  73  73  73  73  73  73  73  73 
 73  73  73  73  73  73  73  73  73  73  73  73  73  73  73  73  73  73 
 73  73  73  73  73  73  73  73  73  73  73  73  73  73  73  73  73  73 
 73  73  73  73  73  73  73  73  73  73  73  73  73  73  73  73  73  73 
 73  73  73  73  73  73  73  73  73  73  73  73  73  73  73  73  73  73 
 73  73  73  73  73  73  73  73  73  73  73  73  73  73  73  73  73  73 
 73  73  73  73  73  73  73  73  73  73  73  73  73  73  73  73  73  73 
 73  73  73  73  73  73  73  73  73  73  73  73  73  73  73  73  73  73 
 73  73  73  73  73  73  73  73  73  73  73  73  73  73  73  73  73  73 
 73  73  73  73  73  73  73  73  73  73  73  73  73  73  73  73  73  73 
 73  73  73  73  73  73  73  73  73  73  73  73  73  73  73  73  73  73 
 73  73  73  73  73  73  73  73  73  73  73  73  73  73  73  73  73  73 
 73  73  73  73  73  73  73  73  73  73  73  73  73  73  73  73  73  73 
 73  73  73  73  73  73  73  73  73  73  73  73  73  73  73  73  73  73 
 73  73  73  73  73  73  73  73  73  73  73  73  73  73  73  73  73  73 
 73  73  73  73  73  73  73  73  73  73  73  73  73  73  73  73  73  73 
 73  73  73  73  73  73  73  73  73  73  73  73  73  73  73  73  73  73 
 73  73  73  73  73  73  73  73  73  73  73  73  73  73  73  73  73  73 
 73  73  73  73  73  73  73  73  73  73  73  73  73  73  73  73  73  73 
 73  73  73  73  73  73  73  73  73  73  73  73  73  73  73  73  73  73 
 73  73  73  73  73  73  73  73  73  73  73  73  73  73  73  73  73  73 
 73  73  73  73  73  73  73  73  73  73  73  73  73  73  73  73  73  73 
 73  73  73  73  73  73  73  73  73  73  73  73  73  73  73  73  73  73 
 73  73  73  73  73  73  73  73  73  73  73  73  73  73  73  73  73  73 
 73  73  73  73  73  73  73  73  73  73  73  73  73  73  73  73  73  73 
 73  73  73  73  73  73  73  73  73  73  73  73  73  73  73  73  73  73 
 73  73  73  73  73  73  73  73  73  73  73  73  73  73  73  73  73  73 
 73  73  73  73  73  73  73  73  73  73  73  73  73  73  73  73  73  73 
 73  73  73  73  73  73  73  73  73  73  73  73  73  73  73  73  73  73 
 73  73  73  73  73  73  73  73  73  73  73  73  73  73  73  73  73  73 
 73  73  73  73  73  73  73  73  73  73  73  73  73  73  73  73  73  73 
 73  73  73  73  73  73  73  73  73  73  73  73  73  73  73  73  73  73 
 73  73  73  73  73  73  73  73  73  73  73  73  73  73  73  73  73  73 
 73  73  73  73  73  73  73  73  73  73  73  73  73  73  73  73  73  73 
 73  73  73  73  73  73  73  73  73  73  73  73  73  73  73  73  73  73 
 73  73  73  73  73  73  73  73  73  73  73  73  73  73  73  73  73  73 
 73  73  73  73  73  73  73  73  73  73  73  73  73  73  73  73  73  73 
 73  73  73  73  73  73  73  73  73  73  73  73  73  73  73  73  73  73 
 73  73  73  73  73  73  73  73  73  73  73  73  73  73  73  73  73  73 
 73  73  73  73  73  73  73  73  73  73  73  73  73  73  73  73  73  73 
 73  73  73  73  73  73  73  73  73  73  73  73  73  73  73  73  73  73 
 73  73  73  73  73  73  73  73  73  73  73  73  73  73  73  73  73  73 
 73  73  73  73  73  73  73  73  73  73  73  73  73  73  73  73  73  73 
 73  73  73  73  73  73  73  73  73  73  73  73  73  73  73  73  73  73 
 73  73  73  73  73  73  73  73  73  73  73  73  73  73  73  73  73  73 
 73  73  73  73  73  73  73  73  73  73  73  73  73  73  73  73  73  73 
 73  73  73  73  73  73  73  73  73  73  73  73  73  73  73  73  73  73 
 73  73  73  73  73  73  73  73  73  73  73  73  73  73  73  73  73  73 
 73  73  73  73  73  73  73  73  73  73  73  73  73  73  73  73  73  73 
 73  73  73  73  73  73  73  73  73  73  73  73  73  73  73  73  73  73 
 73  73  73  73  73  73  73  73  73  73  73  73  73  73  73  73  73  73 
 73  73  73  73  73  73  73  73  73  73  73  73  73  73  73  73  73  73 
 73  73  73  73  73  73  73  73  73  73  73  73  73  73  73  73  73  73 
 73  73  73  73  73  73  73  73  73  73  73  73  73  73  73  73  73  73 
 73  73  73  73  73  73  73  73  73  73  73  73  73  73  73  73  73  73 
 73  73  73  73  73  73  73  73  73  73  73  73  73  73  73  73  73  73 
 73  73  73  73  73  73  73  73  73  73  73  73  73  73  73  73  73  73 
 73  73  73  73  73  73  73  73  73  73  73  73  73  73  73  73  73  73 
 73  73  73  73  73  73  73  73  73  73  73  73  73  73  73  73  73  73 
 73  73  73  73  73  73  73  73  73  73  73  73  73  73  73  73  73  73 
 73  73  73  73  73  73  73  73  73  73  73  73  73  73  73  73  73  73 
 73  73  73  73  73  73  73  73  73  73  73  73  73  73  73  73  73  73 
 73  73  73  73  73  73  73  73  73  73  73  73  73  73  73  73  73  73 
 73  73  73  73  73  73  73  73  73  73  73  73  73  73  73  73  73  73 
 73  73  73  73  73  73  73  73  73  73  73  73  73  73  73  73  73  73 
 73  73  73  73  73  73  73  73  73  73  73  73  73  73  73  73  73  73 
 73  73  73  73  73  73  73  73  73  73  73  73  73  73  73  73  73  73 
 73  73  73  73  73  73  73  73  73  73  73  73  73  73  73  73  73  73 
 73  73  73  73  73  73  73  73  73  73  73  73  73  73  73  73  73  73 
 73  73  73  73  73  73  73  73  73  73  73  73  73  73  73  73  73  73 
 73  73  73  73  73  73  73  73  73  73  73  73  73  73  73  73  73  73 
 73  73  73  73  73  73  73  73  73  73  73  73  73  73  73  73  73  73 
 73  73  73  73  73  73  73  73  73  73  73  73  73  73  73  73  73  73 
 73  73  73  73  73  73  73  73  73  73  73  73  73  73  73  73  73  73 
 73  73  73  73  73  73  73  73  73  73  73  73  73  73  73  73  73  73 
 73  73  73  73  73  73  73  73  73  73  73  73  73  73  73  73  73  73 
 73  73  73  73  73  73  73  73  73  73  73  73  73  73  73  73  73  73 
 73  73  73  73  73  73  73  73  73  73  73  73  73  73  73  73  73  73 
 73  73  73  73  73  73  73  73  73  73  73  73  73  73  73  73  73  73 
 73  73  73  73  73  73  73  73  73  73  73  73  73  73  73  73  73  73 
 73  73  73  73  73  73  73  73  73  73  73  73  73  73  73  73  73  73 
 73  73  73  73  73  73  73  73  73  73  73  73  73  73  73  73  73  73 
 73  73  73  73  73  73  73  73  73  73  73  73  73  73  73  73  73  73 
 73  73  73  73  73  73  73  73  73  73  73  73  73  73  73  73  73  73 
 73  73  73  73  73  73  73  73  73  73  73  73  73  73  73  73  73  73 
 73  73  73  73  73  73  73  73  73  73  73  73  73  73  73  73  73  73 
 73  73  73  73  73  73  73  73  73  73  73  73  73  73  73  73  73  73 
 73  73  73  73  73  73  73  73  73  73  73  73  73  73  73  73  73  73 
 73  73  73  73  73  73  73  73  73  73  73  73  73  73  73  73  73  73 
 73  73  73  73  73  73  73  73  73  73  73  73  73  73  73  73  73  73 
 73  73  73  73  73  73  73  73  73  73  73  73  73  73  73  73  73  73 
 73  73  73  73  73  73  73  73  73  73  73  73  73  73  73  73  73  73 
 73  73  73  73  73  73  73  73  73  73  73  73  73  73  73  73  73  73 
 73  73  73  73  73  73  73  73  73  73  73  73  73  73  73  73  73  73 
 73  73  73  73  73  73  73  73  73  73  73  73  73  73  73  73  73  73 
 73  73  73  73  73  73  73  73  73  73  73  73  73  73  73  73  73  73 
 73  73  73  73  73  73  73  73  73  73  73  73  73  73  73  73  73  73 
 73  73  73  73  73  73  73  73  73  73  73  73  73  73  73  73  73  73 
 73  73  73  73  73  73  73  73  73  73  73  73  73  73  73  73  73  73 
 73  73  73  73  73  73  73  73  73  73  73  73  73  73  73  73  73  73 
 73  73  73  73  73  73  73  73  73  73  73  73  73  73  73  73  73  73 
 73  73  73  73  73  73  73  73  73  73  73  73  73  73  73  73  73  73 
 73  73  73  73  73  73  73  73  73  73  73  73  73  73  73  73  73  73 
 73  73  73  73  73  73  73  73  73  73  73  73  73  73  73  73  73  73 
 73  73  73  73  73  73  73  73  73  73  73  73  73  73  73  73  73  73 
 73  73  73  73  73  73  73  73  73  73  73  73  73  73  73  73  73  73 
 73  73  73  73  73  73  73  73  73  73  73  73  73  73  73  73  73  73 
 73  73  73  73  73  73  73  73  73  73  73  73  73  73  73  73  73  73 
 73  73  73  73  73  73  73  73  73  73  73  73  73  73  73  73  73  73 
 73  73  73  73  73  73  73  73  73  73  73  73  73  73  73  73  73  73 
 73  73  73  73  73  73  73  73  73  73  73  73  73  73  73  73  73  73 
 73  73  73  73  73  73  73  73  73  73  73  73  73  73  73  73  73  73 
 73  73  73  73  73  73  73  73  73  73  73  73  73  73  73  73  73  73 
 73  73  73  73  73  73  73  73  73  73  73  73  73  73  73  73  73  73 
 73  73  73  73  73  73  73  73  73  73  73  73  73  73  73  73  73  73 
 73  73  73  73  73  73  73  73  73  73  73  73  73  73  73  73  73  73 
 73  73  73  73  73  73  73  73  73  73  73  73  73  73  73  73  73  73 
 73  73  73  73  73  73  73  73  73  73  73  73  73  73  73  73  73  73 
 73  73  73  73  73  73  73  73  73  73  73  73  73  73  73  73  73  73 
 73  73  73  73  73  73  73  73  73  73  73  73  73  73  73  73  73  73 
 73  73  73  73  73  73  73  73  73  73  73  73  73  73  73  73  73  73 
 73  73  73  73  73  73  73  73  73  73  73  73  73  73  73  73  73  73 
 73  73  73  73  73  73  73  73  73  73  73  73  73  73  73  73  73  73 
 73  73  73  73  73  73  73  73  73  73  73  73  73  73  73  73  73  73 
 73  73  73  73  73  73  73  73  73  73  73  73  73  73  73  73  73  73 
 73  73  73  73  73  73  73  73  73  73  73  73  73  73  73  73  73  73 
 73  73  73  73  73  73  73  73  73  73  73  73  73  73  73  73  73  73 
 73  73  73  73  73  73  73  73  73  73  73  73  73  73  73  73  73  73 
 73  73  73  73  73  73  73  73  73  73  73  73  73  73  73  73  73  73 
 73  73  73  73  73  73  73  73  73  73  73  73  73  73  73  73  73  73 
 73  73  73  73  73  73  73  73  73  73  73  73  73  73  73  73  73  73 
 73  73  73  73  73  73  73  73  73  73  73  73  73  73  73  73  73  73 
 73  73  73  73  73  73  73  73  73  73  73  73  73  73  73  73  73  73 
 73  73  73  73  73  73  73  73  73  73  73  73  73  73  73  73  73  73 
 73  73  73  73  73  73  73  73  73  73  73  73  73  73  73  73  73  73 
 73  73  73  73  73  73  73  73  73  73  73  73  73  73  73  73  73  73 
 73  73  73  73  73  73  73  73  73  73  73  73  73  73  73  73  73  73 
 73  73  73  73  73  73  73  73  73  73  73  73  73  73  73  73  73  73 
 73  73  73  73  73  73  73  73  73  73  73  73  73  73  73  73  73  73 
 73  73  73  73  73  73  73  73  73  73  73  73  73  73  73  73  73  73 
 73  73  73  73  73  73  73  73  73  73  73  73  73  73  73  73  73  73 
 73  73  73  73  73  73  73  73  73  73  73  73  73  73  73  73  73  73 
 73  73  73  73  73  73  73  73  73  73  73  73  73  73  73  73  73  73 
 73  73  73  73  73  73  73  73  73  73  73  73  73  73  73  73  73  73 
 73  73  73  73  73  73  73  73  73  73  73  73  73  73  73  73  73  73 
 73  73  73  73  73  73  73  73  73  73  73  73  73  73  73  73  73  73 
 73  73  73  73  73  73  73  73  73  73  73  73  73  73  73  73  73  73 
 73  73  73  73  73  73  73  73  73  73  73  73  73  73  73  73  73  73 
 73  73  73  73  73  73  73  73  73  73  73  73  73  73  73  73  73  73 
 73  73  73  73  73  73  73  73  73  73  73  73  73  73  73  73  73  73 
 73  73  73  73  73  73  73  73  73  73  73  73  73  73  73  73  73  73 
 73  73  73  73  73  73  73  73  73  73  73  73  73  73  73  73  73  73 
 73  73  73  73  73  73  73  73  73  73  73  73  73  73  73  73  73  73 
 73  73  73  73  73  73  73  73  73  73  73  73  73  73  73  73  73  73 
 73  73  73  73  73  73  73  73  73  73  73  73  73  73  73  73  73  73 
 73  73  73  73  73  73  73  73  73  73  73  73  73  73  73  73  73  73 
 73  73  73  73  73  73  73  73  73  73  73  73  73  73  73  73  73  73 
 73  73  73  73  73  73  73  73  73  73  73  73  73  73  73  73  73  73 
 73  73  73  73  73  73  73  73  73  73  73  73  73  73  73  73  73  73 
 73  73  73  73  73  73  73  73  73  73  73  73  73  73  73  73  73  73 
 73  73  73  73  73  73  73  73  73  73  73  73  73  73  73  73  73  73 
 73  73  73  73  73  73  73  73  73  73  73  73  73  73  73  73  73  73 
 73  73  73  73  73  73  73  73  73  73  73  73  73  73  73  73  73  73 
 73  73  73  73  73  73  73  73  73  73  73  73  73  73  73  73  73  73 
 73  73  73  73  73  73  73  73  73  73  73  73  73  73  73  73  73  73 
 73  73  73  73  73  73  73  73  73  73  73  73  73  73  73  73  73  73 
 73  73  73  73  73  73  73  73  73  73  73  73  73  73  73  73  73  73 
 73  73  73  73  73  73  73  73  73  73  73  73  73  73  73  73  73  73 
 73  73  73  73  73  73  73  73  73  73  73  73  73  73  73  73  73  73 
 73  73  73  73  73  73  73  73  73  73  73  73  73  73  73  73  73  73 
 73  73  73  73  73  73  73  73  73  73  73  73  73  73  73  73  73  73 
 73  73  73  73  73  73  73  73  73  73  73  73  73  73  73  73  73  73 
 73  73  73  73  73  73  73  73  73  73  73  73  73  73  73  73  73  73 
 73  73  73  73  73  73  73  73  73  73  73  73  73  73  73  73  73  73 
 73  73  73  73  73  73  73  73  73  73  73  73  73  73  73  73  73  73 
 73  73  73  73  73  73  73  73  73  73  73  73  73  73  73  73  73  73 
 73  73  73  73  73  73  73  73  73  73  73  73  73  73  73  73  73  73 
 73  73  73  73  73  73  73  73  73  73  73  73  73  73  73  73  73  73 
 73  73  73  73  73  73  73  73  73  73  73  73  73  73  73  73  73  73 
 73  73  73  73  73  73  73  73  73  73  73  73  73  73  73  73  73  73 
 73  73  73  73  73  73  73  73  73  73  73  73  73  73  73  73  73  73 
 73  73  73  73  73  73  73  73  73  73  73  73  73  73  73  73  73  73 
 73  73  73  73  73  73  73  73  73  73  73  73  73  73  73  73  73  73 
 73  73  73  73  73  73  73  73  73  73  73  73  73  73  73  73  73  73 
 73  73  73  73  73  73  73  73  73  73  73  73  73  73  73  73  73  73 
 73  73  73  73  73  73  73  73  73  73  73  73  73  73  73  73  73  73 
 73  73  73  73  73  73  73  73  73  73  73  73  73  73  73  73  73  73 
 73  73  73  73  73  73  73  73  73  73  73  73  73  73  73  73  73  73 
 73  73  73  73  73  73  73  73  73  73  73  73  73  73  73  73  73  73 
 73  73  73  73  73  73  73  73  73  73  73  73  73  73  73  73  73  73 
 73  73  73  73  73  73  73  73  73  73  73  73  73  73  73  73  73  73 
 73  73  73  73  73  73  73  73  73  73  73  73  73  73  73  73  73  73 
 73  73  73  73  73  73  73  73  73  73  73  73  73  73  73  73  73  73 
 73  73  73  73  73  73  73  73  73  73  73  73  73  73  73  73  73  73 
 73  73  73  73  73  73  73  73  73  73  73  73  73  73  73  73  73  73 
 73  73  73  73  73  73  73  73  73  73  73  73  73  73  73  73  73  73 
 73  73  73  73  73  73  73  73  73  73  73  73  73  73  73  73  73  73 
 73  73  73  73  73  73  73  73  73  73  73  73  73  73  73  73  73  73 
 73  73  73  73  73  73  73  73  73  73  73  73  73  73  73  73  73  73 
 73  73  73  73  73  73  73  73  73  73  73  73  73  73  73  73  73  73 
 73  73  73  73  73  73  73  73  73  73  73  73  73  73  73  73  73  73 
 73  73  73  73  73  73  73  73  73  73  73  73  73  73  73  73  73  73 
 73  73  73  73  73  73  73  73  73  73  73  73  73  73  73  73  73  73 
 73  73  73  73  73  73  73  73  73  73  73  73  73  73  73  73  73  73 
 73  73  73  73  73  73  73  73  73  73  73  73  73  73  73  73  73  73 
 73  73  73  73  73  73  73  73  73  73  73  73  73  73  73  73  73  73 
 73  73  73  73  73  73  73  73  73  73  73  73  73  73  73  73  73  73 
 73  73  73  73  73  73  73  73  73  73  73  73  73  73  73  73  73  73 
 73  73  73  73  73  73  73  73  73  73  73  73  73  73  73  73  73  73 
 73  73  73  73  73  73  73  73  73  73  73  73  73  73  73  73  73  73 
 73  73  73  73  73  73  73  73  73  73  73  73  73  73  73  73  73  73 
 73  73  73  73  73  73  73  73  73  73  73  73  73  73  73  73  73  73 
 73  73  73  73  73  73  73  73  73  73  73  73  73  73  73  73  73  73 
 73  73  73  73  73  73  73  73  73  73  73  73  73  73  73  73  73  73 
 73  73  73  73  73  73  73  73  73  73  73  73  73  73  73  73  73  73 
 73  73  73  73  73  73  73  73  73  73  73  73  73  73  73  73  73  73 
 73  73  73  73  73  73  73  73  73  73  73  73  73  73  73  73  73  73 
 73  73  73  73  73  73  73  73  73  73  73  73  73  73  73  73  73  73 
 73  73  73  73  73  73  73  73  73  73  73  73  73  73  73  73  73  73 
 73  73  73  73  73  73  73  73  73  73  73  73  73  73  73  73  73  73 
 73  73  73  73  73  73  73  73  73  73  73  73  73  73  73  73  73  73 
 73  73  73  73  73  73  73  73  73  73  73  73  73  73  73  73  73  73 
 73  73  73  73  73  73  73  73  73  73  73  73  73  73  73  73  73  73 
 73  73  73  73  73  73  73  73  73  73  73  73  73  73  73  73  73  73 
 73  73  73  73  73  73  73  73  73  73  73  73  73  73  73  73  73  73 
 73  73  73  73  73  73  73  73  73  73  73  73  73  73  73  73  73  73 
 73  73  73  73  73  73  73  73  73  73  73  73  73  73  73  73  73  73 
 73  73  73  73  73  73  73  73  73  73  73  73  73  73  73  73  73  73 
 73  73  73  73  73  73  73  73  73  73  73  73  73  73  73  73  73  73 
 73  73  73  73  73  73  73  73  73  73  73  73  73  73  73  73  73  73 
 73  73  73  73  73  73  73  73  73  73  73  73  73  73  73  73  73  73 
 73  73  73  73  73  73  73  73  73  73  73  73  73  73  73  73  73  73 
 73  73  73  73  73  73  73  73  73  73  73  73  73  73  73  73  73  73 
 73  73  73  73  73  73  73  73  73  73  73  73  73  73  73  73  73  73 
 73  73  73  73  73  73  73  73  73  73  73  73  73  73  73  73  73  73 
 73  73  73  73  73  73  73  73  73  73  73  73  73  73  73  73  73  73 
 73  73  73  73  73  73  73  73  73  73  73  73  73  73  73  73  73  73 
 73  73  73  73  73  73  73  73  73  73  73  73  73  73  73  73  73  73 
 73  73  73  73  73  73  73  73  73  73  73  73  73  73  73  73  73  73 
 73  73  73  73  73  73  73  73  73  73  73  73  73  73  73  73  73  73 
 73  73  73  73  73  73  73  73  73  73  73  73  73  73  73  73  73  73 
 73  73  73  73  73  73  73  73  73  73  73  73  73  73  73  73  73  73 
 73  73  73  73  73  73  73  73  73  73  73  73  73  73  73  73  73  73 
 73  73  73  73  73  73  73  73  73  73  73  73  73  73  73  73  73  73 
 73  73  73  73  73  73  73  73  73  73  73  73  73  73  73  73  73  73 
 73  73  73  73  73  73  73  73  73  73  73  73  73  73  73  73  73  73 
 73  73  73  73  73  73  73  73  73  73  73  73  73  73  73  73  73  73 
 73  73  73  73  73  73  73  73  73  73  73  73  73  73  73  73  73  73 
 73  73  73  73  73  73  73  73  73  73  73  73  73  73  73  73  73  73 
 73  73  73  73  73  73  73  73  73  73  73  73  73  73  73  73  73  73 
 73  73  73  73  73  73  73  73  73  73  73  73  73  73  73  73  73  73 
 73  73  73  73  73  73  73  73  73  73  73  73  73  73  73  73  73  73 
 73  73  73  73  73  73  73  73  73  73  73  73  73  73  73  73  73  73 
 73  73  73  73  73  73  73  73  73  73  73  73  73  73  73  73  73  73 
 73  73  73  73  73  73  73  73  73  73  73  73  73  73  73  73  73  73 
 73  73  73  73  73  73  73  73  73  73  73  73  73  73  73  73  73  73 
 73  73  73  73  73  73  73  73  73  73  73  73  73  73  73  73  73  73 
 73  73  73  73  73  73  73  73  73  73  73  73  73  73  73  73  73  73 
 73  73  73  73  73  73  73  73  73  73  73  73  73  73  73  73  73  73 
 73  73  73  73  73  73  73  73  73  73  73  73  73  73  73  73  73  73 
 73  73  73  73  73  73  73  73  73  73  73  73  73  73  73  73  73  73 
 73  73  73  73  73  73  73  73  73  73  73  73  73  73  73  73  73  73 
 73  73  73  73  73  73  73  73  73  73  73  73  73  73  73  73  73  73 
 73  73  73  73  73  73  73  73  73  73  73  73  73  73  73  73  73  73 
 73  73  73  73  73  73  73  73  73  73  73  73  73  73  73  73  73  73 
 73  73  73  73  73  73  73  73  73  73  73  73  73  73  73  73  73  73 
 73  73  73  73  73  73  73  73  73  73  73  73  73  73  73  73  73  73 
 73  73  73  73  73  73  73  73  73  73  73  73  73  73  73  73  73  73 
 73  73  73  73  73  73  73  73  73  73  73  73  73  73  73  73  73  73 
 73  73  73  73  73  73  73  73  73  73  73  73  73  73  73  73  73  73 
 73  73  73  73  73  73  73  73  73  73  73  73  73  73  73  73  73  73 
 73  73  73  73  73  73  73  73  73  73  73  73  73  73  73  73  73  73 
 73  73  73  73  73  73  73  73  73  73  73  73  73  73  73  73  73  73 
 73  73  73  73  73  73  73  73  73  73  73  73  73  73  73  73  73  73 
 73  73  73  73  73  73  73  73  73  73  73  73  73  73  73  73  73  73 
 73  73  73  73  73  73  73  73  73  73  73  73  73  73  73  73  73  73 
 73  73  73  73  73  73  73  73  73  73  73  73  73  73  73  73  73  73 
 73  73  73  73  73  73  73  73  73  73  73  73  73  73  73  73  73  73 
 73  73  73  73  73  73  73  73  73  73  73  73  73  73  73  73  73  73 
 73  73  73  73  73  73  73  73  73  73  73  73  73  73  73  73  73  73 
 73  73  73  73  73  73  73  73  73  73  73  73  73  73  73  73  73  73 
 73  73  73  73  73  73  73  73  73  73  73  73  73  73  73  73  73  73 
 73  73  73  73  73  73  73  73  73  73  73  73  73  73  73  73  73  73 
 73  73  73  73  73  73  73  73  73  73  73  73  73  73  73  73  73  73 
 73  73  73  73  73  73  73  73  73  73  73  73  73  73  73  73  73  73 
 73  73  73  73  73  73  73  73  73  73  73  73  73  73  73  73  73  73 
 73  73  73  73  73  73  73  73  73  73  73  73  73  73  73  73  73  73 
 73  73  73  73  73  73  73  73  73  73  73  73  73  73  73  73  73  73 
 73  73  73  73  73  73  73  73  73  73  73  73  73  73  73  73  73  73 
 73  73  73  73  73  73  73  73  73  73  73  73  73  73  73  73  73  73 
 73  73  73  73  73  73  73  73  73  73  73  73  73  73  73  73  73  73 
 73  73  73  73  73  73  73  73  73  73  73  73  73  73  73  73  73  73 
 73  73  73  73  73  73  73  73  73  73  73  73  73  73  73  73  73  73 
 73  73  73  73  73  73  73  73  73  73  73  73  73  73  73  73  73  73 
 73  73  73  73  73  73  73  73  73  73  73  73  73  73  73  73  73  73 
 73  73  73  73  73  73  73  73  73  73  73  73  73  73  73  73  73  73 
 73  73  73  73  73  73  73  73  73  73  73  73  73  73  73  73  73  73 
 73  73  73  73  73  73  73  73  73  73  73  73  73  73  73  73  73  73 
 73  73  73  73  73  73  73  73  73  73  73  73  73  73  73  73  73  73 
 73  73  73  73  73  73  73  73  73  73  73  73  73  73  73  73  73  73 
 73  73  73  73  73  73  73  73  73  73  73  73  73  73  73  73  73  73 
 73  73  73  73  73  73  73  73  73  73  73  73  73  73  73  73  73  73 
 73  73  73  73  73  73  73  73  73  73  73  73  73  73  73  73  73  73 
 73  73  73  73  73  73  73  73  73  73  73  73  73  73  73  73  73  73 
 73  73  73  73  73  73  73  73  73  73  73  73  73  73  73  73  73  73 
 73  73  73  73  73  73  73  73  73  73  73  73  73  73  73  73  73  73 
 73  73  73  73  73  73  73  73  73  73  73  73  73  73  73  73  73  73 
 73  73  73  73  73  73  73  73  73  73  73  73  73  73  73  73  73  73 
 73  73  73  73  73  73  73  73  73  73  73  73  73  73  73  73  73  73 
 73  73  73  73  73  73  73  73  73  73  73  73  73  73  73  73  73  73 
 73  73  73  73  73  73  73  73  73  73  73  73  73  73  73  73  73  73 
 73  73  73  73  73  73  73  73  73  73  73  73  73  73  73  73  73  73 
 73  73  73  73  73  73  73  73  73  73  73  73  73  73  73  73  73  73 
 73  73  73  73  73  73  73  73  73  73  73  73  73  73  73  73  73  73 
 73  73  73  73  73  73  73  73  73  73  73  73  73  73  73  73  73  73 
 73  73  73  73  73  73  73  73  73  73  73  73  73  73  73  73  73  73 
 73  73  73  73  73  73  73  73  73  73  73  73  73  73  73  73  73  73 
 73  73  73  73  73  73  73  73  73  73  73  73  73  73  73  73  73  73 
 73  73  73  73  73  73  73  73  73  73  73  73  73  73  73  73  73  73 
 73  73  73  73  73  73  73  73  73  73  73  73  73  73  73  73  73  73 
 73  73  73  73  73  73  73  73  73  73  73  73  73  73  73  73  73  73 
 73  73  73  73  73  73  73  73  73  73  73  73  73  73  73  73  73  73 
 73  73  73  73  73  73  73  73  73  73  73  73  73  73  73  73  73  73 
 73  73  73  73  73  73  73  73  73  73  73  73  73  73  73  73  73  73 
 73  73  73  73  73  73  73  73  73  73  73  73  73  73  73  73  73  73 
 73  73  73  73  73  73  73  73  73  73  73  73  73  73  73  73  73  73 
 73  73  73  73  73  73  73  73  73  73  73  73  73  73  73  73  73  73 
 73  73  73  73  73  73  73  73  73  73  73  73  73  73  73  73  73  73 
 73  73  73  73  73  73  73  73  73  73  73  73  73  73  73  73  73  73 
 73  73  73  73  73  73  73  73  73  73  73  73  73  73  73  73  73  73 
 73  73  73  73  73  73  73  73  73  73  73  73  73  73  73  73  73  73 
 73  73  73  73  73  73  73  73  73  73  73  73  73  73  73  73  73  73 
 73  73  73  73  73  73  73  73  73  73  73  73  73  73  73  73  73  73 
 73  73  73  73  73  73  73  73  73  73  73  73  73  73  73  73  73  73 
 73  73  73  73  73  73  73  73  73  73  73  73  73  73  73  73  73  73 
 73  73  73  73  73  73  73  73  73  73  73  73  73  73  73  73  73  73 
 73  73  73  73  73  73  73  73  73  73  73  73  73  73  73  73  73  73 
 73  73  73  73  73  73  73  73  73  73  73  73  73  73  73  73  73  73 
 73  73  73  73  73  73  73  73  73  73  73  73  73  73  73  73  73  73 
 73  73  73  73  73  73  73  73  73  73  73  73  73  73  73  73  73  73 
 73  73  73  73  73  73  73  73  73  73  73  73  73  73  73  73  73  73 
 73  73  73  73  73  73  73  73  73  73  73  73  73  73  73  73  73  73 
 73  73  73  73  73  73  73  73  73  73  73  73  73  73  73  73  73  73 
 73  73  73  73  73  73  73  73  73  73  73  73  73  73  73  73  73  73 
 73  73  73  73  73  73  73  73  73  73  73  73  73  73  73  73  73  73 
 73  73  73  73  73  73  73  73  73  73  73  73  73  73  73  73  73  73 
 73  73  73  73  73  73  73  73  73  73  73  73  73  73  73  73  73  73 
 73  73  73  73  73  73  73  73  73  73  73  73  73  73  73  73  73  73 
 73  73  73  73  73  73  73  73  73  73  73  73  73  73  73  73  73  73 
 73  73  73  73  73  73  73  73  73  73  73  73  73  73  73  73  73  73 
 73  73  73  73  73  73  73  73  73  73  73  73  73  73  73  73  73  73 
 73  73  73  73  73  73  73  73  73  73  73  73  73  73  73  73  73  73 
 73  73  73  73  73  73  73  73  73  73  73  73  73  73  73  73  73  73 
 73  73  73  73  73  73  73  73  73  73  73  73  73  73  73  73  73  73 
 73  73  73  73  73  73  73  73  73  73  73  73  73  73  73  73  73  73 
 73  73  73  73  73  73  73  73  73  73  73  73  73  73  73  73  73  73 
 73  73  73  73  73  73  73  73  73  73  73  73  73  73  73  73  73  73 
 73  73  73  73  73  73  73  73  73  73  73  73  73  73  73  73  73  73 
 73  73  73  73  73  73  73  73  73  73  73  73  73  73  73  73  73  73 
 73  73  73  73  73  73  73  73  73  73  73  73  73  73  73  73  73  73 
 73  73  73  73  73  73  73  73  73  73  73  73  73  73  73  73  73  73 
 73  73  73  73  73  73  73  73  73  73  73  73  73  73  73  73  73  73 
 73  73  73  73  73  73  73  73  73  73  73  73  73  73  73  73  73  73 
 73  73  73  73  73  73  73  73  73  73  73  73  73  73  73  73  73  73 
 73  73  73  73  73  73  73  73  73  73  73  73  73  73  73  73  73  73 
 73  73  73  73  73  73  73  73  73  73  73  73  73  73  73  73  73  73 
 73  73  73  73  73  73  73  73  73  73  73  73  73  73  73  73  73  73 
 73  73  73  73  73  73  73  73  73  73  73  73  73  73  73  73  73  73 
 73  73  73  73  73  73  73  73  73  73  73  73  73  73  73  73  73  73 
 73  73  73  73  73  73  73  73  73  73  73  73  73  73  73  73  73  73 
 73  73  73  73  73  73  73  73  73  73  73  73  73  73  73  73  73  73 
 73  73  73  73  73  73  73  73  73  73  73  73  73  73  73  73  73  73 
 73  73  73  73  73  73  73  73  73  73  73  73  73  73  73  73  73  73 
 73  73  73  73  73  73  73  73  73  73  73  73  73  73  73  73  73  73 
 73  73  73  73  73  73  73  73  73  73  73  73  73  73  73  73  73  73 
 73  73  73  73  73  73  73  73  73  73  73  73  73  73  73  73  73  73 
 73  73  73  73  73  73  73  73  73  73  73  73  73  73  73  73  73  73 
 73  73  73  73  73  73  73  73  73  73  73  73  73  73  73  73  73  73 
 73  73  73  73  73  73  73  73  73  73  73  73  73  73  73  73  73  73 
 73  73  73  73  73  73  73  73  73  73  73  73  73  73  73  73  73  73 
 73  73  73  73  73  73  73  73  73  73  73  73  73  73  73  73  73  73 
 73  73  73  73  73  73  73  73  73  73  73  73  73  73  73  73  73  73 
 73  73  73  73  73  73  73  73  73  73  73  73  73  73  73  73  73  73 
 73  73  73  73  73  73  73  73  73  73  73  73  73  73  73  73  73  73 
 73  73  73  73  73  73  73  73  73  73  73  73  73  73  73  73  73  73 
 73  73  73  73  73  73  73  73  73  73  73  73  73  73  73  73  73  73 
 73  73  73  73  73  73  73  73  73  73  73  73  73  73  73  73  73  73 
 73  73  73  73  73  73  73  73  73  73  73  73  73  73  73  73  73  73 
 73  73  73  73  73  73  73  73  73  73  73  73  73  73  73  73  73  73 
 73  73  73  73  73  73  73  73  73  73  73  73  73  73  73  73  73  73 
 73  73  73  73  73  73  73  73  73  73  73  73  73  73  73  73  73  73 
 73  73  73  73  73  73  73  73  73  73  73  73  73  73  73  73  73  73 
 73  73  73  73  73  73  73  73  73  73  73  73  73  73  73  73  73  73 
 73  73  73  73  73  73  73  73  73  73  73  73  73  73  73  73  73  73 
 73  73  73  73  73  73  73  73  73  73  73  73  73  73  73  73  73  73 
 73  73  73  73  73  73  73  73  73  73  73  73  73  73  73  73  73  73 
 73  73  73  73  73  73  73  73  73  73  73  73  73  73  73  73  73  73 
 73  73  73  73  73  73  73  73  73  73  73  73  73  73  73  73  73  73 
 73  73  73  73  73  73  73  73  73  73  73  73  73  73  73  73  73  73 
 73  73  73  73  73  73  73  73  73  73  73  73  73  73  73  73  73  73 
 73  73  73  73  73  73  73  73  73  73  73  73  73  73  73  73  73  73 
 73  73  73  73  73  73  73  73  73  73  73  73  73  73  73  73  73  73 
 73  73  73  73  73  73  73  73  73  73  73  73  73  73  73  73  73  73 
 73  73  73  73  73  73  73  73  73  73  73  73  73  73  73  73  73  73 
 73  73  73  73  73  73  73  73  73  73  73  73  73  73  73  73  73  73 
 73  73  73  73  73  73  73  73  73  73  73  73  73  73  73  73  73  73 
 73  73  73  73  73  73  73  73  73  73  73  73  73  73  73  73  73  73 
 73  73  73  73  73  73  73  73  73  73  73  73  73  73  73  73  73  73 
 73  73  73  73  73  73  73  73  73  73  73  73  73  73  73  73  73  73 
 73  73  73  73  73  73  73  73  73  73  73  73  73  73  73  73  73  73 
 73  73  73  73  73  73  73  73  73  73  73  73  73  73  73  73  73  73 
 73  73  73  73  73  73  73  73  73  73  73  73  73  73  73  73  73  73 
 73  73  73  73  73  73  73  73  73  73  73  73  73  73  73  73  73  73 
 73  73  73  73  73  73  73  73  73  73  73  73  73  73  73  73  73  73 
 73  73  73  73  73  73  73  73  73  73  73  73  73  73  73  73  73  73 
 73  73  73  73  73  73  73  73  73  73  73  73  73  73  73  73  73  73 
 73  73  73  73  73  73  73  73  73  73  73  73  73  73  73  73  73  73 
 73  73  73  73  73  73  73  73  73  73  73  73  73  73  73  73  73  73 
 73  73  73  73  73  73  73  73  73  73  73  73  73  73  73  73  73  73 
 73  73  73  73  73  73  73  73  73  73  73  73  73  73  73  73  73  73 
 73  73  73  73  73  73  73  73  73  73  73  73  73  73  73  73  73  73 
 73  73  73  73  73  73  73  73  73  73  73  73  73  73  73  73  73  73 
 73  73  73  73  73  73  73  73  73  73  73  73  73  73  73  73  73  73 
 73  73  73  73  73  73  73  73  73  73  73  73  73  73  73  73  73  73 
 73  73  73  73  73  73  73  73  73  73  73  73  73  73  73  73  73  73 
 73  73  73  73  73  73  73  73  73  73  73  73  73  73  73  73  73  73 
 73  73  73  73  73  73  73  73  73  73  73  73  73  73  73  73  73  73 
 73  73  73  73  73  73  73  73  73  73  73  73  73  73  73  73  73  73 
 73  73  73  73  73  73  73  73  73  73  73  73  73  73  73  73  73  73 
 73  73  73  73  73  73  73  73  73  73  73  73  73  73  73  73  73  73 
 73  73  73  73  73  73  73  73  73  73  73  73  73  73  73  73  73  73 
 73  73  73  73  73  73  73  73  73  73  73  73  73  73  73  73  73  73 
 73  73  73  73  73  73  73  73  73  73  73  73  73  73  73  73  73  73 
 73  73  73  73  73  73  73  73  73  73  73  73  73  73  73  73  73  73 
 73  73  73  73  73  73  73  73  73  73  73  73  73  73  73  73  73  73 
 73  73  73  73  73  73  73  73  73  73  73  73  73  73  73  73  73  73 
 73  73  73  73  73  73  73  73  73  73  73  73  73  73  73  73  73  73 
 73  73  73  73  73  73  73  73  73  73  73  73  73  73  73  73  73  73 
 73  73  73  73  73  73  73  73  73  73  73  73  73  73  73  73  73  73 
 73  73  73  73  73  73  73  73  73  73  73  73  73  73  73  73  73  73 
 73  73  73  73  73  73  73  73  73  73  73  73  73  73  73  73  73  73 
 73  73  73  73  73  73  73  73  73  73  73  73  73  73  73  73  73  73 
 73  73  73  73  73  73  73  73  73  73  73  73  73  73  73  73  73  73 
 73  73  73  73  73  73  73  73  73  73  73  73  73  73  73  73  73  73 
 73  73  73  73  73  73  73  73  73  73  73  73  73  73  73  73  73  73 
 73  73  73  73  73  73  73  73  73  73  73  73  73  73  73  73  73  73 
 73  73  73  73  73  73  73  73  73  73  73  73  73  73  73  73  73  73 
 73  73  73  73  73  73  73  73  73  73  73  73  73  73  73  73  73  73 
 73  73  73  73  73  73  73  73  73  73  73  73  73  73  73  73  73  73 
 73  73  73  73  73  73  73  73  73  73  73  73  73  73  73  73  73  73 
 73  73  73  73  73  73  73  73  73  73  73  73  73  73  73  73  73  73 
 73  73  73  73  73  73  73  73  73  73  73  73  73  73  73  73  73  73 
 73  73  73  73  73  73  73  73  73  73  73  73  73  73  73  73  73  73 
 73  73  73  73  73  73  73  73  73  73  73  73  73  73  73  73  73  73 
 73  73  73  73  73  73  73  73  73  73  73  73  73  73  73  73  73  73 
 73  73  73  73  73  73  73  73  73  73  73  73  73  73  73  73  73  73 
 73  73  73  73  73  73  73  73  73  73  73  73  73  73  73  73  73  73 
 73  73  73  73  73  73  73  73  73  73  73  73  73  73  73  73  73  73 
 73  73  73  73  73  73  73  73  73  73  73  73  73  73  73  73  73  73 
 73  73  73  73  73  73  73  73  73  73  73  73  73  73  73  73  73  73 
 73  73  73  73  73  73  73  73  73  73  73  73  73  73  73  73  73  73 
 73  73  73  73  73  73  73  73  73  73  73  73  73  73  73  73  73  73 
 73  73  73  73  73  73  73  73  73  73  73  73  73  73  73  73  73  73 
 73  73  73  73  73  73  73  73  73  73  73  73  73  73  73  73  73  73 
 73  73  73  73  73  73  73  73  73  73  73  73  73  73  73  73  73  73 
 73  73  73  73  73  73  73  73  73  73  73  73  73  73  73  73  73  73 
 73  73  73  73  73  73  73  73  73  73  73  73  73  73  73  73  73  73 
 73  73  73  73  73  73  73  73  73  73  73  73  73  73  73  73  73  73 
 73  73  73  73  73  73  73  73  73  73  73  73  73  73  73  73  73  73 
 73  73  73  73  73  73  73  73  73  73  73  73  73  73  73  73  73  73 
 73  73  73  73  73  73  73  73  73  73  73  73  73  73  73  73  73  73 
 73  73  73  73  73  73  73  73  73  73  73  73  73  73  73  73  73  73 
 73  73  73  73  73  73  73  73  73  73  73  73  73  73  73  73  73  73 
 73  73  73  73  73  73  73  73  73  73  73  73  73  73  73  73  73  73 
 73  73  73  73  73  73  73  73  73  73  73  73  73  73  73  73  73  73 
 73  73  73  73  73  73  73  73  73  73  73  73  73  73  73  73  73  73 
 73  73  73  73  73  73  73  73  73  73  73  73  73  73  73  73  73  73 
 73  73  73  73  73  73  73  73  73  73  73  73  73  73  73  73  73  73 
 73  73  73  73  73  73  73  73  73  73  73  73  73  73  73  73  73  73 
 73  73  73  73  73  73  73  73  73  73  73  73  73  73  73  73  73  73 
 73  73  73  73  73  73  73  73  73  73  73  73  73  73  73  73  73  73 
 73  73  73  73  73  73  73  73  73  73  73  73  73  73  73  73  73  73 
 73  73  73  73  73  73  73  73  73  73  73  73  73  73  73  73  73  73 
 73  73  73  73  73  73  73  73  73  73  73  73  73  73  73  73  73  73 
 73  73  73  73  73  73  73  73  73  73  73  73  73  73  73  73  73  73 
 73  73  73  73  73  73  73  73  73  73  73  73  73  73  73  73  73  73 
 73  73  73  73  73  73  73  73  73  73  73  73  73  73  73  73  73  73 
 73  73  73  73  73  73  73  73  73  73  73  73  73  73  73  73  73  73 
 73  73  73  73  73  73  73  73  73  73  73  73  73  73  73  73  73  73 
 73  73  73  73  73  73  73  73  73  73  73  73  73  73  73  73  73  73 
 73  73  73  73  73  73  73  73  73  73  73  73  73  73  73  73  73  73 
 73  73  73  73  73  73  73  73  73  73  73  73  73  73  73  73  73  73 
 73  73  73  73  73  73  73  73  73  73  73  73  73  73  73  73  73  73 
 73  73  73  73  73  73  73  73  73  73  73  73  73  73  73  73  73  73 
 73  73  73  73  73  73  73  73  73  73  73  73  73  73  73  73  73  73 
 73  73  73  73  73  73  73  73  73  73  73  73  73  73  73  73  73  73 
 73  73  73  73  73  73  73  73  73  73  73  73  73  73  73  73  73  73 
 73  73  73  73  73  73  73  73  73  73  73  73  73  73  73  73  73  73 
 73  73  73  73  73  73  73  73  73  73  73  73  73  73  73  73  73  73 
 73  73  73  73  73  73  73  73  73  73  73  73  73  73  73  73  73  73 
 73  73  73  73  73  73  73  73  73  73  73  73  73  73  73  73  73  73 
 73  73  73  73  73  73  73  73  73  73  73  73  73  73  73  73  73  73 
 73  73  73  73  73  73  73  73  73  73  73  73  73  73  73  73  73  73 
 73  73  73  73  73  73  73  73  73  73  73  73  73  73  73  73  73  73 
 73  73  73  73  73  73  73  73  73  73  73  73  73  73  73  73  73  73 
 73  73  73  73  73  73  73  73  73  73  73  73  73  73  73  73  73  73 
 73  73  73  73  73  73  73  73  73  73  73  73  73  73  73  73  73  73 
 73  73  73  73  73  73  73  73  73  73  73  73  73  73  73  73  73  73 
 73  73  73  73  73  73  73  73  73  73  73  73  73  73  73  73  73  73 
 73  73  73  73  73  73  73  73  73  73  73  73  73  73  73  73  73  73 
 73  73  73  73  73  73  73  73  73  73  73  73  73  73  73  73  73  73 
 73  73  73  73  73  73  73  73  73  73  73  73  73  73  73  73  73  73 
 73  73  73  73  73  73  73  73  73  73  73  73  73  73  73  73  73  73 
 73  73  73  73  73  73  73  73  73  73  73  73  73  73  73  73  73  73 
 73  73  73  73  73  73  73  73  73  73  73  73  73  73  73  73  73  73 
 73  73  73  73  73  73  73  73  73  73  73  73  73  73  73  73  73  73 
 73  73  73  73  73  73  73  73  73  73  73  73  73  73  73  73  73  73 
 73  73  73  73  73  73  73  73  73  73  73  73  73  73  73  73  73  73 
 73  73  73  73  73  73  73  73  73  73  73  73  73  73  73  73  73  73 
 73  73  73  73  73  73  73  73  73  73  73  73  73  73  73  73  73  73 
 73  73  73  73  73  73  73  73  73  73  73  73  73  73  73  73  73  73 
 73  73  73  73  73  73  73  73  73  73  73  73  73  73  73  73  73  73 
 73  73  73  73  73  73  73  73  73  73  73  73  73  73  73  73  73  73 
 73  73  73  73  73  73  73  73  73  73  73  73  73  73  73  73  73  73 
 73  73  73  73  73  73  73  73  73  73  73  73  73  73  73  73  73  73 
 73  73  73  73  73  73  73  73  73  73  73  73  73  73  73  73  73  73 
 73  73  73  73  73  73  73  73  73  73  73  73  73  73  73  73  73  73 
 73  73  73  73  73  73  73  73  73  73  73  73  73  73  73  73  73  73 
 73  73  73  73  73  73  73  73  73  73  73  73  73  73  73  73  73  73 
 73  73  73  73  73  73  73  73  73  73  73  73  73  73  73  73  73  73 
 73  73  73  73  73  73  73  73  73  73  73  73  73  73  73  73  73  73 
 73  73  73  73  73  73  73  73  73  73  73  73  73  73  73  73  73  73 
 73  73  73  73  73  73  73  73  73  73  73  73  73  73  73  73  73  73 
 73  73  73  73  73  73  73  73  73  73  73  73  73  73  73  73  73  73 
 73  73  73  73  73  73  73  73  73  73  73  73  73  73  73  73  73  73 
 73  73  73  73  73  73  73  73  73  73  73  73  73  73  73  73  73  73 
 73  73  73  73  73  73  73  73  73  73  73  73  73  73  73  73  73  73 
 73  73  73  73  73  73  73  73  73  73  73  73  73  73  73  73  73  73 
 73  73  73  73  73  73  73  73  73  73  73  73  73  73  73  73  73  73 
 73  73  73  73  73  73  73  73  73  73  73  73  73  73  73  73  73  73 
 73  73  73  73  73  73  73  73  73  73  73  73  73  73  73  73  73  73 
 73  73  73  73  73  73  73  73  73  73  73  73  73  73  73  73  73  73 
 73  73  73  73  73  73  73  73  73  73  73  73  73  73  73  73  73  73 
 73  73  73  73  73  73  73  73  73  73  73  73  73  73  73  73  73  73 
 73  73  73  73  73  73  73  73  73  73  73  73  73  73  73  73  73  73 
 73  73  73  73  73  73  73  73  73  73  73  73  73  73  73  73  73  73 
 73  73  73  73  73  73  73  73  73  73  73  73  73  73  73  73  73  73 
 73  73  73  73  73  73  73  73  73  73  73  73  73  73  73  73  73  73 
 73  73  73  73  73  73  73  73  73  73  73  73  73  73  73  73  73  73 
 73  73  73  73  73  73  73  73  73  73  73  73  73  73  73  73  73  73 
 73  73  73  73  73  73  73  73  73  73  73  73  73  73  73  73  73  73 
 73  73  73  73  73  73  73  73  73  73  73  73  73  73  73  73  73  73 
 73  73  73  73  73  73  73  73  73  73  73  73  73  73  73  73  73  73 
 73  73  73  73  73  73  73  73  73  73  73  73  73  73  73  73  73  73 
 73  73  73  73  73  73  73  73  73  73  73  73  73  73  73  73  73  73 
 73  73  73  73  73  73  73  73  73  73  73  73  73  73  73  73  73  73 
 73  73  73  73  73  73  73  73  73  73  73  73  73  73  73  73  73  73 
 73  73  73  73  73  73  73  73  73  73  73  73  73  73  73  73  73  73 
 73  73  73  73  73  73  73  73  73  73  73  73  73  73  73  73  73  73 
 73  73  73  73  73  73  73  73  73  73  73  73  73  73  73  73  73  73 
 73  73  73  73  73  73  73  73  73  73  73  73  73  73  73  73  73  73 
 73  73  73  73  73  73  73  73  73  73  73  73  73  73  73  73  73  73 
 73  73  73  73  73  73  73  73  73  73  73  73  73  73  73  73  73  73 
 73  73  73  73  73  73  73  73  73  73  73  73  73  73  73  73  73  73 
 73  73  73  73  73  73  73  73  73  73  73  73  73  73  73  73  73  73 
 73  73  73  73  73  73  73  73  73  73  73  73  73  73  73  73  73  73 
 73  73  73  73  73  73  73  73  73  73  73  73  73  73  73  73  73  73 
 73  73  73  73  73  73  73  73  73  73  73  73  73  73  73  73  73  73 
 73  73  73  73  73  73  73  73  73  73  73  73  73  73  73  73  73  73 
 36  36  36  36  36  36  36  36  36  36  36  36  36  36  36  36  36  36 
 36  36  36  36  36  36  36  36  36  36  36  36  36  36  36  36  36  36 
 36  36  36  36  36  36  36  36  36  36  36  36  36  36  36  36  36  36 
 36  36  36  36  36  36  36  36  36  36  36  36  36  36  36  36  36  36 
 36  36  36  36  36  36  36  36  36  36  36  36  36  36  36  36  36  36 
 36  36  36  36  36  36  36  36  36  36  36  36  36  36  36  36  36  36 
 36  36  36  36  36  36  36  36  36  36  36  36  36  36  36  36  36  36 
 36  36  36  36  36  36  36  36  36  36  36  36  36  36  36  36  36  36 
 36  36  36  36  36  36  36  36  36  36  36  36  36  36  36  36  36  36 
 36  36  36  36  36  36  36  36  36  36  36  36  36  36  36  36  36  36 
 36  36  36  36  36  36  36  36  36  36  36  36  36  36  36  36  36  36 
 36  36  36  36  36  36  36  36  36  36  36  36  36  36  36  36  36  36 
 36  36  36  36  36  36  36  36  36  36  36  36  36  36  36  36  36  36 
 36  36  36  36  36  36  36  36  36  36  36  36  36  36  36  36  36  36 
 36  36  36  36  36  36  36  36  36  36  36  36  36  36  36  36  36  36 
 36  36  36  36  36  36  36  36  36  36  36  36  36  36  36  36  36  36 
 36  36  36  36  36  36  36  36  36  36  36  36  36  36  36  36  36  36 
 36  36  36  36  36  36  36  36  36  36  36  36  36  36  36  36  36  36 
 36  36  36  36  36  36  36  36  36  36  36  36  36  36  36  36  36  36 
 36  36  36  36  36  36  36  36  36  36  36  36  36  36  36  36  36  36 
 36  36  36  36  36  36  36  36  36  36  36  36  36  36  36  36  36  36 
 36  36  36  36  36  36  36  36  36  36  36  36  36  36  36  36  36  36 
 36  36  36  36  36  36  36  36  36  36  36  36  36  36  36  36  36  36 
 36  36  36  36  36  36  36  36  36  36  36  36  36  36  36  36  36  36 
 36  36  36  36  36  36  36  36  36  36  36  36  36  36  36  36  36  36 
 36  36  36  36  36  36  36  36  36  36  36  36  36  36  36  36  36  36 
 36  36  36  36  36  36  36  36  36  36  36  36  36  36  36  36  36  36 
 36  36  36  36  36  36  36  36  36  36  36  36  36  36  36  36  36  36 
 36  36  36  36  36  36  36  36  36  36  36  36  36  36  36  36  36  36 
 36  36  36  36  36  36  36  36  36  36  36  36  36  36  36  36  36  36 
 36  36  36  36  36  36  36  36  36  36  36  36  36  36  36  36  36  36 
 36  36  36  36  36  36  36  36  36  36  36  36  36  36  36  36  36  36 
 36  36  36  36  36  36  36  36  36  36  36  36  36  36  36  36  36  36 
 36  36  36  36  36  36  36  36  36  36  36  36  36  36  36  36  36  36 
 36  36  36  36  36  36  36  36  36  36  36  36  36  36  36  36  36  36 
 36  36  36  36  36  36  36  36  36  36  36  36  36  36  36  36  36  36 
 36  36  36  36  36  36  36  36  36  36  36  36  36  36  36  36  36  36 
 36  36  36  36  36  36  36  36  36  36  36  36  36  36  36  36  36  36 
 36  36  36  36  36  36  36  36  36  36  36  36  36  36  36  36  36  36 
 36  36  36  36  36  36  36  36  36  36  36  36  36  36  36  36  36  36 
 36  36  36  36  36  36  36  36  36  36  36  36  36  36  36  36  36  36 
 36  36  36  36  36  36  36  36  36  36  36  36  36  36  36  36  36  36 
 36  36  36  36  36  36  36  36  36  36  36  36  36  36  36  36  36  36 
 36  36  36  36  36  36  36  36  36  36  36  36  36  36  36  36  36  36 
 36  36  36  36  36  36  36  36  36  36  36  36  36  36  36  36  36  36 
 36  36  36  36  36  36  36  36  36  36  36  36  36  36  36  36  36  36 
 36  36  36  36  36  36  36  36  36  36  36  36  36  36  36  36  36  36 
 36  36  36  36  36  36  36  36  36  36  36  36  36  36  36  36  36  36 
 36  36  36  36  36  36  36  36  36  36  36  36  36  36  36  36  36  36 
 36  36  36  36  36  36  36  36  36  36  36  36  36  36  36  36  36  36 
 36  36  36  36  36  36  36  36  36  36  36  36  36  36  36  36  36  36 
 36  36  36  36  36  36  36  36  36  36  36  36  36  36  36  36  36  36 
 36  36  36  36  36  36  36  36  36  36  36  36  36  36  36  36  36  36 
 36  36  36  36  36  36  36  36  36  36  36  36  36  36  36  36  36  36 
 36  36  36  36  36  36  36  36  36  36  36  36  36  36  36  36  36  36 
 36  36  36  36  36  36  36  36  36  36  36  36  36  36  36  36  36  36 
 36  36  36  36  36  36  36  36  36  36  36  36  36  36  36  36  36  36 
 36  36  36  36  36  36  36  36  36  36  36  36  36  36  36  36  36  36 
 36  36  36  36  36  36  36  36  36  36  36  36  36  36  36  36  36  36 
 36  36  36  36  36  36  36  36  36  36  36  36  36  36  36  36  36  36 
 36  36  36  36  36  36  36  36  36  36  36  36  36  36  36  36  36  36 
 36  36  36  36  36  36  36  36  36  36  36  36  36  36  36  36  36  36 
 36  36  36  36  36  36  36  36  36  36  36  36  36  36  36  36  36  36 
 36  36  36  36  36  36  36  36  36  36  36  36  36  36  36  36  36  36 
 36  36  36  36  36  36  36  36  36  36  36  36  36  36  36  36  36  36 
 36  36  36  36  36  36  36  36  36  36  36  36  36  36  36  36  36  36 
 36  36  36  36  36  36  36  36  36  36  36  36  36  36  36  36  36  36 
 36  36  36  36  36  36  36  36  36  36  36  36  36  36  36  36  36  36 
 36  36  36  36  36  36  36  36  36  36  36  36  36  36  36  36  36  36 
 36  36  36  36  36  36  36  36  36  36  36  36  36  36  36  36  36  36 
 36  36  36  36  36  36  36  36  36  36  36  36  36  36  36  36  36  36 
 36  36  36  36  36  36  36  36  36  36  36  36  36  36  36  36  36  36 
 36  36  36  36  36  36  36  36  36  36  36  36  36  36  36  36  36  36 
 36  36  36  36  36  36  36  36  36  36  36  36  36  36  36  36  36  36 
 36  36  36  36  36  36  36  36  36  36  36  36  36  36  36  36  36  36 
 36  36  36  36  36  36  36  36  36  36  36  36  36  36  36  36  36  36 
 36  36  36  36  36  36  36  36  36  36  36  36  36  36  36  36  36  36 
 36  36  36  36  36  36  36  36  36  36  36  36  36  36  36  36  36  36 
 36  36  36  36  36  36  36  36  36  36  36  36  36  36  36  36  36  36 
 36  36  36  36  36  36  36  36  36  36  36  36  36  36  36  36  36  36 
 36  36  36  36  36  36  36  36  36  36  36  36  36  36  36  36  36  36 
 36  36  36  36  36  36  36  36  36  36  36  36  36  36  36  36  36  36 
 36  36  36  36  36  36  36  36  36  36  36  36  36  36  36  36  36  36 
 36  36  36  36  36  36  36  36  36  36  36  36  36  36  36  36  36  36 
 36  36  36  36  36  36  36  36  36  36  36  36  36  36  36  36  36  36 
 36  36  36  36  36  36  36  36  36  36  36  36  36  36  36  36  36  36 
 36  36  36  36  36  36  36  36  36  36  36  36  36  36  36  36  36  36 
 36  36  36  36  36  36  36  36  36  36  36  36  36  36  36  36  36  36 
 36  36  36  36  36  36  36  36  36  36  36  36  36  36  36  36  36  36 
 36  36  36  36  36  36  36  36  36  36  36  36  36  36  36  36  36  36 
 36  36  36  36  36  36  36  36  36  36  36  36  36  36  36  36  36  36 
 36  36  36  36  36  36  36  36  36  36  36  36  36  36  36  36  36  36 
 36  36  36  36  36  36  36  36  36  36  36  36  36  36  36  36  36  36 
 36  36  36  36  36  36  36  36  36  36  36  36  36  36  36  36  36  36 
 36  36  36  36  36  36  36  36  36  36  36  36  36  36  36  36  36  36 
 36  36  36  36  36  36  36  36  36  36  36  36  36  36  36  36  36  36 
 36  36  36  36  36  36  36  36  36  36  36  36  36  36  36  36  36  36 
 36  36  36  36  36  36  36  36  36  36  36  36  36  36  36  36  36  36 
 36  36  36  36  36  36  36  36  36  36  36  36  36  36  36  36  36  36 
 36  36  36  36  36  36  36  36  36  36  36  36  36  36  36  36  36  36 
 36  36  36  36  36  36  36  36  36  36  36  36  36  36  36  36  36  36 
 36  36  36  36  36  36  36  36  36  36  36  36  36  36  36  36  36  36 
 36  36  36  36  36  36  36  36  36  36  36  36  36  36  36  36  36  36 
 36  36  36  36  36  36  36  36  36  36  36  36  36  36  36  36  36  36 
 36  36  36  36  36  36  36  36  36  36  36  36  36  36  36  36  36  36 
 36  36  36  36  36  36  36  36  36  36  36  36  36  36  36  36  36  36 
 36  36  36  36  36  36  36  36  36  36  36  36  36  36  36  36  36  36 
 36  36  36  36  36  36  36  36  36  36  36  36  36  36  36  36  36  36 
 36  36  36  36  36  36  36  36  36  36  36  36  36  36  36  36  36  36 
 36  36  36  36  36  36  36  36  36  36  36  36  36  36  36  36  36  36 
 36  36  36  36  36  36  36  36  36  36  36  36  36  36  36  36  36  36 
 36  36  36  36  36  36  36  36  36  36  36  36  36  36  36  36  36  36 
 36  36  36  36  36  36  36  36  36  36  36  36  36  36  36  36  36  36 
 36  36  36  36  36  36  36  36  36  36  36  36  36  36  36  36  36  36 
 36  36  36  36  36  36  36  36  36  36  36  36  36  36  36  36  36  36 
 36  36  36  36  36  36  36  36  36  36  36  36  36  36  36  36  36  36 
 36  36  36  36  36  36  36  36  36  36  36  36  36  36  36  36  36  36 
 36  36  36  36  36  36  36  36  36  36  36  36  36  36  36  36  36  36 
 36  36  36  36  36  36  36  36  36  36  36  36  36  36  36  36  36  36 
 36  36  36  36  36  36  36  36  36  36  36  36  36  36  36  36  36  36 
 36  36  36  36  36  36  36  36  36  36  36  36  36  36  36  36  36  36 
 36  36  36  36  36  36  36  36  36  36  36  36  36  36  36  36  36  36 
 36  36  36  36  36  36  36  36  36  36  36  36  36  36  36  36  36  36 
 36  36  36  36  36  36  36  36  36  36  36  36  36  36  36  36  36  36 
 36  36  36  36  36  36  36  36  36  36  36  36  36  36  36  36  36  36 
 36  36  36  36  36  36  36  36  36  36  36  36  36  36  36  36  36  36 
 36  36  36  36  36  36  36  36  36  36  36  36  36  36  36  36  36  36 
 36  36  36  36  36  36  36  36  36  36  36  36  36  36  36  36  36  36 
 36  36  36  36  36  36  36  36  36  36  36  36  36  36  36  36  36  36 
 36  36  36  36  36  36  36  36  36  36  36  36  36  36  36  36  36  36 
 36  36  36  36  36  36  36  36  36  36  36  36  36  36  36  36  36  36 
 36  36  36  36  36  36  36  36  36  36  36  36  36  36  36  36  36  36 
 36  36  36  36  36  36  36  36  36  36  36  36  36  36  36  36  36  36 
 36  36  36  36  36  36  36  36  36  36  36  36  36  36  36  36  36  36 
 36  36  36  36  36  36  36  36  36  36  36  36  36  36  36  36  36  36 
 36  36  36  36  36  36  36  36  36  36  36  36  36  36  36  36  36  36 
 36  36  36  36  36  36  36  36  36  36  36  36  36  36  36  36  36  36 
 36  36  36  36  36  36  36  36  36  36  36  36  36  36  36  36  36  36 
 36  36  36  36  36  36  36  36  36  36  36  36  36  36  36  36  36  36 
 36  36  36  36  36  36  36  36  36  36  36  36  36  36  36  36  36  36 
 36  36  36  36  36  36  36  36  36  36  36  36  36  36  36  36  36  36 
 36  36  36  36  36  36  36  36  36  36  36  36  36  36  36  36  36  36 
 36  36  36  36  36  36  36  36  36  36  36  36  36  36  36  36  36  36 
 36  36  36  36  36  36  36  36  36  36  36  36  36  36  36  36  36  36 
 36  36  36  36  36  36  36  36  36  36  36  36  36  36  36  36  36  36 
 36  36  36  36  36  36  36  36  36  36  36  36  36  36  36  36  36  36 
 36  36  36  36  36  36  36  36  36  36  36  36  36  36  36  36  36  36 
 36  36  36  36  36  36  36  36  36  36  36  36  36  36  36  36  36  36 
 36  36  36  36  36  36  36  36  36  36  36  36  36  36  36  36  36  36 
 36  36  36  36  36  36  36  36  36  36  36  36  36  36  36  36  36  36 
 36  36  36  36  36  36  36  36  36  36  36  36  36  36  36  36  36  36 
 36  36  36  36  36  36  36  36  36  36  36  36  36  36  36  36  36  36 
 36  36  36  36  36  36  36  36  36  36  36  36  36  36  36  36  36  36 
 36  36  36  36  36  36  36  36  36  36  36  36  36  36  36  36  36  36 
 36  36  36  36  36  36  36  36  36  36  36  36  36  36  36  36  36  36 
 36  36  36  36  36  36  36  36  36  36  36  36  36  36  36  36  36  36 
 36  36  36  36  36  36  36  36  36  36  36  36  36  36  36  36  36  36 
 36  36  36  36  36  36  36  36  36  36  36  36  36  36  36  36  36  36 
 36  36  36  36  36  36  36  36  36  36  36  36  36  36  36  36  36  36 
 36  36  36  36  36  36  36  36  36  36  36  36  36  36  36  36  36  36 
 36  36  36  36  36  36  36  36  36  36  36  36  36  36  36  36  36  36 
 36  36  36  36  36  36  36  36  36  36  36  36  36  36  36  36  36  36 
 36  36  36  36  36  36  36  36  36  36  36  36  36  36  36  36  36  36 
 36  36  36  36  36  36  36  36  36  36  36  36  36  36  36  36  36  36 
 36  36  36  36  36  36  36  36  36  36  36  36  36  36  36  36  36  36 
 36  36  36  36  36  36  36  36  36  36  36  36  36  36  36  36  36  36 
 36  36  36  36  36  36  36  36  36  36  36  36  36  36  36  36  36  36 
 36  36  36  36  36  36  36  36  36  36  36  36  36  36  36  36  36  36 
 36  36  36  36  36  36  36  36  36  36  36  36  36  36  36  36  36  36 
 36  36  36  36  36  36  36  36  36  36  36  36  36  36  36  36  36  36 
 36  36  36  36  36  36  36  36  36  36  36  36  36  36  36  36  36  36 
 36  36  36  36  36  36  36  36  36  36  36  36  36  36  36  36  36  36 
 36  36  36  36  36  36  36  36  36  36  36  36  36  36  36  36  36  36 
 36  36  36  36  36  36  36  36  36  36  36  36  36  36  36  36  36  36 
 36  36  36  36  36  36  36  36  36  36  36  36  36  36  36  36  36  36 
 36  36  36  36  36  36  36  36  36  36  36  36  36  36  36  36  36  36 
 36  36  36  36  36  36  36  36  36  36  36  36  36  36  36  36  36  36 
 36  36  36  36  36  36  36  36  36  36  36  36  36  36  36  36  36  36 
 36  36  36  36  36  36  36  36  36  36  36  36  36  36  36  36  36  36 
 36  36  36  36  36  36  36  36  36  36  36  36  36  36  36  36  36  36 
 36  36  36  36  36  36  36  36  36  36  36  36  36  36  36  36  36  36 
 36  36  36  36  36  36  36  36  36  36  36  36  36  36  36  36  36  36 
 36  36  36  36  36  36  36  36  36  36  36  36  36  36  36  36  36  36 
 36  36  36  36  36  36  36  36  36  36  36  36  36  36  36  36  36  36 
 36  36  36  36  36  36  36  36  36  36  36  36  36  36  36  36  36  36 
 36  36  36  36  36  36  36  36  36  36  36  36  36  36  36  36  36  36 
 36  36  36  36  36  36  36  36  36  36  36  36  36  36  36  36  36  36 
 36  36  36  36  36  36  36  36  36  36  36  36  36  36  36  36  36  36 
 36  36  36  36  36  36  36  36  36  36  36  36  36  36  36  36  36  36 
 36  36  36  36  36  36  36  36  36  36  36  36  36  36  36  36  36  36 
 36  36  36  36  36  36  36  36  36  36  36  36  36  36  36  36  36  36 
 36  36  36  36  36  36  36  36  36  36  36  36  36  36  36  36  36  36 
 36  36  36  36  36  36  36  36  36  36  36  36  36  36  36  36  36  36 
 36  36  36  36  36  36  36  36  36  36  36  36  36  36  36  36  36  36 
 36  36  36  36  36  36  36  36  36  36  36  36  36  36  36  36  36  36 
 36  36  36  36  36  36  36  36  36  36  36  36  36  36  36  36  36  36 
 36  36  36  36  36  36  36  36  36  36  36  36  36  36  36  36  36  36 
 36  36  36  36  36  36  36  36  36  36  36  36  36  36  36  36  36  36 
 36  36  36  36  36  36  36  36  36  36  36  36  36  36  36  36  36  36 
 36  36  36  36  36  36  36  36  36  36  36  36  36  36  36  36  36  36 
 36  36  36  36  36  36  36  36  36  36  36  36  36  36  36  36  36  36 
 36  36  36  36  36  36  36  36  36  36  36  36  36  36  36  36  36  36 
 36  36  36  36  36  36  36  36  36  36  36  36  36  36  36  36  36  36 
 36  36  36  36  36  36  36  36  36  36  36  36  36  36  36  36  36  36 
 36  36  36  36  36  36  36  36  36  36  36  36  36  36  36  36  36  36 
 36  36  36  36  36  36  36  36  36  36  36  36  36  36  36  36  36  36 
 36  36  36  36  36  36  36  36  36  36  36  36  36  36  36  36  36  36 
 36  36  36  36  36  36  36  36  36  36  36  36  36  36  36  36  36  36 
 36  36  36  36  36  36  36  36  36  36  36  36  36  36  36  36  36  36 
 36  36  36  36  36  36  36  36  36  36  36  36  36  36  36  36  36  36 
 36  36  36  36  36  36  36  36  36  36  36  36  36  36  36  36  36  36 
 36  36  36  36  36  36  36  36  36  36  36  36  36  36  36  36  36  36 
 36  36  36  36  36  36  36  36  36  36  36  36  36  36  36  36  36  36 
 36  36  36  36  36  36  36  36  36  36  36  36  36  36  36  36  36  36 
 36  36  36  36  36  36  36  36  36  36  36  36  36  36  36  36  36  36 
 36  36  36  36  36  36  36  36  36  36  36  36  36  36  36  36  36  36 
 36  36  36  36  36  36  36  36  36  36  36  36  36  36  36  36  36  36 
 36  36  36  36  36  36  36  36  36  36  36  36  36  36  36  36  36  36 
 36  36  36  36  36  36  36  36  36  36  36  36  36  36  36  36  36  36 
 36  36  36  36  36  36  36  36  36  36  36  36  36  36  36  36  36  36 
 36  36  36  36  36  36  36  36  36  36  36  36  36  36  36  36  36  36 
 36  36  36  36  36  36  36  36  36  36  36  36  36  36  36  36  36  36 
 36  36  36  36  36  36  36  36  36  36  36  36  36  36  36  36  36  36 
 36  36  36  36  36  36  36  36  36  36  36  36  36  36  36  36  36  36 
 36  36  36  36  36  36  36  36  36  36  36  36  36  36  36  36  36  36 
 36  36  36  36  36  36  36  36  36  36  36  36  36  36  36  36  36  36 
 36  36  36  36  36  36  36  36  36  36  36  36  36  36  36  36  36  36 
 36  36  36  36  36  36  36  36  36  36  36  36  36  36  36  36  36  36 
 36  36  36  36  36  36  36  36  36  36  36  36  36  36  36  36  36  36 
 36  36  36  36  36  36  36  36  36  36  36  36  36  36  36  36  36  36 
 36  36  36  36  36  36  36  36  36  36  36  36  36  36  36  36  36  36 
 36  36  36  36  36  36  36  36  36  36  36  36  36  36  36  36  36  36 
 36  36  36  36  36  36  36  36  36  36  36  36  36  36  36  36  36  36 
 36  36  36  36  36  36  36  36  36  36  36  36  36  36  36  36  36  36 
 36  36  36  36  36  36  36  36  36  36  36  36  36  36  36  36  36  36 
 36  36  36  36  36  36  36  36  36  36  36  36  36  36  36  36  36  36 
 36  36  36  36  36  36  36  36  36  36  36  36  36  36  36  36  36  36 
 36  36  36  36  36  36  36  36  36  36  36  36  36  36  36  36  36  36 
 36  36  36  36  36  36  36  36  36  36  36  36  36  36  36  36  36  36 
 36  36  36  36  36  36  36  36  36  36  36  36  36  36  36  36  36  36 
 36  36  36  36  36  36  36  36  36  36  36  36  36  36  36  36  36  36 
 36  36  36  36  36  36  36  36  36  36  36  36  36  36  36  36  36  36 
 36  36  36  36  36  36  36  36  36  36  36  36  36  36  36  36  36  36 
 36  36  36  36  36  36  36  36  36  36  36  36  36  36  36  36  36  36 
 36  36  36  36  36  36  36  36  36  36  36  36  36  36  36  36  36  36 
 36  36  36  36  36  36  36  36  36  36  36  36  36  36  36  36  36  36 
 36  36  36  36  36  36  36  36  36  36  36  36  36  36  36  36  36  36 
 36  36  36  36  36  36  36  36  36  36  36  36  36  36  36  36  36  36 
 36  36  36  36  36  36  36  36  36  36  36  36  36  36  36  36  36  36 
 36  36  36  36  36  36  36  36  36  36  36  36  36  36  36  36  36  36 
 36  36  36  36  36  36  36  36  36  36  36  36  36  36  36  36  36  36 
 36  36  36  36  36  36  36  36  36  36  36  36  36  36  36  36  36  36 
 36  36  36  36  36  36  36  36  36  36  36  36  36  36  36  36  36  36 
 36  36  36  36  36  36  36  36  36  36  36  36  36  36  36  36  36  36 
 36  36  36  36  36  36  36  36  36  36  36  36  36  36  36  36  36  36 
 36  36  36  36  36  36  36  36  36  36  36  36  36  36  36  36  36  36 
 36  36  36  36  36  36  36  36  36  36  36  36  36  36  36  36  36  36 
 36  36  36  36  36  36  36  36  36  36  36  36  36  36  36  36  36  36 
 36  36  36  36  36  36  36  36  36  36  36  36  36  36  36  36  36  36 
 36  36  36  36  36  36  36  36  36  36  36  36  36  36  36  36  36  36 
 36  36  36  36  36  36  36  36  36  36  36  36  36  36  36  36  36  36 
 36  36  36  36  36  36  36  36  36  36  36  36  36  36  36  36  36  36 
 36  36  36  36  36  36  36  36  36  36  36  36  36  36  36  36  36  36 
 36  36  36  36  36  36  36  36  36  36  36  36  36  36  36  36  36  36 
 36  36  36  36  36  36  36  36  36  36  36  36  36  36  36  36  36  36 
 36  36  36  36  36  36  36  36  36  36  36  36  36  36  36  36  36  36 
 36  36  36  36  36  36  36  36  36  36  36  36  36  36  36  36  36  36 
 36  36  36  36  36  36  36  36  36  36  36  36  36  36  36  36  36  36 
 36  36  36  36  36  36  36  36  36  36  36  36  36  36  36  36  36  36 
 36  36  36  36  36  36  36  36  36  36  36  36  36  36  36  36  36  36 
 36  36  36  36  36  36  36  36  36  36  36  36  36  36  36  36  36  36 
 36  36  36  36  36  36  36  36  36  36  36  36  36  36  36  36  36  36 
 36  36  36  36  36  36  36  36  36  36  36  36  36  36  36  36  36  36 
 36  36  36  36  36  36  36  36  36  36  36  36  36  36  36  36  36  36 
 36  36  36  36  36  36  36  36  36  36  36  36  36  36  36  36  36  36 
 36  36  36  36  36  36  36  36  36  36  36  36  36  36  36  36  36  36 
 36  36  36  36  36  36  36  36  36  36  36  36  36  36  36  36  36  36 
 36  36  36  36  36  36  36  36  36  36  36  36  36  36  36  36  36  36 
 36  36  36  36  36  36  36  36  36  36  36  36  36  36  36  36  36  36 
 36  36  36  36  36  36  36  36  36  36  36  36  36  36  36  36  36  36 
 36  36  36  36  36  36  36  36  36  36  36  36  36  36  36  36  36  36 
 36  36  36  36  36  36  36  36  36  36  36  36  36  36  36  36  36  36 
 36  36  36  36  36  36  36  36  36  36  36  36  36  36  36  36  36  36 
 36  36  36  36  36  36  36  36  36  36  36  36  36  36  36  36  36  36 
 36  36  36  36  36  36  36  36  36  36  36  36  36  36  36  36  36  36 
 36  36  36  36  36  36  36  36  36  36  36  36  36  36  36  36  36  36 
 36  36  36  36  36  36  36  36  36  36  36  36  36  36  36  36  36  36 
 36  36  36  36  36  36  36  36  36  36  36  36  36  36  36  36  36  36 
 36  36  36  36  36  36  36  36  36  36  36  36  36  36  36  36  36  36 
 36  36  36  36  36  36  36  36  36  36  36  36  36  36  36  36  36  36 
 36  36  36  36  36  36  36  36  36  36  36  36  36  36  36  36  36  36 
 36  36  36  36  36  36  36  36  36  36  36  36  36  36  36  36  36  36 
 36  36  36  36  36  36  36  36  36  36  36  36  36  36  36  36  36  36 
 36  36  36  36  36  36  36  36  36  36  36  36  36  36  36  36  36  36 
 36  36  36  36  36  36  36  36  36  36  36  36  36  36  36  36  36  36 
 36  36  36  36  36  36  36  36  36  36  36  36  36  36  36  36  36  36 
 36  36  36  36  36  36  36  36  36  36  36  36  36  36  36  36  36  36 
 36  36  36  36  36  36  36  36  36  36  36  36  36  36  36  36  36  36 
 36  36  36  36  36  36  36  36  36  36  36  36  36  36  36  36  36  36 
 36  36  36  36  36  36  36  36  36  36  36  36  36  36  36  36  36  36 
 36  36  36  36  36  36  36  36  36  36  36  36  36  36  36  36  36  36 
 36  36  36  36  36  36  36  36  36  36  36  36  36  36  36  36  36  36 
 36  36  36  36  36  36  36  36  36  36  36  36  36  36  36  36  36  36 
 36  36  36  36  36  36  36  36  36  36  36  36  36  36  36  36  36  36 
 36  36  36  36  36  36  36  36  36  36  36  36  36  36  36  36  36  36 
 36  36  36  36  36  36  36  36  36  36  36  36  36  36  36  36  36  36 
 36  36  36  36  36  36  36  36  36  36  36  36  36  36  36  36  36  36 
 36  36  36  36  36  36  36  36  36  36  36  36  36  36  36  36  36  36 
 36  36  36  36  36  36  36  36  36  36  36  36  36  36  36  36  36  36 
 36  36  36  36  36  36  36  36  36  36  36  36  36  36  36  36  36  36 
 36  36  36  36  36  36  36  36  36  36  36  36  36  36  36  36  36  36 
 36  36  36  36  36  36  36  36  36  36  36  36  36  36  36  36  36  36 
 36  36  36  36  36  36  36  36  36  36  36  36  36  36  36  36  36  36 
 36  36  36  36  36  36  36  36  36  36  36  36  36  36  36  36  36  36 
 36  36  36  36  36  36  36  36  36  36  36  36  36  36  36  36  36  36 
 36  36  36  36  36  36  36  36  36  36  36  36  36  36  36  36  36  36 
 36  36  36  36  36  36  36  36  36  36  36  36  36  36  36  36  36  36 
 36  36  36  36  36  36  36  36  36  36  36  36  36  36  36  36  36  36 
 36  36  36  36  36  36  36  36  36  36  36  36  36  36  36  36  36  36 
 36  36  36  36  36  36  36  36  36  36  36  36  36  36  36  36  36  36 
 36  36  36  36  36  36  36  36  36  36  36  36  36  36  36  36  36  36 
 36  36  36  36  36  36  36  36  36  36  36  36  36  36  36  36  36  36 
 36  36  36  36  36  36  36  36  36  36  36  36  36  36  36  36  36  36 
 36  36  36  36  36  36  36  36  36  36  36  36  36  36  36  36  36  36 
 36  36  36  36  36  36  36  36  36  36  36  36  36  36  36  36  36  36 
 36  36  36  36  36  36  36  36  36  36  36  36  36  36  36  36  36  36 
 36  36  36  36  36  36  36  36  36  36  36  36  36  36  36  36  36  36 
 36  36  36  36  36  36  36  36  36  36  36  36  36  36  36  36  36  36 
 36  36  36  36  36  36  36  36  36  36  36  36  36  36  36  36  36  36 
 36  36  36  36  36  36  36  36  36  36  36  36  36  36  36  36  36  36 
 36  36  36  36  36  36  36  36  36  36  36  36  36  36  36  36  36  36 
 36  36  36  36  36  36  36  36  36  36  36  36  36  36  36  36  36  36 
 36  36  36  36  36  36  36  36  36  36  36  36  36  36  36  36  36  36 
 36  36  36  36  36  36  36  36  36  36  36  36  36  36  36  36  36  36 
 36  36  36  36  36  36  36  36  36  36  36  36  36  36  36  36  36  36 
 36  36  36  36  36  36  36  36  36  36  36  36  36  36  36  36  36  36 
 36  36  36  36  36  36  36  36  36  36  36  36  36  36  36  36  36  36 
 36  36  36  36  36  36  36  36  36  36  36  36  36  36  36  36  36  36 
 36  36  36  36  36  36  36  36  36  36  36  36  36  36  36  36  36  36 
 36  36  36  36  36  36  36  36  36  36  36  36  36  36  36  36  36  36 
 36  36  36  36  36  36  36  36  36  36  36  36  36  36  36  36  36  36 
 36  36  36  36  36  36  36  36  36  36  36  36  36  36  36  36  36  36 
 36  36  36  36  36  36  36  36  36  36  36  36  36  36  36  36  36  36 
 36  36  36  36  36  36  36  36  36  36  36  36  36  36  36  36  36  36 
 36  36  36  36  36  36  36  36  36  36  36  36  36  36  36  36  36  36 
 36  36  36  36  36  36  36  36  36  36  36  36  36  36  36  36  36  36 
 36  36  36  36  36  36  36  36  36  36  36  36  36  36  36  36  36  36 
 36  36  36  36  36  36  36  36  36  36  36  36  36  36  36  36  36  36 
 36  36  36  36  36  36  36  36  36  36  36  36  36  36  36  36  36  36 
 36  36  36  36  36  36  36  36  36  36  36  36  36  36  36  36  36  36 
 36  36  36  36  36  36  36  36  36  36  36  36  36  36  36  36  36  36 
 36  36  36  36  36  36  36  36  36  36  36  36  36  36  36  36  36  36 
 36  36  36  36  36  36  36  36  36  36  36  36  36  36  36  36  36  36 
 36  36  36  36  36  36  36  36  36  36  36  36  36  36  36  36  36  36 
 36  36  36  36  36  36  36  36  36  36  36  36  36  36  36  36  36  36 
 36  36  36  36  36  36  36  36  36  36  36  36  36  36  36  36  36  36 
 36  36  36  36  36  36  36  36  36  36  36  36  36  36  36  36  36  36 
 36  36  36  36  36  36  36  36  36  36  36  36  36  36  36  36  36  36 
 36  36  36  36  36  36  36  36  36  36  36  36  36  36  36  36  36  36 
 36  36  36  36  36  36  36  36  36  36  36  36  36  36  36  36  36  36 
 36  36  36  36  36  36  36  36  36  36  36  36  36  36  36  36  36  36 
 36  36  36  36  36  36  36  36  36  36  36  36  36  36  36  36  36  36 
 36  36  36  36  36  36  36  36  36  36  36  36  36  36  36  36  36  36 
 36  36  36  36  36  36  36  36  36  36  36  36  36  36  36  36  36  36 
 36  36  36  36  36  36  36  36  36  36  36  36  36  36  36  36  36  36 
 36  36  36  36  36  36  36  36  36  36  36  36  36  36  36  36  36  36 
 36  36  36  36  36  36  36  36  36  36  36  36  36  36  36  36  36  36 
 36  36  36  36  36  36  36  36  36  36  36  36  36  36  36  36  36  36 
 36  36  36  36  36  36  36  36  36  36  36  36  36  36  36  36  36  36 
 36  36  36  36  36  36  36  36  36  36  36  36  36  36  36  36  36  36 
 36  36  36  36  36  36  36  36  36  36  36  36  36  36  36  36  36  36 
 36  36  36  36  36  36  36  36  36  36  36  36  36  36  36  36  36  36 
 36  36  36  36  36  36  36  36  36  36  36  36  36  36  36  36  36  36 
 36  36  36  36  36  36  36  36  36  36  36  36  36  36  36  36  36  36 
 36  36  36  36  36  36  36  36  36  36  36  36  36  36  36  36  36  36 
 36  36  36  36  36  36  36  36  36  36  36  36  36  36  36  36  36  36 
 36  36  36  36  36  36  36  36  36  36  36  36  36  36  36  36  36  36 
 36  36  36  36  36  36  36  36  36  36  36  36  36  36  36  36  36  36 
 36  36  36  36  36  36  36  36  36  36  36  36  36  36  36  36  36  36 
 36  36  36  36  36  36  36  36  36  36  36  36  36  36  36  36  36  36 
 36  36  36  36  36  36  36  36  36  36  36  36  36  36  36  36  36  36 
 36  36  36  36  36  36  36  36  36  36  36  36  36  36  36  36  36  36 
 36  36  36  36  36  36  36  36  36  36  36  36  36  36  36  36  36  36 
 36  36  36  36  36  36  36  36  36  36  36  36  36  36  36  36  36  36 
 36  36  36  36  36  36  36  36  36  36  36  36  36  36  36  36  36  36 
 36  36  36  36  36  36  36  36  36  36  36  36  36  36  36  36  36  36 
 36  36  36  36  36  36  36  36  36  36  36  36  36  36  36  36  36  36 
 36  36  36  36  36  36  36  36  36  36  36  36  36  36  36  36  36  36 
 36  36  36  36  36  36  36  36  36  36  36  36  36  36  36  36  36  36 
 36  36  36  36  36  36  36  36  36  36  36  36  36  36  36  36  36  36 
 36  36  36  36  36  36  36  36  36  36  36  36  36  36  36  36  36  36 
 36  36  36  36  36  36  36  36  36  36  36  36  36  36  36  36  36  36 
 36  36  36  36  36  36  36  36  36  36  36  36  36  36  36  36  36  36 
 36  36  36  36  36  36  36  36  36  36  36  36  36  36  36  36  36  36 
 36  36  36  36  36  36  36  36  36  36  36  36  36  36  36  36  36  36 
 36  36  36  36  36  36  36  36  36  36  36  36  36  36  36  36  36  36 
 36  36  36  36  36  36  36  36  36  36  36  36  36  36  36  36  36  36 
 36  36  36  36  36  36  36  36  36  36  36  36  36  36  36  36  36  36 
 36  36  36  36  36  36  36  36  36  36  36  36  36  36  36  36  36  36 
 36  36  36  36  36  36  36  36  36  36  36  36  36  36  36  36  36  36 
 36  36  36  36  36  36  36  36  36  36  36  36  36  36  36  36  36  36 
 36  36  36  36  36  36  36  36  36  36  36  36  36  36  36  36  36  36 
 36  36  36  36  36  36  36  36  36  36  36  36  36  36  36  36  36  36 
 36  36  36  36  36  36  36  36  36  36  36  36  36  36  36  36  36  36 
 36  36  36  36  36  36  36  36  36  36  36  36  36  36  36  36  36  36 
 36  36  36  36  36  36  36  36  36  36  36  36  36  36  36  36  36  36 
 36  36  36  36  36  36  36  36  36  36  36  36  36  36  36  36  36  36 
 36  36  36  36  36  36  36  36  36  36  36  36  36  36  36  36  36  36 
 36  36  36  36  36  36  36  36  36  36  36  36  36  36  36  36  36  36 
 36  36  36  36  36  36  36  36  36  36  36  36  36  36  36  36  36  36 
 36  36  36  36  36  36  36  36  36  36  36  36  36  36  36  36  36  36 
 36  36  36  36  36  36  36  36  36  36  36  36  36  36  36  36  36  36 
 36  36  36  36  36  36  36  36  36  36  36  36  36  36  36  36  36  36 
 36  36  36  36  36  36  36  36  36  36  36  36  36  36  36  36  36  36 
 36  36  36  36  36  36  36  36  36  36  36  36  36  36  36  36  36  36 
 36  36  36  36  36  36  36  36  36  36  36  36  36  36  36  36  36  36 
 36  36  36  36  36  36  36  36  36  36  36  36  36  36  36  36  36  36 
 36  36  36  36  36  36  36  36  36  36  36  36  36  36  36  36  36  36 
 36  36  36  36  36  36  36  36  36  36  36  36  36  36  36  36  36  36 
 36  36  36  36  36  36  36  36  36  36  36  36  36  36  36  36  36  36 
 36  36  36  36  36  36  36  36  36  36  36  36  36  36  36  36  36  36 
 36  36  36  36  36  36  36  36  36  36  36  36  36  36  36  36  36  36 
 36  36  36  36  36  36  36  36  36  36  36  36  36  36  36  36  36  36 
 36  36  36  36  36  36  36  36  36  36  36  36  36  36  36  36  36  36 
 36  36  36  36  36  36  36  36  36  36  36  36  36  36  36  36  36  36 
 36  36  36  36  36  36  36  36  36  36  36  36  36  36  36  36  36  36 
 36  36  36  36  36  36  36  36  36  36  36  36  36  36  36  36  36  36 
 36  36  36  36  36  36  36  36  36  36  36  36  36  36  36  36  36  36 
 36  36  36  36  36  36  36  36  36  36  36  36  36  36  36  36  36  36 
 36  36  36  36  36  36  36  36  36  36  36  36  36  36  36  36  36  36 
 36  36  36  36  36  36  36  36  36  36  36  36  36  36  36  36  36  36 
 36  36  36  36  36  36  36  36  36  36  36  36  36  36  36  36  36  36 
 36  36  36  36  36  36  36  36  36  36  36  36  36  36  36  36  36  36 
 36  36  36  36  36  36  36  36  36  36  36  36  36  36  36  36  36  36 
 36  36  36  36  36  36  36  36  36  36  36  36  36  36  36  36  36  36 
 36  36  36  36  36  36  36  36  36  36  36  36  36  36  36  36  36  36 
 36  36  36  36  36  36  36  36  36  36  36  36  36  36  36  36  36  36 
 36  36  36  36  36  36  36  36  36  36  36  36  36  36  36  36  36  36 
 36  36  36  36  36  36  36  36  36  36  36  36  36  36  36  36  36  36 
 36  36  36  36  36  36  36  36  36  36  36  36  36  36  36  36  36  36 
 36  36  36  36  36  36  36  36  36  36  36  36  36  36  36  36  36  36 
 36  36  36  36  36  36  36  36  36  36  36  36  36  36  36  36  36  36 
 36  36  36  36  36  36  36  36  36  36  36  36  36  36  36  36  36  36 
 36  36  36  36  36  36  36  36  36  36  36  36  36  36  36  36  36  36 
 36  36  36  36  36  36  36  36  36  36  36  36  36  36  36  36  36  36 
 36  36  36  36  36  36  36  36  36  36  36  36  36  36  36  36  36  36 
 36  36  36  36  36  36  36  36  36  36  36  36  36  36  36  36  36  36 
 36  36  36  36  36  36  36  36  36  36  36  36  36  36  36  36  36  36 
 36  36  36  36  36  36  36  36  36  36  36  36  36  36  36  36  36  36 
 36  36  36  36  36  36  36  36  36  36  36  36  36  36  36  36  36  36 
 36  36  36  36  36  36  36  36  36  36  36  36  36  36  36  36  36  36 
 36  36  36  36  36  36  36  36  36  36  36  36  36  36  36  36  36  36 
 36  36  36  36  36  36  36  36  36  36  36  36  36  36  36  36  36  36 
 36  36  36  36  36  36  36  36  36  36  36  36  36  36  36  36  36  36 
 36  36  36  36  36  36  36  36  36  36  36  36  36  36  36  36  36  36 
 36  36  36  36  36  36  36  36  36  36  36  36  36  36  36  36  36  36 
 36  36  36  36  36  36  36  36  36  36  36  36  36  36  36  36  36  36 
 36  36  36  36  36  36  36  36  36  36  36  36  36  36  36  36  36  36 
 36  36  36  36  36  36  36  36  36  36  36  36  36  36  36  36  36  36 
 36  36  36  36  36  36  36  36  36  36  36  36  36  36  36  36  36  36 
 36  36  36  36  36  36  36  36  36  36  36  36  36  36  36  36  36  36 
 36  36  36  36  36  36  36  36  36  36  36  36  36  36  36  36  36  36 
 36  36  36  36  36  36  36  36  36  36  36  36  36  36  36  36  36  36 
 36  36  36  36  36  36  36  36  36  36  36  36  36  36  36  36  36  36 
 36  36  36  36  36  36  36  36  36  36  36  36  36  36  36  36  36  36 
 36  36  36  36  36  36  36  36  36  36  36  36  36  36  36  36  36  36 
 36  36  36  36  36  36  36  36  36  36  36  36  36  36  36  36  36  36 
 36  36  36  36  36  36  36  36  36  36  36  36  36  36  36  36  36  36 
 36  36  36  36  36  36  36  36  36  36  36  36  36  36  36  36  36  36 
 36  36  36  36  36  36  36  36  36  36  36  36  36  36  36  36  36  36 
 36  36  36  36  36  36  36  36  36  36  36  36  36  36  36  36  36  36 
 36  36  36  36  36  36  36  36  36  36  36  36  36  36  36  36  36  36 
 36  36  36  36  36  36  36  36  36  36  36  36  36  36  36  36  36  36 
 36  36  36  36  36  36  36  36  36  36  36  36  36  36  36  36  36  36 
 36  36  36  36  36  36  36  36  36  36  36  36  36  36  36  36  36  36 
 36  36  36  36  36  36  36  36  36  36  36  36  36  36  36  36  36  36 
 36  36  36  36  36  36  36  36  36  36  36  36  36  36  36  36  36  36 
 36  36  36  36  36  36  36  36  36  36  36  36  36  36  36  36  36  36 
 36  36  36  36  36  36  36  36  36  36  36  36  36  36  36  36  36  36 
 36  36  36  36  36  36  36  36  36  36  36  36  36  36  36  36  36  36 
 36  36  36  36  36  36  36  36  36  36  36  36  36  36  36  36  36  36 
 36  36  36  36  36  36  36  36  36  36  36  36  36  36  36  36  36  36 
 36  36  36  36  36  36  36  36  36  36  36  36  36  36  36  36  36  36 
 36  36  36  36  36  36  36  36  36  36  36  36  36  36  36  36  36  36 
 36  36  36  36  36  36  36  36  36  36  36  36  36  36  36  36  36  36 
 36  36  36  36  36  36  36  36  36  36  36  36  36  36  36  36  36  36 
 36  36  36  36  36  36  36  36  36  36  36  36  36  36  36  36  36  36 
 36  36  36  36  36  36  36  36  36  36  36  36  36  36  36  36  36  36 
 36  36  36  36  36  36  36  36  36  36  36  36  36  36  36  36  36  36 
 36  36  36  36  36  36  36  36  36  36  36  36  36  36  36  36  36  36 
 36  36  36  36  36  36  36  36  36  36  36  36  36  36  36  36  36  36 
 36  36  36  36  36  36  36  36  36  36  36  36  36  36  36  36  36  36 
 36  36  36  36  36  36  36  36  36  36  36  36  36  36  36  36  36  36 
 36  36  36  36  36  36  36  36  36  36  36  36  36  36  36  36  36  36 
 36  36  36  36  36  36  36  36  36  36  36  36  36  36  36  36  36  36 
 36  36  36  36  36  36  36  36  36  36  36  36  36  36  36  36  36  36 
 36  36  36  36  36  36  36  36  36  36  36  36  36  36  36  36  36  36 
 36  36  36  36  36  36  36  36  36  36  36  36  36  36  36  36  36  36 
 36  36  36  36  36  36  36  36  36  36  36  36  36  36  36  36  36  36 
 36  36  36  36  36  36  36  36  36  36  36  36  36  36  36  36  36  36 
 36  36  36  36  36  36  36  36  36  36  36  36  36  36  36  36  36  36 
 36  36  36  36  36  36  36  36  36  36  36  36  36  36  36  36  36  36 
 36  36  36  36  36  36  36  36  36  36  36  36  36  36  36  36  36  36 
 36  36  36  36  36  36  36  36  36  36  36  36  36  36  36  36  36  36 
 36  36  36  36  36  36  36  36  36  36  36  36  36  36  36  36  36  36 
 36  36  36  36  36  36  36  36  36  36  36  36  36  36  36  36  36  36 
 36  36  36  36  36  36  36  36  36  36  36  36  36  36  36  36  36  36 
 36  36  36  36  36  36  36  36  36  36  36  36  36  36  36  36  36  36 
 36  36  36  36  36  36  36  36  36  36  36  36  36  36  36  36  36  36 
 36  36  36  36  36  36  36  36  36  36  36  36  36  36  36  36  36  36 
 36  36  36  36  36  36  36  36  36  36  36  36  36  36  36  36  36  36 
 36  36  36  36  36  36  36  36  36  36  36  36  36  36  36  36  36  36 
 36  36  36  36  36  36  36  36  36  36  36  36  36  36  36  36  36  36 
 36  36  36  36  36  36  36  36  36  36  36  36  36  36  36  36  36  36 
 36  36  36  36  36  36  36  36  36  36  36  36  36  36  36  36  36  36 
 36  36  36  36  36  36  36  36  36  36  36  36  36  36  36  36  36  36 
 36  36  36  36  36  36  36  36  36  36  36  36  36  36  36  36  36  36 
 36  36  36  36  36  36  36  36  36  36  36  36  36  36  36  36  36  36 
 36  36  36  36  36  36  36  36  36  36  36  36  36  36  36  36  36  36 
 36  36  36  36  36  36  36  36  36  36  36  36  36  36  36  36  36  36 
 36  36  36  36  36  36  36  36  36  36  36  36  36  36  36  36  36  36 
 36  36  36  36  36  36  36  36  36  36  36  36  36  36  36  36  36  36 
 36  36  36  36  36  36  36  36  36  36  36  36  36  36  36  36  36  36 
 36  36  36  36  36  36  36  36  36  36  36  36  36  36  36  36  36  36 
 36  36  36  36  36  36  36  36  36  36  36  36  36  36  36  36  36  36 
 36  36  36  36  36  36  36  36  36  36  36  36  36  36  36  36  36  36 
 36  36  36  36  36  36  36  36  36  36  36  36  36  36  36  36  36  36 
 36  36  36  36  36  36  36  36  36  36  36  36  36  36  36  36  36  36 
 36  36  36  36  36  36  36  36  36  36  36  36  36  36  36  36  36  36 
 36  36  36  36  36  36  36  36  36  36  36  36  36  36  36  36  36  36 
 36  36  36  36  36  36  36  36  36  36  36  36  36  36  36  36  36  36 
 36  36  36  36  36  36  36  36  36  36  36  36  36  36  36  36  36  36 
 36  36  36  36  36  36  36  36  36  36  36  36  36  36  36  36  36  36 
 36  36  36  36  36  36  36  36  36  36  36  36  36  36  36  36  36  36 
 36  36  36  36  36  36  36  36  36  36  36  36  36  36  36  36  36  36 
 36  36  36  36  36  36  36  36  36  36  36  36  36  36  36  36  36  36 
 36  36  36  36  36  36  36  36  36  36  36  36  36  36  36  36  36  36 
 36  36  36  36  36  36  36  36  36  36  36  36  36  36  36  36  36  36 
 36  36  36  36  36  36  36  36  36  36  36  36  36  36  36  36  36  36 
 36  36  36  36  36  36  36  36  36  36  36  36  36  36  36  36  36  36 
 36  36  36  36  36  36  36  36  36  36  36  36  36  36  36  36  36  36 
 36  36  36  36  36  36  36  36  36  36  36  36  36  36  36  36  36  36 
 36  36  36  36  36  36  36  36  36  36  36  36  36  36  36  36  36  36 
 36  36  36  36  36  36  36  36  36  36  36  36  36  36  36  36  36  36 
 36  36  36  36  36  36  36  36  36  36  36  36  36  36  36  36  36  36 
 36  36  36  36  36  36  36  36  36  36  36  36  36  36  36  36  36  36 
 36  36  36  36  36  36  36  36  36  36  36  36  36  36  36  36  36  36 
 36  36  36  36  36  36  36  36  36  36  36  36  36  36  36  36  36  36 
 36  36  36  36  36  36  36  36  36  36  36  36  36  36  36  36  36  36 
 36  36  36  36  36  36  36  36  36  36  36  36  36  36  36  36  36  36 
 36  36  36  36  36  36  36  36  36  36  36  36  36  36  36  36  36  36 
 36  36  36  36  36  36  36  36  36  36  36  36  36  36  36  36  36  36 
 36  36  36  36  36  36  36  36  36  36  36  36  36  36  36  36  36  36 
 36  36  36  36  36  36  36  36  36  36  36  36  36  36  36  36  36  36 
 36  36  36  36  36  36  36  36  36  36  36  36  36  36  36  36  36  36 
 36  36  36  36  36  36  36  36  36  36  36  36  36  36  36  36  36  36 
 36  36  36  36  36  36  36  36  36  36  36  36  36  36  36  36  36  36 
 36  36  36  36  36  36  36  36  36  36  36  36  36  36  36  36  36  36 
 36  36  36  36  36  36  36  36  36  36  36  36  36  36  36  36  36  36 
 36  36  36  36  36  36  36  36  36  36  36  36  36  36  36  36  36  36 
 36  36  36  36  36  36  36  36  36  36  36  36  36  36  36  36  36  36 
 36  36  36  36  36  36  36  36  36  36  36  36  36  36  36  36  36  36 
 36  36  36  36  36  36  36  36  36  36  36  36  36  36  36  36  36  36 
 36  36  36  36  36  36  36  36  36  36  36  36  36  36  36  36  36  36 
 36  36  36  36  36  36  36  36  36  36  36  36  36  36  36  36  36  36 
 36  36  36  36  36  36  36  36  36  36  36  36  36  36  36  36  36  36 
 36  36  36  36  36  36  36  36  36  36  36  36  36  36  36  36  36  36 
 36  36  36  36  36  36  36  36  36  36  36  36  36  36  36  36  36  36 
 36  36  36  36  36  36  36  36  36  36  36  36  36  36  36  36  36  36 
 36  36  36  36  36  36  36  36  36  36  36  36  36  36  36  36  36  36 
 36  36  36  36  36  36  36  36  36  36  36  36  36  36  36  36  36  36 
 36  36  36  36  36  36  36  36  36  36  36  36  36  36  36  36  36  36 
 36  36  36  36  36  36  36  36  36  36  36  36  36  36  36  36  36  36 
 36  36  36  36  36  36  36  36  36  36  36  36  36  36  36  36  36  36 
 36  36  36  36  36  36  36  36  36  36  36  36  36  36  36  36  36  36 
 36  36  36  36  36  36  36  36  36  36  36  36  36  36  36  36  36  36 
 36  36  36  36  36  36  36  36  36  36  36  36  36  36  36  36  36  36 
 36  36  36  36  36  36  36  36  36  36  36  36  36  36  36  36  36  36 
 36  36  36  36  36  36  36  36  36  36  36  36  36  36  36  36  36  36 
 36  36  36  36  36  36  36  36  36  36  36  36  36  36  36  36  36  36 
 36  36  36  36  36  36  36  36  36  36  36  36  36  36  36  36  36  36 
 36  36  36  36  36  36  36  36  36  36  36  36  36  36  36  36  36  36 
 36  36  36  36  36  36  36  36  36  36  36  36  36  36  36  36  36  36 
 36  36  36  36  36  36  36  36  36  36  36  36  36  36  36  36  36  36 
 36  36  36  36  36  36  36  36  36  36  36  36  36  36  36  36  36  36 
 36  36  36  36  36  36  36  36  36  36  36  36  36  36  36  36  36  36 
 36  36  36  36  36  36  36  36  36  36  36  36  36  36  36  36  36  36 
 36  36  36  36  36  36  36  36  36  36  36  36  36  36  36  36  36  36 
 36  36  36  36  36  36  36  36  36  36  36  36  36  36  36  36  36  36 
 36  36  36  36  36  36  36  36  36  36  36  36  36  36  36  36  36  36 
 36  36  36  36  36  36  36  36  36  36  36  36  36  36  36  36  36  36 
 36  36  36  36  36  36  36  36  36  36  36  36  36  36  36  36  36  36 
 36  36  36  36  36  36  36  36  36  36  36  36  36  36  36  36  36  36 
 36  36  36  36  36  36  36  36  36  36  36  36  36  36  36  36  36  36 
 36  36  36  36  36  36  36  36  36  36  36  36  36  36  36  36  36  36 
 36  36  36  36  36  36  36  36  36  36  36  36  36  36  36  36  36  36 
 36  36  36  36  36  36  36  36  36  36  36  36  36  36  36  36  36  36 
 36  36  36  36  36  36  36  36  36  36  36  36  36  36  36  36  36  36 
 36  36  36  36  36  36  36  36  36  36  36  36  36  36  36  36  36  36 
 36  36  36  36  36  36  36  36  36  36  36  36  36  36  36  36  36  36 
  0   0   0   0   0   0   0   0   0   0   0   0   0   0   0   0   0   0 
  0   0   0   0   0   0   0   0   0   0   0   0   0   0   0   0   0   0 
  0   0   0   0   0   0   0   0   0   0   0   0   0   0   0   0   0   0 
  0   0   0   0   0   0   0   0   0   0   0   0   0   0   0   0   0   0 
  0   0   0   0   0   0   0   0   0   0   0   0   0   0   0   0   0   0 
  0   0   0   0   0   0   0   0   0   0   0   0   0   0   0   0   0   0 
  0   0   0   0   0   0   0   0   0   0   0   0   0   0   0   0   0   0 
  0   0   0   0   0   0   0   0   0   0   0   0   0   0   0   0   0   0 
  0   0   0   0   0   0   0   0   0   0   0   0   0   0   0   0   0   0 
  0   0   0   0   0   0   0   0   0   0   0   0   0   0   0   0   0   0 
  0   0   0   0   0   0   0   0   0   0   0   0   0   0   0   0   0   0 
  0   0   0   0   0   0   0   0   0   0   0   0   0   0   0   0   0   0 
  0   0   0   0   0   0   0   0   0   0   0   0   0   0   0   0   0   0 
  0   0   0   0   0   0   0   0   0   0   0   0   0   0   0   0   0   0 
  0   0   0   0   0   0   0   0   0   0   0   0   0   0   0   0   0   0 
  0   0   0   0   0   0   0   0   0   0   0   0   0   0   0   0   0   0 
  0   0   0   0   0   0   0   0   0   0   0   0   0   0   0   0   0   0 
  0   0   0   0   0   0   0   0   0   0   0   0   0   0   0   0   0   0 
  0   0   0   0   0   0   0   0   0   0   0   0   0   0   0   0   0   0 
  0   0   0   0   0   0   0   0   0   0   0   0   0   0   0   0   0   0 
  0   0   0   0   0   0   0   0   0   0   0   0   0   0   0   0   0   0 
  0   0   0   0   0   0   0   0   0   0   0   0   0   0   0   0   0   0 
  0   0   0   0   0   0   0   0   0   0   0   0   0   0   0   0   0   0 
  0   0   0   0   0   0   0   0   0   0   0   0   0   0   0   0   0   0 
  0   0   0   0   0   0   0   0   0   0   0   0   0   0   0   0   0   0 
  0   0   0   0   0   0   0   0   0   0   0   0   0   0   0   0   0   0 
  0   0   0   0   0   0   0   0   0   0   0   0   0   0   0   0   0   0 
  0   0   0   0   0   0   0   0   0   0   0   0   0   0   0   0   0   0 
  0   0   0   0   0   0   0   0   0   0   0   0   0   0   0   0   0   0 
  0   0   0   0   0   0   0   0   0   0   0   0   0   0   0   0   0   0 
  0   0   0   0   0   0   0   0   0   0   0   0   0   0   0   0   0   0 
  0   0   0   0   0   0   0   0   0   0   0   0   0   0   0   0   0   0 
  0   0   0   0   0   0   0   0   0   0   0   0   0   0   0   0   0   0 
  0   0   0   0   0   0   0   0   0   0   0   0   0   0   0   0   0   0 
  0   0   0   0   0   0   0   0   0   0   0   0   0   0   0   0   0   0 
  0   0   0   0   0   0   0   0   0   0   0   0   0   0   0   0   0   0 
  0   0   0   0   0   0   0   0   0   0   0   0   0   0   0   0   0   0 
  0   0   0   0   0   0   0   0   0   0   0   0   0   0   0   0   0   0 
  0   0   0   0   0   0   0   0   0   0   0   0   0   0   0   0   0   0 
  0   0   0   0   0   0   0   0   0   0   0   0   0   0   0   0   0   0 
  0   0   0   0   0   0   0   0   0   0   0   0   0   0   0   0   0   0 
  0   0   0   0   0   0   0   0   0   0   0   0   0   0   0   0   0   0 
  0   0   0   0   0   0   0   0   0   0   0   0   0   0   0   0   0   0 
  0   0   0   0   0   0   0   0   0   0   0   0   0   0   0   0   0   0 
  0   0   0   0   0   0   0   0   0   0   0   0   0   0   0   0   0   0 
  0   0   0   0   0   0   0   0   0   0   0   0   0   0   0   0   0   0 
  0   0   0   0   0   0   0   0   0   0   0   0   0   0   0   0   0   0 
  0   0   0   0   0   0   0   0   0   0   0   0   0   0   0   0   0   0 
  0   0   0   0   0   0   0   0   0   0   0   0   0   0   0   0   0   0 
  0   0   0   0   0   0   0   0   0   0   0   0   0   0   0   0   0   0 
  0   0   0   0   0   0   0   0   0   0   0   0   0   0   0   0   0   0 
  0   0   0   0   0   0   0   0   0   0   0   0   0   0   0   0   0   0 
  0   0   0   0   0   0   0   0   0   0   0   0   0   0   0   0   0   0 
  0   0   0   0   0   0   0   0   0   0   0   0   0   0   0   0   0   0 
  0   0   0   0   0   0   0   0   0   0   0   0   0   0   0   0   0   0 
  0   0   0   0   0   0   0   0   0   0   0   0   0   0   0   0   0   0 
  0   0   0   0   0   0   0   0   0   0   0   0   0   0   0   0   0   0 
  0   0   0   0   0   0   0   0   0   0   0   0   0   0   0   0   0   0 
  0   0   0   0   0   0   0   0   0   0   0   0   0   0   0   0   0   0 
  0   0   0   0   0   0   0   0   0   0   0   0   0   0   0   0   0   0 
  0   0   0   0   0   0   0   0   0   0   0   0   0   0   0   0   0   0 
  0   0   0   0   0   0   0   0   0   0   0   0   0   0   0   0   0   0 
  0   0   0   0   0   0   0   0   0   0   0   0   0   0   0   0   0   0 
  0   0   0   0   0   0   0   0   0   0   0   0   0   0   0   0   0   0 
  0   0   0   0   0   0   0   0   0   0   0   0   0   0   0   0   0   0 
  0   0   0   0   0   0   0   0   0   0   0   0   0   0   0   0   0   0 
  0   0   0   0   0   0   0   0   0   0   0   0   0   0   0   0   0   0 
  0   0   0   0   0   0   0   0   0   0   0   0   0   0   0   0   0   0 
  0   0   0   0   0   0   0   0   0   0   0   0   0   0   0   0   0   0 
  0   0   0   0   0   0   0   0   0   0   0   0   0   0   0   0   0   0 
  0   0   0   0   0   0   0   0   0   0   0   0   0   0   0   0   0   0 
  0   0   0   0   0   0   0   0   0   0   0   0   0   0   0   0   0   0 
  0   0   0   0   0   0   0   0   0   0   0   0   0   0   0   0   0   0 
  0   0   0   0   0   0   0   0   0   0   0   0   0   0   0   0   0   0 
  0   0   0   0   0   0   0   0   0   0   0   0   0   0   0   0   0   0 
  0   0   0   0   0   0   0   0   0   0   0   0   0   0   0   0   0   0 
  0   0   0   0   0   0   0   0   0   0   0   0   0   0   0   0   0   0 
  0   0   0   0   0   0   0   0   0   0   0   0   0   0   0   0   0   0 
  0   0   0   0   0   0   0   0   0   0   0   0   0   0   0   0   0   0 
  0   0   0   0   0   0   0   0   0   0   0   0   0   0   0   0   0   0 
  0   0   0   0   0   0   0   0   0   0   0   0   0   0   0   0   0   0 
  0   0   0   0   0   0   0   0   0   0   0   0   0   0   0   0   0   0 
  0   0   0   0   0   0   0   0   0   0   0   0   0   0   0   0   0   0 
  0   0   0   0   0   0   0   0   0   0   0   0   0   0   0   0   0   0 
  0   0   0   0   0   0   0   0   0   0   0   0   0   0   0   0   0   0 
  0   0   0   0   0   0   0   0   0   0   0   0   0   0   0   0   0   0 
  0   0   0   0   0   0   0   0   0   0   0   0   0   0   0   0   0   0 
  0   0   0   0   0   0   0   0   0   0   0   0   0   0   0   0   0   0 
  0   0   0   0   0   0   0   0   0   0   0   0   0   0   0   0   0   0 
  0   0   0   0   0   0   0   0   0   0   0   0   0   0   0   0   0   0 
  0   0   0   0   0   0   0   0   0   0   0   0   0   0   0   0   0   0 
  0   0   0   0   0   0   0   0   0   0   0   0   0   0   0   0   0   0 
  0   0   0   0   0   0   0   0   0   0   0   0   0   0   0   0   0   0 
  0   0   0   0   0   0   0   0   0   0   0   0   0   0   0   0   0   0 
  0   0   0   0   0   0   0   0   0   0   0   0   0   0   0   0   0   0 
  0   0   0   0   0   0   0   0   0   0   0   0   0   0   0   0   0   0 
  0   0   0   0   0   0   0   0   0   0   0   0   0   0   0   0   0   0 
  0   0   0   0   0   0   0   0   0   0   0   0   0   0   0   0   0   0 
  0   0   0   0   0   0   0   0   0   0   0   0   0   0   0   0   0   0 
  0   0   0   0   0   0   0   0   0   0   0   0   0   0   0   0   0   0 
  0   0   0   0   0   0   0   0   0   0   0   0   0   0   0   0   0   0 
  0   0   0   0   0   0   0   0   0   0   0   0   0   0   0   0   0   0 
  0   0   0   0   0   0   0   0   0   0   0   0   0   0   0   0   0   0 
  0   0   0   0   0   0   0   0   0   0   0   0   0   0   0   0   0   0 
  0   0   0   0   0   0   0   0   0   0   0   0   0   0   0   0   0   0 
  0   0   0   0   0   0   0   0   0   0   0   0   0   0   0   0   0   0 
  0   0   0   0   0   0   0   0   0   0   0   0   0   0   0   0   0   0 
  0   0   0   0   0   0   0   0   0   0   0   0   0   0   0   0   0   0 
  0   0   0   0   0   0   0   0   0   0   0   0   0   0   0   0   0   0 
  0   0   0   0   0   0   0   0   0   0   0   0   0   0   0   0   0   0 
  0   0   0   0   0   0   0   0   0   0   0   0   0   0   0   0   0   0 
  0   0   0   0   0   0   0   0   0   0   0   0   0   0   0   0   0   0 
  0   0   0   0   0   0   0   0   0   0   0   0   0   0   0   0   0   0 
  0   0   0   0   0   0   0   0   0   0   0   0   0   0   0   0   0   0 
  0   0   0   0   0   0   0   0   0   0   0   0   0   0   0   0   0   0 
  0   0   0   0   0   0   0   0   0   0   0   0   0   0   0   0   0   0 
  0   0   0   0   0   0   0   0   0   0   0   0   0   0   0   0   0   0 
  0   0   0   0   0   0   0   0   0   0   0   0   0   0   0   0   0   0 
  0   0   0   0   0   0   0   0   0   0   0   0   0   0   0   0   0   0 
  0   0   0   0   0   0   0   0   0   0   0   0   0   0   0   0   0   0 
  0   0   0   0   0   0   0   0   0   0   0   0   0   0   0   0   0   0 
  0   0   0   0   0   0   0   0   0   0   0   0   0   0   0   0   0   0 
  0   0   0   0   0   0   0   0   0   0   0   0   0   0   0   0   0   0 
  0   0   0   0   0   0   0   0   0   0   0   0   0   0   0   0   0   0 
  0   0   0   0   0   0   0   0   0   0   0   0   0   0   0   0   0   0 
  0   0   0   0   0   0   0   0   0   0   0   0   0   0   0   0   0   0 
  0   0   0   0   0   0   0   0   0   0   0   0   0   0   0   0   0   0 
  0   0   0   0   0   0   0   0   0   0   0   0   0   0   0   0   0   0 
  0   0   0   0   0   0   0   0   0   0   0   0   0   0   0   0   0   0 
  0   0   0   0   0   0   0   0   0   0   0   0   0   0   0   0   0   0 
  0   0   0   0   0   0   0   0   0   0   0   0   0   0   0   0   0   0 
  0   0   0   0   0   0   0   0   0   0   0   0   0   0   0   0   0   0 
  0   0   0   0   0   0   0   0   0   0   0   0   0   0   0   0   0   0 
  0   0   0   0   0   0   0   0   0   0   0   0   0   0   0   0   0   0 
  0   0   0   0   0   0   0   0   0   0   0   0   0   0   0   0   0   0 
  0   0   0   0   0   0   0   0   0   0   0   0   0   0   0   0   0   0 
  0   0   0   0   0   0   0   0   0   0   0   0   0   0   0   0   0   0 
  0   0   0   0   0   0   0   0   0   0   0   0   0   0   0   0   0   0 
  0   0   0   0   0   0   0   0   0   0   0   0   0   0   0   0   0   0 
  0   0   0   0   0   0   0   0   0   0   0   0   0   0   0   0   0   0 
  0   0   0   0   0   0   0   0   0   0   0   0   0   0   0   0   0   0 
  0   0   0   0   0   0   0   0   0   0   0   0   0   0   0   0   0   0 
  0   0   0   0   0   0   0   0   0   0   0   0   0   0   0   0   0   0 
  0   0   0   0   0   0   0   0   0   0   0   0   0   0   0   0   0   0 
  0   0   0   0   0   0   0   0   0   0   0   0   0   0   0   0   0   0 
  0   0   0   0   0   0   0   0   0   0   0   0   0   0   0   0   0   0 
  0   0   0   0   0   0   0   0   0   0   0   0   0   0   0   0   0   0 
  0   0   0   0   0   0   0   0   0   0   0   0   0   0   0   0   0   0 
  0   0   0   0   0   0   0   0   0   0   0   0   0   0   0   0   0   0 
  0   0   0   0   0   0   0   0   0   0   0   0   0   0   0   0   0   0 
  0   0   0   0   0   0   0   0   0   0   0   0   0   0   0   0   0   0 
  0   0   0   0   0   0   0   0   0   0   0   0   0   0   0   0   0   0 
  0   0   0   0   0   0   0   0   0   0   0   0   0   0   0   0   0   0 
  0   0   0   0   0   0   0   0   0   0   0   0   0   0   0   0   0   0 
  0   0   0   0   0   0   0   0   0   0   0   0   0   0   0   0   0   0 
  0   0   0   0   0   0   0   0   0   0   0   0   0   0   0   0   0   0 
  0   0   0   0   0   0   0   0   0   0   0   0   0   0   0   0   0   0 
  0   0   0   0   0   0   0   0   0   0   0   0   0   0   0   0   0   0 
  0   0   0   0   0   0   0   0   0   0   0   0   0   0   0   0   0   0 
  0   0   0   0   0   0   0   0   0   0   0   0   0   0   0   0   0   0 
  0   0   0   0   0   0   0   0   0   0   0   0   0   0   0   0   0   0 
  0   0   0   0   0   0   0   0   0   0   0   0   0   0   0   0   0   0 
  0   0   0   0   0   0   0   0   0   0   0   0   0   0   0   0   0   0 
  0   0   0   0   0   0   0   0   0   0   0   0   0   0   0   0   0   0 
  0   0   0   0   0   0   0   0   0   0   0   0   0   0   0   0   0   0 
  0   0   0   0   0   0   0   0   0   0   0   0   0   0   0   0   0   0 
  0   0   0   0   0   0   0   0   0   0   0   0   0   0   0   0   0   0 
  0   0   0   0   0   0   0   0   0   0   0   0   0   0   0   0   0   0 
  0   0   0   0   0   0   0   0   0   0   0   0   0   0   0   0   0   0 
  0   0   0   0   0   0   0   0   0   0   0   0   0   0   0   0   0   0 
  0   0   0   0   0   0   0   0   0   0   0   0   0   0   0   0   0   0 
  0   0   0   0   0   0   0   0   0   0   0   0   0   0   0   0   0   0 
  0   0   0   0   0   0   0   0   0   0   0   0   0   0   0   0   0   0 
  0   0   0   0   0   0   0   0   0   0   0   0   0   0   0   0   0   0 
  0   0   0   0   0   0   0   0   0   0   0   0   0   0   0   0   0   0 
  0   0   0   0   0   0   0   0   0   0   0   0   0   0   0   0   0   0 
  0   0   0   0   0   0   0   0   0   0   0   0   0   0   0   0   0   0 
  0   0   0   0   0   0   0   0   0   0   0   0   0   0   0   0   0   0 
  0   0   0   0   0   0   0   0   0   0   0   0   0   0   0   0   0   0 
  0   0   0   0   0   0   0   0   0   0   0   0   0   0   0   0   0   0 
  0   0   0   0   0   0   0   0   0   0   0   0   0   0   0   0   0   0 
  0   0   0   0   0   0   0   0   0   0   0   0   0   0   0   0   0   0 
  0   0   0   0   0   0   0   0   0   0   0   0   0   0   0   0   0   0 
  0   0   0   0   0   0   0   0   0   0   0   0   0   0   0   0   0   0 
  0   0   0   0   0   0   0   0   0   0   0   0   0   0   0   0   0   0 
  0   0   0   0   0   0   0   0   0   0   0   0   0   0   0   0   0   0 
  0   0   0   0   0   0   0   0   0   0   0   0   0   0   0   0   0   0 
  0   0   0   0   0   0   0   0   0   0   0   0   0   0   0   0   0   0 
  0   0   0   0   0   0   0   0   0   0   0   0   0   0   0   0   0   0 
  0   0   0   0   0   0   0   0   0   0   0   0   0   0   0   0   0   0 
  0   0   0   0   0   0   0   0   0   0   0   0   0   0   0   0   0   0 
  0   0   0   0   0   0   0   0   0   0   0   0   0   0   0   0   0   0 
  0   0   0   0   0   0   0   0   0   0   0   0   0   0   0   0   0   0 
  0   0   0   0   0   0   0   0   0   0   0   0   0   0   0   0   0   0 
  0   0   0   0   0   0   0   0   0   0   0   0   0   0   0   0   0   0 
  0   0   0   0   0   0   0   0   0   0   0   0   0   0   0   0   0   0 
  0   0   0   0   0   0   0   0   0   0   0   0   0   0   0   0   0   0 
  0   0   0   0   0   0   0   0   0   0   0   0   0   0   0   0   0   0 
  0   0   0   0   0   0   0   0   0   0   0   0   0   0   0   0   0   0 
  0   0   0   0   0   0   0   0   0   0   0   0   0   0   0   0   0   0 
  0   0   0   0   0   0   0   0   0   0   0   0   0   0   0   0   0   0 
  0   0   0   0   0   0   0   0   0   0   0   0   0   0   0   0   0   0 
  0   0   0   0   0   0   0   0   0   0   0   0   0   0   0   0   0   0 
  0   0   0   0   0   0   0   0   0   0   0   0   0   0   0   0   0   0 
  0   0   0   0   0   0   0   0   0   0   0   0   0   0   0   0   0   0 
  0   0   0   0   0   0   0   0   0   0   0   0   0   0   0   0   0   0 
  0   0   0   0   0   0   0   0   0   0   0   0   0   0   0   0   0   0 
  0   0   0   0   0   0   0   0   0   0   0   0   0   0   0   0   0   0 
  0   0   0   0   0   0   0   0   0   0   0   0   0   0   0   0   0   0 
  0   0   0   0   0   0   0   0   0   0   0   0   0   0   0   0   0   0 
  0   0   0   0   0   0   0   0   0   0   0   0   0   0   0   0   0   0 
  0   0   0   0   0   0   0   0   0   0   0   0   0   0   0   0   0   0 
  0   0   0   0   0   0   0   0   0   0   0   0   0   0   0   0   0   0 
  0   0   0   0   0   0   0   0   0   0   0   0   0   0   0   0   0   0 
  0   0   0   0   0   0   0   0   0   0   0   0   0   0   0   0   0   0 
  0   0   0   0   0   0   0   0   0   0   0   0   0   0   0   0   0   0 
  0   0   0   0   0   0   0   0   0   0   0   0   0   0   0   0   0   0 
  0   0   0   0   0   0   0   0   0   0   0   0   0   0   0   0   0   0 
  0   0   0   0   0   0   0   0   0   0   0   0   0   0   0   0   0   0 
  0   0   0   0   0   0   0   0   0   0   0   0   0   0   0   0   0   0 
  0   0   0   0   0   0   0   0   0   0   0   0   0   0   0   0   0   0 
  0   0   0   0   0   0   0   0   0   0   0   0   0   0   0   0   0   0 
  0   0   0   0   0   0   0   0   0   0   0   0   0   0   0   0   0   0 
  0   0   0   0   0   0   0   0   0   0   0   0   0   0   0   0   0   0 
  0   0   0   0   0   0   0   0   0   0   0   0   0   0   0   0   0   0 
  0   0   0   0   0   0   0   0   0   0   0   0   0   0   0   0   0   0 
  0   0   0   0   0   0   0   0   0   0   0   0   0   0   0   0   0   0 
  0   0   0   0   0   0   0   0   0   0   0   0   0   0   0   0   0   0 
  0   0   0   0   0   0   0   0   0   0   0   0   0   0   0   0   0   0 
  0   0   0   0   0   0   0   0   0   0   0   0   0   0   0   0   0   0 
  0   0   0   0   0   0   0   0   0   0   0   0   0   0   0   0   0   0 
  0   0   0   0   0   0   0   0   0   0   0   0   0   0   0   0   0   0 
  0   0   0   0   0   0   0   0   0   0   0   0   0   0   0   0   0   0 
  0   0   0   0   0   0   0   0   0   0   0   0   0   0   0   0   0   0 
  0   0   0   0   0   0   0   0   0   0   0   0   0   0   0   0   0   0 
  0   0   0   0   0   0   0   0   0   0   0   0   0   0   0   0   0   0 
  0   0   0   0   0   0   0   0   0   0   0   0   0   0   0   0   0   0 
  0   0   0   0   0   0   0   0   0   0   0   0   0   0   0   0   0   0 
  0   0   0   0   0   0   0   0   0   0   0   0   0   0   0   0   0   0 
  0   0   0   0   0   0   0   0   0   0   0   0   0   0   0   0   0   0 
  0   0   0   0   0   0   0   0   0   0   0   0   0   0   0   0   0   0 
  0   0   0   0   0   0   0   0   0   0   0   0   0   0   0   0   0   0 
  0   0   0   0   0   0   0   0   0   0   0   0   0   0   0   0   0   0 
  0   0   0   0   0   0   0   0   0   0   0   0   0   0   0   0   0   0 
  0   0   0   0   0   0   0   0   0   0   0   0   0   0   0   0   0   0 
  0   0   0   0   0   0   0   0   0   0   0   0   0   0   0   0   0   0 
  0   0   0   0   0   0   0   0   0   0   0   0   0   0   0   0   0   0 
  0   0   0   0   0   0   0   0   0   0   0   0   0   0   0   0   0   0 
  0   0   0   0   0   0   0   0   0   0   0   0   0   0   0   0   0   0 
  0   0   0   0   0   0   0   0   0   0   0   0   0   0   0   0   0   0 
  0   0   0   0   0   0   0   0   0   0   0   0   0   0   0   0   0   0 
  0   0   0   0   0   0   0   0   0   0   0   0   0   0   0   0   0   0 
  0   0   0   0   0   0   0   0   0   0   0   0   0   0   0   0   0   0 
  0   0   0   0   0   0   0   0   0   0   0   0   0   0   0   0   0   0 
  0   0   0   0   0   0   0   0   0   0   0   0   0   0   0   0   0   0 
  0   0   0   0   0   0   0   0   0   0   0   0   0   0   0   0   0   0 
  0   0   0   0   0   0   0   0   0   0   0   0   0   0   0   0   0   0 
  0   0   0   0   0   0   0   0   0   0   0   0   0   0   0   0   0   0 
  0   0   0   0   0   0   0   0   0   0   0   0   0   0   0   0   0   0 
  0   0   0   0   0   0   0   0   0   0   0   0   0   0   0   0   0   0 
  0   0   0   0   0   0   0   0   0   0   0   0   0   0   0   0   0   0 
  0   0   0   0   0   0   0   0   0   0   0   0   0   0   0   0   0   0 
  0   0   0   0   0   0   0   0   0   0   0   0   0   0   0   0   0   0 
  0   0   0   0   0   0   0   0   0   0   0   0   0   0   0   0   0   0 
  0   0   0   0   0   0   0   0   0   0   0   0   0   0   0   0   0   0 
  0   0   0   0   0   0   0   0   0   0   0   0   0   0   0   0   0   0 
  0   0   0   0   0   0   0   0   0   0   0   0   0   0   0   0   0   0 
  0   0   0   0   0   0   0   0   0   0   0   0   0   0   0   0   0   0 
  0   0   0   0   0   0   0   0   0   0   0   0   0   0   0   0   0   0 
  0   0   0   0   0   0   0   0   0   0   0   0   0   0   0   0   0   0 
  0   0   0   0   0   0   0   0   0   0   0   0   0   0   0   0   0   0 
  0   0   0   0   0   0   0   0   0   0   0   0   0   0   0   0   0   0 
  0   0   0   0   0   0   0   0   0   0   0   0   0   0   0   0   0   0 
  0   0   0   0   0   0   0   0   0   0   0   0   0   0   0   0   0   0 
  0   0   0   0   0   0   0   0   0   0   0   0   0   0   0   0   0   0 
  0   0   0   0   0   0   0   0   0   0   0   0   0   0   0   0   0   0 
  0   0   0   0   0   0   0   0   0   0   0   0   0   0   0   0   0   0 
  0   0   0   0   0   0   0   0   0   0   0   0   0   0   0   0   0   0 
  0   0   0   0   0   0   0   0   0   0   0   0   0   0   0   0   0   0 
  0   0   0   0   0   0   0   0   0   0   0   0   0   0   0   0   0   0 
  0   0   0   0   0   0   0   0   0   0   0   0   0   0   0   0   0   0 
  0   0   0   0   0   0   0   0   0   0   0   0   0   0   0   0   0   0 
  0   0   0   0   0   0   0   0   0   0   0   0   0   0   0   0   0   0 
  0   0   0   0   0   0   0   0   0   0   0   0   0   0   0   0   0   0 
  0   0   0   0   0   0   0   0   0   0   0   0   0   0   0   0   0   0 
  0   0   0   0   0   0   0   0   0   0   0   0   0   0   0   0   0   0 
  0   0   0   0   0   0   0   0   0   0   0   0   0   0   0   0   0   0 
  0   0   0   0   0   0   0   0   0   0   0   0   0   0   0   0   0   0 
  0   0   0   0   0   0   0   0   0   0   0   0   0   0   0   0   0   0 
  0   0   0   0   0   0   0   0   0   0   0   0   0   0   0   0   0   0 
  0   0   0   0   0   0   0   0   0   0   0   0   0   0   0   0   0   0 
  0   0   0   0   0   0   0   0   0   0   0   0   0   0   0   0   0   0 
  0   0   0   0   0   0   0   0   0   0   0   0   0   0   0   0   0   0 
  0   0   0   0   0   0   0   0   0   0   0   0   0   0   0   0   0   0 
  0   0   0   0   0   0   0   0   0   0   0   0   0   0   0   0   0   0 
  0   0   0   0   0   0   0   0   0   0   0   0   0   0   0   0   0   0 
  0   0   0   0   0   0   0   0   0   0   0   0   0   0   0   0   0   0 
  0   0   0   0   0   0   0   0   0   0   0   0   0   0   0   0   0   0 
  0   0   0   0   0   0   0   0   0   0   0   0   0   0   0   0   0   0 
  0   0   0   0   0   0   0   0   0   0   0   0   0   0   0   0   0   0 
  0   0   0   0   0   0   0   0   0   0   0   0   0   0   0   0   0   0 
  0   0   0   0   0   0   0   0   0   0   0   0   0   0   0   0   0   0 
  0   0   0   0   0   0   0   0   0   0   0   0   0   0   0   0   0   0 
  0   0   0   0   0   0   0   0   0   0   0   0   0   0   0   0   0   0 
  0   0   0   0   0   0   0   0   0   0   0   0   0   0   0   0   0   0 
  0   0   0   0   0   0   0   0   0   0   0   0   0   0   0   0   0   0 
  0   0   0   0   0   0   0   0   0   0   0   0   0   0   0   0   0   0 
  0   0   0   0   0   0   0   0   0   0   0   0   0   0   0   0   0   0 
  0   0   0   0   0   0   0   0   0   0   0   0   0   0   0   0   0   0 
  0   0   0   0   0   0   0   0   0   0   0   0   0   0   0   0   0   0 
  0   0   0   0   0   0   0   0   0   0   0   0   0   0   0   0   0   0 
  0   0   0   0   0   0   0   0   0   0   0   0   0   0   0   0   0   0 
  0   0   0   0   0   0   0   0   0   0   0   0   0   0   0   0   0   0 
  0   0   0   0   0   0   0   0   0   0   0   0   0   0   0   0   0   0 
  0   0   0   0   0   0   0   0   0   0   0   0   0   0   0   0   0   0 
  0   0   0   0   0   0   0   0   0   0   0   0   0   0   0   0   0   0 
  0   0   0   0   0   0   0   0   0   0   0   0   0   0   0   0   0   0 
  0   0   0   0   0   0   0   0   0   0   0   0   0   0   0   0   0   0 
  0   0   0   0   0   0   0   0   0   0   0   0   0   0   0   0   0   0 
  0   0   0   0   0   0   0   0   0   0   0   0   0   0   0   0   0   0 
  0   0   0   0   0   0   0   0   0   0   0   0   0   0   0   0   0   0 
  0   0   0   0   0   0   0   0   0   0   0   0   0   0   0   0   0   0 
  0   0   0   0   0   0   0   0   0   0   0   0   0   0   0   0   0   0 
  0   0   0   0   0   0   0   0   0   0   0   0   0   0   0   0   0   0 
  0   0   0   0   0   0   0   0   0   0   0   0   0   0   0   0   0   0 
  0   0   0   0   0   0   0   0   0   0   0   0   0   0   0   0   0   0 
  0   0   0   0   0   0   0   0   0   0   0   0   0   0   0   0   0   0 
  0   0   0   0   0   0   0   0   0   0   0   0   0   0   0   0   0   0 
  0   0   0   0   0   0   0   0   0   0   0   0   0   0   0   0   0   0 
  0   0   0   0   0   0   0   0   0   0   0   0   0   0   0   0   0   0 
  0   0   0   0   0   0   0   0   0   0   0   0   0   0   0   0   0   0 
  0   0   0   0   0   0   0   0   0   0   0   0   0   0   0   0   0   0 
  0   0   0   0   0   0   0   0   0   0   0   0   0   0   0   0   0   0 
  0   0   0   0   0   0   0   0   0   0   0   0   0   0   0   0   0   0 
  0   0   0   0   0   0   0   0   0   0   0   0   0   0   0   0   0   0 
  0   0   0   0   0   0   0   0   0   0   0   0   0   0   0   0   0   0 
  0   0   0   0   0   0   0   0   0   0   0   0   0   0   0   0   0   0 
  0   0   0   0   0   0   0   0   0   0   0   0   0   0   0   0   0   0 
  0   0   0   0   0   0   0   0   0   0   0   0   0   0   0   0   0   0 
  0   0   0   0   0   0   0   0   0   0   0   0   0   0   0   0   0   0 
  0   0   0   0   0   0   0   0   0   0   0   0   0   0   0   0   0   0 
  0   0   0   0   0   0   0   0   0   0   0   0   0   0   0   0   0   0 
  0   0   0   0   0   0   0   0   0   0   0   0   0   0   0   0   0   0 
  0   0   0   0   0   0   0   0   0   0   0   0   0   0   0   0   0   0 
  0   0   0   0   0   0   0   0   0   0   0   0   0   0   0   0   0   0 
  0   0   0   0   0   0   0   0   0   0   0   0   0   0   0   0   0   0 
  0   0   0   0   0   0   0   0   0   0   0   0   0   0   0   0   0   0 
  0   0   0   0   0   0   0   0   0   0   0   0   0   0   0   0   0   0 
  0   0   0   0   0   0   0   0   0   0   0   0   0   0   0   0   0   0 
  0   0   0   0   0   0   0   0   0   0   0   0   0   0   0   0   0   0 
  0   0   0   0   0   0   0   0   0   0   0   0   0   0   0   0   0   0 
  0   0   0   0   0   0   0   0   0   0   0   0   0   0   0   0   0   0 
  0   0   0   0   0   0   0   0   0   0   0   0   0   0   0   0   0   0 
  0   0   0   0   0   0   0   0   0   0   0   0   0   0   0   0   0   0 
  0   0   0   0   0   0   0   0   0   0   0   0   0   0   0   0   0   0 
  0   0   0   0   0   0   0   0   0   0   0   0   0   0   0   0   0   0 
  0   0   0   0   0   0   0   0   0   0   0   0   0   0   0   0   0   0 
  0   0   0   0   0   0   0   0   0   0   0   0   0   0   0   0   0   0 
  0   0   0   0   0   0   0   0   0   0   0   0   0   0   0   0   0   0 
  0   0   0   0   0   0   0   0   0   0   0   0   0   0   0   0   0   0 
  0   0   0   0   0   0   0   0   0   0   0   0   0   0   0   0   0   0 
  0   0   0   0   0   0   0   0   0   0   0   0   0   0   0   0   0   0 
  0   0   0   0   0   0   0   0   0   0   0   0   0   0   0   0   0   0 
  0   0   0   0   0   0   0   0   0   0   0   0   0   0   0   0   0   0 
  0   0   0   0   0   0   0   0   0   0   0   0   0   0   0   0   0   0 
  0   0   0   0   0   0   0   0   0   0   0   0   0   0   0   0   0   0 
  0   0   0   0   0   0   0   0   0   0   0   0   0   0   0   0   0   0 
  0   0   0   0   0   0   0   0   0   0   0   0   0   0   0   0   0   0 
  0   0   0   0   0   0   0   0   0   0   0   0   0   0   0   0   0   0 
  0   0   0   0   0   0   0   0   0   0   0   0   0   0   0   0   0   0 
  0   0   0   0   0   0   0   0   0   0   0   0   0   0   0   0   0   0 
  0   0   0   0   0   0   0   0   0   0   0   0   0   0   0   0   0   0 
  0   0   0   0   0   0   0   0   0   0   0   0   0   0   0   0   0   0 
  0   0   0   0   0   0   0   0   0   0   0   0   0   0   0   0   0   0 
  0   0   0   0   0   0   0   0   0   0   0   0   0   0   0   0   0   0 
  0   0   0   0   0   0   0   0   0   0   0   0   0   0   0   0   0   0 
  0   0   0   0   0   0   0   0   0   0   0   0   0   0   0   0   0   0 
  0   0   0   0   0   0   0   0   0   0   0   0   0   0   0   0   0   0 
  0   0   0   0   0   0   0   0   0   0   0   0   0   0   0   0   0   0 
  0   0   0   0   0   0   0   0   0   0   0   0   0   0   0   0   0   0 
  0   0   0   0   0   0   0   0   0   0   0   0   0   0   0   0   0   0 
  0   0   0   0   0   0   0   0   0   0   0   0   0   0   0   0   0   0 
  0   0   0   0   0   0   0   0   0   0   0   0   0   0   0   0   0   0 
  0   0   0   0   0   0   0   0   0   0   0   0   0   0   0   0   0   0 
  0   0   0   0   0   0   0   0   0   0   0   0   0   0   0   0   0   0 
  0   0   0   0   0   0   0   0   0   0   0   0   0   0   0   0   0   0 
  0   0   0   0   0   0   0   0   0   0   0   0   0   0   0   0   0   0 
  0   0   0   0   0   0   0   0   0   0   0   0   0   0   0   0   0   0 
  0   0   0   0   0   0   0   0   0   0   0   0   0   0   0   0   0   0 
  0   0   0   0   0   0   0   0   0   0   0   0   0   0   0   0   0   0 
  0   0   0   0   0   0   0   0   0   0   0   0   0   0   0   0   0   0 
  0   0   0   0   0   0   0   0   0   0   0   0   0   0   0   0   0   0 
  0   0   0   0   0   0   0   0   0   0   0   0   0   0   0   0   0   0 
  0   0   0   0   0   0   0   0   0   0   0   0   0   0   0   0   0   0 
  0   0   0   0   0   0   0   0   0   0   0   0   0   0   0   0   0   0 
  0   0   0   0   0   0   0   0   0   0   0   0   0   0   0   0   0   0 
  0   0   0   0   0   0   0   0   0   0   0   0   0   0   0   0   0   0 
  0   0   0   0   0   0   0   0   0   0   0   0   0   0   0   0   0   0 
  0   0   0   0   0   0   0   0   0   0   0   0   0   0   0   0   0   0 
  0   0   0   0   0   0   0   0   0   0   0   0   0   0   0   0   0   0 
  0   0   0   0   0   0   0   0   0   0   0   0   0   0   0   0   0   0 
  0   0   0   0   0   0   0   0   0   0   0   0   0   0   0   0   0   0 
  0   0   0   0   0   0   0   0   0   0   0   0   0   0   0   0   0   0 
  0   0   0   0   0   0   0   0   0   0   0   0   0   0   0   0   0   0 
  0   0   0   0   0   0   0   0   0   0   0   0   0   0   0   0   0   0 
  0   0   0   0   0   0   0   0   0   0   0   0   0   0   0   0   0   0 
  0   0   0   0   0   0   0   0   0   0   0   0   0   0   0   0   0   0 
  0   0   0   0   0   0   0   0   0   0   0   0   0   0   0   0   0   0 
  0   0   0   0   0   0   0   0   0   0   0   0   0   0   0   0   0   0 
  0   0   0   0   0   0   0   0   0   0   0   0   0   0   0   0   0   0 
  0   0   0   0   0   0   0   0   0   0   0   0   0   0   0   0   0   0 
  0   0   0   0   0   0   0   0   0   0   0   0   0   0   0   0   0   0 
  0   0   0   0   0   0   0   0   0   0   0   0   0   0   0   0   0   0 
  0   0   0   0   0   0   0   0   0   0   0   0   0   0   0   0   0   0 
  0   0   0   0   0   0   0   0   0   0   0   0   0   0   0   0   0   0 
  0   0   0   0   0   0   0   0   0   0   0   0   0   0   0   0   0   0 
  0   0   0   0   0   0   0   0   0   0   0   0   0   0   0   0   0   0 
  0   0   0   0   0   0   0   0   0   0   0   0   0   0   0   0   0   0 
  0   0   0   0   0   0   0   0   0   0   0   0   0   0   0   0   0   0 
  0   0   0   0   0   0   0   0   0   0   0   0   0   0   0   0   0   0 
  0   0   0   0   0   0   0   0   0   0   0   0   0   0   0   0   0   0 
  0   0   0   0   0   0   0   0   0   0   0   0   0   0   0   0   0   0 
  0   0   0   0   0   0   0   0   0   0   0   0   0   0   0   0   0   0 
  0   0   0   0   0   0   0   0   0   0   0   0   0   0   0   0   0   0 
  0   0   0   0   0   0   0   0   0   0   0   0   0   0   0   0   0   0 
  0   0   0   0   0   0   0   0   0   0   0   0   0   0   0   0   0   0 
  0   0   0   0   0   0   0   0   0   0   0   0   0   0   0   0   0   0 
  0   0   0   0   0   0   0   0   0   0   0   0   0   0   0   0   0   0 
  0   0   0   0   0   0   0   0   0   0   0   0   0   0   0   0   0   0 
  0   0   0   0   0   0   0   0   0   0   0   0   0   0   0   0   0   0 
  0   0   0   0   0   0   0   0   0   0   0   0   0   0   0   0   0   0 
  0   0   0   0   0   0   0   0   0   0   0   0   0   0   0   0   0   0 
  0   0   0   0   0   0   0   0   0   0   0   0   0   0   0   0   0   0 
  0   0   0   0   0   0   0   0   0   0   0   0   0   0   0   0   0   0 
  0   0   0   0   0   0   0   0   0   0   0   0   0   0   0   0   0   0 
  0   0   0   0   0   0   0   0   0   0   0   0   0   0   0   0   0   0 
  0   0   0   0   0   0   0   0   0   0   0   0   0   0   0   0   0   0 
  0   0   0   0   0   0   0   0   0   0   0   0   0   0   0   0   0   0 
  0   0   0   0   0   0   0   0   0   0   0   0   0   0   0   0   0   0 
  0   0   0   0   0   0   0   0   0   0   0   0   0   0   0   0   0   0 
  0   0   0   0   0   0   0   0   0   0   0   0   0   0   0   0   0   0 
  0   0   0   0   0   0   0   0   0   0   0   0   0   0   0   0   0   0 
  0   0   0   0   0   0   0   0   0   0   0   0   0   0   0   0   0   0 
  0   0   0   0   0   0   0   0   0   0   0   0   0   0   0   0   0   0 
  0   0   0   0   0   0   0   0   0   0   0   0   0   0   0   0   0   0 
  0   0   0   0   0   0   0   0   0   0   0   0   0   0   0   0   0   0 
  0   0   0   0   0   0   0   0   0   0   0   0   0   0   0   0   0   0 
  0   0   0   0   0   0   0   0   0   0   0   0   0   0   0   0   0   0 
  0   0   0   0   0   0   0   0   0   0   0   0   0   0   0   0   0   0 
  0   0   0   0   0   0   0   0   0   0   0   0   0   0   0   0   0   0 
  0   0   0   0   0   0   0   0   0   0   0   0   0   0   0   0   0   0 
  0   0   0   0   0   0   0   0   0   0   0   0   0   0   0   0   0   0 
  0   0   0   0   0   0   0   0   0   0   0   0   0   0   0   0   0   0 
  0   0   0   0   0   0   0   0   0   0   0   0   0   0   0   0   0   0 
  0   0   0   0   0   0   0   0   0   0   0   0   0   0   0   0   0   0 
  0   0   0   0   0   0   0   0   0   0   0   0   0   0   0   0   0   0 
  0   0   0   0   0   0   0   0   0   0   0   0   0   0   0   0   0   0 
  0   0   0   0   0   0   0   0   0   0   0   0   0   0   0   0   0   0 
  0   0   0   0   0   0   0   0   0   0   0   0   0   0   0   0   0   0 
  0   0   0   0   0   0   0   0   0   0   0   0   0   0   0   0   0   0 
  0   0   0   0   0   0   0   0   0   0   0   0   0   0   0   0   0   0 
  0   0   0   0   0   0   0   0   0   0   0   0   0   0   0   0   0   0 
  0   0   0   0   0   0   0   0   0   0   0   0   0   0   0   0   0   0 
  0   0   0   0   0   0   0   0   0   0   0   0   0   0   0   0   0   0 
  0   0   0   0   0   0   0   0   0   0   0   0   0   0   0   0   0   0 
  0   0   0   0   0   0   0   0   0   0   0   0   0   0   0   0   0   0 
  0   0   0   0   0   0   0   0   0   0   0   0   0   0   0   0   0   0 
  0   0   0   0   0   0   0   0   0   0   0   0   0   0   0   0   0   0 
  0   0   0   0   0   0   0   0   0   0   0   0   0   0   0   0   0   0 
  0   0   0   0   0   0   0   0   0   0   0   0   0   0   0   0   0   0 
  0   0   0   0   0   0   0   0   0   0   0   0   0   0   0   0   0   0 
  0   0   0   0   0   0   0   0   0   0   0   0   0   0   0   0   0   0 
  0   0   0   0   0   0   0   0   0   0   0   0   0   0   0   0   0   0 
  0   0   0   0   0   0   0   0   0   0   0   0   0   0   0   0   0   0 
  0   0   0   0   0   0   0   0   0   0   0   0   0   0   0   0   0   0 
  0   0   0   0   0   0   0   0   0   0   0   0   0   0   0   0   0   0 
  0   0   0   0   0   0   0   0   0   0   0   0   0   0   0   0   0   0 
  0   0   0   0   0   0   0   0   0   0   0   0   0   0   0   0   0   0 
  0   0   0   0   0   0   0   0   0   0   0   0   0   0   0   0   0   0 
  0   0   0   0   0   0   0   0   0   0   0   0   0   0   0   0   0   0 
  0   0   0   0   0   0   0   0   0   0   0   0   0   0   0   0   0   0 
  0   0   0   0   0   0   0   0   0   0   0   0   0   0   0   0   0   0 
  0   0   0   0   0   0   0   0   0   0   0   0   0   0   0   0   0   0 
  0   0   0   0   0   0   0   0   0   0   0   0   0   0   0   0   0   0 
  0   0   0   0   0   0   0   0   0   0   0   0   0   0   0   0   0   0 
  0   0   0   0   0   0   0   0   0   0   0   0   0   0   0   0   0   0 
  0   0   0   0   0   0   0   0   0   0   0   0   0   0   0   0   0   0 
  0   0   0   0   0   0   0   0   0   0   0   0   0   0   0   0   0   0 
  0   0   0   0   0   0   0   0   0   0   0   0   0   0   0   0   0   0 
  0   0   0   0   0   0   0   0   0   0   0   0   0   0   0   0   0   0 
  0   0   0   0   0   0   0   0   0   0   0   0   0   0   0   0   0   0 
  0   0   0   0   0   0   0   0   0   0   0   0   0   0   0   0   0   0 
  0   0   0   0   0   0   0   0   0   0   0   0   0   0   0   0   0   0 
  0   0   0   0   0   0   0   0   0   0   0   0   0   0   0   0   0   0 
  0   0   0   0   0   0   0   0   0   0   0   0   0   0   0   0   0   0 
  0   0   0   0   0   0   0   0   0   0   0   0   0   0   0   0   0   0 
  0   0   0   0   0   0   0   0   0   0   0   0   0   0   0   0   0   0 
  0   0   0   0   0   0   0   0   0   0   0   0   0   0   0   0   0   0 
  0   0   0   0   0   0   0   0   0   0   0   0   0   0   0   0   0   0 
  0   0   0   0   0   0   0   0   0   0   0   0   0   0   0   0   0   0 
  0   0   0   0   0   0   0   0   0   0   0   0   0   0   0   0   0   0 
  0   0   0   0   0   0   0   0   0   0   0   0   0   0   0   0   0   0 
  0   0   0   0   0   0   0   0   0   0   0   0   0   0   0   0   0   0 
  0   0   0   0   0   0   0   0   0   0   0   0   0   0   0   0   0   0 
  0   0   0   0   0   0   0   0   0   0   0   0   0   0   0   0   0   0 
  0   0   0   0   0   0   0   0   0   0   0   0   0   0   0   0   0   0 
  0   0   0   0   0   0   0   0   0   0   0   0   0   0   0   0   0   0 
  0   0   0   0   0   0   0   0   0   0   0   0   0   0   0   0   0   0 
  0   0   0   0   0   0   0   0   0   0   0   0   0   0   0   0   0   0 
  0   0   0   0   0   0   0   0   0   0   0   0   0   0   0   0   0   0 
  0   0   0   0   0   0   0   0   0   0   0   0   0   0   0   0   0   0 
  0   0   0   0   0   0   0   0   0   0   0   0   0   0   0   0   0   0 
  0   0   0   0   0   0   0   0   0   0   0   0   0   0   0   0   0   0 
  0   0   0   0   0   0   0   0   0   0   0   0   0   0   0   0   0   0 
  0   0   0   0   0   0   0   0   0   0   0   0   0   0   0   0   0   0 
  0   0   0   0   0   0   0   0   0   0   0   0   0   0   0   0   0   0 
  0   0   0   0   0   0   0   0   0   0   0   0   0   0   0   0   0   0 
  0   0   0   0   0   0   0   0   0   0   0   0   0   0   0   0   0   0 
  0   0   0   0   0   0   0   0   0   0   0   0   0   0   0   0   0   0 
  0   0   0   0   0   0   0   0   0   0   0   0   0   0   0   0   0   0 
  0   0   0   0   0   0   0   0   0   0   0   0   0   0   0   0   0   0 
  0   0   0   0   0   0   0   0   0   0   0   0   0   0   0   0   0   0 
  0   0   0   0   0   0   0   0   0   0   0   0   0   0   0   0   0   0 
  0   0   0   0   0   0   0   0   0   0   0   0   0   0   0   0   0   0 
  0   0   0   0   0   0   0   0   0   0   0   0   0   0   0   0   0   0 
  0   0   0   0   0   0   0   0   0   0   0   0   0   0   0   0   0   0 
  0   0   0   0   0   0   0   0   0   0   0   0   0   0   0   0   0   0 
  0   0   0   0   0   0   0   0   0   0   0   0   0   0   0   0   0   0 
  0   0   0   0   0   0   0   0   0   0   0   0   0   0   0   0   0   0 
  0   0   0   0   0   0   0   0   0   0   0   0   0   0   0   0   0   0 
  0   0   0   0   0   0   0   0   0   0   0   0   0   0   0   0   0   0 
  0   0   0   0   0   0   0   0   0   0   0   0   0   0   0   0   0   0 
  0   0   0   0   0   0   0   0   0   0   0   0   0   0   0   0   0   0 
  0   0   0   0   0   0   0   0   0   0   0   0   0   0   0   0   0   0 
  0   0   0   0   0   0   0   0   0   0   0   0   0   0   0   0   0   0 
  0   0   0   0   0   0   0   0   0   0   0   0   0   0   0   0   0   0 
  0   0   0   0   0   0   0   0   0   0   0   0   0   0   0   0   0   0 
  0   0   0   0   0   0   0   0   0   0   0   0   0   0   0   0   0   0 
  0   0   0   0   0   0   0   0   0   0   0   0   0   0   0   0   0   0 
  0   0   0   0   0   0   0   0   0   0   0   0   0   0   0   0   0   0 
  0   0   0   0   0   0   0   0   0   0   0   0   0   0   0   0   0   0 
  0   0   0   0   0   0   0   0   0   0   0   0   0   0   0   0   0   0 
  0   0   0   0   0   0   0   0   0   0   0   0   0   0   0   0   0   0 
  0   0   0   0   0   0   0   0   0   0   0   0   0   0   0   0   0   0 
  0   0   0   0   0   0   0   0   0   0   0   0   0   0   0   0   0   0 
  0   0   0   0   0   0   0   0   0   0   0   0   0   0   0   0   0   0 
  0   0   0   0   0   0   0   0   0   0   0   0   0   0   0   0   0   0 
  0   0   0   0   0   0   0   0   0   0   0   0   0   0   0   0   0   0 
  0   0   0   0   0   0   0   0   0   0   0   0   0   0   0   0   0   0 
  0   0   0   0   0   0   0   0   0   0   0   0   0   0   0   0   0   0 
  0   0   0   0   0   0   0   0   0   0   0   0   0   0   0   0   0   0 
  0   0   0   0   0   0   0   0   0   0   0   0   0   0   0   0   0   0 
  0   0   0   0   0   0   0   0   0   0   0   0   0   0   0   0   0   0 
  0   0   0   0   0   0   0   0   0   0   0   0   0   0   0   0   0   0 
  0   0   0   0   0   0   0   0   0   0   0   0   0   0   0   0   0   0 
  0   0   0   0   0   0   0   0   0   0   0   0   0   0   0   0   0   0 
  0   0   0   0   0   0   0   0   0   0   0   0   0   0   0   0   0   0 
  0   0   0   0   0   0   0   0   0   0   0   0   0   0   0   0   0   0 
  0   0   0   0   0   0   0   0   0   0   0   0   0   0   0   0   0   0 
  0   0   0   0   0   0   0   0   0   0   0   0   0   0   0   0   0   0 
  0   0   0   0   0   0   0   0   0   0   0   0   0   0   0   0   0   0 
  0   0   0   0   0   0   0   0   0   0   0   0   0   0   0   0   0   0 
  0   0   0   0   0   0   0   0   0   0   0   0   0   0   0   0   0   0 
  0   0   0   0   0   0   0   0   0   0   0   0   0   0   0   0   0   0 
  0   0   0   0   0   0   0   0   0   0   0   0   0   0   0   0   0   0 
  0   0   0   0   0   0   0   0   0   0   0   0   0   0   0   0   0   0 
  0   0   0   0   0   0   0   0   0   0   0   0   0   0   0   0   0   0 
  0   0   0   0   0   0   0   0   0   0   0   0   0   0   0   0   0   0 
  0   0   0   0   0   0   0   0   0   0   0   0   0   0   0   0   0   0 
  0   0   0   0   0   0   0   0   0   0   0   0   0   0   0   0   0   0 
  0   0   0   0   0   0   0   0   0   0   0   0   0   0   0   0   0   0 
  0   0   0   0   0   0   0   0   0   0   0   0   0   0   0   0   0   0 
  0   0   0   0   0   0   0   0   0   0   0   0   0   0   0   0   0   0 
  0   0   0   0   0   0   0   0   0   0   0   0   0   0   0   0   0   0 
  0   0   0   0   0   0   0   0   0   0   0   0   0   0   0   0   0   0 
  0   0   0   0   0   0   0   0   0   0   0   0   0   0   0   0   0   0 
  0   0   0   0   0   0   0   0   0   0   0   0   0   0   0   0   0   0 
  0   0   0   0   0   0   0   0   0   0   0   0   0   0   0   0   0   0 
  0   0   0   0   0   0   0   0   0   0   0   0   0   0   0   0   0   0 
  0   0   0   0   0   0   0   0   0   0   0   0   0   0   0   0   0   0 
  0   0   0   0   0   0   0   0   0   0   0   0   0   0   0   0   0   0 
  0   0   0   0   0   0   0   0   0   0   0   0   0   0   0   0   0   0 
  0   0   0   0   0   0   0   0   0   0   0   0   0   0   0   0   0   0 
  0   0   0   0   0   0   0   0   0   0   0   0   0   0   0   0   0   0 
  0   0   0   0   0   0   0   0   0   0   0   0   0   0   0   0   0   0 
  0   0   0   0   0   0   0   0   0   0   0   0   0   0   0   0   0   0 
  0   0   0   0   0   0   0   0   0   0   0   0   0   0   0   0   0   0 
  0   0   0   0   0   0   0   0   0   0   0   0   0   0   0   0   0   0 
  0   0   0   0   0   0   0   0   0   0   0   0   0   0   0   0   0   0 
  0   0   0   0   0   0   0   0   0   0   0   0   0   0   0   0   0   0 
  0   0   0   0   0   0   0   0   0   0   0   0   0   0   0   0   0   0 
  0   0   0   0   0   0   0   0   0   0   0   0   0   0   0   0   0   0 
  0   0   0   0   0   0   0   0   0   0   0   0   0   0   0   0   0   0 
  0   0   0   0   0   0   0   0   0   0   0   0   0   0   0   0   0   0 
  0   0   0   0   0   0   0   0   0   0   0   0   0   0   0   0   0   0 
  0   0   0   0   0   0   0   0   0   0   0   0   0   0   0   0   0   0 
  0   0   0   0   0   0   0   0   0   0   0   0   0   0   0   0   0   0 
  0   0   0   0   0   0   0   0   0   0   0   0   0   0   0   0   0   0 
  0   0   0   0   0   0   0   0   0   0   0   0   0   0   0   0   0   0 
  0   0   0   0   0   0   0   0   0   0   0   0   0   0   0   0   0   0 
