P2
# Written by pgmio::pgmwrite
172 130
255
164 164 164 164 164 164 164 164 164 164 164 164 164 164 164 164 
164 164 164 164 164 164 164 164 164 164 164 164 164 164 164 164 
164 164 164 164 164 164 164 164 164 164 164 164 164 164 164 164 
164 164 164 164 164 164 164 164 164 164 164 164 164 164 164 164 
164 164 164 164 164 164 164 164 164 164 164 164 164 164 164 164 
164 164 164 164 164 164 164 164 164 164 164 164 164 164 164 164 
164 164 164 164 164 164 164 164 164 164 164 164 164 164 164 164 
164 164 164 164 164 164 164 164 164 164 164 164 164 164 164 164 
164 164 164 164 164 164 164 164 164 164 164 164 164 164 164 164 
164 164 164 164 164 164 164 164 164 164 164 164 164 164 164 164 
164 164 164 164 164 164 164 164 164 164 164 164   0 109 120 117 
 97 101 105 116 132 136 120  97  79 147 187 181 177 173 173 183 
178 171 170 175 179 176 171 171 172 164 167 165 165 173 173 169 
170 168 168 167 167 168 168 169 166 167 168 170 171 172 173 172 
156 155 155 157 161 168 174 177 169 167 165 164 163 162 163 162 
163 165 167 170 171 171 170 168 151 151 153 156 161 168 174 176 
167 166 166 166 166 166 166 166 167 169 171 171 170 167 163 159 
156 154 153 154 158 164 170 174 174 171 167 165 163 162 162 163 
173 173 171 167 164 160 156 155 164 161 158 155 156 160 164 167 
171 169 165 163 163 164 167 170 169 167 165 163 161 160 160 160 
164 164 163 163 162 161 161 161 165 165 165 165 165 165 166 166 
165 163 162 161 161 162 163 164   0  34  48  60  76  84  90  98 
105 107  98  85  71 146 195 197 196 193 180 175 192 185 177 173 
172 172 175 177 187 185 190 184 173 169 167 167 170 170 172 173 
174 173 170 169 175 172 168 164 162 162 162 162 173 172 170 168 
165 162 159 156 164 163 164 165 166 166 166 166 167 168 169 169 
166 163 159 157 160 159 159 161 162 163 165 165 170 169 168 167 
166 165 163 163 164 167 171 174 172 167 161 156 148 149 151 155 
161 167 172 175 167 167 167 167 167 167 167 168 160 165 171 175 
175 170 163 158 144 145 148 152 158 165 171 174 172 171 169 167 
165 165 164 165 167 168 167 167 165 163 160 159 155 156 157 159 
162 164 166 167 165 165 165 165 166 166 167 167 163 164 165 166 
166 165 164 164   0   4   9  18  50  65  76  85  91  94  92  89 
 81 155 201 195 193 203 206 205 181 185 190 190 190 192 195 196 
188 191 193 192 186 181 181 182 165 166 169 172 174 176 176 176 
164 163 163 163 165 169 172 174 172 173 173 173 172 170 167 165 
159 159 161 163 166 167 168 168 165 163 160 158 157 160 163 164 
169 168 169 168 166 165 163 161 159 160 162 165 167 168 169 169 
165 165 163 161 161 161 161 162 168 168 167 166 164 161 160 158 
168 168 168 167 167 165 165 164 172 172 170 167 163 159 156 154 
161 160 160 161 160 160 159 160 167 168 168 168 167 167 166 166 
169 168 166 165 163 162 161 160 159 159 160 160 162 163 163 163 
166 167 167 167 166 165 165 164 164 165 166 167 166 165 163 164 
  0   4  13  25  42  58  72  83  89  94  97  97  83 165 220 210 
192 191 188 181 199 205 206 199 194 196 201 204 202 202 193 192 
194 189 188 183 189 184 178 171 166 164 162 162 168 170 172 174 
175 175 175 174 177 176 174 172 171 170 170 170 165 164 163 161 
160 160 159 160 158 157 158 160 163 167 171 173 169 170 170 170 
169 168 166 165 159 159 160 161 162 164 165 166 162 161 158 157 
157 161 166 169 169 169 169 169 168 167 165 165 159 159 160 161 
164 166 169 170 166 163 159 156 156 160 164 168 169 168 167 167 
165 164 163 162 160 161 162 164 166 167 168 169 168 166 163 160 
158 159 162 163 167 167 166 165 163 162 161 160 163 164 164 165 
166 165 165 165 167 166 163 161 160 161 162 164   0   9  18  26 
 48  61  74  84  91  94  96  96  92 162 218 219 211 216 221 218 
204 189 162 134 124 141 172 194 198 210 198 197 200 194 195 187 
194 189 183 175 170 167 166 165 171 172 174 177 178 179 178 178 
174 174 173 172 172 172 172 172 174 170 166 160 156 153 152 152 
155 160 167 172 175 174 171 167 167 167 167 168 168 168 169 169 
172 169 164 159 155 152 151 151 154 158 162 167 170 171 169 168 
164 164 165 166 169 170 171 171 167 165 161 158 156 156 156 157 
154 157 161 165 168 169 169 169 167 166 166 166 167 167 168 168 
163 162 161 160 160 161 162 163 160 160 159 160 161 163 165 167 
167 167 166 166 166 166 165 165 159 159 161 163 164 165 166 166 
163 162 161 160 161 162 164 164   0  15  20  24  51  64  75  86 
 94  99 101 101 101 157 217 242 237 220 191 164 127 127 127 124 
115 108 107 111 175 212 210 207 206 196 201 196 180 181 183 186 
187 188 188 186 173 172 171 172 174 177 180 182 173 175 177 179 
179 177 174 172 167 165 162 161 160 160 162 163 161 162 162 164 
165 167 168 169 169 169 169 169 169 170 169 169 167 165 161 159 
157 156 156 157 158 160 162 166 168 169 168 168 171 171 170 169 
168 167 165 165 174 171 165 159 154 150 148 148 157 160 164 167 
169 168 166 164 171 170 169 168 167 166 166 166 170 168 163 159 
156 154 153 153 153 156 160 165 168 169 168 167 167 167 166 166 
166 165 165 165 166 165 163 162 160 159 159 159 156 158 161 164 
167 167 166 164   0  10  22  35  51  65  77  88  96 102 107 110 
 99 120 153 174 172 160 145 132 135 124 117 112 102  89  87  93 
171 220 218 208 205 195 200 190 196 196 196 196 195 193 190 187 
192 188 183 178 174 171 170 169 184 183 182 180 176 170 165 162 
163 163 164 166 168 170 172 172 169 165 160 156 157 161 166 170 
168 169 170 170 169 167 165 163 156 157 159 161 164 166 168 169 
167 164 161 159 159 161 164 166 165 166 168 170 170 169 168 166 
156 157 158 161 163 165 166 167 157 156 156 158 161 165 169 172 
162 164 166 169 170 171 171 171 165 165 163 161 159 158 157 157 
158 160 162 164 165 166 165 164 168 168 167 166 165 165 164 164 
170 168 165 161 158 157 157 157 158 159 162 164 166 166 165 164 
  0  10  18  31  54  69  82  90  95  99 105 110 124 124 136 144 
132 119 120 124 126 112 104 107 103  93  93 101 160 213 206 200 
208 210 218 202 208 205 203 200 198 197 196 194 192 191 190 189 
187 183 179 176 171 170 167 166 168 169 171 171 173 174 175 176 
174 173 169 168 173 172 172 171 168 164 160 158 161 163 166 166 
165 161 157 154 163 164 166 168 169 167 165 164 168 168 168 166 
164 161 157 155 163 165 167 168 166 163 159 156 158 160 163 167 
168 168 168 167 171 169 165 161 158 156 156 156 164 166 168 170 
169 166 163 161 153 155 158 161 164 167 168 169 169 167 162 158 
156 158 159 161 166 166 166 167 168 168 168 169 161 160 159 159 
160 164 167 169 165 163 161 160 160 161 162 164   0  10  18  30 
 59  69  79  89 100 114 127 135 139 137 134 127 117 109 109 112 
113 112 108 111 112 103  99 106 172 224 220 214 213 204 217 216 
214 219 218 209 212 210 201 197 198 198 197 196 192 188 184 182 
169 168 165 164 164 169 176 182 178 177 177 176 175 173 171 170 
170 170 171 171 171 170 169 168 155 154 152 152 155 160 165 169 
170 169 167 165 165 166 168 169 168 168 168 167 167 167 166 166 
161 158 154 151 152 157 162 166 168 167 167 167 167 166 165 165 
168 169 169 169 167 165 162 160 156 157 159 161 161 159 156 154 
165 165 165 166 166 166 166 166 168 168 168 167 165 163 162 160 
158 160 163 165 165 163 159 158 157 159 162 165 166 167 167 166 
165 166 166 166 165 163 162 164   0   7  19  34  54  72  92 108 
120 126 128 129 127 127 126 125 122 118 116 117 123 120 114 113 
114 107 104 112 195 241 233 223 225 222 229 215 213 204 189 174 
179 191 203 214 203 200 196 190 187 184 184 183 187 186 184 182 
178 174 169 166 176 176 175 176 175 175 174 173 174 174 174 173 
171 168 164 163 162 161 161 160 160 161 161 161 165 167 171 172 
172 170 166 164 163 166 170 174 173 170 165 162 158 157 157 156 
157 158 160 161 165 167 169 171 171 171 168 167 165 167 168 169 
169 169 168 167 167 160 150 143 143 151 161 169 163 165 168 170 
170 169 167 166 165 166 167 168 168 168 166 165 163 159 153 149 
149 152 157 161 165 166 167 167 167 167 166 165 168 168 167 166 
166 166 166 164   0  13  31  49  68  84  99 110 118 122 124 126 
127 127 128 130 129 125 121 120 128 126 122 121 122 116 114 120 
195 248 251 248 244 229 217 189 170 157 141 126 125 133 144 180 
206 202 197 193 190 190 190 191 188 187 187 189 190 187 182 177 
174 173 173 174 175 176 177 178 178 174 168 164 162 162 165 166 
170 171 171 171 169 166 163 161 162 161 162 163 165 167 169 170 
170 168 167 165 162 161 159 159 161 162 164 166 166 164 162 160 
160 161 163 165 167 168 168 169 169 169 167 166 164 162 161 160 
153 157 162 165 166 163 159 156 162 162 164 166 167 168 168 168 
167 168 169 169 168 167 165 164 158 157 157 156 156 157 158 158 
163 163 164 165 166 167 168 169 165 165 166 167 167 168 167 164 
  0  21  40  58  75  86  94 100 107 114 121 127 131 133 135 137 
134 129 127 127 130 132 130 129 130 123 117 121 150 202 226 226 
209 183 164 143 137 127 119 112 102  96  90 135 208 206 205 204 
205 205 204 202 203 200 197 194 193 192 190 189 181 179 176 174 
172 172 171 171 170 169 167 166 166 169 171 172 173 173 174 174 
173 171 169 167 164 163 160 159 160 163 166 168 168 166 161 157 
156 158 161 163 166 168 170 170 169 168 165 164 162 160 159 158 
160 162 165 167 170 168 165 162 160 158 156 156 161 164 168 171 
171 168 164 162 161 160 158 158 160 163 166 169 170 170 168 166 
163 161 159 159 156 160 165 170 170 168 164 161 159 159 160 161 
162 164 166 166 165 166 168 169 168 166 164 164   0  18  33  50 
 60  75  89 101 111 118 124 129 130 136 140 139 134 130 132 137 
134 136 133 130 130 125 121 124 130 151 163 163 148 129 127 128 
126 118 112 110  98  92  83 144 214 212 210 211 213 214 212 210 
203 202 201 198 195 193 191 189 193 189 183 178 172 168 165 163 
162 166 172 178 181 179 175 172 173 172 171 171 171 172 172 172 
171 171 171 170 166 161 155 152 152 155 159 163 167 169 169 169 
169 168 168 167 166 166 166 166 169 167 166 164 162 161 161 161 
159 158 159 160 162 164 167 168 171 169 166 164 164 165 167 169 
164 163 162 161 160 161 162 163 163 162 160 159 158 159 161 162 
166 166 166 166 166 167 168 168 166 165 164 162 161 160 160 160 
168 168 167 166 164 162 161 164   0  13  28  46  61  76  90 103 
113 122 129 135 139 144 148 144 136 130 134 141 136 138 134 132 
136 137 138 144 151 140 134 132 124 115 120 129 116 109 106 106 
 96  97  86 158 226 220 214 211 212 212 212 210 209 208 210 210 
210 206 201 196 191 189 186 183 179 177 175 173 172 172 173 174 
175 176 176 176 177 175 174 173 172 173 174 174 171 171 169 167 
163 160 157 155 155 157 158 161 164 167 169 171 170 169 168 167 
166 167 168 170 170 171 171 169 166 160 155 152 152 153 155 158 
162 166 170 172 166 167 169 169 169 168 166 165 168 169 170 169 
167 163 158 156 153 153 153 154 158 163 167 171 170 169 167 165 
165 165 167 167 169 168 167 166 165 163 163 162 157 156 154 153 
156 160 164 164   0  14  31  50  70  82  92 101 111 123 133 141 
147 151 152 150 142 135 136 142 141 146 145 144 149 150 150 154 
150 136 132 129 121 116 115 118 117 114 113 115 105 109  91 169 
237 230 223 219 218 217 213 210 224 213 202 198 200 202 201 197 
190 189 189 189 190 190 190 189 186 182 176 171 169 171 174 177 
176 176 176 176 176 174 172 171 166 164 161 159 160 163 167 170 
170 167 163 159 158 160 163 164 167 167 168 169 170 170 170 170 
165 165 165 164 162 160 158 157 160 160 160 160 160 161 161 162 
169 168 166 164 165 167 171 173 169 169 169 167 165 162 158 157 
156 156 157 159 161 163 165 166 164 166 169 171 171 169 166 164 
167 167 167 167 167 165 163 163 152 151 151 153 156 161 165 164 
  0  15  32  50  63  77  91 104 116 127 137 144 143 146 149 150 
146 142 143 147 152 159 160 158 159 152 144 142 134 130 138 134 
122 120 121 123 123 121 117 117 108 116  99 180 245 241 237 235 
233 228 220 213 190 169 146 141 156 175 189 193 200 199 198 198 
197 196 193 192 189 189 188 187 183 179 173 170 169 171 174 176 
176 172 167 164 161 163 165 169 171 171 171 170 170 171 171 170 
168 164 160 158 160 163 166 169 170 169 167 165 162 160 157 157 
159 163 168 171 170 170 167 165 162 160 158 157 159 162 166 169 
170 169 168 167 167 164 160 157 156 158 161 164 169 168 167 166 
163 160 157 155 161 162 164 167 168 169 169 169 170 169 169 167 
164 160 156 154 164 165 166 166 164 161 159 164   0  16  33  50 
 68  83  97 109 119 127 132 137 143 148 153 158 161 162 162 161 
163 160 156 152 148 144 142 140 141 140 140 138 131 125 127 133 
128 127 125 126 121 113 124 150 226 242 251 242 226 208 181 154 
138 127 128 129 115 110 111 169 208 211 209 202 196 196 196 196 
192 195 188 189 193 188 185 181 178 174 167 162 161 163 168 171 
176 175 175 175 174 174 173 172 174 174 173 172 170 169 167 167 
164 163 162 161 160 159 159 158 162 163 165 167 168 168 168 168 
166 167 168 169 169 168 166 165 159 160 161 162 163 163 162 162 
156 157 159 160 163 166 168 169 168 167 168 167 167 166 164 164 
157 158 159 160 162 166 168 169 168 164 159 155 155 158 163 166 
167 168 169 168 168 165 164 164   0  18  36  53  72  85  96 105 
114 123 132 139 143 149 157 163 166 165 163 161 154 153 151 150 
148 148 148 147 142 141 142 140 134 129 131 137 131 130 129 130 
127 116 118 130 150 180 202 193 169 152 146 143 138 125 116 113 
101  93  92 156 216 213 211 210 211 210 204 198 200 202 197 196 
195 193 191 185 177 174 172 170 168 168 168 169 171 172 175 177 
177 176 175 173 168 169 170 173 173 174 174 174 167 164 159 155 
153 153 154 155 162 164 167 169 170 169 167 166 168 168 168 167 
167 168 168 169 171 168 163 158 154 152 152 152 158 161 164 167 
169 169 168 166 166 168 169 171 171 169 166 164 166 164 162 159 
157 155 154 154 154 156 158 161 164 166 168 169 166 167 167 168 
169 168 168 164   0  20  37  54  66  80  93 106 118 130 139 147 
151 155 159 162 162 159 156 153 153 152 151 150 149 149 149 149 
151 150 149 145 138 134 135 140 138 137 130 126 128 127 127 135 
140 150 155 145 130 124 130 136 125 116 104 102  99  89  86 159 
215 211 208 210 212 211 207 204 206 202 203 198 189 189 185 176 
182 183 184 184 183 179 176 173 171 171 173 174 175 176 175 175 
176 175 175 174 173 170 168 167 163 162 160 159 160 161 163 165 
160 161 163 164 166 168 169 169 167 167 168 168 169 170 170 170 
166 163 160 157 155 155 156 157 157 159 162 166 168 169 169 168 
170 169 167 166 166 167 169 170 170 168 164 161 157 154 152 151 
150 153 158 163 167 168 168 168 169 168 168 167 167 166 165 164 
  0  17  34  51  62  80  98 114 127 136 143 149 153 155 154 153 
151 151 151 152 155 154 154 154 154 155 156 156 162 160 156 149 
140 135 137 140 140 142 137 134 142 147 149 152 156 143 129 121 
119 118 119 120 114 113 105 106 109  99  95 175 223 219 218 215 
210 209 212 217 213 204 208 202 194 198 195 187 193 193 193 194 
192 189 185 182 179 176 173 171 170 171 173 174 181 179 175 171 
167 164 161 160 161 163 167 170 172 172 171 171 164 163 160 158 
160 162 166 168 167 169 170 171 169 166 163 160 155 157 160 164 
166 168 168 168 163 162 160 159 160 162 164 166 170 170 168 167 
166 167 168 168 162 162 162 162 162 162 163 163 161 161 160 160 
161 161 162 163 168 168 168 168 167 166 165 164   0  16  34  52 
 74  90 105 118 127 133 137 141 143 145 146 147 149 153 156 158 
154 155 155 157 160 162 165 166 162 161 155 148 141 140 143 146 
141 152 155 155 159 158 152 150 137 132 130 128 122 115 114 117 
116 120 113 112 113 105 103 181 236 234 230 223 216 213 213 212 
213 197 197 190 191 204 206 212 200 198 196 194 192 191 189 188 
188 185 181 178 174 172 171 170 170 168 166 164 165 167 169 170 
171 171 173 174 173 171 168 165 173 171 167 164 161 160 160 159 
167 166 166 164 161 158 156 154 163 164 167 169 170 170 169 168 
172 169 165 161 159 158 158 159 163 165 169 171 170 166 161 158 
156 157 159 162 165 166 168 169 170 168 165 161 159 159 159 159 
161 162 165 167 168 169 168 164   0  21  41  61  79  92 103 111 
119 126 133 139 139 144 149 152 155 156 157 157 159 159 159 159 
160 161 162 163 157 158 157 153 151 154 157 158 157 164 163 157 
155 149 142 141 135 135 136 133 127 123 124 128 125 127 120 116 
114 112 111 178 244 247 245 237 230 224 211 195 185 166 158 145 
150 161 167 200 207 204 200 196 195 194 194 194 192 191 190 188 
183 178 172 168 165 163 162 163 167 172 177 179 178 177 175 172 
171 170 169 169 170 172 173 174 171 167 163 161 158 156 154 152 
154 159 163 166 172 171 169 167 167 167 167 167 168 168 169 169 
168 165 163 161 162 160 158 157 155 156 157 157 163 164 165 166 
167 168 168 168 167 168 168 167 166 165 163 163 159 160 160 161 
162 162 163 164   0  23  42  60  71  85  96 105 115 125 134 141 
145 149 153 156 157 158 157 157 165 164 162 159 158 156 156 155 
156 162 165 164 164 166 166 164 165 163 155 148 146 142 139 143 
144 141 134 127 125 128 131 132 131 129 126 123 120 122 113 160 
211 231 240 229 215 205 190 169 145 132 124 106 107 105 104 157 
214 211 207 204 202 201 201 200 194 193 191 189 186 182 178 175 
177 175 173 172 172 173 173 173 175 174 173 172 172 174 175 176 
168 169 171 172 172 169 166 164 156 155 154 155 158 163 168 171 
168 167 166 165 166 167 168 169 163 165 168 170 171 170 167 166 
162 158 152 148 148 153 159 163 167 167 168 169 169 169 168 168 
165 166 168 170 170 169 168 168 165 163 159 156 153 154 157 164 
  0  19  34  49  64  79  94 107 117 126 132 138 146 149 151 153 
156 159 163 166 163 162 161 159 158 157 157 157 158 165 171 171 
169 169 164 159 153 150 147 149 154 148 144 147 141 146 147 139 
132 133 136 137 135 132 133 132 126 126 107 134 146 182 203 186 
161 150 142 131 126 122 121 105 104  88  80 143 217 215 213 211 
209 207 204 202 199 194 189 184 183 184 185 186 191 189 186 182 
178 174 170 167 170 171 173 175 175 174 173 172 176 173 169 165 
162 161 159 159 167 168 169 168 166 163 160 157 160 162 166 169 
170 169 168 167 169 169 167 166 164 163 163 162 156 158 161 164 
165 164 162 161 159 161 163 165 167 168 168 169 168 168 167 167 
167 168 169 170 169 166 160 156 153 155 159 164   0  13  30  47 
 65  80  94 107 119 127 133 137 149 153 156 159 160 160 160 160 
157 157 157 159 162 166 170 172 173 170 167 163 160 157 156 155 
155 154 153 152 151 151 150 149 153 154 150 142 135 134 135 136 
137 136 134 132 130 130 131 132 142 150 150 137 125 124 130 133 
122 108 107  98 101  91  93 161 216 212 210 210 210 207 202 198 
195 197 197 195 196 200 200 196 193 192 186 188 185 183 188 176 
170 169 169 170 172 174 177 178 168 166 163 162 163 165 168 170 
171 171 171 170 169 167 166 165 164 162 159 158 159 163 168 171 
172 170 167 163 160 158 158 157 163 165 168 170 170 168 165 163 
162 161 160 160 161 163 165 166 167 168 170 171 169 165 161 158 
154 156 160 163 166 166 166 164   0  18  35  53  66  81  95 108 
119 130 137 144 150 153 155 155 156 157 158 158 158 160 165 169 
171 171 170 169 163 162 160 158 156 155 155 155 152 152 153 154 
156 157 159 158 158 157 153 144 138 140 143 144 141 139 138 137 
140 146 152 156 144 145 140 128 118 114 115 116 120 110 112 103 
104  96 102 170 240 225 209 208 206 199 199 208 206 211 215 213 
209 206 202 197 196 198 196 200 189 179 186 185 185 182 178 173 
170 167 165 164 166 168 170 172 173 173 171 170 170 171 170 171 
172 172 172 172 163 164 164 165 164 163 161 160 159 159 159 160 
161 163 165 167 168 168 167 167 167 167 167 167 168 166 163 160 
158 158 159 160 165 164 163 162 161 160 160 159 161 164 168 170 
171 169 166 164   0  15  32  49  66  83  98 112 122 131 139 145 
148 151 152 153 154 157 159 161 167 170 172 173 171 167 163 159 
158 158 157 156 156 156 157 156 154 154 156 157 160 162 164 164 
163 161 155 145 140 142 145 147 149 151 154 156 156 154 153 151 
141 135 129 125 120 116 115 116 118 113 118 110 109 104 115 178 
241 225 215 216 217 212 209 211 218 212 200 187 182 191 206 214 
208 201 191 197 196 188 194 193 190 186 181 176 171 167 164 162 
163 165 170 174 178 177 177 175 174 173 173 171 171 170 169 169 
173 172 172 170 166 160 155 151 154 154 156 158 162 165 169 171 
170 169 168 167 167 167 167 168 168 168 168 167 165 164 163 161 
156 154 153 153 155 159 164 167 172 170 168 166 165 166 166 164 
  0  14  29  45  65  83  99 113 122 130 137 143 149 153 155 158 
161 165 168 170 172 170 167 164 161 158 157 156 158 158 158 158 
158 158 158 158 162 161 161 160 161 161 162 162 161 161 159 153 
151 153 154 154 160 163 165 164 158 150 142 137 141 134 131 132 
131 126 125 129 123 121 124 118 116 112 123 171 238 243 243 235 
234 239 234 221 185 171 150 132 129 141 161 175 200 205 198 201 
202 196 194 187 183 181 180 179 179 179 178 179 172 171 170 170 
171 172 173 174 174 175 175 174 173 171 170 169 174 171 169 165 
162 160 158 158 161 161 161 161 161 162 164 164 165 167 169 171 
170 169 166 165 166 168 170 171 170 167 164 161 154 154 153 154 
156 161 165 168 169 167 166 164 164 165 165 164   0  19  37  54 
 65  81  94 106 117 128 139 148 157 161 164 167 168 170 170 170 
161 160 157 155 155 157 159 161 158 159 159 159 159 160 159 159 
165 164 162 161 159 158 157 157 156 160 164 165 166 169 169 167 
163 161 156 151 146 144 144 145 144 140 139 140 135 128 127 131 
131 130 129 124 122 116 121 148 197 221 242 244 237 223 201 177 
143 136 127 120 114 107 101  96 167 206 218 212 202 192 189 181 
185 184 184 185 187 189 191 190 188 184 178 173 169 168 167 167 
169 170 173 176 176 177 176 174 162 161 159 160 161 165 168 170 
170 169 167 165 163 161 160 160 160 162 165 168 169 169 168 167 
168 167 166 164 162 160 158 156 165 165 165 164 163 161 160 160 
158 161 165 170 171 169 165 164   0  23  43  61  69  80  88  99 
113 129 145 155 159 163 165 164 163 161 159 158 155 156 156 157 
157 158 159 159 159 161 161 163 163 164 164 164 162 161 160 159 
158 158 158 157 160 164 168 169 169 169 166 161 152 151 150 147 
146 146 148 149 146 146 145 142 135 130 131 136 137 135 132 128 
125 120 120 130 139 155 182 201 192 165 143 135 137 129 123 120 
113 100  85  74 156 202 212 200 197 198 201 194 199 199 197 195 
194 192 191 189 191 189 187 183 181 178 174 173 170 169 170 171 
171 170 169 168 163 164 166 168 170 171 171 171 171 170 169 168 
166 165 164 163 162 161 160 160 162 165 168 170 165 162 158 156 
156 158 162 165 168 169 170 171 169 166 162 160 160 160 160 160 
161 164 165 164   0  21  41  59  73  83  92 104 120 135 145 152 
152 155 156 156 155 154 153 153 157 159 159 160 160 160 159 159 
163 163 165 165 165 165 164 163 159 159 160 161 162 164 165 166 
166 167 166 162 160 158 155 150 149 151 153 154 153 152 150 149 
153 153 149 142 136 137 141 143 138 139 135 133 133 132 135 135 
145 137 138 141 133 121 127 141 129 119 108 103  99  94  91  90 
171 206 204 193 201 208 212 208 209 207 205 202 200 197 194 192 
190 190 190 190 189 187 185 183 177 173 169 164 162 161 161 162 
172 173 175 175 176 173 171 169 170 170 170 170 169 169 169 168 
167 164 162 159 158 158 158 160 158 158 158 160 163 167 171 172 
165 166 167 169 169 169 168 167 169 165 160 156 156 159 163 164 
  0  20  41  59  73  86  99 115 130 140 142 142 147 149 151 152 
154 156 159 161 157 158 157 158 160 162 165 167 163 163 164 163 
162 160 158 157 160 161 163 165 168 170 173 174 166 165 161 156 
155 157 156 154 158 157 154 152 152 155 158 161 164 162 154 141 
136 140 144 143 138 142 140 142 143 147 155 154 155 152 146 135 
123 114 113 114 116 111 109 110 107 102 100 101 180 221 226 216 
215 205 205 208 209 208 207 207 206 206 204 203 199 196 194 191 
189 188 187 185 183 178 170 165 163 164 167 170 172 172 173 173 
174 174 174 173 171 171 171 171 170 170 170 169 171 169 167 163 
158 152 147 144 153 157 163 169 172 171 167 165 168 167 166 165 
165 166 167 168 167 169 171 172 169 165 161 164   0  23  45  62 
 78  94 105 110 118 127 133 135 147 148 150 155 155 153 154 158 
160 161 162 165 164 162 162 164 161 160 159 158 159 159 161 162 
168 168 170 170 169 167 164 162 160 159 158 158 157 157 157 157 
155 154 154 158 164 167 166 164 155 155 154 149 144 143 145 148 
150 152 156 159 160 159 157 154 142 133 127 126 123 119 117 117 
117 116 115 114 112 111 108 105 200 237 242 228 231 228 212 205 
213 207 207 212 207 196 197 206 203 208 202 194 193 190 184 183 
174 176 181 185 185 182 178 174 167 167 169 171 174 175 175 174 
170 170 170 171 171 171 171 170 169 164 157 152 153 158 165 170 
163 158 155 156 162 165 166 164 171 170 167 166 165 167 168 169 
169 168 168 165 163 162 161 164   0  23  41  55  68  85  97 105 
114 125 132 136 141 144 149 155 157 156 155 158 159 159 161 166 
168 166 164 165 161 161 163 164 165 166 168 168 172 170 168 166 
163 161 158 157 158 158 158 158 159 159 159 159 161 158 157 158 
160 161 159 156 164 164 162 157 153 153 157 160 161 163 165 165 
161 153 144 138 142 136 133 131 129 124 122 122 130 126 122 118 
115 114 112 110 220 249 249 231 232 233 232 238 220 212 198 174 
141 124 138 163 179 198 204 194 187 185 184 185 190 189 188 188 
188 187 187 186 182 179 173 168 165 165 168 170 176 175 174 173 
170 166 162 159 154 158 163 168 170 169 166 164 171 168 162 159 
158 160 161 162 164 166 169 171 171 169 167 166 167 166 162 159 
158 159 160 164   0  19  35  47  61  79  93 103 113 123 131 137 
143 148 154 161 164 162 162 162 163 160 159 162 164 164 163 164 
166 168 168 169 169 169 168 168 166 164 161 159 158 158 159 159 
158 159 160 161 162 162 162 162 167 164 161 159 159 158 156 153 
161 163 165 166 166 167 169 172 168 164 159 153 149 145 143 142 
139 137 137 137 133 129 127 129 132 129 126 123 121 120 118 117 
178 210 232 241 250 244 229 225 198 168 138 125 120 112 103  98 
113 163 200 202 197 198 197 196 199 196 193 190 188 187 187 186 
183 184 185 183 178 172 168 166 169 168 166 165 164 162 162 161 
162 164 167 170 171 171 169 168 168 170 171 169 165 161 159 158 
158 161 164 167 168 167 165 164 153 154 156 158 163 167 169 164 
  0  16  32  48  63  79  93 105 116 125 134 141 152 157 163 168 
170 170 170 170 163 157 153 155 159 162 165 167 173 173 171 169 
167 164 162 161 159 158 157 156 156 158 160 161 161 161 163 163 
164 164 164 163 165 163 160 159 160 160 159 158 157 161 167 172 
172 170 167 166 160 155 149 144 142 145 149 151 141 142 143 142 
136 133 135 137 132 131 131 129 128 125 121 118 113 139 172 203 
224 211 177 155 141 128 118 118 117 108  96  88  75 146 202 210 
206 210 211 206 199 198 198 198 199 198 197 196 190 189 187 185 
183 182 180 179 162 159 156 155 157 161 166 168 176 174 170 167 
166 167 168 169 165 167 170 170 169 168 167 167 165 163 160 157 
156 156 156 158 162 164 167 169 170 168 165 164   0  16  34  51 
 66  79  92 107 120 131 140 148 156 160 164 166 169 171 173 174 
159 154 152 157 163 168 171 173 170 169 166 162 159 158 157 157 
160 159 159 159 158 158 158 158 163 163 163 163 163 163 163 162 
158 158 158 160 163 165 166 166 167 168 169 168 165 160 155 152 
151 150 152 152 152 150 148 146 150 152 151 145 138 136 139 141 
139 138 136 134 131 129 126 123 143 136 131 135 145 145 136 131 
127 127 125 117 105  96  93  93  95 167 217 213 202 206 208 203 
208 206 205 204 202 199 195 192 194 192 191 190 189 184 177 170 
168 166 163 162 161 163 164 165 169 169 170 171 171 169 167 166 
172 168 164 163 165 169 173 175 169 165 159 154 151 151 151 153 
164 165 168 170 169 167 164 164   0  16  32  48  66  76  88 104 
121 135 145 154 155 160 161 161 163 169 172 172 163 161 162 167 
170 168 166 165 160 159 157 156 156 157 159 160 158 159 160 161 
162 162 162 161 162 162 162 161 160 160 161 161 161 162 164 167 
169 171 172 173 170 167 163 159 156 154 154 153 154 154 155 155 
155 155 155 154 159 160 158 150 142 139 141 142 143 141 138 137 
137 140 142 143 154 152 153 151 141 127 113 104 128 120 110 107 
109 110 102  92 108 181 230 225 211 212 209 201 208 207 207 207 
207 206 206 204 204 199 194 190 185 180 173 168 177 177 177 177 
175 171 167 163 160 161 164 167 169 171 171 171 169 168 167 169 
169 168 164 161 157 158 158 159 160 162 162 163 157 157 158 159 
162 166 168 164   0  17  34  50  69  75  83 101 122 137 146 154 
163 168 168 164 164 168 170 169 170 168 167 168 165 160 157 157 
156 155 155 156 156 158 159 159 158 159 161 163 164 165 165 165 
163 162 160 160 160 161 163 164 169 170 172 172 171 170 168 168 
160 159 156 155 155 157 158 159 158 156 154 153 155 159 164 167 
160 162 160 153 146 146 145 145 145 145 146 149 151 154 156 156 
159 151 143 132 120 118 121 119 109 114 116 114 113 114 111 106 
104 180 238 239 228 227 223 214 205 207 209 211 210 207 204 200 
203 198 189 180 175 179 188 195 183 182 183 182 181 177 173 170 
167 165 162 160 162 164 169 171 163 166 170 171 168 161 156 152 
155 157 161 166 169 171 171 171 169 167 164 160 158 158 160 164 
  0  19  40  59  73  76  82 100 121 136 145 151 175 179 178 172 
170 171 170 167 167 163 160 158 155 154 156 161 158 158 158 159 
158 157 157 155 166 165 164 164 163 162 162 162 164 163 162 160 
162 164 166 168 172 173 173 171 167 162 157 155 154 154 156 158 
159 159 157 154 155 156 158 160 162 162 162 161 156 160 160 155 
151 152 152 149 153 156 161 164 165 162 157 153 140 134 134 134 
131 133 129 118 126 128 125 120 118 118 112 103 118 191 245 244 
232 233 235 231 229 226 219 206 186 160 137 122 156 173 194 205 
204 198 193 191 191 187 182 179 176 175 176 176 176 173 169 165 
161 159 157 156 168 168 165 159 153 152 157 163 170 170 169 169 
168 167 166 166 168 168 167 166 164 163 162 164   0  19  39  60 
 72  78  85 101 121 136 144 150 159 164 168 170 169 165 160 157 
155 158 160 158 156 155 155 154 155 159 161 163 164 166 165 163 
155 156 159 163 165 165 168 172 169 169 169 170 171 173 175 176 
168 164 158 156 157 158 157 155 157 157 156 155 156 158 160 162 
165 165 164 162 161 159 158 157 160 160 160 160 161 163 163 163 
170 169 168 164 158 151 144 139 141 139 138 138 137 135 131 127 
128 127 127 126 124 120 116 112 118 180 240 255 246 242 242 239 
241 222 191 154 124 106 102 102  95 112 125 176 212 199 198 193 
193 190 187 185 182 180 177 174 175 174 175 176 176 171 164 158 
146 147 150 154 160 165 171 173 169 168 168 167 167 167 168 168 
169 169 170 169 168 167 165 164   0  20  38  57  64  72  82 101 
122 138 147 153 159 162 161 160 158 156 156 155 157 158 158 156 
156 157 158 160 163 167 169 170 172 173 172 169 164 160 157 156 
158 159 163 168 169 172 174 176 174 169 164 160 162 160 157 155 
157 158 158 157 157 158 159 160 161 162 163 164 162 162 161 159 
159 159 159 159 150 154 161 168 172 173 172 170 168 164 158 152 
149 148 149 149 143 142 142 141 139 136 133 130 133 132 131 130 
128 126 123 120 119 143 167 185 210 236 241 230 179 155 127 114 
116 120 116 109  91  77  82 164 212 206 203 204 197 192 189 186 
183 182 182 182 178 176 173 171 169 167 165 163 160 159 159 159 
159 161 162 162 172 171 170 168 168 167 167 167 167 166 165 165 
166 167 168 164   0  17  34  52  66  77  92 113 132 143 148 151 
150 152 152 151 152 153 155 157 159 157 156 156 158 160 164 167 
169 173 175 174 175 177 176 173 162 157 153 155 159 162 167 171 
172 170 167 164 161 158 156 156 157 156 156 156 157 159 159 160 
161 161 163 164 165 164 164 164 162 161 160 159 158 159 159 160 
159 163 168 172 173 171 166 163 156 155 154 152 152 150 149 148 
150 151 151 149 144 139 137 136 138 136 134 132 131 129 129 127 
125 128 125 126 142 164 167 155 132 129 128 127 124 115 102  92 
101  77  84 176 202 194 193 196 202 198 194 190 187 184 182 180 
184 180 173 166 161 159 160 161 171 169 168 166 163 161 159 157 
157 160 165 168 170 170 168 167 165 166 168 169 169 166 164 164 
  0  19  40  62  81  95 111 129 142 145 144 144 142 146 149 151 
153 155 156 157 158 155 154 158 162 165 169 172 174 175 175 172 
172 174 174 173 159 156 157 162 168 169 168 167 165 162 158 155 
153 154 156 158 154 157 159 159 160 160 161 163 165 164 164 163 
162 161 160 159 158 159 160 162 164 166 166 167 176 174 171 167 
163 159 156 154 153 154 156 156 156 154 152 150 156 158 158 155 
148 143 141 140 142 141 138 137 136 137 137 137 145 152 151 143 
138 140 135 124 113 121 127 121 107  99 100 105  92  88 116 215 
223 216 206 194 190 189 191 193 193 192 189 187 169 169 168 167 
166 168 172 175 171 171 170 170 169 167 165 164 155 155 157 160 
162 165 168 169 170 170 168 166 163 160 159 164   0  22  47  69 
 94 106 117 128 135 137 136 138 143 147 150 152 154 155 156 157 
156 153 153 161 168 170 171 173 179 179 176 171 170 172 175 174 
168 164 164 168 169 165 160 156 154 156 158 160 159 157 155 153 
158 160 162 162 162 162 163 165 165 163 161 160 158 158 158 159 
157 159 163 168 171 173 174 174 170 168 164 160 157 156 156 157 
161 159 155 152 153 156 160 163 158 160 160 156 150 145 143 142 
146 145 145 145 147 149 151 151 147 150 149 143 139 135 125 112 
113 112 112 111 109 109 109 108 104  94 119 218 225 225 221 206 
202 199 196 192 189 184 179 176 172 173 176 177 175 174 173 173 
170 170 170 171 171 170 170 169 171 167 160 156 154 156 160 163 
169 165 159 155 155 158 162 164   0  31  54  72  91  99 105 112 
119 123 130 138 143 146 148 151 155 160 165 169 156 151 153 163 
171 172 172 172 183 182 179 174 172 174 174 174 171 166 162 162 
162 158 156 155 155 156 156 156 156 155 154 153 161 162 163 163 
164 164 164 164 163 161 159 159 159 160 162 163 168 169 170 171 
170 168 166 164 157 157 157 158 158 158 158 159 158 157 157 157 
158 160 163 163 159 160 162 160 155 152 150 150 152 152 154 156 
158 160 160 160 155 153 146 137 131 130 128 124 124 121 121 123 
124 121 113 105 114 105 137 231 236 222 223 219 221 213 203 192 
183 177 172 169 183 184 185 184 182 177 172 168 172 171 170 170 
169 168 168 167 168 170 171 170 166 161 155 151 148 150 153 158 
162 166 167 164   0  34  54  68  73  84  93 103 112 120 130 141 
143 147 152 157 161 166 171 173 156 150 151 162 172 172 171 172 
178 179 177 174 171 170 168 165 162 159 157 157 157 155 157 159 
159 158 156 155 156 159 161 164 163 161 160 161 164 165 164 163 
164 164 164 164 165 167 168 169 175 174 171 167 163 160 157 156 
156 157 157 158 158 158 158 158 155 157 161 164 164 162 159 157 
158 159 161 162 162 161 160 159 161 161 162 163 162 159 156 154 
141 140 138 132 127 128 133 137 127 125 122 117 114 116 121 125 
100 106 151 235 248 235 238 226 211 206 201 197 196 195 194 193 
179 177 177 178 181 182 182 182 175 173 171 169 168 168 167 167 
162 165 169 171 169 163 157 152 148 152 158 164 167 167 165 164 
  0  17  32  42  59  74  90 106 117 125 133 142 150 157 163 168 
169 168 165 163 157 150 150 161 171 172 171 172 168 171 172 169 
167 164 159 155 157 156 156 157 156 154 154 158 153 157 163 168 
172 173 172 171 162 159 157 159 163 165 164 162 168 169 170 171 
171 171 170 170 167 165 162 160 158 158 160 160 161 160 158 157 
157 159 161 162 165 164 162 160 159 159 160 160 154 154 156 161 
163 166 165 163 169 169 168 166 161 155 148 143 145 142 141 142 
144 142 135 128 129 130 132 133 131 127 121 115 122 111 114 159 
194 215 239 222 216 214 214 214 211 208 202 197 194 186 177 172 
171 173 173 172 175 174 172 171 171 171 172 172 175 168 159 151 
149 154 161 167 175 171 164 157 155 155 159 164   0  16  31  46 
 65  78  93 108 116 119 129 143 153 158 161 161 162 166 169 169 
153 153 154 160 167 172 174 173 173 169 163 157 154 154 155 157 
156 156 156 155 155 155 159 163 164 170 174 174 173 175 175 174 
176 161 151 153 158 159 161 165 168 170 173 174 172 167 162 159 
155 157 159 160 159 158 156 156 158 159 161 163 163 163 163 162 
161 162 162 162 161 161 160 160 159 157 156 157 160 164 169 172 
168 163 158 152 148 148 149 150 146 144 143 144 145 145 141 136 
133 133 133 134 133 131 128 125 127 120 117 118 121 132 157 180 
219 229 233 225 214 209 207 204 197 194 188 188 181 169 168 166 
172 172 173 173 172 171 169 168 155 156 157 159 162 164 167 169 
166 167 169 169 168 165 162 164   0  17  33  49  63  74  89 103 
113 120 133 149 155 162 167 166 167 168 167 166 155 158 163 171 
177 177 172 168 157 158 157 157 157 158 158 158 157 155 154 157 
160 161 164 167 170 173 175 172 172 173 175 174 167 157 151 156 
163 165 167 170 171 170 168 165 162 160 158 157 159 158 157 156 
156 158 160 162 160 161 162 162 162 162 161 161 160 160 159 160 
161 161 162 163 166 168 169 169 169 167 165 164 156 156 155 155 
154 153 152 152 151 149 149 151 152 150 145 140 139 138 137 137 
136 133 130 128 123 120 123 127 124 119 118 123 140 158 185 209 
224 225 215 203 205 199 193 193 188 181 178 173 161 163 168 172 
171 166 158 153 160 161 163 165 167 168 169 169 169 168 167 166 
166 166 166 164   0  15  32  49  69  80  93 106 114 120 131 145 
154 159 160 159 162 167 171 171 172 174 177 182 182 178 170 164 
155 155 155 155 155 155 155 154 158 153 153 159 166 168 170 172 
176 177 176 172 170 173 175 175 165 158 156 163 169 169 168 170 
165 163 160 158 157 157 158 159 159 158 157 155 157 160 163 165 
162 162 162 161 160 160 159 159 160 160 160 161 163 165 168 169 
169 170 171 170 167 163 158 155 155 155 156 156 155 154 152 150 
157 156 157 158 158 154 148 143 143 141 141 140 139 138 136 134 
142 136 135 138 136 126 118 113 108 106 113 131 155 180 202 215 
217 208 203 197 190 189 188 180 181 171 159 149 146 149 156 161 
167 168 169 170 170 169 168 166 165 166 168 169 170 168 166 164 
  0  16  32  49  63  77  91 105 116 124 135 146 152 158 162 165 
170 178 182 182 188 185 180 176 172 167 163 160 159 158 155 153 
153 155 157 160 160 153 151 161 171 173 173 173 178 179 177 173 
171 174 175 174 172 167 164 167 169 166 163 162 158 158 158 158 
158 157 157 157 155 156 158 161 164 164 163 162 163 163 161 161 
160 160 160 160 163 164 165 167 169 170 172 172 168 166 163 160 
157 156 156 156 159 158 156 155 154 155 156 156 162 161 160 161 
159 156 151 148 146 145 145 145 146 146 146 145 149 142 137 138 
138 134 130 128 123 113 104 100  99 108 129 148 181 184 203 203 
191 191 186 177 173 169 165 161 159 157 157 157 164 164 166 168 
168 169 168 168 166 167 167 168 167 165 164 164   0  19  35  49 
 67  79  90 101 111 121 132 142 161 169 176 182 187 189 186 181 
180 175 167 160 157 156 156 157 156 156 156 157 160 164 168 171 
161 152 151 162 173 174 173 172 177 178 177 174 173 174 173 171 
172 169 166 164 163 160 158 157 158 158 158 158 157 157 156 156 
157 158 159 163 165 165 163 161 165 164 164 164 163 164 164 165 
168 170 171 172 171 169 167 166 163 162 158 155 154 156 157 159 
156 156 157 157 159 161 163 164 162 161 159 158 159 159 157 156 
153 152 152 152 153 153 153 153 148 145 145 144 141 135 130 126 
125 120 119 115 103  91  89  93 103 126 185 206 193 189 179 171 
163 166 173 178 178 174 167 162 157 157 159 161 163 166 168 170 
173 170 166 164 163 165 166 164   0  17  32  47  66  79  91 104 
118 134 148 159 175 177 175 171 172 175 175 172 161 160 157 155 
154 156 157 159 156 159 163 167 171 172 172 172 161 151 150 163 
174 174 171 171 174 175 174 172 171 172 169 165 163 161 160 158 
156 157 157 158 157 156 156 156 159 162 166 168 166 163 158 157 
159 162 163 163 167 167 167 167 168 169 169 169 171 171 171 169 
166 162 158 156 157 157 157 157 157 157 157 157 158 159 162 163 
164 163 161 160 158 157 156 157 158 160 163 164 160 160 159 159 
158 158 157 155 156 155 153 149 144 139 136 135 128 120 116 115 
114 110 103  98  69  92 166 197 185 185 179 179 183 178 174 171 
170 172 174 175 165 163 161 160 159 159 160 160 164 166 169 171 
171 170 168 164   0  14  30  46  57  77  99 121 141 157 168 176 
166 164 156 150 150 157 160 160 154 155 156 157 158 159 160 161 
166 168 171 173 174 172 170 168 159 150 150 163 174 173 170 171 
172 172 170 167 166 166 163 158 157 157 157 156 154 156 158 160 
157 158 160 164 168 172 176 178 174 167 158 154 155 159 162 164 
166 167 168 169 169 169 168 168 167 166 164 161 159 157 155 154 
154 155 156 158 159 159 158 158 164 165 164 164 162 160 157 155 
157 157 158 158 159 160 162 163 162 162 162 163 162 160 158 156 
157 154 149 144 141 141 141 141 136 132 126 121 117 111 100  87 
 81  90 162 196 187 190 185 189 186 183 180 177 175 171 169 167 
173 171 169 166 163 159 157 156 156 159 165 169 170 167 163 164 
  0  13  32  50  82 104 126 143 152 152 146 142 141 145 147 150 
154 158 155 151 157 157 157 157 156 156 157 158 173 173 172 172 
171 172 172 172 157 149 150 164 174 173 170 172 172 171 167 162 
161 161 157 153 157 159 159 157 155 156 158 159 165 168 173 177 
178 176 173 171 176 168 159 154 155 157 159 160 164 165 166 167 
167 166 165 164 160 159 156 155 155 156 158 159 156 156 157 158 
160 163 165 167 165 163 161 158 158 159 160 162 160 161 162 161 
159 158 158 158 160 161 162 164 164 163 161 159 156 156 154 153 
152 150 146 140 135 137 133 120 109 106 102  95  88  91 167 209 
204 203 190 187 181 179 177 176 175 173 172 170 169 169 170 171 
170 168 166 165 163 159 154 150 149 153 159 164   0  26  56  81 
106 117 123 125 127 128 131 134 138 144 150 152 153 153 155 157 
154 155 155 155 155 156 159 161 171 172 174 175 175 173 172 170 
154 158 163 169 173 175 176 176 165 160 158 159 159 157 157 161 
158 154 154 157 160 162 164 166 169 174 177 174 172 172 174 175 
179 168 155 151 156 164 167 168 169 168 167 165 162 158 155 154 
156 156 157 157 155 156 156 158 159 160 162 163 163 162 161 159 
157 158 159 159 160 161 162 162 165 164 164 163 163 162 162 162 
159 158 157 156 158 161 164 165 158 157 157 157 156 152 149 146 
136 132 127 122 115 109 103  97  81 103 186 202 195 193 191 192 
190 184 179 174 172 172 173 174 171 170 167 166 166 168 170 172 
164 159 153 148 147 151 158 164   0  34  57  77  82  92  98 103 
111 122 133 143 140 145 149 151 153 153 155 157 157 157 155 153 
152 153 156 159 170 170 170 169 169 170 170 171 166 169 174 178 
178 176 172 169 164 160 157 157 157 155 156 159 158 154 153 158 
163 167 168 169 176 179 179 175 171 171 173 174 175 167 157 155 
161 166 168 168 163 163 162 161 159 157 155 154 153 154 155 156 
158 158 160 161 161 162 162 162 162 161 160 160 159 159 160 161 
162 163 164 164 165 165 164 164 164 163 163 162 161 159 157 156 
156 157 158 158 159 159 158 157 155 152 148 144 139 134 130 124 
119 113 106 100  88 113 194 207 197 189 182 179 177 176 179 180 
180 175 170 166 166 168 172 173 171 165 159 155 150 155 161 167 
168 167 164 164   0  26  40  53  62  77  90 102 112 121 129 136 
143 145 146 148 150 152 153 154 152 154 157 158 158 156 155 154 
163 165 167 171 174 177 180 181 179 180 180 178 175 170 166 162 
160 157 156 157 157 157 159 163 159 154 152 158 167 172 172 172 
178 181 180 176 172 173 174 174 172 167 161 161 165 167 166 163 
159 158 158 156 155 154 154 155 153 153 154 156 159 162 163 163 
161 162 161 160 159 159 158 158 160 160 162 162 164 164 165 166 
165 165 165 165 164 164 164 163 161 160 159 158 156 156 156 155 
160 159 158 156 154 150 146 142 140 136 132 127 122 115 109 103 
 89 123 203 215 207 196 189 182 177 174 173 172 171 172 172 171 
172 170 167 164 161 158 156 155 161 164 168 171 172 170 166 164 
  0  10  24  39  60  78  94 107 118 124 129 133 149 149 148 148 
150 152 153 153 153 154 156 156 155 155 156 157 165 168 173 178 
182 184 184 184 180 177 171 166 162 161 161 161 157 157 158 160 
162 165 168 171 161 154 150 158 169 175 174 173 173 177 177 175 
174 174 175 174 171 168 164 163 164 164 160 157 158 157 156 155 
155 156 156 157 160 158 157 157 159 160 161 161 161 162 162 162 
162 161 160 159 162 162 163 163 163 164 164 164 163 163 163 163 
163 163 163 162 161 161 161 161 161 160 160 159 160 159 158 156 
154 150 147 143 141 137 133 129 123 118 112 106  87 131 208 221 
214 204 200 192 185 178 171 166 164 166 170 172 170 165 159 155 
154 157 163 167 172 170 167 165 164 165 166 164   0  10  29  48 
 63  77  90 102 115 128 139 148 153 153 150 149 150 152 154 154 
159 156 153 150 151 157 166 171 180 179 178 176 174 173 171 170 
170 167 162 158 157 158 160 162 159 163 165 166 168 171 175 177 
162 154 151 158 169 174 174 171 168 171 174 173 172 173 172 169 
167 165 162 160 160 159 157 155 156 156 156 158 159 162 165 166 
171 168 163 159 157 156 156 156 161 163 165 167 167 166 165 163 
164 164 163 163 163 163 162 162 162 162 162 162 162 162 162 162 
162 163 163 164 164 164 163 162 159 158 158 156 155 152 150 147 
142 138 135 130 125 120 114 108  89 141 211 218 212 201 200 190 
185 182 179 175 171 164 159 155 152 153 156 161 164 167 167 168 
164 165 166 167 167 167 166 164   0  15  33  50  61  77  93 107 
120 132 141 149 150 151 149 147 148 150 152 153 151 156 161 167 
172 176 180 183 181 176 168 162 158 157 158 160 157 158 159 160 
160 161 161 161 164 169 172 172 172 174 176 176 162 154 151 158 
168 173 172 170 168 170 171 169 168 167 164 161 160 159 158 157 
157 158 158 159 155 157 160 163 167 172 175 177 178 175 168 160 
154 153 154 156 158 160 162 164 164 164 163 163 164 164 163 163 
162 162 161 161 161 161 161 162 162 162 162 163 164 164 164 164 
163 163 162 161 159 158 157 157 156 154 152 149 144 140 136 131 
127 121 115 108  90 150 213 216 211 200 201 191 189 186 182 177 
171 162 154 149 149 152 157 163 167 169 169 169 166 166 167 167 
166 166 164 164   0  16  31  47  64  82  99 114 125 132 136 140 
147 150 151 150 151 153 157 160 158 166 177 185 187 183 178 174 
165 162 158 153 152 154 157 159 154 156 158 159 160 160 159 159 
164 171 175 175 173 174 174 173 160 153 151 158 167 172 172 172 
169 170 168 164 162 162 160 157 157 157 158 158 158 157 159 160 
159 161 165 169 174 178 181 182 179 177 170 160 152 150 155 161 
158 158 158 158 159 160 161 162 162 163 163 163 163 162 163 163 
161 162 162 163 163 164 164 164 165 164 163 163 162 161 160 160 
160 159 158 157 155 154 153 150 145 142 137 132 127 121 115 108 
 92 159 218 218 213 202 205 193 189 182 175 168 164 163 163 164 
165 163 160 159 159 161 164 166 170 169 168 165 164 163 164 164 
  0  17  37  55  72  85  96 107 116 126 135 143 151 156 158 158 
159 162 167 172 187 187 186 181 173 165 159 156 155 155 157 157 
157 158 157 157 157 156 155 155 154 155 156 157 160 169 175 175 
174 174 173 171 159 153 152 159 167 173 174 174 170 168 165 159 
158 159 159 157 157 158 160 160 159 157 157 159 165 167 170 174 
177 179 181 181 177 175 169 159 151 150 157 165 164 162 160 158 
158 160 163 164 160 161 162 163 163 164 164 165 162 163 163 164 
164 165 165 166 164 164 163 162 162 162 162 162 161 160 159 157 
155 154 152 150 146 143 138 133 128 122 115 108  97 167 222 219 
213 199 200 187 177 172 168 165 166 169 173 175 176 172 167 161 
157 155 155 155 158 161 166 170 171 169 166 164   0  19  38  57 
 68  81  93 103 113 123 132 140 146 152 160 167 176 183 189 192 
185 179 170 162 158 157 158 159 155 159 160 158 157 158 159 157 
155 156 157 158 158 157 156 155 155 164 171 171 171 174 175 174 
160 163 167 171 174 175 173 173 167 164 163 162 161 157 157 158 
154 158 159 155 157 166 170 168 171 169 172 179 181 176 176 181 
179 176 171 152 155 147 158 167 175 172 168 165 161 158 157 156 
160 162 163 163 164 165 166 165 167 167 166 165 165 164 164 164 
163 163 163 163 163 163 162 162 161 161 160 159 157 156 153 151 
146 144 141 133 127 122 116 108 100 174 222 225 208 194 190 176 
178 176 177 178 177 175 172 169 172 170 169 168 169 166 162 159 
157 158 159 161 164 166 167 164   0  20  35  49  65  80  94 106 
115 122 127 131 153 165 178 188 190 185 176 170 160 159 158 157 
157 158 158 158 156 158 159 157 155 157 157 157 156 156 156 156 
156 156 156 155 159 165 168 168 168 172 175 175 173 174 175 174 
172 170 168 166 164 160 158 159 159 157 159 161 160 160 156 151 
155 165 172 170 170 169 174 179 178 173 176 183 175 173 168 149 
152 145 159 170 175 174 173 171 168 166 164 163 157 157 158 158 
159 162 163 165 165 165 164 164 163 163 163 163 163 163 163 163 
163 163 162 162 162 161 160 159 158 156 154 151 147 145 141 133 
127 122 116 108 102 171 212 209 195 189 193 185 185 181 178 176 
175 174 173 172 168 167 166 167 169 170 169 168 167 164 160 157 
157 160 164 164   0  15  29  43  64  76  88 100 116 134 151 163 
174 178 180 179 174 167 160 155 154 154 154 156 158 158 158 157 
160 162 162 159 157 158 160 159 158 157 157 156 156 157 157 158 
159 164 169 171 171 174 177 178 181 179 176 172 168 165 162 161 
161 158 157 159 160 161 164 167 167 162 153 148 154 166 172 171 
168 169 173 176 173 170 174 183 185 183 176 153 151 143 157 169 
171 172 173 174 173 172 170 169 161 159 158 157 157 158 160 162 
162 162 162 161 161 161 162 162 163 163 163 163 163 163 163 162 
162 161 160 159 158 156 154 151 147 145 141 134 128 123 116 106 
105 174 208 201 190 187 193 189 190 186 182 178 175 172 169 168 
171 169 167 167 168 169 169 169 168 167 166 165 161 159 159 164 
  0  14  32  49  61  79  99 119 139 156 171 181 173 170 162 154 
149 150 154 157 161 159 157 156 158 160 161 162 164 166 164 159 
156 158 159 158 157 157 156 156 158 160 161 163 167 171 175 177 
176 174 171 170 173 171 167 164 161 160 159 160 160 160 161 164 
167 168 170 173 172 162 151 146 155 167 173 171 168 167 168 170 
169 168 173 180 189 187 180 157 152 142 155 167 169 170 172 174 
175 175 174 174 172 169 166 164 161 157 156 157 160 160 160 161 
161 161 162 163 163 163 163 163 163 163 163 162 162 161 161 159 
158 156 154 151 148 145 141 134 129 124 116 105 109 183 217 209 
199 192 191 185 181 179 178 177 176 173 170 167 172 170 169 168 
167 167 166 166 167 168 169 167 164 160 158 164   0  11  29  49 
 75 100 128 150 160 159 152 149 147 149 149 150 151 153 156 159 
157 156 156 157 161 164 166 167 164 164 163 157 154 155 155 154 
155 156 158 160 164 167 170 172 179 178 176 173 168 162 159 158 
161 159 157 156 156 157 160 161 160 160 165 171 174 173 173 175 
172 162 150 148 157 169 172 169 167 164 163 164 167 168 171 174 
174 175 172 152 151 144 156 169 170 171 172 174 176 178 179 180 
180 176 174 172 167 159 154 155 160 160 160 161 161 162 163 164 
163 163 163 163 163 163 163 162 162 161 161 160 158 156 154 151 
148 145 140 134 129 124 115 104 115 195 228 219 211 200 191 183 
173 171 170 170 171 173 173 173 167 168 169 170 170 169 168 168 
167 164 160 157 157 160 163 164   0  22  50  76 107 120 130 134 
135 132 131 132 137 143 149 153 155 155 155 153 156 158 160 164 
166 166 165 162 165 166 165 161 159 159 159 158 161 164 167 171 
175 177 179 179 175 170 164 160 156 154 155 158 156 155 155 154 
155 157 159 160 158 159 166 172 176 175 173 173 170 160 149 150 
160 169 171 168 168 164 161 162 166 170 172 172 167 168 166 148 
150 144 156 169 167 168 170 172 175 177 179 180 181 176 174 174 
169 159 154 155 160 161 161 161 161 162 163 164 163 163 163 163 
163 163 163 163 162 161 161 160 158 156 154 151 148 145 140 134 
129 124 114 102 123 203 231 217 212 203 195 189 183 177 171 166 
164 165 167 169 169 169 171 170 168 166 164 164 156 156 156 158 
161 164 166 164   0  41  71  95 100 106 104 102 106 116 130 142 
144 148 149 150 152 153 155 157 163 163 164 164 165 163 160 158 
166 169 170 168 166 167 168 167 172 175 177 179 179 176 173 170 
163 158 154 155 155 154 157 161 156 156 156 156 157 156 156 156 
156 158 163 171 174 173 172 173 169 158 149 150 160 168 170 169 
168 167 165 165 167 172 174 175 174 173 167 148 150 143 155 166 
162 164 168 172 176 178 180 181 181 176 173 173 168 157 153 155 
160 160 160 160 161 161 162 162 163 163 163 163 163 163 163 163 
162 161 161 160 158 156 154 151 149 145 139 134 130 124 113 100 
129 209 230 211 209 202 196 194 191 185 178 171 166 163 161 160 
168 169 168 166 162 159 157 157 154 158 163 167 169 169 166 164 
  0  36  43  47  54  72  88 102 115 124 131 137 143 147 149 152 
156 160 164 167 163 161 158 157 158 159 160 160 164 168 170 169 
169 171 172 171 178 179 179 178 172 165 156 151 160 157 158 161 
161 157 155 155 156 157 158 158 157 157 155 154 155 156 162 169 
173 173 174 175 168 157 148 149 159 167 170 170 169 170 170 169 
169 172 176 178 176 172 165 145 148 143 156 167 160 164 170 176 
181 183 184 184 184 177 172 172 165 156 152 155 159 159 159 159 
160 160 161 162 163 163 163 163 163 163 163 163 162 161 161 160 
158 156 154 151 148 144 139 133 129 124 113 100 133 213 231 210 
207 201 194 193 183 181 180 179 175 170 165 162 159 160 159 158 
156 155 157 159 170 170 168 167 167 166 165 164   0   4  19  38 
 59  76  90 103 113 121 129 136 144 150 156 158 159 159 161 163 
159 158 158 157 157 158 160 160 159 160 162 166 172 178 182 183 
176 171 164 158 155 156 159 162 155 157 158 159 158 157 157 157 
157 157 157 157 157 157 157 156 154 157 162 165 167 169 171 172 
169 159 149 149 159 168 170 168 169 168 168 170 173 176 177 178 
175 175 161 146 149 141 160 166 169 166 167 174 183 188 187 184 
183 176 171 169 162 155 155 160 160 160 161 161 161 162 162 163 
163 163 163 163 163 163 163 162 163 162 161 160 159 157 154 152 
147 146 140 131 128 125 114  98 144 218 223 214 204 202 196 188 
183 180 177 176 175 173 172 171 161 155 148 143 145 153 162 169 
169 168 166 165 164 164 165 164   0  14  30  46  60  76  91 102 
111 121 133 143 147 154 159 161 160 156 154 153 151 153 156 159 
163 165 167 168 166 170 177 182 183 180 172 166 159 158 157 157 
157 157 158 159 158 159 160 160 158 157 156 156 158 158 158 157 
156 156 155 155 156 158 161 163 164 165 166 167 164 156 149 149 
159 167 170 169 170 169 169 170 172 175 177 178 175 174 161 145 
149 141 159 165 167 165 164 167 172 175 174 173 187 187 189 187 
174 158 150 150 160 160 160 160 161 162 162 163 163 163 163 163 
163 163 163 162 163 162 161 160 158 157 154 151 147 145 140 131 
127 124 113  98 145 221 227 217 203 199 196 191 188 184 181 176 
171 166 163 160 156 158 162 165 165 162 157 155 159 161 166 169 
170 167 164 164   0  14  29  46  59  77  94 107 117 127 138 148 
149 152 152 152 152 153 156 159 165 164 162 162 163 167 171 174 
183 181 178 174 170 164 158 154 157 157 157 158 157 157 158 158 
163 165 165 164 161 159 158 157 158 158 158 157 157 157 157 157 
159 161 163 164 163 162 163 162 165 160 155 156 162 168 170 171 
170 170 169 170 171 174 176 178 175 174 160 144 149 141 160 166 
167 165 164 165 166 168 168 168 178 183 191 192 180 161 152 153 
159 160 160 160 161 162 162 163 163 163 163 163 163 163 163 162 
163 162 161 160 158 156 154 151 146 145 139 131 127 123 113  99 
153 222 224 215 205 201 195 189 188 182 176 170 165 161 159 158 
164 166 170 171 170 166 162 159 158 158 158 160 162 165 166 164 
  0  14  29  46  67  84 100 114 124 131 136 141 142 145 147 148 
150 155 160 164 161 164 167 171 176 181 185 187 179 172 164 156 
153 153 154 155 160 160 158 157 157 159 161 163 165 166 166 164 
161 158 157 157 156 156 158 159 161 162 162 163 164 165 166 166 
165 163 163 163 166 164 162 161 163 165 167 167 169 169 169 170 
171 173 176 178 175 173 159 144 149 142 160 166 167 166 165 165 
165 167 170 172 167 169 175 178 170 158 154 158 159 159 160 160 
161 162 162 163 163 163 163 163 163 163 163 162 162 162 161 160 
158 156 154 151 147 144 139 131 126 122 112 100 158 217 211 207 
206 205 195 185 179 173 168 164 162 164 166 167 171 170 168 167 
167 168 170 170 165 162 158 156 156 159 163 164   0  21  39  56 
 78  91 102 113 124 130 132 134 139 145 151 156 160 162 163 162 
167 173 180 186 185 180 173 168 156 156 155 156 158 159 159 158 
156 156 156 157 160 163 166 168 162 164 164 162 160 157 156 156 
159 160 161 162 164 165 166 167 165 166 167 166 165 165 165 165 
162 162 162 161 160 160 162 162 166 167 169 170 171 173 176 179 
176 173 158 142 149 142 160 166 164 164 164 163 163 166 170 174 
171 168 167 167 161 152 150 154 159 159 160 160 161 162 162 163 
163 163 163 163 163 163 163 162 162 162 161 160 158 156 153 150 
146 143 138 132 126 120 112 102 163 218 208 202 199 196 188 182 
171 169 168 168 169 171 172 172 166 167 168 170 170 170 168 167 
168 169 168 167 164 161 158 164   0  17  39  60  74  85  95 107 
120 132 140 145 149 151 154 158 164 170 176 179 190 188 183 176 
168 159 152 149 153 154 155 157 159 160 159 157 158 160 163 165 
166 165 164 163 162 164 165 165 164 162 162 162 166 166 166 166 
166 166 166 165 165 165 166 165 164 164 164 165 161 161 162 162 
162 162 162 162 161 164 168 170 171 173 176 179 177 173 156 142 
148 142 161 166 167 167 166 166 166 168 172 174 178 173 169 169 
163 154 150 153 159 159 160 160 161 162 162 163 163 163 163 163 
163 163 162 162 162 162 161 159 158 156 153 150 146 143 138 132 
126 119 111 103 179 231 217 204 189 177 172 172 170 170 174 177 
177 174 171 168 167 167 168 168 167 166 166 165 169 169 168 168 
167 166 165 164   0  12  29  50  61  78  95 109 122 134 147 156 
158 160 161 164 171 177 183 186 174 170 163 156 152 153 157 160 
161 159 155 153 154 156 158 160 165 166 167 167 165 163 159 158 
161 164 165 167 167 168 169 169 169 169 169 168 167 166 166 165 
165 166 166 165 164 163 164 165 165 164 164 164 164 163 163 162 
155 159 166 170 172 174 177 179 177 173 156 141 148 143 161 166 
169 168 168 169 171 173 175 177 178 175 173 171 163 155 154 159 
159 159 160 160 160 162 162 163 163 163 163 163 163 163 162 162 
162 161 160 159 158 155 153 150 146 142 138 132 125 117 110 104 
188 233 214 202 190 180 175 175 174 173 173 173 173 171 169 167 
171 169 166 164 164 165 167 168 168 166 164 163 165 168 170 164 
  0  18  28  36  58  82 105 119 127 133 142 151 157 165 175 183 
187 182 172 165 152 154 155 155 155 154 153 154 155 154 154 157 
160 163 165 165 164 162 160 158 157 158 159 160 156 158 162 164 
166 167 169 170 169 169 169 169 168 168 168 167 167 167 167 166 
164 164 164 165 167 166 164 163 162 160 158 157 151 157 165 170 
173 174 177 180 177 173 156 141 148 143 161 166 166 166 165 168 
172 176 178 178 180 177 174 168 157 149 152 161 159 159 160 160 
160 162 162 163 162 163 163 163 163 162 162 162 162 161 160 159 
157 155 153 150 146 141 137 132 125 117 110 105 181 217 194 193 
200 202 196 190 177 172 167 162 162 165 169 171 167 167 168 169 
170 169 168 166 165 166 169 170 169 167 164 164   0  16  25  34 
 55  74  90 106 124 143 152 155 180 181 178 170 160 153 151 152 
154 154 155 157 158 158 154 151 159 161 163 165 165 165 163 163 
161 160 159 158 158 159 161 163 163 162 162 162 162 163 164 164 
170 169 169 167 167 167 168 168 165 165 167 168 169 169 169 169 
167 165 164 162 159 157 155 153 153 159 167 171 172 173 176 178 
176 173 154 146 143 147 163 165 166 166 167 169 172 174 176 178 
178 176 173 167 159 153 154 158 159 160 160 160 161 162 162 163 
163 163 163 163 163 163 163 162 163 162 161 159 158 156 153 150 
145 144 133 132 120 117 104 112 185 210 215 212 206 198 193 181 
184 180 174 169 165 161 158 156 168 168 168 168 168 167 167 167 
169 167 165 165 165 162 158 164   0  14  27  40  55  76  96 113 
131 151 166 174 161 159 153 148 147 148 152 155 158 155 151 149 
152 158 163 167 164 164 164 164 163 161 160 159 159 160 159 159 
160 162 164 165 166 166 165 164 163 163 162 162 161 163 165 168 
169 169 168 167 168 168 169 168 168 167 167 166 163 162 161 160 
158 157 156 154 154 159 167 172 172 173 176 178 176 173 154 146 
143 147 163 165 166 166 167 169 171 174 176 178 178 176 173 167 
159 152 153 158 159 159 160 160 161 162 162 163 163 163 163 163 
163 163 163 162 162 162 161 159 158 155 153 150 144 143 133 132 
121 118 105 117 209 226 219 207 200 194 196 188 182 179 177 174 
171 168 166 164 152 155 161 167 170 170 169 167 168 168 165 154 
145 147 158 164   0  12  20  31  59  90 121 141 149 149 144 141 
139 141 141 145 150 152 152 151 152 154 157 160 161 163 166 167 
165 164 162 160 159 158 158 158 159 159 160 162 163 165 166 167 
168 168 166 165 164 163 163 163 158 160 162 165 167 167 167 167 
170 170 169 168 167 165 164 163 159 159 158 158 158 157 157 156 
154 160 167 172 173 173 176 178 176 173 154 146 144 148 164 165 
166 166 167 169 171 174 176 178 178 176 173 167 158 152 153 158 
159 160 160 161 161 162 163 163 163 163 163 163 163 163 163 162 
162 161 160 159 157 155 152 149 144 141 134 131 122 119 104 125 
210 226 219 209 201 194 194 186 180 178 178 176 175 173 170 169 
165 160 156 153 155 160 166 170 160 152 147 151 162 170 170 164 
  0  16  39  61  92 108 118 123 124 124 126 129 136 140 144 149 
153 154 152 150 153 160 167 171 170 166 162 160 161 159 157 156 
155 157 158 160 160 161 163 165 166 167 167 167 166 166 166 165 
165 165 165 165 165 163 161 160 160 163 166 168 168 168 167 166 
164 163 161 160 158 158 158 157 158 157 157 156 154 160 167 172 
173 174 176 178 176 172 153 145 144 148 164 165 165 166 167 169 
171 174 176 178 178 176 172 166 158 152 153 159 160 160 160 161 
161 162 163 164 163 163 164 164 164 163 163 163 162 161 160 159 
157 155 152 149 144 140 135 130 122 119 101 131 207 222 216 209 
203 195 192 183 181 178 176 174 172 171 169 168 169 169 168 165 
160 154 148 145 149 157 167 172 171 166 163 164   0  29  56  80 
 88  93  93  96 104 116 129 140 141 144 144 144 145 148 154 160 
165 167 166 164 161 160 162 164 160 159 157 157 157 159 161 163 
162 164 165 166 166 166 165 165 165 165 165 164 164 165 165 165 
167 165 163 160 160 162 164 166 165 165 163 163 162 161 161 160 
160 159 159 158 158 157 156 156 154 160 168 172 173 174 176 179 
176 172 153 144 144 150 164 164 165 166 167 169 171 174 176 178 
179 176 172 166 158 152 154 159 160 161 161 161 161 162 163 164 
163 163 163 163 163 163 163 163 162 161 160 159 157 155 152 149 
145 140 136 128 121 117  97 138 218 227 215 205 200 194 194 188 
182 179 175 173 171 170 170 169 170 169 166 162 158 153 149 147 
154 158 163 164 164 164 165 164   0  25  36  48  57  70  86 103 
116 123 127 131 137 143 148 151 151 153 157 161 163 162 160 158 
157 158 161 164 165 164 164 163 162 163 163 164 164 165 166 166 
165 165 164 164 166 166 165 164 163 163 163 163 163 163 165 166 
166 165 164 163 162 162 162 161 161 161 161 162 161 160 160 159 
158 157 157 156 155 160 168 172 173 174 176 179 177 172 151 145 
145 150 165 164 165 166 167 169 171 174 176 178 179 176 172 166 
158 152 154 159 160 160 161 161 162 162 163 164 164 164 164 164 
164 164 163 163 162 161 160 159 157 154 152 148 144 139 136 126 
120 116  94 144 212 220 211 205 203 196 194 187 183 180 177 174 
172 171 170 170 166 160 153 149 151 158 168 174 165 156 149 152 
161 168 168 164   0   9  23  39  60  73  87 102 113 120 128 135 
140 149 159 166 168 165 161 158 151 154 157 161 164 164 162 160 
168 168 168 169 168 166 165 165 164 164 165 165 165 164 163 163 
165 164 164 164 164 164 165 165 162 164 165 167 167 166 163 162 
163 162 161 161 161 162 162 162 160 160 159 159 158 158 157 156 
155 160 168 173 173 174 177 179 177 171 151 144 145 151 165 164 
165 166 167 168 171 174 176 178 179 176 172 165 157 152 154 159 
160 160 161 161 162 163 163 164 164 164 164 164 164 164 163 163 
162 161 160 158 157 154 151 148 144 138 137 126 121 117  94 152 
205 213 204 200 201 193 191 183 181 179 177 175 171 168 164 161 
150 153 159 164 169 170 169 169 167 172 174 167 156 150 153 164 
  0  11  30  50  61  75  90 103 113 120 132 145 156 160 164 168 
171 169 164 160 150 151 154 160 165 167 165 164 166 168 169 171 
170 168 167 165 164 163 164 163 163 163 164 163 162 162 163 163 
165 166 168 168 167 167 166 164 163 163 163 163 163 163 162 161 
161 162 163 163 159 158 158 158 158 158 158 157 155 161 168 173 
173 174 177 179 177 171 151 144 145 151 165 164 165 166 167 169 
171 174 176 178 179 176 172 165 157 152 154 160 160 160 161 161 
162 163 163 164 164 164 164 164 164 164 163 163 162 161 160 158 
156 154 151 148 143 137 137 125 122 118  95 157 221 221 201 190 
188 184 189 186 179 178 176 174 168 161 154 149 162 164 167 170 
169 168 166 164 168 166 164 165 168 168 166 164   0  14  27  47 
 58  78  89  99 117 130 137 146 158 158 165 172 173 173 166 154 
152 148 153 160 157 158 164 168 164 165 164 164 165 167 169 170 
168 167 164 164 164 164 162 161 165 165 166 166 167 167 167 168 
163 163 163 163 163 162 162 162 162 162 162 162 162 162 162 162 
161 160 160 159 159 158 157 157 154 162 170 172 172 174 178 180 
180 168 150 147 139 157 163 165 165 166 167 168 171 174 177 178 
179 177 172 164 156 153 155 159 160 160 161 161 162 163 163 164 
164 164 164 164 164 163 163 163 162 161 160 159 157 154 152 148 
141 140 133 129 123 110 101 168 225 220 214 204 191 180 174 171 
178 175 170 163 158 158 163 168 170 169 169 169 168 167 166 165 
166 167 168 166 164 163 165 164   0  13  25  46  58  82  97 107 
121 134 144 156 153 157 168 176 177 176 170 158 151 148 158 168 
165 161 161 160 164 165 166 167 166 165 164 164 168 168 168 167 
167 166 165 164 168 167 167 166 165 164 163 163 163 163 163 163 
163 162 162 162 162 162 162 162 162 162 162 162 161 161 160 160 
159 158 158 157 154 162 170 172 172 174 178 180 179 168 150 147 
139 157 164 165 165 166 167 169 171 174 176 178 179 177 172 164 
156 152 155 159 160 160 161 161 162 163 163 164 163 164 164 164 
164 163 163 163 162 161 160 159 157 154 151 148 144 140 132 127 
120 107 101 171 227 216 208 204 203 196 184 172 162 154 149 154 
164 173 176 175 169 168 167 166 166 168 169 171 164 166 169 169 
168 167 166 164   0  12  24  44  56  85 104 114 125 135 148 164 
160 162 167 170 169 171 167 155 151 149 159 172 170 166 163 159 
160 160 162 162 164 165 165 166 167 169 170 171 170 168 167 167 
167 167 166 165 164 163 161 161 163 163 163 163 163 162 162 162 
163 163 163 163 163 162 162 162 161 161 160 160 159 159 158 157 
155 163 171 172 173 175 179 180 180 168 150 148 139 158 164 165 
165 166 167 169 171 174 177 178 179 178 172 163 155 152 154 159 
160 160 161 161 162 163 163 164 163 164 164 164 163 163 163 163 
162 161 160 158 156 154 151 147 144 140 131 125 119 107 105 179 
228 222 215 207 197 188 180 175 163 162 161 161 161 163 166 168 
170 169 169 168 168 168 168 168 169 168 168 169 168 167 165 164 
  0  11  22  41  54  84 105 115 125 134 146 161 161 162 168 172 
174 176 166 149 152 147 155 167 169 169 170 168 164 161 158 156 
157 160 163 166 163 166 169 170 168 167 166 167 162 163 163 163 
163 163 163 164 163 163 163 163 163 162 163 163 163 163 163 163 
163 163 162 162 161 161 161 160 159 159 158 157 156 164 171 173 
173 176 179 180 180 168 149 148 141 159 164 164 165 166 167 169 
171 174 177 178 179 178 172 163 154 152 154 159 160 160 161 161 
162 163 163 164 163 163 164 164 163 163 163 162 162 161 160 158 
156 154 151 147 143 138 130 127 120 110 111 188 228 222 212 198 
184 176 175 176 180 180 179 172 162 155 154 156 163 164 167 170 
170 170 168 167 169 167 164 165 167 168 167 164   0  12  20  39 
 54  83 103 113 125 132 140 152 149 155 168 182 191 194 178 153 
150 145 152 164 167 169 173 173 173 170 166 161 158 157 158 159 
160 162 164 164 164 163 163 163 160 160 161 162 163 164 164 165 
163 163 164 163 163 163 163 163 163 163 163 163 163 163 163 162 
161 161 161 160 160 159 158 158 157 164 172 173 173 176 179 181 
179 167 149 148 142 161 165 164 165 166 167 169 171 175 177 178 
180 177 171 162 154 152 155 159 160 160 161 161 161 163 163 164 
163 163 163 163 163 163 163 162 162 161 160 158 156 154 151 147 
141 137 130 128 121 109 111 191 221 208 195 188 188 189 184 179 
185 178 172 172 174 172 166 159 155 157 159 163 166 168 170 170 
165 164 164 166 170 171 169 164   0  11  19  37  55  83 102 113 
124 131 136 144 152 154 162 172 183 193 184 161 148 145 154 167 
169 168 170 169 173 174 174 173 170 166 162 160 160 159 158 158 
160 161 161 161 161 161 162 162 163 163 163 163 163 163 164 163 
163 163 163 163 163 163 163 163 163 163 163 163 162 161 161 160 
160 159 159 158 157 165 173 174 174 176 179 181 180 167 149 148 
143 162 165 164 165 166 167 169 171 175 177 179 180 177 171 161 
153 151 155 159 160 160 161 161 161 163 163 164 163 163 163 163 
163 163 163 162 162 161 159 158 156 153 150 147 143 138 130 127 
118 105 109 192 211 204 200 198 196 194 191 187 178 175 173 173 
174 174 172 170 163 161 158 156 157 159 163 165 167 168 170 172 
171 168 164 164   0  10  18  35  54  83 103 114 124 129 133 141 
157 157 158 159 164 176 173 156 146 145 156 168 168 166 168 168 
169 172 176 179 178 176 172 169 164 159 155 154 157 161 161 160 
162 162 163 162 163 162 162 163 163 164 164 163 163 163 163 163 
163 163 163 163 163 163 163 163 162 162 161 161 160 160 159 158 
158 166 173 175 175 177 180 181 180 167 149 149 144 162 165 163 
166 166 167 169 172 175 177 179 180 177 171 161 153 150 155 159 
160 160 161 161 161 162 163 164 163 163 163 163 163 163 163 162 
162 161 159 158 156 153 150 147 143 137 129 126 117 106 114 200 
214 214 213 207 197 190 188 188 178 180 181 176 168 164 167 172 
172 169 165 161 158 157 156 157 166 167 167 166 163 160 158 164 
  0   8  17  35  51  82 104 115 123 126 131 141 143 152 161 164 
164 169 162 144 148 146 155 165 164 164 171 173 174 175 177 178 
178 176 174 172 168 161 154 153 157 162 163 161 161 162 162 162 
163 163 163 164 164 164 164 163 163 163 163 163 163 163 163 163 
163 163 163 163 162 162 161 161 160 160 159 158 158 167 174 176 
175 177 180 181 181 167 149 149 144 163 166 164 166 167 168 169 
172 175 177 179 180 177 171 161 153 151 155 159 160 160 161 161 
161 162 163 164 163 163 163 163 163 163 163 162 161 161 159 158 
156 153 150 146 143 137 128 126 118 109 121 210 229 218 208 202 
199 195 188 181 184 177 172 170 172 173 171 168 168 169 170 170 
168 165 160 158 155 155 155 153 152 156 161 164   0   9  16  33 
 52  83 102 111 124 133 139 146 148 157 164 167 171 171 162 150 
146 144 153 162 160 159 166 170 169 168 172 180 183 180 175 173 
171 154 148 154 158 161 161 156 161 162 162 162 163 163 163 163 
163 163 163 163 163 164 164 164 164 164 164 163 163 163 163 162 
162 162 161 160 160 159 158 158 156 165 174 178 176 176 180 184 
182 168 156 150 150 160 167 163 164 166 169 171 173 175 178 180 
180 178 171 160 153 153 156 158 159 160 160 162 162 163 163 164 
164 164 164 164 164 164 163 163 162 161 160 158 156 152 149 146 
140 141 130 126 118  99 131 204 222 216 211 205 199 193 187 183 
182 179 176 173 172 171 171 171 170 169 168 168 167 168 169 170 
154 150 146 144 148 155 163 164   0   9  16  34  53  82 101 111 
124 133 139 147 150 158 165 168 172 172 163 152 146 145 154 163 
161 161 167 170 180 178 178 179 182 182 179 176 169 155 152 157 
158 160 161 159 161 162 162 162 163 163 163 163 163 163 163 163 
164 164 164 164 164 164 164 163 163 163 163 162 162 162 162 161 
160 159 158 158 160 159 160 166 174 180 181 180 184 170 156 149 
149 161 171 168 166 168 169 170 172 174 177 179 180 179 171 160 
153 153 156 159 159 160 160 162 162 163 163 164 164 164 164 164 
164 164 163 163 162 161 160 158 155 152 149 145 139 139 130 125 
118 100 133 204 212 207 201 198 196 194 193 190 177 176 176 176 
174 172 169 167 163 166 169 172 170 164 158 153 156 157 158 159 
160 161 161 164   0  10  18  35  53  82 101 111 123 133 138 146 
151 160 166 169 174 174 164 152 146 144 155 166 164 164 168 170 
187 186 182 178 179 182 177 169 166 155 153 158 158 158 162 161 
161 162 162 162 163 163 163 164 163 163 163 164 164 164 164 164 
164 164 164 163 163 163 163 163 162 162 162 161 160 159 159 158 
163 166 170 170 168 168 172 174 177 163 152 147 148 161 171 168 
167 167 169 170 172 174 178 180 180 178 171 160 153 154 157 159 
159 160 161 162 162 163 163 164 164 164 164 164 164 163 163 163 
162 161 160 157 155 152 149 145 139 137 129 125 117 102 136 206 
216 209 201 194 190 187 186 184 184 180 176 173 171 170 169 169 
172 170 166 162 159 156 155 155 162 165 168 171 170 166 162 164 
  0  10  18  36  53  83 102 112 124 133 139 146 152 160 166 169 
174 175 164 151 144 143 154 167 166 165 167 168 177 181 179 177 
181 187 183 171 168 154 151 155 156 158 162 162 161 162 162 163 
163 163 163 164 163 163 163 164 164 164 164 164 164 164 164 164 
164 163 163 163 163 162 162 161 161 160 159 159 161 169 176 176 
171 169 172 176 170 159 152 149 152 164 171 166 166 167 169 170 
172 176 180 183 180 179 171 161 154 154 157 160 159 160 161 162 
162 163 163 164 164 164 164 164 164 163 163 163 162 161 160 157 
155 152 149 145 139 135 129 125 116 104 140 206 227 217 207 197 
189 183 178 174 180 177 176 175 174 174 173 172 170 164 158 153 
153 158 164 169 167 168 169 170 169 167 166 164   0   9  17  35 
 54  83 102 112 124 134 139 147 152 159 164 168 174 174 163 150 
144 142 154 166 166 164 166 165 165 169 171 172 181 193 195 188 
177 159 150 153 156 160 162 159 161 162 162 163 163 163 163 164 
163 163 163 164 164 164 164 164 164 164 164 164 164 163 163 163 
163 163 162 161 161 160 160 159 159 157 158 166 176 183 184 182 
176 164 156 152 153 164 171 167 168 169 171 172 174 176 180 183 
180 178 171 161 154 154 158 160 159 160 161 162 162 163 163 164 
164 164 164 164 164 163 163 163 162 161 160 157 155 152 149 145 
140 134 129 126 114 106 144 206 225 218 210 203 195 189 183 179 
166 168 172 177 177 175 169 166 152 154 157 161 164 167 169 170 
169 168 166 166 166 167 167 164   0   9  16  34  54  84 102 112 
125 134 139 147 153 159 163 168 173 174 162 148 144 142 152 165 
166 163 164 163 165 167 165 165 172 183 189 189 183 163 152 155 
157 160 161 157 161 162 162 163 163 163 164 164 163 163 164 164 
164 164 164 164 164 164 164 164 164 163 163 163 163 163 163 162 
161 160 160 160 162 160 158 160 165 171 176 179 182 167 156 149 
149 161 169 165 170 171 173 174 175 176 178 180 180 179 172 161 
154 155 158 161 160 160 161 162 162 163 163 164 164 164 164 164 
164 163 163 163 162 161 160 157 155 152 149 145 141 133 129 126 
113 107 148 205 223 218 213 207 201 195 189 184 177 172 168 163 
161 160 160 159 161 164 169 172 172 171 167 165 167 167 167 167 
166 166 165 164   0  10  19  37  55  84 103 113 125 134 140 147 
154 159 163 168 174 174 162 147 145 143 152 164 165 163 163 161 
166 166 167 167 169 170 173 174 175 159 152 156 157 160 161 159 
161 162 162 163 163 163 164 164 163 163 164 164 164 164 164 164 
164 164 164 164 164 163 163 163 163 163 163 162 162 161 160 160 
163 166 168 165 160 159 165 170 174 162 153 150 150 161 167 162 
166 168 171 174 175 177 178 180 181 179 172 161 155 155 159 161 
160 160 161 162 162 163 163 164 164 164 164 164 164 163 163 163 
162 161 160 157 155 152 149 145 142 133 129 127 112 108 150 205 
225 219 214 208 202 196 190 185 188 179 167 156 152 152 156 160 
174 174 172 171 170 169 167 166 166 167 168 167 167 165 164 164 
  0  14  24  43  56  85 103 113 125 134 140 147 154 160 163 167 
174 175 163 147 147 143 152 165 165 162 163 161 161 164 171 177 
176 170 168 169 163 151 150 156 157 158 162 162 161 162 162 163 
163 163 164 164 163 163 164 164 164 164 164 164 164 164 164 164 
164 163 163 163 163 163 163 162 162 161 161 160 156 157 160 166 
174 176 172 167 164 157 155 157 160 168 171 162 160 163 168 173 
177 179 182 183 181 179 172 161 155 156 159 161 160 161 161 162 
162 163 164 164 164 164 164 164 164 163 163 163 162 161 159 157 
155 152 149 145 143 132 130 127 111 108 152 205 222 216 212 206 
202 197 192 189 175 172 169 167 165 164 163 162 159 161 165 168 
170 170 170 169 169 168 167 166 166 165 165 164   0  18  38  56 
 69  84  99 114 125 131 140 149 152 159 165 168 173 173 161 148 
144 145 156 166 164 164 167 167 164 167 171 173 178 180 177 172 
164 152 149 155 156 158 162 161 160 161 162 163 164 164 164 164 
163 163 163 164 164 164 164 164 164 164 164 164 164 163 163 163 
164 164 163 162 162 162 162 162 163 160 156 154 154 159 171 182 
175 166 154 147 153 165 173 175 165 164 163 164 168 175 182 186 
183 182 174 163 156 157 160 161 161 161 162 163 163 164 164 164 
164 164 164 164 164 163 163 162 162 161 159 157 155 152 149 145 
139 138 129 125 118 105 156 187 206 206 209 209 203 194 183 175 
166 167 172 176 178 176 174 171 165 164 162 162 164 166 170 172 
170 170 169 169 168 166 165 164   0  20  38  56  67  82  98 114 
125 132 140 148 152 159 165 168 173 173 161 148 144 145 156 166 
164 164 167 166 166 169 172 175 178 181 177 172 164 152 149 156 
157 158 162 161 160 161 162 163 164 164 164 164 163 163 163 164 
164 164 164 164 164 164 164 164 164 163 163 163 165 164 163 162 
162 162 162 163 167 165 166 168 167 163 160 160 160 163 164 157 
153 154 158 161 176 174 172 170 170 170 171 172 182 180 172 161 
155 156 159 161 161 161 162 163 163 164 164 164 164 164 164 164 
164 163 163 162 162 161 159 157 155 152 148 145 141 138 128 123 
116 107 161 190 197 195 194 193 189 184 180 176 183 181 179 178 
177 175 174 172 171 169 167 165 164 164 163 163 167 168 167 167 
167 166 165 164   0  19  36  52  64  80  97 114 125 132 139 148 
152 159 164 168 173 173 161 148 143 145 156 165 164 164 167 166 
168 171 174 176 179 181 178 173 164 151 150 155 156 158 161 160 
160 161 162 163 164 164 164 164 163 163 163 163 164 164 164 164 
164 164 164 164 164 163 163 163 165 164 163 163 163 163 163 163 
162 160 163 170 174 171 165 162 161 159 156 155 159 163 160 155 
162 165 170 175 178 177 175 174 175 172 165 156 152 156 162 164 
161 162 162 163 163 164 164 164 164 164 164 164 163 163 163 162 
161 160 158 157 154 151 148 144 139 136 127 123 119 117 177 204 
196 187 177 169 167 171 177 181 189 187 184 181 179 176 174 173 
175 174 173 171 169 166 164 162 163 164 164 165 166 166 165 164 
  0  16  32  47  62  78  97 114 126 133 139 147 151 159 164 168 
172 173 161 147 143 145 156 165 164 164 167 166 169 172 174 177 
180 181 177 172 163 151 150 156 157 158 161 160 160 161 162 163 
163 164 164 163 163 163 163 163 163 164 164 164 164 164 164 163 
164 163 163 163 164 164 163 163 163 163 163 164 156 152 149 154 
161 167 172 175 170 162 150 149 156 166 166 159 155 157 161 167 
174 179 184 186 177 174 165 156 153 157 161 163 161 162 162 163 
163 164 164 164 164 164 164 163 163 163 163 162 161 159 158 156 
153 151 147 143 138 134 128 123 118 123 185 205 192 184 175 168 
165 167 172 174 177 177 179 181 182 180 178 176 174 174 174 173 
173 171 170 168 163 163 163 164 164 165 166 164   0  15  31  46 
 61  77  96 115 126 133 139 147 151 159 164 167 172 173 161 147 
143 144 155 165 163 163 166 166 169 171 174 176 179 179 176 171 
162 151 150 156 157 158 160 159 159 161 162 163 163 163 164 163 
163 163 163 163 163 163 163 163 164 164 164 163 163 163 163 163 
164 163 163 163 163 163 164 164 161 156 150 150 150 152 159 165 
165 164 160 153 149 153 157 160 168 165 161 159 162 169 176 181 
188 182 172 161 156 157 159 159 161 162 162 163 163 164 164 164 
163 163 163 163 163 163 162 162 160 159 157 155 153 150 147 143 
140 135 129 120 112 119 180 191 179 179 182 182 179 173 166 161 
162 163 167 172 175 178 178 178 175 174 173 173 172 172 171 171 
168 166 165 163 163 162 163 164   0  15  33  49  61  78  96 114 
126 132 139 147 151 158 164 167 172 172 160 147 142 144 155 164 
163 163 166 165 168 170 172 175 178 179 175 170 162 151 149 156 
157 158 160 158 159 160 161 162 163 163 163 163 162 162 163 163 
163 163 163 163 163 163 163 163 163 162 163 163 163 163 162 162 
162 163 164 165 166 163 161 161 157 153 153 155 155 158 160 159 
158 159 158 154 159 161 163 166 168 168 168 168 180 175 167 159 
156 159 160 160 161 162 162 163 163 164 164 164 163 163 163 163 
163 162 162 161 159 158 156 155 152 149 146 141 138 134 128 119 
110 124 187 192 184 182 180 179 176 171 167 164 160 158 158 159 
163 167 172 174 178 177 177 175 174 173 172 171 173 171 168 164 
162 160 160 164   0  16  33  48  63  79  96 114 125 132 139 147 
151 158 163 167 171 172 160 146 142 143 154 164 162 162 165 164 
166 169 172 174 177 179 175 170 161 149 149 155 156 157 160 158 
158 160 161 162 162 162 163 162 162 162 162 162 162 162 162 163 
163 163 163 162 162 162 162 162 162 162 162 162 162 163 163 164 
162 160 160 165 167 164 160 159 155 155 154 156 162 167 165 159 
150 154 160 166 170 171 169 168 168 165 159 154 155 160 163 162 
161 161 162 162 162 163 163 163 163 162 162 162 162 161 161 160 
158 157 155 153 151 148 144 140 135 130 127 118 112 134 202 205 
195 187 178 170 165 164 166 167 163 159 156 155 155 157 160 161 
171 172 173 175 176 175 173 172 172 170 167 165 163 162 162 164 
  0  16  31  46  64  79  97 113 125 131 139 146 150 157 163 166 
171 171 159 145 141 142 153 163 161 161 164 164 166 168 172 174 
177 179 175 170 160 149 148 155 156 157 159 157 158 159 160 161 
161 162 162 161 161 161 161 161 161 161 162 162 162 162 162 161 
162 161 161 161 161 161 161 161 161 162 163 163 156 150 149 154 
164 168 170 169 158 161 159 151 150 154 163 172 170 164 156 151 
153 161 171 178 172 168 163 157 157 160 161 159 161 161 161 162 
162 162 162 162 162 162 161 161 161 160 160 159 157 156 154 151 
149 146 142 139 136 129 125 115 108 135 206 207 194 188 181 174 
167 162 159 157 163 161 159 157 155 153 151 149 154 158 163 169 
172 173 173 171 166 165 164 164 165 166 166 164   0  17  33  48 
 63  76  98 116 123 129 139 144 150 156 161 165 171 171 158 142 
138 142 154 162 159 161 164 162 164 167 170 172 175 176 173 168 
158 147 147 153 153 153 156 156 157 158 159 160 160 160 160 160 
160 160 160 160 160 160 160 161 160 160 160 160 160 159 159 159 
160 160 159 160 161 161 162 163 155 149 147 147 149 153 158 162 
163 161 157 152 148 147 148 149 162 166 169 166 159 156 158 162 
170 168 163 158 156 159 160 158 160 160 160 160 160 160 160 160 
161 160 160 159 159 158 157 156 155 154 152 149 147 144 140 136 
131 131 119 116 100 146 202 201 193 188 184 179 173 167 161 156 
152 152 155 157 157 156 153 150 149 150 151 155 159 163 166 168 
165 167 169 169 168 167 166 164   0  16  33  48  63  76  97 115 
122 128 138 143 149 155 159 164 169 169 156 141 136 140 152 160 
157 159 162 160 163 165 168 170 173 175 171 166 156 146 146 152 
152 153 155 154 155 157 157 158 159 158 158 158 158 158 158 158 
159 159 159 159 158 158 159 158 158 158 158 158 158 158 158 158 
159 160 161 161 154 149 146 146 147 147 150 153 148 152 158 161 
161 156 149 146 144 151 162 169 170 166 163 160 159 157 153 150 
152 157 161 161 159 159 159 159 159 159 159 158 159 159 158 157 
157 156 155 154 153 151 149 147 144 141 137 134 127 127 116 114 
100 149 203 202 192 187 183 179 174 169 165 160 156 154 150 149 
149 150 152 152 152 150 147 145 146 149 152 155 166 167 170 171 
169 167 165 164   0  16  32  48  62  75  96 114 120 127 136 141 
147 153 157 162 167 167 154 138 134 138 150 158 155 157 160 158 
160 163 166 168 171 173 169 164 153 143 143 150 150 150 153 152 
153 155 155 156 156 156 156 156 156 156 156 156 156 156 157 157 
156 156 156 156 156 155 155 155 156 156 156 156 157 157 159 159 
154 150 147 147 146 144 144 145 147 149 151 154 157 157 156 155 
146 145 146 150 157 163 167 169 163 161 157 151 151 155 157 157 
157 157 157 157 157 157 156 156 156 156 155 154 153 153 151 150 
150 147 146 143 140 137 134 130 124 123 114 110  99 151 201 200 
190 185 181 177 173 170 166 164 159 155 150 147 145 146 148 149 
150 148 145 143 143 143 146 146 153 156 161 165 167 168 168 164 
  0  16  32  47  61  73  94 112 118 125 134 139 145 150 155 159 
164 164 151 136 131 135 147 155 152 154 157 155 157 160 163 165 
168 170 166 161 150 140 140 147 147 147 150 149 150 152 152 153 
153 153 153 153 153 153 153 153 153 154 154 154 153 153 153 153 
153 152 152 152 153 153 153 153 153 155 155 156 151 148 146 148 
147 145 144 145 151 149 146 143 143 148 156 161 158 152 143 141 
139 146 154 160 166 164 159 153 152 153 153 150 154 154 153 153 
153 153 153 152 152 152 151 151 149 148 147 145 145 143 141 138 
135 132 128 124 120 116 110 106  95 151 196 194 185 180 176 172 
169 166 163 161 158 156 154 152 149 146 144 142 139 140 143 145 
147 147 146 145 140 144 149 155 159 163 166 164   0  16  31  46 
 60  72  92 110 116 122 131 135 141 147 151 156 161 160 148 132 
128 131 144 151 148 150 153 151 153 156 159 161 164 166 162 157 
145 136 137 144 144 144 146 145 147 148 148 149 150 149 149 149 
149 149 149 149 150 150 150 150 149 149 149 149 149 148 148 148 
149 149 149 149 150 150 151 152 143 141 141 144 146 145 144 146 
142 145 147 144 140 140 143 148 154 155 155 151 145 139 137 137 
147 148 147 146 148 151 152 149 150 150 150 150 149 149 149 149 
148 147 146 145 144 143 142 140 139 137 135 132 129 126 122 118 
114 108 106 100  93 153 193 190 181 176 171 168 164 161 158 155 
156 155 153 151 148 144 140 137 132 134 138 142 144 144 144 143 
143 144 146 147 149 153 159 164   0  15  30  44  58  69  89 107 
112 118 127 131 137 143 147 151 156 156 143 127 123 127 139 146 
143 145 148 146 149 151 154 156 159 161 157 152 139 130 132 139 
140 140 142 140 142 143 143 144 145 144 145 144 144 144 144 145 
145 145 145 145 144 145 145 144 144 143 143 143 144 144 144 144 
144 145 146 146 133 131 131 134 137 138 139 141 136 141 143 140 
134 134 134 136 136 142 152 156 154 148 142 138 136 138 139 139 
143 147 148 146 145 145 145 144 144 144 143 143 142 141 140 139 
138 136 134 133 132 130 127 125 121 118 114 110 106  98 100  93 
 89 154 189 185 176 172 167 164 160 156 153 150 151 148 145 141 
139 138 137 137 139 138 137 136 136 138 139 141 143 143 144 144 
146 150 156 164   0  14  29  42  55  66  86 103 108 113 122 126 
132 137 141 145 150 150 137 121 117 121 133 140 137 139 142 140 
142 145 148 150 153 155 151 146 133 124 126 133 134 134 136 134 
136 137 137 138 139 138 138 138 138 138 138 139 139 139 139 139 
138 138 138 138 138 137 137 137 138 138 137 138 137 138 139 139 
127 123 121 122 124 125 127 130 133 133 132 130 128 128 129 129 
129 129 132 137 142 146 148 149 142 141 138 136 137 140 141 139 
139 139 139 138 138 138 137 136 135 134 133 131 130 128 126 124 
123 121 118 115 112 109 105 101  98  88  91  82  79 146 177 171 
167 163 160 157 155 150 146 144 140 137 133 132 132 133 136 137 
140 139 136 134 133 133 135 137 135 137 140 143 146 151 157 164 
  0  14  27  40  52  63  82  98 103 108 116 120 125 130 134 138 
143 143 130 114 110 113 125 133 130 132 134 132 135 137 140 142 
146 147 143 139 125 117 118 126 127 127 129 127 128 129 130 131 
131 131 131 131 131 131 131 131 131 131 131 131 131 131 131 130 
130 130 130 129 131 130 130 130 130 130 130 130 121 115 112 112 
112 113 113 116 120 121 122 126 129 128 123 121 127 122 120 121 
125 132 135 137 143 141 135 130 129 133 135 133 132 132 131 131 
131 130 130 129 127 126 124 122 121 118 116 114 113 110 108 104 
101  97  93  89  88  78  81  69  65 131 159 153 155 152 150 149 
146 142 138 135 126 124 125 125 128 130 132 133 128 128 129 130 
130 129 128 128 128 133 138 142 145 149 155 164   0  13  26  38 
 47  65  81  90  95  99 108 116 115 121 127 132 136 131 116 101 
 99 108 117 123 122 121 123 124 126 128 131 133 136 138 134 130 
114 108 110 116 116 118 120 118 119 120 120 121 122 121 121 121 
121 121 121 121 122 122 122 122 122 122 122 121 121 121 121 120 
119 121 121 121 120 120 120 119 106 101 100 102 104 102 102 103 
107 112 116 116 117 119 122 123 114 114 114 114 114 116 117 117 
121 120 120 122 124 125 125 124 122 122 121 122 121 120 119 118 
118 117 115 112 108 105 104 102  96  96  97  93  88  82  79  76 
 71  69  61  54  66  95 118 124 131 136 139 136 134 131 122 109 
121 122 123 125 124 124 122 120 121 120 120 121 121 121 123 124 
126 129 132 137 142 148 156 164   0  12  24  35  43  57  71  83 
 92  97  99 100 106 109 114 119 123 119 105  92  90  98 108 113 
112 111 112 114 115 117 120 122 125 127 124 119 103  97 100 106 
106 108 110 107 108 110 110 111 111 111 111 110 111 111 111 111 
111 111 111 111 111 111 111 111 111 110 110 110 109 109 109 109 
109 108 107 104  93  87  86  86  87  88  92  97  96 101 102 101 
100 104 108 109 115 112 107 103 102 102 105 106 107 107 109 111 
114 114 113 112 111 111 111 111 111 110 108 107 104 103 103 101 
 98  95  91  88  90  80  71  69  73  74  69  61  58  54  55  68 
 90 104  95  75 101 122 135 125 107 101 110 119 114 113 113 113 
113 113 113 112 110 110 111 111 111 112 113 114 117 120 125 130 
136 145 154 164   0  11  21  31  40  49  58  66  75  84  92  98 
 97 100 104 108 111 108  95  82  78  86  96 101 101  99 100 102 
102 105 107 110 113 115 111 107  91  85  88  94  94  96  98  95 
 96  98  98  99  99  99  99  98  98  99  99  99  99  99  99  99 
 99  99  99  99  99  98  98  97  97  96  96  96  96  95  92  90 
 79  74  72  72  72  71  73  75  83  87  88  85  87  89  92  94 
 99 100 101 102 100  97  94  91  94  94  95  98 101 101 100  99 
 99  99  99  99  98  98  96  94  94  91  87  84  81  77  72  68 
 65  65  64  61  55  48  43  37  28  52  81  94  91  85  88  93 
 98  95  92  92  98 107 108 101 106 104 102 101 100 100 100 101 
 99  99  99  99 100 100 102 104 107 110 115 122 130 139 151 164 
  0   9  18  27  34  45  54  58  59  65  76  85  87  90  94  98 
101  97  84  71  65  73  83  88  87  86  86  88  88  91  93  95 
 99 100  97  93  78  72  75  81  81  83  85  82  83  84  84  85 
 85  85  85  85  85  85  85  85  85  85  86  86  86  86  86  85 
 85  84  84  84  84  82  81  82  82  79  76  74  57  53  52  52 
 55  55  55  57  66  71  73  71  72  74  77  79  78  82  87  91 
 93  91  88  85  84  83  83  84  86  87  87  86  85  85  85  85 
 84  84  82  80  82  77  71  66  63  60  56  52  50  47  40  31 
 27  33  46  56  27  39  61  78  80  77  82  91  83  84  84  81 
 82  87  91  91  92  91  89  87  86  86  85  86  86  86  86  86 
 87  87  88  91  94  98 103 110 120 132 147 164   0   8  15  22 
 26  38  51  58  60  57  56  56  67  71  75  81  86  83  70  58 
 52  60  69  73  73  71  72  73  73  75  77  79  82  84  81  78 
 63  58  60  66  66  68  70  67  68  69  69  70  70  70  70  70 
 70  70  70  70  70  70  70  71  71  71  71  70  70  69  69  69 
 69  66  66  67  65  61  60  60  50  38  30  30  30  35  38  38 
 44  51  56  56  57  60  62  63  65  65  64  65  68  73  78  81 
 74  72  70  70  71  73  73  73  70  70  70  69  69  68  67  65 
 62  59  55  51  47  42  38  33  23  17  15  22  37  54  65  69 
 46  43  50  66  75  74  70  68  74  82  86  79  67  62  66  71 
 71  71  71  72  72  71  71  71  71  71  71  71  72  73  74  75 
 79  83  89  96 108 123 142 164   0   6  12  17  23  26  32  41 
 51  55  52  47  45  49  52  58  64  63  52  41  37  45  54  58 
 56  55  55  56  56  57  60  62  65  67  64  61  47  42  45  51 
 51  52  54  51  52  53  53  54  54  54  54  53  53  54  54  54 
 54  54  54  54  54  54  55  54  54  53  53  52  53  50  51  51 
 48  43  44  47  77  55  29   9   7   9  12  16  21  30  37  39 
 41  44  46  48  48  48  48  49  49  52  54  56  60  58  55  54 
 55  56  57  56  53  53  53  54  53  52  50  49  45  44  41  34 
 25  16   9   4   1  10  26  42  52  55  53  49  51  54  62  64 
 58  54  60  71  69  64  59  59  63  62  54  45  49  50  51  53 
 55  57  57  57  55  55  55  55  55  56  57  59  62  65  71  79 
 91 108 133 164   0   4   8  12  18  19  19  21  26  34  42  46 
 36  35  35  36  40  40  32  24  22  30  38  41  39  37  38  38 
 37  39  41  42  45  47  45  43  31  27  29  34  34  36  37  34 
 35  36  36  37  37  36  36  36  36  36  36  36  37  37  37  37 
 37  37  37  37  37  36  36  35  36  34  34  35  30  25  28  32 
 82  66  43  20   5   2   5   7   1  11  18  21  25  28  30  31 
 32  33  33  35  35  33  31  31  37  36  37  38  39  40  39  38 
 35  36  36  36  35  35  34  33  32  29  24  12   1   5   5   2 
 22  28  35  35  29  28  35  40  42  38  36  37  40  42  45  46 
 41  41  42  43  42  41  40  40  34  34  34  34  35  37  38  39 
 38  38  37  38  38  38  39  41  43  46  50  57  68  86 117 164 
  0   2   4   6   6  17  23  16   3   1  14  28  32  27  20  16 
 17  19  14   8  10  16  22  22  20  19  20  19  18  20  21  22 
 24  25  24  24  16  12  13  17  17  19  20  17  17  18  18  18 
 19  18  18  18  18  18  18  18  18  19  19  19  19  19  19  19 
 19  18  18  18  18  17  18  18  12   9  16  15  41  39  37  27 
 14   4   5  10  18   9   0   5  10  13  16  17  18  17  15  15 
 15  16  19  20  15  16  17  20  22  22  19  17  16  18  18  18 
 18  17  18  18  17  14   5   9  21  19   4  10  26  22  19  18 
 20  22  23  22  13  18  25  28  28  26  23  21  25  22  19  19 
 20  19  19  19  23  20  17  15  14  14  16  18  20  20  19  19 
 19  19  20  21  22  23  26  30  38  52  83 164   0   0   0   0 
  0   0   0   0   0   0   0   0   0   0   0   0   0   0   0   0 
  0   0   0   0   0   0   0   0   0   0   0   0   0   0   0   0 
  0   0   0   0   0   0   0   0   0   0   0   0   0   0   0   0 
  0   0   0   0   0   0   0   0   0   0   0   0   0   0   0   0 
  0   0   0   0   0   0   0   0   0   0   0   0   0   0   0   0 
  0   0   0   0   0   0   0   0   0   0   0   0   0   0   0   0 
  0   0   0   0   0   0   0   0   0   0   0   0   0   0   0   0 
  0   0   0   0   0   0   0   0   0   0   0   0   0   0   0   0 
  0   0   0   0   0   0   0   0   0   0   0   0   0   0   0   0 
  0   0   0   0   0   0   0   0   0   0   0   0   0   0   0   0 
  0   0   0   0   0   0   0 164 
