P2
# Written by pgmio::pgmwrite
192 128
255
255  95 110 104 106 123 103  86  94  87  99  97 104  91  99 107 
 89  94  99 105  74  51  41  26  13  23  72  54  13   3  12  36 
 56  60  70  85  98  81  96 115  95  92  92 115  95 102  82  99 
 79  86  99  99 105  51  47  45  15  12  16  22  57  38  47  36 
 46  71  42  64  60  84  70  91  93  46  67 103 134 123 111 116 
103  79 103  97  89  82 102  82  92 108  17  29   2  26   6  42 
 60  68  81  61  38  70  75  59  89  46  68  70  53  81  94  70 
 53 108  79  54  52  69  56  60  57  75  46  53  60  45  27   9 
  7  20  17  16   2  23  79 120 117 108  96  67  82  79  89 107 
 70 103 108  99 118 107 103 121 116 109 119 113 131 134 103 123 
123 126 118 124 112  90 102  85  91  46  19   2  31   7  27  60 
 72  95 101 115 121 102  98 107 106  98 101  82 100 102  84  23 
151   2   7   3   0   7   3   3   7   7  10   7   0   7   7  10 
  6   2  23   7  78  40  99  37  12  44  12  27   8  20   4  14 
 38  11   6  46  64  31  46  45  39   1  13   0   3   0  17  10 
  1  22  19  14  36  18  17  18  12  16   4  28   6   8  22  26 
  5  18  13  29   5   8  10  33  31   4  31  48  22   4   7  26 
  0  16  12  12   4  14   4  13   7   7  26   2  36   2  12  23 
 11   2  22  12  12  22  11   8  12  18   4  17   7  17  12  13 
  6   9  14  12  31  11   6  20   1   2  12   5   2   9  26   7 
 22  32  55   2   5   0  22   5   1   5   2   3  13  30  17   5 
 17   6   2  12   2   0  18  15   7  10  15  12  17   5   2  15 
  7  10  18  13   5   3   7  22   2  22  14  22  47  31  21   2 
 13  12   7   1   2   1   4   1   9   2   9   2   9   6   0  55 
147   5   1   7   6  19   0   0   3   0   3   1  13   7   0   2 
  9   2   7  17  10  62  16  60   9  23  41  68  25   9  69  26 
 27  29   9   3  30  17  51   3   7  40  17   2   8  17   3  10 
  3  11  11   2   2   2   5  34  10  31  47   2  36  51  26   9 
 42   6  19  30   7  10   2  16   2  15  11  43  38  33  22   2 
 15  10   8   1  17   8   8   9  17   7  22  13  32   1  30  26 
 15  11  12  15  20   2  13  19   3  41  52   9  12  14  15  12 
 10   6  26  31  28   1  14  14   2   1   3   8   8  13  12   1 
  7  26  22  12   0  18  17   6   0   6   7  10  23  13   2  53 
 22  16   5   7   2   2   9   7  16   7   7   2   7   7   7   5 
 13  10  12  10   3  10   2   2   0  15  30  22  42  10  19  15 
 17   5  16   0   7  11   6   9   4   6   3   2  21   4  17  46 
149   2   5  10   6   9   2   9   9   2   4  11   2  12   4   8 
  3   5   3   8   7   2  28   4  11  43  29  22  26  53  38   8 
 21  49  34  36   8   6   2  28  30  20   1   3  23   2   7   7 
 17   7  13   2  17  29  40  13  55  48  64  33   7  55  10  41 
 22   1   7   7  13  24  19  30  12  37   2  22   9  33   6   0 
  3  11  20   8   1   7   7  23  41  45  58  62  21  11  27  14 
 41  44  17  10  20   2  13  60  59  19   7  59  28   6  26   2 
 15  12   6  17   6   7  10   3  13  10   1  36  12   4   0   9 
 14  29  14  43   5   7   4   6  11   6   3  11   3  17  10   2 
 13  15  20   7  10   7   7   4  13   9   5   0   3   3   0   3 
 13   0   4   5  14   0   2  10  12   7   9   3  10   2   2   8 
 25  16  24   3  12   2  10   4  18   5   8  20  11  27  11  26 
150  12  12   7   0   2   2   1   2   7   7  10  10   3   5   5 
  0   2  12   6   1   6   8   9  26   9  17  17  54   2  26  42 
  2  13   6  14   8  35   8   5   4  37  33   8  18  18  17   3 
  7   3  17  15  18  22  52  11  22  72  36  38  24  17  26  25 
  6  33  17   6  46  23   0   1   2  14  27  35  24  52   9  48 
 17   7  36  49  31  47  80  49  24   4   4  55   4  16   6   7 
 25  44   7  14  28   9  27  16   7   8   3  22  21  17   3  13 
  5   8  19   2  20   3   3   0   3   0   3   7   7  10  13  51 
 13  13  45   4  28   7  18  15   3  23  12  26  27  23   3  10 
  8   3   4  15  10  18  19  17  12  53  29   7   9  10   7   7 
  9   1   9  11   4   6  12   1   5   7  12  11  10  13  15  13 
  2   5   7   5   1  18   4  25   1   2  16  17  26   1  19 114 
113  10   1  11   5   2   8   4   4   8   8  10   5   7   7   2 
  2   9  12   6   3   4   4   2  12  21  14  45  18  43   2   4 
 18  25  31  43  81  29   3  27  46  57  19  28   4  27  13   7 
  3   1  22  22   7   5  16  20  15  29  23   7  12  17   8  27 
 16  19  24  22  35  46  62  20   8  29  19   2  11  70   2 103 
 63  42  27   2   2  64  42  94  94  46  61  56   7  17  23   9 
 26   7   5  30  17   9   2   2   9  27  20  26  32  17   6   1 
 30   8   1  26   8   7  16  26  10  26  11  26  16  13  17  17 
  5  40  41  14   6  13  30  14   7  26  32   3   2  10   7   7 
 26  20  36  12   0  19  33  21  10  26   5  17   8   2  12  11 
  3  11   4  12  29   9  10  12   6   2  19   0   3  20  10   5 
 16   3  36  22   7   5   1  13   5   7  19  41   7  22   9  42 
122  10  13   6  13   3   1   3   7   4   6  10   2   0   2   5 
  3  12   1   0   9   1  12  12   1   5   2  39   4  45   1   3 
 27  13  60  74  22  28  48   2  41  46  46   8   2  17  13   3 
  0   4   0  36  19  36  12  26  27   9  55  31  22  12   7   6 
  5  12   3  12   7   8  86   2  60  39   2  17  22  89  84  25 
 55  57  47  41  35  75  35   5  21  10   2   8  12   5  13  15 
 25  22   4   4  17  29   7  20   7  17   7   7   5  22   8  21 
  8  24  31   4   1  17  12   8  13   2  44  25  34   8   4  20 
 22   5  20  26  26  22  15   0   6  28  10  21  22   5  12  12 
 12  12   2  12   6   7   1  26   4   5  25   7   1   5   4   2 
  9  12  63  21  28   2   6   6   8   9  13   7   0  13   7   7 
 14  16  16  37   0  10  28   2   2   7  25  17  19   9  18  60 
128  13   3  10   7   7  10   3  13  20   3  10   6  14   9   5 
  2  15   8   2  22   3   3   7   7   2   0   5  18  46   7  16 
 18  15  11   7  40  40   9  72  28  20  19   8  23  17   3   7 
  0   4   9   5   7  21  14  20   1  25  22  25  15   2  23  26 
  5   2  41  25  26   5  23  12  22  15   2  55 103  18  60  62 
 19   4   9  14  15  15  15   6  22  20  10   2  13   6  44  13 
 23  28  11  17   0  12  17  22   7   7   7   7  43   6  15   8 
 14   4   4  24  15  31  32  25  29   5  30  12  16  16  12  31 
  5  24   3  22  18   5   7   7  12  12  22  40   5  20  12  12 
  5  25  22  10   2  10  12   5   1  11  24  55   1   4   3   6 
  9   7   2   0  21   2   7   5   7  10  13  10   1   5  16  12 
  7  13  13  23  36  17  18  20  18  28   2  12   5  16   5  57 
115   0   7   7   3  13   7   7   7   7   7   3   7   1   3   3 
  7   3   2   2   9   4   3   7  13   1   2   7  12   9  21   8 
  2   1   7  10   3  31  26   4   4  21   5  16   3   3   7  13 
  3   3   9  26   2  12   6   7   0   7  13  17   9  30  28  31 
  7  23   1   5  15   8  31  18   8  34  95  28  47  94   1  16 
 21  17   0  17   3  11   8   3  17   2   2  12   2  32  20   5 
  8   7   7   0  21   2  28   7   7   3   1  20   7   2   4   2 
 14  31  26   7  40  17  14  30   3  22  51  21  18  37  12   7 
 17   7   0  20  29  14   8  15  15  33  35  31  29   5  17  17 
 20   4   3  33  33  17  17   7   2   5   2  27  15  13  13  10 
  2   8  17   1   2   7   5  17   1  23   3   6   5   9  36   2 
 19   0  17  27  22  17  20  26  41  21  61   7   4   7  17  32 
 99   3   0   7  13   8  12   8   7   7   0  10   7  10   0   0 
  2   0   7   0   3   5   5   2   1   2   0   0   8  10   7   9 
 11  33   5   3   8  12  39  14  26  16  13   1   2  10  13   7 
 17   3   7  18   2   2   2   1   7   2   2   7   3   7  14  15 
 20  22   9   6   6   3  36  46  94 105  23 108  31  24  11  19 
  2  12   4   2   1  12  13  15  12  10   2  20   7  12   4   0 
 14  15   3  12  10   6  14   1  19   2  20   2  12  12   7   4 
 36  29   2  37  30  20  17   9  20  17  16  19  55  31  24  17 
 12   5  17  12   2   8   8  13  31  27   3   2  26   2  12   2 
 33  10  15  26  22  12  31   0   4   5   0   3  10   7   3  10 
  7   2   3   5   0   1   0   5   2   7   8  10  10  22  53  22 
 21  19  11  12   2  11   5  13   7   5  10   5  35  17  27  34 
115   0  13  22   5  13  22   6   0  13   8   0   0   7   7   0 
 17   4  10   0   2   5   0   0   2  10   5   4   0  17   3  22 
 26  11   9  11   8   4   8  22   5  12  18  11   8   5   3   6 
  1  10   7  27   3   0   1   6   2  12   7   7   2   2  10   7 
  2   7   5   7  43  87  74  45  33 110  64  29   4   8   2  33 
  8  11   6   7   5   2  12   5   0  10  10   2  20  15   2  10 
 51  23  17  18  10   8   9  23  21  18  10   2  12   2   4  24 
 33   2  12   7  31  18  29  10  10   7  55  27   3   5  31   8 
  6  12  41   8   6  48  36  13   3  26  12   7  17  27  16   1 
 35   4  31   4   4  15  22  22   2  17   2   7   7   3   3   7 
  5  15  10  20   5   7   2   5   5   7  12   1  39  31  89   3 
 11   1  33  15   4   4  14  19   2   2  23  40  22  30   2  52 
107  14   2   1   4   2   1  13   6  12  26   2  16   0  10  12 
  2   2   2   2  10   0   2   0   0   5   2   5  17   3  12  12 
  7  12   1  12   6   8   8  12  31  14  16   5   2  16  18  16 
 12   1   7  10  10  20  10   7   1   3   7   7   2   5   7   2 
  2   2  58  99  75  67  88  67  46  10  10   4   5   7   5   2 
  6   1   0  10  13  17   9  23  15  20  10   2   3   7   4  10 
 29  22   2   1   9  37   2  25   6   0  19   1  28  18   5  22 
  7  16  26  12   9   7   3   1  10   4   2  21  28  27  34  25 
  8  15  46   4   5   3   4  11   8  12   7  17   3  36  40   7 
 13   8  26  46  43  29  17  12  36  12  18   7   3  10  10   7 
  5  15   5  10   3   0   4   3  11   7   7  12  15  35  31   7 
 28  34  15  15  11   9   2  13   2  30   6   7  22  15  11  65 
 68   2  12   6  26   8   3  16  23   3  15   2   3   6  12  16 
  3   2   7   5   0   2   2   7   7   5   7  17   1  12  11  51 
 17   5  15  12   3  32  22  23   3  20   1  22   1  12  17   9 
  1  12   9  12   3   0  10   9  11   5   2   0   2  10   0  10 
 21 108  27 117  83  45   2  10  10   5   5  10   7  22   2  13 
 28   3  12  17  21   2   7  17  26  10  10   2   5  13   7  16 
 10   9  31   4   1  17   3   8   3   2   0   0  18  12   3  15 
 22   4  12  10  36  12  52   7  28  31  11  11   3   1  21   7 
 21   7   7   4  20  21  39   0  10   8  17  26  21  16   2   3 
 23  66  31  25  39  13  15  12  11  31  63   2  12   3  10  13 
  3   5   5  20   5   7   7   8   0   5   7  10  17   3  18   2 
 43  20  60  24  13  17   6  24   3  17  25   4  35  17   2  70 
 79   8   3  10   2  12  14   8   4  25  25   2  15   2  19   7 
  2   2   0   0   0   5   2   2   0   0   4   6   3   7   7  20 
  9   9  24  13  11  34  16   6  46   2  17  21   5  31   4  18 
  7  10  16   3   2  20   7   7   3   5   7   7   3   7   1  33 
 84  28  81  17  28  28   7  12  20  10   5  10  13   5  10  10 
  7   5   2  10   3  17   3   8  20   7   7   1  13  21   2   5 
 25   8  36   6   4  34  19   0   9   1  23  17  12  20   0  11 
 11  13  12  27  10  17  12  20   1  14   2  11  22  26  14  25 
 26  39  12  20   2  20  31  44  12  25   0  12   4  21  12   2 
 17   5  36  37  36  22   8   1  46  43  22  39  64   5  22  10 
  0   0   0   2   0   0   2  15  18   5   0  10  10  10   1   2 
  4  12  14   5  58  10  25  50  41  12   7  45  12  27  25  16 
 94  20  12   8  19   6  14  30   2  30  31   2  23   8  15   2 
  5   2   2   5   5   0   5   5   2   0  11   7  13   0  12  26 
 11   4  24  38  21   4  28  41  18   3  28   3   6   2   6  12 
  8  14   6  44   4  10   7  13   0   0   1  10   6  19  51  14 
 49  41   9  12  10  15   2  13   3  15  10  22  28  13  15   5 
 18   5  15   5   0  28  14  18   8   2  13   7  45   5  30  17 
  9   1   0   0   5  15  25  21   0   7  10  18   3   7   2   4 
 20  20   2   8  12   2  10  26   9   3  10  11   5   2   6  26 
 36   8   5   2  12  31   0  12  18  10  10  38  11   1  12   6 
 11  81   1  27  20  31   6  20   6   6  40  27   8  54  55  22 
  3   0   3  10   3   3  13   2  10   0   2   3   0   3   0  14 
  9  17  36  28   7   7   2  20  41  29  37   2  12  12   6  20 
 71  22   1   5  11  15  10  11   7   2  16  28  32  13   4   5 
  2   5   2   7   5   2   2   2   5   2   1   5  16  13   0  12 
  5   8   8  31  33   4  43  22  32  23   6  10   3   5   7  56 
 17   7  13  18   1  20  17  10  10   7   0   0  12  17  47  26 
 17  28  44  15  46  23   5   2  13   2   2  18   3  10  15   2 
 31  13  15   7  20  25  15  15   2  25   7   2   3  36  24   8 
  6   5   7   4   5   1  25   4   5   8  12   9   2  23  27  11 
 31  22  12  14   7  17  10  10   7   8  10   9  42   5  29  22 
 23   1   6  13  41  51  37  38  27   7   4   0   6   7  12  19 
  0  12  22  23  20   7  24   9  10   7  17  30 103  78  61  24 
  0   5   2   7   3   0   3   5  20  10  20   2   3   3   7  10 
 16   7  10   2  13  19  16  34  53   7  42  27   3  16  14   2 
 10  16  11   4  10   2   5  10   7   5   8   8  19  30   2   7 
  8   8   0   7   0   2   5  10   5   7  29   8   0  10  20  10 
  3   7  33  30   3  12  22  20   7  61  70  58  11  22  26  17 
 34   8  20  18   1  10  10  10  10  10   7  13   9  27   9  23 
 46  23  30   2  22  12   2  15   2   3  13   3  20  15  10  12 
 21   2  15  15  20  10   5  15  15  31   5  19   4   5   2   1 
 11  14  14  19  19  11   7   3  11   5  17   5  22  22   0   7 
  9   1  22  10   6  17   7  19  16  36   7   8  14  17  14  13 
 12  41  22   5  25  15  19  16   2  26   5  26  45  30  26   9 
  2  23  21  21   2  12   3  23   5   6   2  19  88   5  43  72 
 55  42  30  20   3   0   0   0   2   0   5   3   3   0   0   3 
  0   3   0   7   0   6   1  10   2  20   5   4  15   3   3   5 
 45  41   4  12   1   5  33  25  12  36  22   8  28   2   7   4 
  0   1   5   6  10   2   0   5  12   7   7   5   5   5  17   0 
  7  13   2  31  10  22   7  21  63  18  17  31   9  16   3  32 
 15   2  21  21  20  26   8   3  12   7  12  22  13  26  37  17 
  4  30   1   2   6  10   7  10   0   0   7  15  20  15   5   2 
  7  11  12   7  20   2   5  15  17  17   2  20  20   3   5  11 
  0  12  14  21  14   6   9  24   5  11  21  11  16  19  10   0 
 11   6   5  13  37  22  10   6  16  32   1   2  20  11  22   3 
 15   2  16   1  26  50   2   5  21  28  16  13  15  25  10   6 
  3  26  31  15  26  27  12   7   2  12  10   5  39  32  25  46 
 12  33  51  69   2   3   0  10  10  10  10   3   7   7   3   3 
  0   0   3   3   7  13   3   7   1   3   3  10  10   7  13  12 
 61  33  34  12  10  15  30  12  26   6  18   2   3  19   9   5 
  6   3   4   1   8   4   2  11   6  20   2   2   2  17   4  17 
 17  22  60   7  28  23  10  13  17  31  31  29   4   3   2   5 
  2  46   4  53  14  28   2  15   8  10  21   2  20   4  54  35 
 46  11  50   7  20   7   2   0   3   2  20   8  15  20   5   0 
 11  25  22  13  17  10  10   5   5   4  17  13  25   1  12  24 
 11   1  11  12  20  22  18  12   9   7   7   3  11  31   6  10 
 18  22   5   5  26   8  44  11  32   2  15   1   0  21  26  12 
 17   7  18  12  11   2  44   9   2  13   7   1  18  19  15  12 
  5  20  31  15   5  27   6  24  14   7  26  19  22  28  17  26 
 20  66 105  30  64   7  19  14  17   5   4   7   3   3   7  10 
  3   7  13   7   3   3   0   3   7  10   7  10   7   7   7  15 
 31  43   9  11  18   2   6  22  23  26   4   7  61   0  36   2 
  2  17  15  16   2  22  16  22  19  21   6  13   0   2  10  10 
 10   7   1  39  13  49  63   2   2   1  30  10  12  38   0  25 
  7  39   2  35  30   7   7  23  21   0   5  19  12   6   5   5 
  5   2   2  15  23   2   8  10  10   2  15  18   7  15   5   5 
 20   8  16   4  15  15  10   5  10   2  13   4  17   5  10  20 
 12  17   4   7   7  25   8   9   6   2  12   2  16   6  10  16 
 33  15  19  13  34  12  22  10   3  27   9  22  11  13  21  26 
 19   4  24   2   6  17   0  30  21  20  22   9  12  16  16  35 
 35  26   2  17   2  33   5  41  11   2   4  31  25  14   5  70 
 66  32  45 143  90  23   7   0  23   7   8  16   5   7  10   7 
  3  13   7   3   7   0   0   7   4   1   2   3   5   1   1  11 
 16  26   7   6  11  10   7   3  21  19  19   7  17  14  40   6 
  1  17  16   8  23   9   3   9  10  10  14  10  10   0  10   0 
 11   9  42  16  43  36  15  17  11  12   8  26  20   7  17  12 
  5   2  18  24   1  38   2  59  10  20  25  19   3  19  33   2 
 12  12   9   7   7   2   7  13  10   7  15  19  12  10  10   5 
  7   7   4  22   3  20  10   2   4  13  11  13  12  10  20  10 
  2  10   0   2  33  18   4   7  25   4   2   0  19  30  17   3 
 18   3   7  20  20  11  12   2   2   4  23  13  38  30  12  13 
 12   3  14  12   7  35   2   2  16   0  50  14  16  19  20  19 
  1   6  38   2  19  12   1   6  27   4  32  26   7  26  93  26 
 46  27   1  49  10  15   7   2   7   1  31  26   1   5  10  15 
  3   2   8   0   7   0   3   4   7   5   7  12  15   6   2  10 
 73  12  19  20  14   2   6  11  22  44   2   9   7  19  11   5 
 10  10   7  18   6  16  29  21  45  46  41  26  17  21   7   3 
 14  19   6  18  46   3  42   4   7  25   6  14  26  20  31   6 
  1  12  13   7  46  37   2   4  39  15  16  11   0  12  22   6 
 15   3  26   2   2   3  15  30   2   2  16  17  21  17  10  15 
 12   5  10   8  13   8   5   5   6   8  16  24  15  10  10   2 
 15  17   8   0   2  16   2   2   8   2  36  13   2  13   2  20 
 23  18   5  19  12   0   1   5   6   0   8   6   7   7   1   7 
  7  12  25   3  16  43   5  22  16   5   7  33  19  17   2  17 
  7  27  34  27   5  22  12  21  30  15   6  46  19  51  60  68 
 56  34  16  49  41   1   8   5  21   8  90  77  32  29  48  30 
 27  12  23   5   7  17  10   3   5   5  10  17   3  21   6  18 
 55   2   7   7   7  29   1  12  30  11  42   7   4   1  14  11 
  7  43   7  23  26  40   3  25  34  23   1  30  30  17   2  12 
  2  12  26  17  21   4   2  16   0  22  29  20   7   1   2  12 
 17  12   1  43  19  27  11  10  22  47  57  17  13   2  22  22 
 28   8  23   0   3   5  30  17   7   7   3  21  16  18  15   2 
 18   7  15   2  21   2   2   2  12   6   6  15  15   7  17  23 
 12  17  20   6   3  15  17   4  27   7  19  17  12  13   9  27 
  3   4  27   6   8  10  12   6  28  12   6  11  22   1   2   5 
  5   5  15  16  19  26  19  15  12   1   7   5  30   7  24  12 
  1   5  40  31  36   5  10  17   7   1  24   1  12  45  11   8 
 19  18  18  15  15  25  17  15   2   8  69  49  70  32 145  46 
 68  24  18  15  13   3   4   5   7   5   0  12  10  10  12  21 
 26  17  19  12  41   3   5  15  41   2  16   8   5  32  17   8 
  9  14  35   9   2  12  17   4  36  20   1  10  21   9   2   7 
 13  21   8  23  21  17  12   4   1   8   1   7  12  27  22  12 
  0   4  14  26  26  72  14  10  26  38  29   7  15  14   2   2 
 26  17  22  15  24  36  34  23   2  17   5  21  18  19  41   8 
 17  10  17  11   2  27   2  18  17   4   0  12   0   7  17   9 
  2  23  12   2  17   4  17   5  40   8   3   9  11  23  19   6 
  4  17  14   4   6  12  17   8   6  15  46  17  39  11  22  12 
  5   6  35  19  14  38   1  32   2   2  34   6  28  33  10  15 
 22   2   2  25  26  22  12  38  20  79  31  44  57  60   2  12 
  7   7   7  25   7  18  10  20   1  99  55  19  18  32   8 110 
 75   7   0   3  17  12   0   0   5   3  22   0   7  14  12   5 
  1  30   6   8   8   7   3   6   8  55  17  14   7  29   7  31 
 17  31  13  26  15   2  10   9  20  12  41   6   5  44   7   2 
 11  20   3   0   3  13  16  14   9  11   9  29  18  14  34  54 
 10  44   0  10  32   7  41  31  22  48  45  50   2  12   0  36 
  7  17  45  10  36  49  31  28  10   9  31   5  18  36   8  25 
  6  13   3   6   2  15  31  29   2  17  17  17   2   2  11  18 
  2  15   7   2  20   2   3   9  24  11  19  35  26   9   9  29 
 11  21  29   7  18   3   7  22   2   0   7   2  42  12   4   2 
  2  15  16  23  28   4  44  15  39  12   0  25  11   1   2  40 
 21  16  24  17  41  19  67  31  22   1  36  51  60  30  26   8 
 18  13   3  40   5   4  15   7   3  25  75   7  17  40  48  65 
 22   1  11  14   7   9  16   9   1  15   6  14  10   6  23   1 
 10  18  41  28   5   0  18   2  26  13  36   5   5   0  14   7 
  1  22  22  23   7  10  14  13   8  26  17  48  26  13  37  17 
  4   7   2  22  34  22   2  12   5  30  16  14  60  35  13   1 
 33  15  47  67  18  66   3  11   7  25  25  19  10  39  31  11 
 55  31  55  22  19  17   4  17  31  11  33   5  36   7  21  20 
 11  14  11  11  16  14   2  16   9   2   3  29   2   6  26  17 
  2   8   4  11   2   7  20   8  23   8   9  19  17   8  12   7 
 31   7  27   1   4   6  17  11   1  13  17   7  12   6  17  16 
  3   5  17   7  16  10  22  15   8  21  26  26   5  20  11  14 
 11  14  15  17   5  60   7  84  31  54  33  14  41  46  18  12 
  3  12   5  18  19  26  30  22   7  29  16  17  88  29  97  58 
 94  72  13   1  22   3  44   5   4  22  17   8  11  22   3   7 
 77  17  30  29   9  58  54  26  52  18  16  18  40  17  27  15 
 33   3  13  34   8  16   5   9  20  11  10   2  43  26  11  26 
  7  21  26   7  24   7   8  23  10  11  26  46  22  26   5   2 
 15  21  36  20  20  31  27  22   8  12  19  74  42  34  29  30 
 31  12  40  77  39  22  64   3  35  20   9  17   7  19  27  22 
  2  26   6  23  13   1   2   8  11  14  11   2  28   9   6   5 
  4   4   6   0   1  24  35  40   8   2   9  12  25   2   2  35 
 20   2  20  22   3  11  22  12   5   2   4   6   8  26   7   2 
  3   8  15   2   7   2  12   2   4   4   8  16  13  10   7  30 
  4  40  41   8  10  31  46   2  36  25   3   3   0   0   3   3 
  5   3  30   3  12   8  17  22  10  18  28  47  17  26  47  17 
 39   7  31  31  31   4  12   7  13   8   2   2  27  48  26  55 
 52  26  53  27   2  40   5  32  34  50  31  35  10  24  18  35 
  5   7  13  11  17  15   7   3  11  24   4  13   9  27  28  16 
 10  10  35  20  37   8  24  17  27  31  13  38  14  11   4  28 
 12   1   2  22   7  39  17  57  22   7   3  48  51   9  21  28 
 12  25  19  21   6   1  26  12   6  11   3   4   1   5  17   8 
 10   7   6   2  48  10  12  25   7  17   4  12   4   7  12  12 
 19   6  32   2  18   8   9   6  15  31  14  15   0   6   5  18 
 25  31   3   9   6   4   0   2   6   6  17  13   4  22  16   2 
  4   2   3   7  27   2   8  12  22   8  29   1  34   4  11  15 
  6   2  14  52   4  22   5  10  10   8   7   1  17   4  27   7 
 17   1  27  11   4   5   0  17  32  34  24  35  31  18  60  14 
  4  39  46  55  16  11  40   2   5   3   7   4   1   2  12  88 
 30  26  21   9  20  81  59  34  75  65   3  60  43  52  16   2 
  2  29   4   6  18   3  10  18   9  11  11  14   9  12   7   7 
 10  20   3   2   9  35   7  27  13   2   5  10  21   4  17  39 
  4  37  18  27  26  41  27   7  14  32  12  14  14  55   2  16 
 25  22  14  13  39   7  10   2  22   2   2   2   7   2  20  16 
  7   2   2  15   6   7   3   6  25  19  22   6   5  31   9  11 
 41   4  27   4  15   4  11   9  13  21   4   2   3   6  36  25 
 17  12   5  11  17   7   2  22  20  11   6  26   6   2  23   9 
 14   2   9  15  28  28  13   4  43  22  46  37  26  15  23   2 
 17  22  18   7   2  14  18  30   8  17   2  17  50  21  32   0 
 36  51  53  31  22   1  39  31  62  22   1  47   9  32   5  15 
  2   2  27  29  21  55  36  28   5  23   4  22  15  19   1  51 
 71   2  36   3   7  19   0   1   1  11  41  39  57  24   4   3 
  0   5   5   7  14   7   7  25  12   3  19  14  17   6   5  12 
  5   2  18   9  17  15   2  33   0  21  12   7   9   6  10  20 
  5  20   8  12  21   7  30  36   7  33  23  13  20  22  16  36 
  4  32  35   3  21  18  14   8  21  14  17  23  17  17   7   9 
  6   2  20   8  27   1  11   7  14   3  41  25  13  53   0   4 
 10   7   2   8  12   7  10  10   2   1  23   9   4   2  33   3 
 15  14  12  15   7   9  22  26  13  15  25  12   1  35  17  22 
 17  19   4   7  31   3  23  22  15  27   2  21  46  42  29  53 
 36  46  30  25  40  21  21  21  24  27   4  25  16  16   7  31 
 43  56  23  19  19  10  39  67  16  23   2  22  18  13   2   5 
 18  12  20   2  33  38  35  42  37   9  18   7   1  11   7  86 
 15  12  23  11   2  12   8  21   7   3   3   1   3   9   1  22 
  1   7  22  10  15   3   5   1  18   1   2  17  20   3   4  12 
  7  12  14  22  25  22   3  37  20   7   3  12   2   0   7  18 
  9  20  18  17   4   8   1   6  12   7   2  22   0  12   8  10 
 10   6   7   4   7   3   2  21   7   3  32   3   8   7   7   6 
  7  15  30  28  26  35   5  18  48  19  26  35  25  27  12  31 
 17  33   9  31   2  14  13   6  36  24   4  11  26  39  30  31 
  9  16  17  36  15  22   7  19   5  36  22   9   0   2  17  27 
 15   1   5   3  31   0   0  17   9  22  43  28  11  27   3  31 
 31  12   6   4  19  11  11  17   9  52  21   8  31  13  30   7 
  4   3  37  49   2  53  37   4  18   5   3  36  28  10  13   5 
 10  20   0  18  30  10  36   9  47  32   8  27  13  19  15  90 
  2  16  12  25  37  48  43  39  36  50  38  37  32  46  62  48 
 57  29  29  46  24  46  24  41  47  30  14  17  12   9   7  13 
  8  12   1  29  26  14   2  14  12  35  30  25  22  22  25  21 
 12  26  17  19  13  36  20   3  45  12  42  31  31  29  26  32 
 34  30  25  36  57  27  38  54  27  30  27  39  20   8  42  30 
 24  26  12  33  18  16  22  15   6  45  12  15  31  22  22  64 
 24   7  15  13   7  15  21  17  12   1  19  47  10   9  18  12 
  0   6   2  26  21  27  18  24   1   1  28   9  16  22  18  18 
 15   9   2   2   1  29   6  23   6   8  14  31   0   1  13  17 
  9  46  31  31   8  33  18  22   1  51  82  53  48  19   4   5 
  2  20  10  24  17   7  66  55   4   5  10  16  36   7  12  25 
 13   7  14   3  22  20  22   7  49  23  47   2   6   9  10  16 
 19   5  10   7   6  18   2  36  19  22  24  18  18   5  20   2 
  3  10   1   8   9   8   7   2   1  17   8  20  22  13  21  12 
 13  17   8  14  13   7   3   1   6   9  12  21   6   4  17  19 
 12  19   8   6  21   4   7  17   9   1   4   2   2   6   0  22 
 30   9  13   1   7   1  12  16   2  10  14   7   0   7  15  15 
 15  12  27  22  10   9  17   5  20   2  10  11  19   9   3   6 
  6  17  23  13  23  15   1   2   4   6  13   5  15  12  30   5 
 29   2   4   5  12  21  12   9  12  17  15  16   2   2   2  32 
  0   2   2   2   3  22  12  17  16   4   7   6  15  20  10   5 
  0  22  20  12  10   0   0  22  54  61  28  32  12  14  12   0 
  9   1   7   6   9  31  65   2  11  22  65  72  87  17  27   6 
 41   7   1   2  16  17   4  14  11  40  62  19  16  20  20  14 
 36  23   6  28  28  28  17  16  13   8  30  23  17  48  20  26 
 27  27  22  24  22  22  18  25  22  22  18  15   3  12   2  30 
  4   7   5  10   5   5  18  22  20   7  12  10  11  17  20   1 
 18  12   2   1   2   3   5   4   2   5   3   3   2   2   2  17 
  8   8   9   3  17   5   1   7   2  35   9   8   7   7   3   2 
 19   8   8  12  16   2   1  12   6   7   7   6   5   2  11  10 
 26  12  17  12  17  22   1   2  11   3  31   2   2  24  11   9 
 10   2   0   1   5  12   3   2   4   1   4   2   4  27   2   1 
  0   0   2   7   2   2   7   3   5   7  22  22  29  32  35  46 
 42  26  67  38  31  36  38  49  11  54   7   7   3  15   5  12 
  2   2   8   7   4   4  25  44  11   5  56  19  89  65  26   5 
 17   8   3   6  13   6   0  12  19  63  19  26   4   4   5   2 
  6  17  11   3  26   3  17  20   1   1  30   6  11  13   2   7 
  7   1   0   2   2  11  17  12   5   8   5   7  16  23   1  14 
  1   1   7   7   5  12   2   3   0  16  13   7   1   6   8  26 
  4   7   1   2   7   5  10   6   2   7   7  13   7   6  17  14 
 26   9   9   2   3   7  18  12   3   5   8   1   4   5  12   2 
  5   2   0   0   0   0   4   2   0  12   0  17   0   5   5   1 
  5  29  10   7   1   1   2   3   4  12  12  12  17  12   6  19 
 17   4   2   2   2  27   7   1   2   2  11  24  11  30  11  17 
 12   1   3  31   3   2   6   2   1   0  20  70  17   5  42  51 
 22  18  51  12   8   1  17  30  60   4   9  36  19   7   7   6 
 12   3  10   9  20  11   6  15  16  63 106 142  53 115 108   2 
  3  21   9  10  27   8   7  26  14  85  36   9   5  15  12   6 
 34  13  15   9  12   7   8  17  12  12  14   9  13   6  21   8 
  5  14  16  12  15   4   7   2   1  15   5  22  22  10   2   9 
 18  13   8   9  17  11   7   2  23   7   2   3   3   9  26   0 
 11   4  17  22  20  11  16  16  11  14  13  17  12   2  24  16 
 18  14  15  14  14   6  20   1   2   8  21  15  13   7   2  17 
 19  11   6   9  10   8   3   3   2   2  11  11  11  24  11   8 
 15  17  12  12  11  11  24  10  17  12  12   6   0   1   1   9 
  5   1   1   5  24  23  15   9   5  15  17  17   5   8   4  12 
 17  12  16  31   9  12  23   5   2  17  23  91  94  26  12  49 
 46   2   9  30  32  21   9  11  13  24  13  18   6   4   7   7 
  7   2  17  17  16  14  30  33  15  92  96  11 103 176   7  63 
  4  36  10  11   8  15  20  17  58  51  18   7  19   2   4   9 
 35   2   4   1  11   7  11   2   2   2   2   1   2   2  12   1 
 17   0  21  20   4  14  14   2   1   2   4   2  20  14   1   1 
  2   3   2   1   7   7  11  11  13   2  15   2   7   1   4   5 
  5   1   5  22   2  15   5   7   2  15   6   3   6   7  10   7 
 13  23  17  23  23  17   4   2   2   1   9   7   0   2   0  21 
 12   7   3   7  16   3   3   2  26   2   0   1  11  19  20   1 
 12   2   0   0   6  12  11   9  11  18   6   6  22   3   2   5 
  5   3   7   7  28  18  11   8   4  16   7   2   8  17  12  22 
 15   8  18  23  12  12   6   6   1   6  69   0  40  36  39  71 
 21  31  37  27   4   8  25  25   5  17   4   3   8   7   1   2 
 10  13  12  28  23   5  35  16   7  68  64  94 152 103  17   9 
 30  31 109  55  10  17  17   9  68  41  52  75   6  20   4  17 
 41   0   2  11   2   1   4   9   6   6   9   7   9   8  13   6 
 17   7  13   9   7   6   7   3   1   0   3   3  10  10  13   7 
 11   3   7  17  14  11  20  16  12   2  13   4  41   5   3   7 
  7   7   7  14   1   4   0   7   6  13   3   3   0  13  13   3 
 13   7  13   6  10   0   3   7   6  15   4   0   2  10   2  12 
 15   4   9   5  25   7   7   9  14  13  12   8  12   6   5   0 
  3   3   3   3   0   2  21  15  14  18   8   9   6  10  17   9 
  8  20  17  15  29   7  18   5   5   4   2   2   1   4   4  17 
  2   1   2   2  14   4  25   4   7   8   8  16   6  67  28   2 
  4  18  20  24   6  16   2   5   2   4   9  12   7   3  11   5 
 11  15  11  37  58  41  28  44  91  27 113  36  30 146  88  47 
  7  72  36 125 158  94   2  26  14  31  73 113  17  13   5   4 
 47   0   9   7   7   7  13   3   7   3   3   7   7   2   7  10 
  6  14  12  11  21  21  18   7  20  13   6   7   7   0  13   1 
 16  33  28  31  31  36  20  30  11   0   7   7  12  17  13   0 
  7   7   7  10   3  13  14   1   3  17  14   1  11   6   2   2 
 14   9  15   2   2   4  17   4   2   2   2   0   3  14  23  21 
 31  74  20   1   2   4   2   2   3   6   3  13   6   5  12   3 
 13   5  16  16   0  10  12  12  18  19  17  22  18  10  13  12 
 10   2  12   8  31   5  23   4  12   8   7   7   3  17   3  10 
 31  12  11  28  18   7  17  14   2   1  22  53  25  26   3  14 
  3  11  20  11   8   1   6   2   5  16   6   7  10  13  16  11 
 14  19  20  46  38  25  16  42  48  46  70  40  56  48  21  44 
 15  25 110 152  90  45 101  67   6  63 103 128  91   5   2   1 
 60   2  30   2   3   7   7   0   3  10   3  30  19  36  12  12 
 26  21  35  43  31  50  42  15  36   4  40  11  14  14   7  13 
  2  21   7  11  14  11  10   6   3  10   0   0   3  20   0   3 
  9   7  10   7   3   6  12   6   1   8   4   2  11   4   7   1 
  8   2   2  14   6   5   2   5   2   2  10  12  10  17  35  68 
 84  48  25  83   6  15   9  10   3  10  14  23  15  12  21  15 
 18  34  12  14  25   1   2  24  15   9   3   9  12  16   1  21 
  2   6  31   5   4   8  37   5  11   2   7   7   3  13  17   5 
 15   2   1   2   5   2   7   7   5   7  23  90  55  36   2  12 
  7   3   3  15   2   2  26   0   3  13   7   3  20   9  33  27 
 17  19   7   6  34   2  20  29   2  20   8  55 113  69 128  45 
 94  38   7  15  59 157 123  67  31   6  15 142  75  29  13   7 
 33   8  31  17  13  12   9   3   3   3  17  20  20  27  13   0 
  4   1   4   7   1  20   6   1   3  11   9   5   2  15   5  12 
  6   2   7   1  26  12   9   9   7  10  14  20   1  14   6   2 
  2   2  14   2   1   1  18   1   7   7   1   3   0   2  26  24 
 24  26   6  17  14  18  28  15  10  19   8  13  17  28   9  65 
  2  24  99  97 115  31   5  20   3  21  13  15  21  19  13  26 
  9   2   8   9   8   1   2  11   5   6  28   8  28   8  12  17 
 12   6   2   7   3  12   9  10   3   8  16  19  16  22  12  12 
 14   9   7  26   1  15  25  25   7  21  29  27  50  68  16   7 
  0   0   9   9   2  21   2   3   3  22  18  12   1  82  30  14 
  2  44  65  11   0  12  14   5  11  11  13   9   7 106  50  99 
139  45  49  12   7  64  64  29   1  15  32 109  71  10   2   7 
 77  17  22   7   4   1   3  17   7   2   1  10   7  10  17   0 
  2  12  12  11   7   1  17   8  27  26  24   4  33   9   4   2 
 10   7   7   2  37  12   2   2  12  41   2  37   8  17   2   2 
  1   5   8   1   2  11  18   7  33   5  26   2  12  11  15  18 
 23  51  33  21  35  51  83  13  38   2   7   1   4  18  17  12 
 12   4  36  23 128  85   4  27   2   7   8   2   4  34  12   4 
  5  25  18   8  21   7  14   2  15   8  17  14   9   8  31  13 
 21  17   6   2   8  30  22   0  12  11   9  25   5  31   9   8 
  8  19  22  32  27  24  26  42  11  12  29   4  17  16   1   3 
  0   9   1   5   2  16  13   8   3  13   5   4  52  52   7  32 
 17  17   2   9  17  15   9  12  22  21  26   7  24  17   3   8 
 29  97  95  71  12  35 107  63  30  12 113  57  57   6   0   1 
 99  25  10  21  25  13  37  35  26  13  31   8  17  11  10  12 
  5   1   3   7   7   3   3  10   9  13  18  12  18   9   8  12 
 12  16   2   0  12   3   7   6   4  24  12  15   2   2   6   5 
  2  12  12   1   3   2  16  12   8   3  12  16  20   9   8  15 
 22  28  51  90  73  92  41 123  24  22  11   9  29  22   5   7 
 12  12  18  34  39 142 101  15   1  31   4   6  11   7  41  71 
 16   5   5   7   8  14  11   7  21  21   2   8   2   8  17   2 
  7   5   5  22  22   7  31  17  21  16  15   8  12  15  15  22 
  8  62  88   4   9  10  20   3  22  47  25  31  28   3  43   5 
  5   1   2  12   1  10  20   1  21   2  18  10  25  18   7   4 
 27   4  11  17   8  20  37  27  68   0   3   3  29  11   9  18 
 31  72  73  17  75  52  41  34  52  13  90  13  15  31  25  26 
 50   4   7  14   8  20  22  11   6   8  14   0   5   3  27   2 
  7  10  10   7   0   6   7   0  16   5  15  15  15  18  15  15 
 22  18  22   4  34   5   7  22  11   7  11  27  16   6   8   7 
 12   1   2   7   2  10   1   8  10  10   0   2  12   9  22  23 
 22  72  99  16   4  12 143  66 113   7   8  22  23  26  21   0 
 12   7  39  35  40  41  92  96   2  16  15  14  26   6 192  34 
 55  57  30   8  23  22  12  26  14  25  11  12  18  15  13   0 
  4   4  24   0   3  17  24  12  15  17   7   6  22   4   5   7 
 95  10  81  78  56  33  84  46  47  27   9  16  30  40  17   5 
  0   8  16  12  12  33  32  14   4  18  39  74  33  46  22   2 
 14  22  15  11  40  22  31  38  36  29   5   0   5  14  13  17 
 41  52   4  52  36  16  42  70   5  53  68  22  35  50  46  58 
 47  12  26  27  27  34   8   2  45   1  16  35  36  38  13  25 
 21  26  10  15  26  41  35  35  34  31  22   8  12   5   8   5 
  5   4   0   1  17  14   1   1   3  10  17   1  22   5   7   2 
 31   2  11   2  30  12   9  30   6   3  21   5  12  11  12  37 
  5  13  29  30  31  59  27 130  18  94   9   4   4  16  24  24 
 57  31   3  22  42  47  67   4  33  37   5  12   2   6  46  44 
171  27  60  24  17  30  12   5  17  21   2   2  12  12  16   3 
  3   0   7   7  10   0   7  17   0  16   3   4  13   6   7  73 
151 163   2  56  43  69  28   5  60   1  16  34  13   6  14   6 
  2  25  13  23   0  15  14  10  10   2   2  29  21  18  37  28 
 12  17  16  31   4  23  17  16  74  34  59  10   7   8  23  17 
  7   8  41  51  28  29  27  22   8  26  20   4  14  60  16  24 
 71  17   7  11   7  24   1   7  10  11  17  14  40  33  43  40 
 27  25  21  27  52  41  24  28  25  35   5  41   2  14   1  12 
  1   2   0  10  10   3   3  10   3   4  28   5   7   3   3   6 
 12  11  22   6  12   3  12   2   0   0   8  22   4   5   7  12 
 15   5  11   2   3  12  18  23 165  22  74   4   2  19  53   2 
 10   4   4  26   2   1  10  65  65  39   6   2  34  10   7  20 
 58 145  95  29   2   2   3   6   1   2   5   9   6  17   1  12 
 10   0   3  13  12   7   7   3   1  33   4   3  36  22  63  22 
 31  40   7  36  29  42  41  46  14  17   2  36   5   4   8   3 
  9  17  24  19  17   7   7   9  21  27   8   2   6   0  26  23 
 15  26   9   3  16   6   2   7  53   7  69   2  41   2   2   3 
  7  23  16  12  15  15  24  25   1  10  24  52   8  15  64   7 
 57   3  10   7   7  10   3  10  23   7   7   3  12  10  17   4 
 17  11  15  22  11   6  21  19  15  22   7   5  33   2  34  34 
 28  30   8  14   3   7  11   4   6   2   5   7   6  10  10  10 
 15  34   6  12  14  12  46  14  25  24   5   3   4   7   6  44 
 22  28   7  20  13  20  15  36  38  85  11  88  43  16  15  10 
 31  36   3  17   9   2   2  29  30  41   8  11   1  12   7   3 
  0  12 125  91  48   8   8   4   2   8   1   9  26  36  33  36 
 22   3   7   4  33   1   7   7   7  12   7   9  29  23   0  16 
 32  53  16  29  11  31  16  12   2   8   7   3  15   5  11   7 
 41  28  11   3  40   7   1   9  14  17  34  18   2   9  36  31 
 10  30   9  26  11   9   3  12  43   5  34  33   2  14  24  17 
  7  41  57   2  10  11   3  32  19   6   7  17  36  46  41   8 
 81   4   7   7  10   7   4  14   4   7   0  17   3   7   4  17 
 10  16   9   2  12   8  13  18  13  19  12   3  15   8  15  27 
  6   4   2  12  17   5   5   7  15   2   2   7   3   3   7   0 
 10   7   2   4  18  31  58  54  79  47  16  23   3  11  21  21 
 16   4   4  12   2  17   7  26  18  26  69 118  77  22  30  11 
 30   2  33  22   9  12  35  19  11  32   2  21  12  15  27   2 
  6  41  79   7 118   0  27  13   1  17   1  40   2  10   4  12 
 10  10  13   3  16   3   3   0  10  10   1  24  27   2   9   2 
 23  17  18  15  37  26   1  24   3   7   1   0   7   9  10  13 
 22   0  31  12   1  11  12  29  74   3  19   8  19   0   9  12 
 12  12  17  24  10   7  37  19  18  30  26  17  60  32   2  29 
  2  10  17  45   9   7   3  48  26  22  32  51  27  15   6  51 
 61  12  12  12  10   6  12  15  19  16  17  17  16  16  16  12 
  9   9   5  12   5  14  14   4   9   2   7   2  19   2   3   5 
 31  26  25   4  35   4  27  17  17  12  24  16  10   7   7  10 
  2  15  13  28  46  25  41   3   1  68  49  11  10  39  41  55 
  9   6   2  14   9  13  14  17  20   3   5  11  18   7  18  14 
 24   6   0   3   9  16  16   2   7   7  34   2   2  13   2   9 
  4   3   6 110  84  16  10  10  10  13  13  22  12  12   6   7 
 10   3   0   0   3   3  20   7   0  26  10  12  27  15  15  25 
 56  52  36  53   8  41   3   2  15   3   8   7   2  20   7   0 
 23   2   2   2  24  30   0  15  39   2  12   7   1  47   2  15 
  9   0  25  25  46  40  51  29  51   2   2  26  27   7   1  60 
 43   8  20  29  17   3  41  91  22  30  28   7  12  37  22  40 
 88   4   1  20   3  10   7   4  21  13  13   3  17   1   7   7 
  7  11   6   7  11   1   2  11  14   0  31  45  49  53  25  12 
 23  26   3   1   3   1  12   9  12   8   2   7   7   7  11  14 
 15  17   1  50  88  70  82  85 128 152  13  68  22  67  12  64 
  2  11  21   7  13  31  60   8  22  20  22  18  20   8  17  14 
  1  44  16  12  13  48   4  28   7   1   8   2  16  17   3  14 
 17  22  27  50  55  97  20   7  13  10   7  17  12  14  10   3 
  7   3   2  19   7   7  13   3   3  26  26   6  24   6  11  94 
 76  14  79  16  31   2  23   7   2   4  14   3   0  36   7   8 
 17   9   0  36  38   7   1   2   5  15   2  25  12  12  22   9 
 21  17   5   5  18  19  37   6  51   6   3  24   1   3  36  66 
 55  30   0   8  13   2  54  38  15  41  12  37  16  11  24   1 
103  13  17   0   7   7  10  10  13   3  13  10   7   7  10  10 
  7   7   7  17   0   0  20   7   7   2  23  74  57  87  89  24 
  3   3  21   3  21   1  22   8  12   9  15  20  11   8   9  10 
 24   9  60  31  78  36  10  59   3  48 121 118  21  58 153  24 
 51  16  19   5  31  14  32  58   7  30  11  28  14  31   7  37 
  2   1  31  15  16  16  57   7  31   1   1   7  20  11   1   9 
  1   9   9  24  99  23  39  23   3  19   2  13   3  17   3   7 
 13   8  15  21  20  21  30  16   7   3  23  12   6  28   7  40 
 14  37  21   7   0   4   0   7   7  21  25  22  15  18   3   6 
  2   4   3   0  11  48   5   5   5  32   2  10  10  12  22   2 
  5  28  12   9  18  26  17   7   3  10  26   9  19  45  41  32 
 51  40  24  13  36   0  12  74  60  31  60  45  17  28  24  53 
 70  17  17  17   3  17  17  20   0  17  17   7  10   3  17   0 
 10  10  17  13   3  13  10  26  17  55  82 118  15   5   3   2 
 27   6   2  12  41  17  23  23   0  12  16  35  24  20  31  22 
 29  15  22  29  31  27   5   5  57  37  39  92  10   2   7  31 
 23  33   6  15  12  26  17  19  22   8   7   2  20  30  18  37 
 49  13  20  10  30  12  14  13  25   7  15  10   1  40  18  11 
 19  27  10  16  11 108  68  14  53  10  20  33  41  27  44  39 
 38  12  29  30   2   5   7   1  33  46  37  58  20   7  68  14 
 37  17  10  11  17   3   7   0   4  23  22   9  30  36  17  10 
  1  12   2  19  18  11   2  11  10   7  15  10   7   2   1  25 
 28  11   9  11  11  23  18  18   2  31  15   2   2  46  16  30 
  5  23  36  16  24  40  24  73  18   5  37  35  28  23   2  41 
 90  13   3   0  17  17  13  17  13   3   7  13   7  10  13   7 
  3  17   0   3   2   9   7  17  22  40  26  96  35  22  39  12 
 48   2  68  22  44  29  27  32  10  25   7  43  49  35   4   3 
 46  43  66  55   1  10  13   1   8  34  26   2  15  47   2   1 
 31   1   3  22  35  36  19  28  41  14   4  27  17  22  22  32 
 25  60   7   2  12  41   7  14  22  20  14  36   1   4   1  12 
 22   2   8   7  42  44  79 165  62  40  65  54  59  46  65  24 
 26  46  38  41  15  26  36  10  94 133  12  34  75  42  64  36 
 42  13   3  19  14   7  23  19  17  35   5   5  10  45  14   2 
  2  10  33  32  18  21  20   1  29   7  26  28  52   1  26  26 
 13   5   7   8  20  45   2  17  22  26  16  12  19  22  59  51 
 14  25   3   7  39  29  34   2  41  50   1   1  46  15  51  35 
 90  13  13  10  17  10   0  20  12   3   0   3   3  17  20   3 
  9  19  23   7  41  46  12  21   2   2  26  17  10  21   9  27 
 19   6  12   6   4   4   0   9   7   1   5  34   7   8   7  29 
 22  11   8  48  23  14   5  21   6  46   5   9   4  17  17  13 
 44  26  22  26   2  15   1   7  11   3   9  28  17  13   7   2 
  9  29  50  42  55  29  13  11  24  36  29  67  51   7  57  44 
 30   7  30  38  19  42  60  99 115   3   1   4  19  22   9  44 
 24  11  18  17   5  25  35 110  15 140 111   8  29  65  12  32 
 15   1  21   6   6  10  20  10   3  19   1  22  13  18  41  17 
 11  51  24   7  13  51  14  30   4  64  22  90  47  49  12  13 
 74  30  24  19   0  17   2   1  26  14  12   7  26  10  70  55 
 22   4  50  31  17  10  17   9  40   1  23   3  22  13  37  79 
100   6  10   7   6  22  10   7  23  21  10  23   7   7  17   1 
 24  24  23  22  40  52  23   1  12  17  17   3  13  36   2  36 
 30  46   5   0  24  24  19  12  41  22   6   7   5  20  13   5 
 13   7   3  17  20  18  33  19   7  12   3  18  25  37  38   2 
 20  22  14  16  52  48  18   6  31  28  22  18   9  36  31   9 
 24  18   2  23  20   2   2  35   3  46  39  49  42  43  26  44 
 31  20   8   7  34  31  68 136  12  45  40   0  19   6  11  25 
  8   0   7   8  43  52  99  18 151  48  69  35  32  13  35  15 
 29   7  41   5   5  34  17   7  11  26  44   5  19  11  22  20 
 47  30  12  19  34  66  12 119  65  60  87  85   7  69  31   2 
132  89  51   2  24   6   5  30  17  35  21  38   9   2  51   3 
 22  13  13   2   6  41   5  46  42  12  42   3  12  19  20  53 
 99  20  13  17  14  17  14  34  19   7  16   0  17  12   7  10 
  2  22  28  10   3   6  22  17  28  37  11  12  11  12  33  40 
 12  21  39  26  64  10  12  13  10  23  52  61  36   4  41  26 
 13   7  14  37  20  13  22  13   8  17   2  35  15  11  28   8 
 35  26  17   5  20   7  24  21  23  10  14   7  11  44  18  12 
 24   2  31  18  28   5  17  25  31  11  54  29   9  23   6  26 
 37  41   5  21  12   7   8  26  37  35   8  12   9  41  21  17 
 18  28  28  48  28   5  41  71  70  14  48  44  11  25   9  22 
 33  30  15  26  34  16   5   1  18  31  17  10   2  19   3   2 
  0  19  80  16  25  79   2  12  26  55  75   5 193   7 109  43 
 72 117  89  37   3   2   5  21   8  18   2  70  38  19  10  65 
 17  11  27  36  32  51  41  40   3  34  42   2  31  20  38  35 
112  11  15  20  19  28  27  11  15  18  14  36  60   7  46  57 
 31  12   7  34  34  21  27  17  21  19  25  16  22  42   6   2 
  1  17   2   2  34  45 185  67  64  78  60  33  52  91  26  35 
 14  18  49  41  12  10   3   2  15  11  16  74  38  30   1  39 
 17   2  33   3  23  24  47  19  39   4  26   7   4  22  47  34 
 11   4  17   9   8  26  12   3  22  15  14   3   3  10  17   3 
  9  17  15  15  17  10  32  39  54  15   2  27  28   2   5  62 
 36  65   6  46   7  43  55   7  50  73   4  62   2  11   2   2 
  5   7  24  32  18  13   7  36  28  39  25   3  22  41  88  21 
 30 136  64  24  48 142   8  82  45  70 153  17  28  62  20  48 
 39  78  60   7  23   2   1  10   9   8  10  15   2  18  53  42 
  3  24  33   7  40  12  25   7  78  36   3  16  16   8  15  21 
130   5  11  38  35  40  27   6  31  34  26  42  60  46  46  46 
 41  46  26  17  17  56  48  30  18  25   5   5  22  22   2   6 
 26   2  17   2  14  75  40  78  51  81  66  79  49  55  55  46 
 89 151  37  17  15  30  10  10  13  12  18  22  26  36  21   3 
 13  37  14  13  17  31   9  16  33  10   9  18  46  26  60   2 
 20  23   7  23   6   5  20  17  21  30   1  20   8  13   8  12 
  1   9  16   8  25   0  21  40  35  76  92  14  17  55  12  22 
 22  43  46   8  31  28   1  35  13  44  24  14  31  11  52   4 
 10  47   1  12  36  45  45  60  44   7  33  26  41  60  55   5 
 10 108  53   1  67  15  37  70  17  69  13 103 113  87  88  95 
 72  11  14  10  17  17   1   5   3   2   6   0  16  26  14  42 
  7  21  20   2   8  13  41  31  48  38  61  45  12  21   2  81 
158  23  32  20  17  18  24   3   2  10  17   5  18   7  10   3 
  5  22  12  12  12  51  31  20  31  22  10  10   0  17  17  30 
  7   0   4   0  12  25 102  76  57  62  46  20  14  51  94  78 
 65  71  65  66  46   9   6  12  17   1  26  24  14  30  28  20 
 53  13  14  22  39  21  16  16  15   9  10  10  27  18   9  19 
  5   5  22   9  15  28  15  14  25  26  25  10   2  24  16  10 
 51  12  10   1  32   4  18  16  20  26  24  22  28  23  30  65 
 75   7  34  28  15  41  59  84  16   7  82  38  84   5  35  15 
  7  39  22  38   5  11  65  46  26   7  92  76  77  70  84 104 
 56  36  57  75 103 106  54  68 117   6  31  29  23  79   7  15 
 54  26  24  20   8  12  17  17  19   5  15  23  39  41   9  12 
 31  17  10  13  18  22  40  32  41  15  29  32  15   6  17  73 
123  19  15  19   4  10  15  36  10  31  26   5   1   6  17   2 
  9   8  36  33   9   7  20  25  40  45  19  26  38  12  10  12 
  3   5  22   0  19   7  12  20  46  65  17  74  89  55   9  77 
108  62  93  11  38  17  10  17  19   6  14  32  13  26  31   6 
 46   0  22   0  29  11  30  35  64  33   7  17  25   9   6  11 
 30   2  14   1   2   8  18   8  12  18  25  27  26  26  19  48 
 10  36   2  73  95  30  49   7  34   9  25  37  22   3  28  51 
 51  51  41  13   7  54  36  12  22  11  42   1   8  22  22  30 
 29  11  26  42   6  75  19  20  17  35  58  87  31  12   9  17 
 33  50  36  15  46  75  64   2   8  30  70  52   6 107 112  77 
 31  12  36  25   1  23  22  10   0   1  27  12  36  27   2  18 
 26  19   2  10  41   4  24   1  13  10  10  12  20   3  16  51 
144   3   3  14  11   5  28  27   9   8  30   7   2  17  35  29 
 22  35  25  49  37  23  36   9   2  14   4  39  25   1   4   1 
  2   3   7  12  23   8   9  17  44  29  53  12  17  51  66   3 
 41  44  11  20  26   2   3   2  14   7   2  12   2  10  22   1 
 12  12   9   2   3  10  67  43  21   1  41  17  29  41  28  58 
 55  26  10   7  22  26  16  12  20  29   5   2  46  39  26  59 
 77  56  57  20   4  33  43  90   5  46  23   2  20   3   3   3 
 10  17   7  21  26  37   4  28  25   1  11  12  10  15   8   6 
  8  21  19   1  14   5  40  23  17   9   9  43  12  87 103  37 
 43  46  36  45  33  35  32  68  72  24   0  28  30  22   2  14 
 30  17  13   6   3  14   8  31   9   7  17   5  17  17  18   8 
 26  20  26  17  26  26   3  10  10   9  27  13  26  20   7  70 
136  27  22  22  19   2  36   5  11   2   7  19   2   0  15  12 
  1  19  28  21  29   8  25  13  17  12   9   2   7  11   1   0 
  2  23   1  13   1  75  25  21 100  97  81  98  40  40  19  20 
  3  13  51   3   5  21  20   2   4   3   7   7   2  29  36   3 
  3   3  24  22  17  52  70 116 147  25   4  64   7   4   4  24 
  4   2  22  12  17  46  41  26  18 102  17  36 103  19  47  60 
 40  22  10   1  14   5  34  51  31  12  54  14   4   3  14  17 
 10   7   3   0   3  16  12   9   0   2  24   7   0   3   1   4 
  9  10  21  23  41  27  22  12  14   9  29  62  46  18  87  66 
 21  19  35   0   6  11   4   5   2   0  23   3  33  11  19  35 
  2  33   2   0   0   5  12  14   4  21  28   1  12  53  42  21 
  1  20   3  45  31  38  18  16   2  26  19   1  10  23  20  70 
130   9   2  29   7   8  26  26   5   5   5   3  10   5  12   2 
 27   9  33  16  18   7  18  19  12   6  12   1  31  16  20  12 
 12  30  31  30  55   7  16  32  34   9   7  23  38  39   2  16 
  8  12   1   9   9   7   7   8   9  25  57  31   0   4   1   6 
  4  30  12  40   8   7  30  62  70  29  83   4  93  65  50 120 
 58  76   7  12   8  16  16  10  31  14  18  43  55  25  52  53 
 28  48  22  26   5  50  28   0   3   7   9  16   9   1   9   9 
  3  11   1   3   7  36   5  33  28  23  16   3  10   7   0   3 
  7   7   7  19  12  12   8  10   4  14  11  17  37  16  36  12 
 17  11  51  36  17   1  10  13  18   3  15  21  21   3  10  17 
  5   2   7  35  22  25  25  27  22  11  11  17  17  54   4   2 
 12   4   3  27  20   7   8   8   9  22   2  13   1   7  26 102 
182  23  16   7   1  26   2  13  28   1   7  22   2   3  13  10 
 36  17  10   1   1  15  14  27   9  11  26  11  31   7   6  47 
 19  67   4  12  19  27  23   8  21  61   3  36  62  36  45  20 
 11  14  29   9  25  17  22  29   5  25  14   9   6  21  22   3 
 31  11   7  33   8  15  49   2  22   9  77  65  53  42  65  94 
 40  70  12  50  15  35  35  24   6  13  14   6  15  11  10   3 
  7  13  14  13  15  45  25  22   7  26  18   6  22  26  32  18 
 31  46  31  12  24  19  19  26  37  10   4  22  22  22  16   8 
 14  10   3   2   2  14   7  17   3  17  10  12  24   8   2  16 
 28  22  36  35   8  22  23  21  11  17  20  17  17  16  10  36 
  7   9   8  22   7   2   3   7  16   7  11  10  13  16   4   0 
 25   9  12   7  17   3   2   0   1   9   0   7   4   4  10  36 
 46 104  61  46  42  29  24  18  16  25  24  22  20  12   2   8 
  0   4   0   0   0   2   0   0   1   3   2   3   4   5  11   5 
  4   4   4   5   7   6   3   3   4   0   3   4   6   4   4   8 
  6   5   6   8   2   9  11  10   3   4   4   2   4   2   3   3 
  3   9  13   7   2   9  17  17  12   9   2  12  19  20  10   4 
 13   9   9  10   6   6   2   2   1   4   1   1   2   3   2   0 
  7   3  17   1   9  45  16  13  14   9  46   5  10  41  28  46 
 49  36  40   2  37  21  17  10  22  11  17  33  63  22  60  21 
 28  19   9  27  34   2   7   3  33  23  36  21   7   1  10  22 
 27  13   4   5   7   2  21   9  17  27  10   4  16   8   7  34 
 34  31  20   3   7  13   2  10   6  10  17  18   1   0   3   2 
  2   7  24   3   4   1   2   2   6  36  12  12  16  18  39  28 
 79 177 131 102  78  63  61  55  48  41  38  39  28  30  31  29 
 24  18   8   4   7  10  10   6   9  16  20  23  25  13  12  11 
 10   8   1   1   1   1   7   7   7  15   7   1  12  13  14  13 
 14  15  16  16  18  18  15  15  15  15   9  13  14  18  19  16 
 17  19  12  14  24  14  14  10   9  14  12   9   8  15  19   3 
  6  13  10  11  21  13  18  14   2   5  10   7   0   4   3   2 
  4  10   7  23  23  17  27  36  14  11   6   7   4   6  36   2 
  1  12   5   4   1  25   7   3  18  25  15  18   2  14   5  26 
 20   7  17  19  32   3   9  20  15  22  36   3  34  20   0  14 
  8  21  16   2  22   5   4  17  12  15   3  16   0  13  25  14 
 22  17  12   1   5  12  18   6  15   6   6  17   6  18   7   7 
 18  17  28   4   8   4   4   9  10  26  23   2  17  12   9  73 
 94 195 158 128 103  89  78  70  68  56  51  47  44  41  29  27 
 24  17  22  20  14  13  18  18  17  17  25  27  31  30  22  17 
 11   4   3   1   1   2   2  16  23  15  11   6   8   5  12  17 
 23  24  25  26  27  28  28  27  22  22  19  23  20  21  18  22 
 20  24  22  11   3   7   7   0   0   6  15  17   6   3   0   3 
  0   2   4   1   0   4  15   6  17  23  10  15  13  13  12  20 
 10   2   7   0  22   8  20  12  24   8  17   7   7  12  31  17 
 13   4  17  28  15  32  34   4   1   2  21  16   1  29   3   4 
 13   2  19  15  31   2  40   9  32   2  17  51  48   8   1  18 
 40  26  12   7  31   7   2   7  11   0  13  19  17   6   2  15 
 22  22   8  12  12   2   6  21  24  23   7  18   0  10  13  12 
 23  17  17  12  12   6   6   3   8  12   5   7   3   4  23  80 
102 210 172 150 131 115 101  91  89  78  67  58  58  58  46  41 
 34  32  27  25  17  16  15  14  19  18  18  26  25  27  26  30 
 29  20  19  21  26  29  20  24  19   2  10   6  10  21  16  23 
 28  32  37  42  43  39  27  27  27  27  22  28  29  30  21  25 
 26  23  28  29  25  19  19  22  18  17  16  14  12  14   8   5 
  0   1   6   4   2   5   4   2   1   8   6   7   8  13  10  14 
  5  20   3  14   6  13  24  10  14  14  19  23  26  13  20  22 
  2  36  21   5  36  21  26   9   5   2  19  38   6  31  37  19 
  4  12  27  13   7   2   7  44  35  21  17  42   5  10  25  10 
 17   7  14  12   4  13  16  10  26  30  36  13   2   7   4  21 
  5  26  17  17   2  13   3  17  21   5   7  16  13  12   4  11 
 17   6  12   6   0   6   3  10  22   9  12  18  19   0  24  54 
106 215 186 159 139 118 109  93  84  77  68  70  65  53  52  54 
 46  48  49  48  48  41  40  39  38  32  36  35  37  36  35  31 
 25  29  31  31  32  30  21   3   4   5  19  19  14  21  22  22 
 30  40  45  48  46  42  39  27  27  27  18  27  28  29  23  30 
 21  18  23  23  27  33  39  46  32  32  38  46  40  25  14  21 
 19   8   5   7  11  11   8   3   1   9  16  16  19   4   3   3 
  7   5   9  21  27  20   5  36  15   9  10  28  25  22   7  19 
  2   3  17  17  11  22  15   9  31   0  17  44  34  60  11  29 
  5  51  18  11  28  36  14  47  13  22  22  12   2   8   5  12 
 16  24  21  11  23  29  26   7  31  34  11   4  17  27  36  12 
 17  15  17  22  11   2   6  12   0  11  12  13   9   7  11   6 
 12  12  12  17  17  12  17   9  15   6  24  10   7   1   2  57 
105 209 184 162 143 127 119 102  90  84  77  71  66  66  57  62 
 60  56  53  51  46  44  42  34  28  34  32  31  35  34  33  35 
 31  19  14   6  12   2  10  17  23  31  31  24  25  25  33  29 
 27  37  44  59  41  46  53  49  40  34  41  40  40  36  37  35 
 29  30  31  25  31  32  44  45  43  51  50  51  49  52  35  35 
 35  22  20  18  16  22  13   5   4  14  20  11  17   5   5   5 
 17  17  10  41  25  14  15  31   4   7   1  18   5  15  19  26 
  3   7  22  12  17  21   0   2  14   6  46  80  12  18  24  32 
 51  55   1   9  31  21  15  48  30  26  23   8   7   2  26   7 
  2  17  14   5   6   3  10  12   8   7  17  15  33   8   5   2 
  0   4  14   8   4   2  17   3  10   6  10  12  10  20  35   4 
 12  17   0  16  11   5  15   3   2   2   7   1   1   2   3  48 
105 209 192 176 150 134 121 109  99  96  83  77  76  66  66  58 
 54  51  48  43  41  39  37  36  30  29  27  30  29  30  29  33 
 35  31  30  30  29   2   9  21  33  32  35  39  42  47  48  35 
 34  49  50  59  44  62  67  52  61  61  54  54  54  55  59  56 
 46  46  50  47  57  51  53  53  59  51  54  56  63  65  52  47 
 45  39  41  35  33  36  19  21  23  13  24  10  11   7   2  12 
 25   0  20   2  36  55  31   3  13  61  62   1  21   4  65  30 
 34  25  22   9   5  15   9   5  51  88  46  33  75  56   3   0 
 10  32  54  19   2   5  19  59  11  14  12   3   3   7  20  23 
  9  26   2   9   7   7  16   3  16  36   0  14   3  33  19   1 
 29  22  17   8  36   6   9  22   9  17  16   7   7  11  16  36 
 14   0   7   8   4   4   8   3   1   1   0   1   2   5  23  43 
105 213 193 175 154 144 131 120 105  96  86  82  73  70  66  61 
 58  52  51  49  44  41  35  34  32  30  29  27  26  25  28  27 
 28  36  35  35  18  22  29  36  52  37  48  54  46  57  55  51 
 63  57  45  61  54  66  73  66  67  67  68  64  64  69  63  58 
 58  49  56  59  59  74  64  70  73  62  56  73  81  70  62  64 
 47  46  40  42  37  50  47  45  38  28  30   7   7  17   1   4 
 26  11   7  23  34  15  91  14  23   3  42  39  52  37  45  24 
 15  17   6  21   6   6  13  10  19  32  38  30  68  66  60  60 
  7  10  19   0  84  67  73  43  28  31   3   3   3   3   2  12 
  2  10  18   7  16   4  29   7   7   3   5   9   4  40   4   5 
 12  13   2   6   6  21  12   0   8   0  17  12   4   4  13  22 
  7  13  12   8   3   3   3   2   1   1   0   2   2   1   6  45 
103 206 193 177 162 148 135 119 109  98  90  83  80  72  67  62 
 58  55  52  44  46  44  37  35  34  32  34  33  32  30  25  20 
 23  17  25  24  17  41  35  53  61  54  52  48  56  61  57  55 
 58  63  59  71  58  58  65  72  79  60  70  74  71  64  68  65 
 65  54  63  65  58  69  65  75  68  56  66  78  82  56  65  66 
 71  56  55  46  36  42  46  54  44  48  41  24  33  24  14  14 
 51   2  51   5  56  12  40  57  23  18  14  38  21  25   7  22 
 11  55   6  73  18  46  21   9  42   7  41  46  40  26   4  47 
 23  39  76  25  26  19  11  25  37   0   0   5   0   5  15  26 
 34   6   1   5   2   2   7   0   8  13   5  26   1  15  11   6 
  1   2   6  10  11  12   4   8   0   8   8   4  12   4   4   8 
  0   4   4   2   2   2   2   2   2   2   2   2   2   2   2  42 
101 202 187 172 163 145 138 122 113 102  94  87  81  71  70  65 
 61  57  54  51  44  46  39  37  35  37  32  30  29  31  26  29 
 28  23  26  10  42  48  41  50  64  61  58  62  53  63  74  57 
 62  69  66  76  64  53  60  72  75  59  76  66  73  70  74  68 
 74  46  64  75  68  56  68  74  62  62  72  74  70  62  67  55 
 61  59  61  52  46  48  41  43  50  37  47  42  42  19   8  19 
 48   3  40   0  19  10  82  16  85  46  24  39  20   2  43  84 
  9   7  42   1  42  42  25  36  49  94  17  17   1  54  36  41 
  3  38  39  55  63  26  38  17   0   3   5  20   5   5   5   2 
 29  12   0   0   0   1   2   3  17   8   4  17   4   4  21   5 
  7   3   7  17  12  12  12   8  12   4   0   8   4   0   4  17 
  4   0   2   2   0   0   1   0   1   0   1   1   3   0   1  36 
 99 199 184 176 158 146 135 124 113 107  97  90  79  78  72  68 
 63  60  56  53  50  43  41  43  37  35  33  31  30  28  31  26 
 25  23  29  17  63  54  61  71  70  67  71  65  66  63  63  64 
 74  75  75  73  59  59  52  60  75  68  75  66  66  70  76  73 
 70  48  67  63  70  55  62  66  44  61  67  66  62  67  73  39 
 50  71  60  40  65  54  33  46  58  54  60  35  33  27   1   8 
 22   3   7   0  36  17  22  96  47  13  49  54  69  86  79  26 
 55  29  21  35  18  12   7  57   6  64   5  29  33  33  31  22 
 17  23   1  39   7   1  21   0   3  13   3   5   0  10   0   1 
  1   5   6   0   1   2   2   0   4   4   4   8   0   4   0   0 
  8   4  12  17  12   8  12  12  12  17  12   8   0   0   2   7 
  7   2   2   6   0   0   0   0   0   0   0   5  18   3   0  34 
 97 195 181 169 157 146 133 123 114 106  98  92  85  80  74  66 
 65  62  58  51  48  49  42  40  38  36  34  28  31  29  28  27 
 21  24   9  45  66  69  67  76  71  70  73  68  65  69  53  53 
 54  57  68  69  66  63  66  73  71  77  78  71  68  72  61  66 
 72  69  73  51  62  54  72  71  49  52  56  55  54  56  69  53 
 49  58  46  44  67  35  30  35  57  54  50  38  33  33   1   8 
  2   7  10  23   5  10  31  28  30   0   6  17  29  40  41  97 
 22  26  90  33  44  70  20   8   2  25   4  17   7  30  45  14 
 89   3   1  12  33  23   0   0   0   3   0   0   5   7   5  17 
 14   6  23   4   2   1   4   0   8  12   8   4   8  12  12  12 
 12   8  17  12   8  12  17  12   8  12  17  12   8   1   2   6 
 18   5   6  17  12   0   0   0   1   0   0   0   5   2   1  31 
 95 190 176 164 155 145 133 123 115 107 100  93  87  81  76  71 
 63  59  60  52  49  46  44  41  39  37  35  33  32  30  25  27 
 22  32  20  67  65  68  60  75  65  62  77  57  61  65  75  63 
 60  45  61  71  77  72  76  81  76  84  80  74  68  65  65  61 
 68  58  61  58  61  46  68  80  52  48  55  50  49  53  65  53 
 41  48  27  47  65  32  26  23  55  30  42  22  24  32  13   5 
 30  25  14  35  41  22  29  26  41   8  33  50  12  10  20  35 
 33  41  22  22   7  47  46  45   1  13   2   3   1   4   1  82 
  4  57  89  73   7   7   0   0   0   0   0   0  10   0  10  16 
  1   0   5   2   0   4  17   8  12   4  12  12  17   8  12  12 
  8   8   8  12   8  12  17  12  12   4   4   0   8   7   2   6 
 17  12   6  12  17   6   0   1   2   2   0   0   0   2   1  27 
 92 183 174 161 151 141 132 123 115 108  96  94  84  83  77  73 
 64  60  57  53  50  47  45  42  36  42  36  34  33  31  30  24 
 27  12  56  66  54  59  63  74  64  49  56  63  64  51  58  62 
 63  60  67  74  85  77  78  89  72  76  81  82  70  60  52  64 
 57  49  64  64  52  57  57  63  41  43  57  54  48  62  53  37 
 44  50  24  39  49  21  23  28  56  33  43  18  13  16   8  25 
 34  36  29  42  70  40  17  33  26   5  17  14  20  10  43  20 
 26  24  44   5  56   2   0  27  72  59  27  25  34   6   5  10 
 18  31   6  21  10   7   0   3   5   0   0  10   5   3   0   3 
  1   0   0   2   1   0   4   0  12   8   8  17  12   8  17   8 
 12  17   8   8   8   8   4   4   8   4   4   4   4  12   2   1 
 12  23   6   6   5   1   1   1   1   2   1   1   2   2   0  24 
 89 180 167 158 148 139 126 118 115 108  97  90  85  79  74  74 
 65  61  58  54  51  48  46  39  41  35  37  35  33  32  30  29 
 32  26  67  56  50  47  59  71  64  65  49  56  63  46  46  65 
 62  69  73  76  84  71  68  86  68  65  76  73  69  41  48  67 
 59  67  57  48  51  51  56  43  32  31  41  41  44  47  51  35 
 40  54  27  44  38  22  30  43  54  26  35  24  15   3  12  24 
 78  41  12  15  34   5   2  12  22   1  30  14   8  17  37  43 
  2  44  26  64   9   0   9  10  19  70  97  63  28   8  18   7 
  6  28  44  12  26   3   7  18  23   5   5   7   8   1   8   1 
  1   0   1   2   0   0   0   4  17  17   8   8   8  12   8   8 
 17  17  17   8   8  12  12   8   4   4   4   8   4   8   1   6 
  1   5   1   2   2   1   2   2   2   2   2   2   2   0   0  21 
 86 172 163 154 145 133 129 121 114 107  96  90  85  75  75  74 
 62  62  58  55  52  49  46  40  38  40  42  36  34  32  31  34 
 11  60  61  45  46  64  55  56  60  57  58  55  56  67  67  73 
 61  77  83  75  66  64  71  82  64  57  50  69  69  47  41  51 
 51  58  51  47  41  36  43  33  24  31  30  25  37  36  35  37 
 27  32  23  44  38  33  39  57  55  42  32  18  25  10   2   5 
  1  11  24  11  26  12  36  31  36  35   9   8   3   7   6   4 
  3  32  26   8   4   1  71  46  66  11  25  34  62  44  42   4 
  9   7  12   2   3   3  10   7   5   0  10   2  22   6   3   1 
  1   0   2   3   4   0   0   4  12  17  12   8  12  12   8  17 
 12  17  12   4   4   8  12   0   0   4   8  17  12  17  12  17 
  7   1   1   1   0   0   0   1   0   1   1   2   2   1   0  17 
 83 167 158 146 142 134 127 119 113 106  96  90  89  80  75  70 
 66  62  59  51  53  50  47  45  42  40  42  36  35  33  31  26 
 38  59  43  42  53  57  58  55  63  67  54  51  71  66  67  60 
 58  68  74  66  69  66  67  74  70  74  57  57  50  50  36  50 
 47  50  47  36  32  24  33  19  17   8  22  17  30  23  19  26 
 18  26  25  45  31  42  28  52  53  54  57  36  13  10   3   1 
 55  39  12   2   4  35   5  19  26  18  21  21  37  19  18   4 
 14  28   4   2  39  20  95  85  56 107  46  18  46  23   3  10 
  2   3   7   7   3   3  10   3   0   2  15  26  14   7  17   3 
  2   2   2   8  12   8   8   8  12  12   8   4  12  12   8   8 
  4   8   8  12   4   4  12   8   8  12  12  12  17  12  17  12 
 17   4   0   0   0   0   0   0   0   0   1   2   2   1   4  14 
 80 161 154 146 139 131 124 117 107 105  99  94  88  79  75  66 
 66  67  59  56  53  50  52  49  43  45  39  41  39  33  39   6 
 54  46  35  44  45  38  57  58  56  56  54  61  58  56  52  52 
 57  53  71  58  62  77  59  66  56  63  49  54  46  35  33  46 
 35  33  33  31  26  12  31  11   7   6   3   5  16   8   8  21 
 20  17  27  48  29  34  41  60  51  43  65  42  24  29   3   1 
 48  12  26  33  43   2  23  41  18  22   7  59   7  19   3  13 
 21  63  25  31  55  17   2  70  59  53  32  35   4   4  13   2 
  3   7  10  10   7   0   7   0   3  26   7  32  16   1   8   0 
  1   1   8  12  12   8   8   8  17   8   4   4  12  12  12   8 
 12   8  12   8   8  12  12  12   8  12   4   4   4   0   4   0 
  4   0   4   0   0   0   4   0   0   0   0   3   1   4  17  15 
 77 151 149 142 135 128 122 115 109 103  98  93  88  79  74  70 
 66  63  59  56  53  50  52  49  47  41  39  41  35  38  39  21 
 54  41  35  36  37  45  44  51  58  48  49  57  50  48  56  49 
 50  53  61  51  61  74  44  59  44  55  41  32  25  23  23  35 
 26  26  23  18  11   7   8  11   4  10   2   1   2   2   3  13 
  6   1  19  33  26  31  45  61  42  33  47  30  33  41   8  13 
  6  39  26  66  28  14  26  41  18  27  24   3   5   7  13  49 
 46  13  63   4  11  30  18   2  46  99   2  23  18  17   8   5 
 10  10   3   7  13  10  13   3  12  14   7   2   4   4  17   4 
  4   4  17  12   8   8  12   8   8   0   4   4  12   4   8   8 
 12   4   8   4  17  12  12  12   8  12  12  17   4   0   4   4 
  4   8  17   8   0   4  12   8   4   4   4  17   4   0   4  12 
 75 150 144 137 127 125 119 113 103 102  96  87  87  82  74  74 
 70  62  63  56  57  55  48  46  47  45  43  42  40  41  22  42 
 47  41  27  35  29  34  31  47  32  48  38  47  50  43  40  56 
 44  45  42  27  29  61  37  44  40  37  34  25  16  25  17  23 
 23  17   4   0   7   0   6   7   4   4   2  16  16  12  12   7 
 23  26  15   0  11   3  29  45  44  26  20  26  32  31  13  11 
 68  80   0  50  49  20  12   9  49  49   7  35  42  43  22  46 
 46  16  94  13  30  48  28  26  18  74  28   2  20   5  12   7 
 10  10   3   0   7  18   7   5   7  14  16  12   3   4   8   4 
 17   4  12   8   4   0   4  12   4   4  17   4   4   4  12  12 
  4   8  12   8   8   8   4   4   4   8  17   8   0   8   8   8 
  4   8  17  12   8   8   4   4   4  12   4   8   0   4   8  12 
 73 145 139 133 127 117 116 110 105  99  90  90  85  81  73  69 
 65  62  63  56  53  50  52  46  43  45  44  42  36  46   2  38 
 37  33  20  32  36  34  35  22  25  26  31  53  39  33  33  29 
 41  49  28  29  31  51  30  36  28  30  29  22  17   7   7  10 
  6   6   3  14  10   3   3  15  11  11  22  23  16  23  24  24 
 30  30  31  35  32  28  17   9  16  20  14  11  28  17   9  12 
 41  17  13  39   3  35   5  10  40  31  35  83  15  21   0   8 
 11   9  28   9  12 128  12  71  15  21  24   5   3   3   3   7 
 10  15  10   2   5  18  10  10  12  27  12   5   4   8  12   8 
  8   8   8   0   0   4  12   0   0   0   4   0   0   0   4   0 
 21  17   4  12  12   8   8  17   4   0   4   0   4  12   8  17 
  4   0   4   0   4   4   0   0   4  12   8  12  12  12   8   9 
 70 140 134 125 123 118 112 107 102  97  93  88  84  76  76  68 
 69  66  58  60  57  50  52  46  48  41  44  42  40  41  21  38 
 32  23  24  40  43  27  28  35  32  26  26  27  28  26  26  25 
 18  30  21  21  22  29  20  23  23  21  23   6   1   1   1   4 
 11   4  11  22  19  15  19  22  22  27  23  23  28  17  24  32 
 29  30  34  26  24  27  32  25  21   4   3   5  36  13  13  21 
 42   7  36   4  15   6  29  22  16  20  24   7  12  57  36  64 
 51  26  26  24  68  52  17  21  11  26   3   0   3   3  10   7 
 15  22   7  20  10   2   5   2  13   8  17   8   4  12  12   8 
  4   4   0   0   0   4   8   8   4   0   0   0   0   0   4   0 
  4   4   8   8  17   8   8  12   4   4   4   0   4   4  12  12 
  0   0   0   0   0   0   0   0   0   4   4   0   8  12   8   2 
 68 135 132 124 119 114 105 104  99  95  90  86  82  78  75  67 
 68  65  62  59  56  54  52  49  47  45  44  42  40  39  21  30 
 21  16  15  31  32  22  21  24  25  21  22  15  15  11  12  17 
 12  13   3   7   7   4  14   8   5   1   1  11  11  12  11  22 
 27  27  22  22  22  15  22  27  22  23  23  23  28  21  24  29 
 29  29  30  30  25  25  26  31  31  34   2   2  26  11  13  18 
 26  26  13   2   8  53  74  32  70  24  66  36  12  84  41  49 
 28  31  60   8  26  56  47  28  22   3   0   7  13   3   3   3 
  2  15   5   5  12  12   9  13   7   0   8  17   4   4   4   0 
  0   0   0   4   4   4   8   4   8   4   4   0   0   4  17   4 
  0   4  21   4   4   0   0   4   4   8   8   8  12  12  17  17 
  4   0   0   0   0   0   0   0   0   0   0   0   4  12   8   2 
 66 132 125 120 115 110 106 101  99  95  91  87  83  77  73  73 
 67  60  61  58  52  54  47  49  47  45  44  42  43  17  29  16 
 15  14  26  24  19  20  14  19  15   8  16   9   9   4  16  11 
 17  12   5   4   4   4   7   0  13  17  17  17  16  16  28  23 
 20  28  23  20  23  23  28  23  23  23  28  23  28  32  28  29 
 29  29  24  24  33  34  29  18  18  29  13  13   1   5  16  17 
 20  19  70  22  13  23  86  36  43  26  28  47  20  19  31   5 
  2   7   1   4  32  12  12   2   5   0   3  13   7   3   0   3 
 13   7   0  10   7   2  11   7   0   0   0   4   0   0   4   0 
  0   0   4  12  12   8   8   4   8  12  17   4   0   0   4   0 
  0   4  21   4   0   4   0   4   8  17   8   8   8  12  17  12 
  0   0   0   0   0   0   0   0   0   0   0   0   0   4   0  17 
 64 127 120 115 111 106 102  98  96  92  88  84  81  75  74  69 
 66  63  60  58  55  53  51  49  47  41  43  42  48   2  34   7 
 14  14  23  18  17  19  18   7  12   1   2   8   0   4  10  16 
  2   1   8  15  14  14  14  18  18  17  21  24  28  23  23  21 
 16  21  28  23  23  28  23  23  28  28  23  28  23  23  23  28 
 28  28  33  40  21   5  46  61  54  54  22  30  24   2   6   7 
 12   2   1   0  27  19  19  49  16   1  24  11  19  18  44  28 
  7  13  12  19   2  17  23   2   7  16   7   3   3  13   3   0 
  2  20  22   3   5   6   8   0   0   0   0   0   0   4  17   4 
  0   0   0   8   8  12   8   8  17  17   8   4   0   0   0   0 
  0   0   4   0   0  17   8  12  12   8   4   8   8  12  12  17 
  8   0   0   0   0   0   0   0   0   0   0   0   0   0   0  21 
 63 128 118 113 107 105 101  97  93  89  86  82  79  76  73  70 
 64  62  59  57  55  52  50  48  42  45  43  42  36  17  25  16 
 14   9  15  17  17  10   1   0   6  10  12   5  11  11  10  16 
 10  16  15  26  23  25  25   8  25  25  24  22  22  29  24  24 
 24  24  23  23  28  23  28  23  23  23  23  23  28  28  28  23 
 23  31  28  39  76  79  77  69  41  67  57  33  34   4  11   0 
 26  17  13  12  50  49  36  28   1  18  19  15  10  17   9   3 
 15   7   3   7   2  18  10  21  21  36   2   4   0   3   0   2 
 10  18  27  15  10  12  12   4   4   0   0   0   0   0   8   4 
  0   0   4  17  12  12  12   4   8  12   8  12   8   4   4   0 
  4   0   4   4  17   0   0   4   4   0   0   8   4   8   4   8 
 17   0   4   0   4   0   4   0   0   0   0   0   0   0   4   3 
 61 122 118 114 102  98  94  91  90  86  83  80  77  74  71  68 
 63  61  54  56  50  52  46  44  42  45  39  49  15  35  15  16 
  5   6  23  11   3   5   4   5  14  13  19  19  22  26  17  16 
 21  16  32  31  24  26  23  25  23  23  30  22  22  24  29  29 
 24  24  24  24  24  29  24  29  24  28  23  28  23  23  23  21 
 38  11  74  94  72  69  70  70  36  43  57  58  85  50  13   4 
 16  12  10  34   8  17  35  12   2   7   7   2   2   0   7   7 
  7   7   7   7   0   3   0   7  32  22  31  25   3   3   5  23 
 25  16   1   8   8   8  12  12  17   4   0   0   0   4  21  21 
  8   4   4   8  17  12   8   0   0   8   4   4   4   4   8   8 
 17   8  17   8   4   0   0   0   0   0   4  17   8  12  12   4 
  4  12  12  12  17   8  17   4   0   0   0   0   0   0   0  27 
 58 117 108 109 100  94  93  90  86  83  78  77  74  72  69  66 
 62  59  57  55  49  47  45  43  46  40  43  49   5  33  11   4 
  0   6   4   7   7   6   9  11  25  31  28  23  27  29  29  28 
 28  32  27  20  24  26  31  26  23  26  23  25  30  25  25  25 
 25  24  24  29  29  24  24  29  24  24  24  21  21  23  16  31 
  5  85  91  59  63  56  57  57  44  60  54  48  50  47   6   9 
 15   7  20   2  21   2  26  18  10   2   5   5   2   3   3   7 
 10   7   7   3   0   0   0   0   3  12  12   2   3  18   3  10 
 23  12   0   6   8  17  12  17  12   0   0   0   0   4   4  12 
 12   4  12   4   8   8   4   0   4  17   8  17   4   0   4   8 
  8   4   8  12   8   0   0   0   0   0   0   4   4   4   0   4 
 17  12   8  12  12   4   4   0   0   0   0   4   0   0   0  26 
 55 111 102 104  95  97  89  91  88  85  82  80  72  75  67  65 
 63  58  56  54  48  50  48  47  45  44  42  43  10  24   3   4 
 10   5   5   8   7  16  12  22  21  25  28  30  30  27  26  34 
 26  21  25  25  27  27  27  26  26  26  23  23  30  25  25  25 
 25  25  25  25  25  24  24  29  24  24  24  21  21  21  33   9 
 90  91  72  55  41  54  57  41  45  61  45  50  42  15   2   6 
  7   2  26   8   0  13  13  13  10   3   2   2   7  10   7   7 
  3   7  10   3   0   0   0   0   0   0   5  20  10  23   5   3 
  2  23   1  15   4   4   0  12  17   4   4   0   4  17   8  17 
 12  12  12   8  12   4   0   0   0   8   0   8   4   0   0   8 
  8   8   8   8  12   8   4   0   0   0   0   4  17   8  17   4 
  8  12   8   8   4  12   4   4   4   0   8  17   8   0   0  26 
 50  99 102  99  91  93  85  82  77  77  75  77  75  72  70  63 
 66  59  57  55  51  49  48  42  45  43  44  32  23  14   3   4 
  1  10   5   8  23  27  27  30  30  25  28  28  30  30  29  29 
 29  26  26  25  25  27  27  27  24  26  26  24  26  26  26  26 
 25  25  25  23  25  25  30  25  24  29  24  21  21  32  15  85 
 82  74  62  66  60  61  56  38  50  60  38  42  20   4  10   4 
 10  10   5  10  10   8   7  13  10   7  10   7   3   7   7  10 
  7  13   7   3   0   0   0   0   0   0   0   5   0   2   2  25 
  7   8   5   8  12   8   4  12  12   8  17   8   0   8   4   8 
  4   8  12   8  12   8   0   0   4  12  12  12  12   4   8   8 
 12  12   4   8  12  12  12   4   0   4   0   0   4   0   4   0 
  4  12   8   8  12  12   4  12  12  12  17  12  12   4   8  50 
 48  94  96  94  91  84  86  79  81  74  77  74  72  70  68  61 
 59  62  56  54  50  48  47  45  44  43  44  15  32  14   2  10 
  0   0   9  15  28  23  33  30  30  32  29  24  24  30  30  27 
 29  29  28  28  28  28  28  27  27  27  27  24  24  31  26  26 
 24  23  23  23  23  25  25  25  30  25  24  32  12  45  96  73 
 58  69  59  63  57  50  48  36  51  46  27  18   0  12   8   6 
 12   7  10  13  10  10   7   7  10   7   3   3   3  10  10   3 
  3   3   3  10   3   0   0   0   0   0   0   0   3  18   4  28 
  7   5   8  12   8  12   8   8   8   8  12  17  12  12   8   8 
  8   4  12  12   8  12   4   0   4   4  12   8   8   4  12   4 
 17   8   8  12  12   8   8   4   4  17   4   0   0   0   0   0 
  0   8  12   4  12  12   4   8  12  17  12   4   8  12  17  24 
 46  93  91  84  90  84  77  75  78  76  74  67  65  63  61  59 
 58  56  52  53  56  50  48  45  43  42  48   5  24  12  11   7 
 20   9  25  29  35  34  27  26  30  25  32  29  24  28  30  30 
 27  27  29  26  28  28  28  28  28  27  25  25  27  27  27  27 
 20  24  20  24  23  23  26  25  23  33  22  30  84  92  81  67 
 54  62  73  56  54  41  42  35  36  30  17   6  14  11   8   1 
  7   7   7  10   7   7  13   7  12  10   7  13   7   7  10   7 
 13   3   3  10   3   0   0   0   5   5   0   5   0   9   6  15 
  2   4  17  12   8  12   8   8   8  12   8   8  17  12   8   8 
  8   8  17  17   8   4   0   0   4  12   8   8  12   4  12   4 
  4   8  12   8   8   4  12  12   4   8   4   4   4   0   4   4 
  4   8  12  12  12   4  12   8   8  12  17  12   8   8  17  52 
 44  88  86  79  77  75  73  71  74  67  71  69  62  61  56  55 
 56  54  53  52  50  49  48  46  45  44  32  23  24  12  11  18 
 14  30  30  29  32  32  31  31  30  30  29  29  29  28  28  28 
 27  27  27  29  26  29  29  28  28  28  28  25  25  27  27  25 
 25  24  20  20  24  24  24  26  23  12  71  99  88  80  70  53 
 61  59  66  60  50  37  35  39  14   2  15  17  16  11   8   2 
  7   3   3  10   3   0   4  10  23   2   0   2   0   3   3   3 
  3   0   0   3   5   0   5  10  10  10  15  15  15   7   1  14 
  2   0   4   8   8   8  12  12   8  12  17   4  12  12   8  12 
 12   4  12   8   4   0   0   0   0   4   4  12   4   8   8   4 
  4  12   8   8  17   8   4   8   4   8   8   8  12  12   8   8 
  8  12  17  12  17   4   4   0   4   4  12  17  17   4   4  47 
 41  82  80  78  72  70  69  65  63  62  63  61  57  58  57  55 
 54  50  52  50  49  48  47  46  45  49  25  17  14   6  15  11 
 10  26  30  29  28  32  31  31  30  33  30  29  29  29  28  24 
 28  28  23  27  29  29  29  26  29  26  26  26  26  25  25  28 
 25  25  25  25  16  16  31   9  58  94  87  79  74  74  53  38 
 46  40  40  41  33  37  35   5  19  21  15  17  14   8   1   2 
  3   3   0   3   5  12  20  12  10   5  10  20  10   5   3  13 
  3   5   5  10  15  15  15  10   0   2   5   0   5   7  19  10 
 12   4   4  17  12   8   8  12   8  12  12   8  17  17   4  12 
 12   8   8   4  17   4   4   0   4   0   0   8   8   8  12  17 
  8   8   8   4  12  17  12  12  12   8   8   4   8  12   8  12 
  8  12  12   0   4   0   4   0   4  12  12  17   8   0   4  55 
 38  76  70  73  67  66  64  61  59  58  59  56  55  56  55  54 
 50  49  48  49  46  47  46  45  41  41   4  18  12   6  15  27 
 27  25  25  29  33  32  32  34  27  30  30  30  29  29  29  24 
 28  28  28  28  27  27  27  27  27  29  26  22  26  26  26  26 
 26  21  21  17  25  25  25  78  86  78  73  68  62  49  28  22 
 23  16  29  23   8   6   4  16  24  21  19  17  11   9   1   3 
  3  13   2   5  15   5   2  15  10  10  15  20   7  10  10   2 
  5  10   2   5   0  10  15  17   4   3   5   2   2   9   6  12 
  8   4   0   4   0   4   4   4   8  17   8   8  17   8   4  17 
  8   4   0   0   4   4  17  12  17   4   0   8  12   8   8  17 
  8   4   4   4   8  17   8   4   4   4   4   0   0   4  12  12 
  4   8  17   4   0   8  17   4   0   4   0   4   0   4  12  41 
 35  70  69  68  62  61  60  59  56  55  56  53  52  54  53  52 
 51  50  49  48  52  44  50  44  43  36  13  11  12   8  15  26 
 27  34  25  29  29  28  32  27  27  27  30  30  26  25  29  29 
 29  29  28  24  28  30  28  30  27  27  27  27  27  27  26  22 
 26  22  18  28  16  56  85  60  63  67  57  50  43  21   0  12 
  5  16  17   4   9  16  25  26  24  21  19  18   7   5   2   2 
  2   2  15   5  15  10   5  10   5   5  20   5   7   2   5  10 
 17   2   7   2   0   2   0   6  15  12   2   2   6  19   4   4 
  4   0   4   0   0   4   4   4  17   8   0   0   4   4   0   4 
  0   4   4   0   0   0   8  17   8   0   4  17  12  17   4   4 
  0   0   0   0   0   4   4  17   4   4   8   4   4   8  17  12 
  8   0   4   0   4  17   8   0   0   4   0   4   0   0   4  61 
 32  64  63  63  57  57  56  55  52  54  51  53  50  51  51  47 
 47  38  24  19  29  53  49  43  43  30  18  12  12  18  27  20 
 20  26  25  33  29  28  28  32  31  31  31  30  30  30  30  25 
 29  25  29  29  28  28  28  28  28  30  23  23  27  23  23  23 
 18  27  34  22  73  73  41  46  63  53  42  42  20   5  14  17 
 12   2  15  14  20  24  26  24  23  23  20  10   2   0   2   2 
 18  10  10  10  20  15  12  15   2   0   0   5   2   5   0   5 
  8   5   5   9   5   5   2   4   8   4   4  12  12  12   0   4 
  4   4  17   4   4   8  12   4   4   0   0   4   4  17   8   0 
  4  15  15   4   0   0   4   8   4   0   0   4   0   4   0   0 
  0   0   0   4   0   0   0   8   0   0   4   2   4   8  12   4 
 12   2   0   0   0   4   0   0   4  17   8  17   8   0   0  60 
 27  53  58  58  52  52  57  57  51  51  51  48  47  47  46  46 
 47  36   6   0   7   1  23  51  52  17  11   3   1  18  27  27 
 26  25  30  33  25  28  28  28  32  27  27  27  30  26  26  30 
 26  25  29  29  25  29  25  24  28  28  28  28  28  28  23  30 
 38   2  61  94  64  55  52  48  52  46  34  39  26   2  14  18 
 24  28  30  29  28  27  26  25  24  22  10   4   7   6   0   4 
  2  22   7  10  10   7  15   0   7  12   1   0   2   5  12   7 
 19  16  10  15  10  19   4   4   8   8   4   4   8  17   8  12 
 12   4   4   4   4  12   8   0   4   0   4  17   8  17  17   2 
  2  16  20   7  15  22   6  10   9  19  15  15   8   0   4   0 
  0   4   4  17   4   0   4  19   4   4   6  18  12  15  19  19 
 10  10   2   4   0   0   4   0   0   8   0   8  17   4   0  68 
 25  52  47  52  48  53  53  53  53  48  45  41  45  45  44  44 
 43  50  33   6  16  11  16   5  31   4   3  12  12  18  21  27 
 31  30  30  29  29  29  32  32  32  27  27  27  31  27  31  30 
 26  30  26  26  30  29  25  25  25  25  29  29  24  28  31   1 
 53  86  68  54  51  44  39  36  45  33  31  41  24   2  19  25 
 24  28  28  30  29  28  27  22  24  19   7   9  11   7   2   1 
  2  16   1   5  17   2   5   5   6   7   4  10  19  11   2  20 
 26   2  17   4  10  28  10   0   0   8   8   4   0   8   0   4 
  4   0   8  17   4   8   0   4  17   8   0   8  11  14  28  18 
 20   7   2  12  11  18   7   4  27   2  12  18  10  12  17   8 
  4  12   4   4   0   0   2  23  11  10   2   9  12   8   8  18 
  0  14   4  17   8   8  17   4   4  12   4   0   4   0   4  51 
 22  41  47  51  43  48  49  49  44  50  53  53  50  50  45  45 
 44  44  49  33  19  19   4   2  11  18   3  12  27  27  21  26 
 26  26  30  29  29  25  28  28  32  32  28  27  27  27  31  31 
 27  26  26  22  30  30  26  26  25  25  25  25  37  11  49  73 
 70  43  24  28  31  24  31  36  29  32  33  27   1  25  26  31 
 33  32  28  30  29  28  27  26  14   4   7  10   9   4   7   2 
 21   0  12   2   2   6   6  10   0   8   3   1  12  11   2   2 
 14  17  18   6   4  31  23   8  12  12  12   4   4  17   4   0 
  0   4  17   8   4  17   4   0   8  17   4   2  26  27  35  16 
 21   0  22  18   1   4  10  13   3  22   9  31   9  12  12  17 
 12   3   4   2   8  13  11   1  12  20   3  13  20   7  13   3 
 38  17   6   6  12  15   8   0   4  12   4   0   0   4   0  75 
 21  44  41  42  43  39  45  40  41  39  25   1  11  26  41  51 
 48  43  43  51  31  14  13   9   2  21  11  18  21  27  20  20 
 30  30  30  29  25  29  29  28  24  28  32  28  28  28  27  27 
 27  31  27  27  31  31  30  26  26  26  26  32   5  61  29   4 
  4   6   4   0  12  12   7   8  15  22  23   9  18  33  32  35 
 34  33  32  31  30  26  28  16   5   5   8   2   2   1   0   1 
 25   4  17   9  16   7   7   7   3   2   4  24   4   2   3   7 
  9  13   2  31  10   6   9   0   4   0   4   0   0   4   4   0 
  0   4   4   0   0   4   0   0   0   4   0   2  20   2  18  11 
 46  33  18  18  22  22  19  17   3   9  12  25  22  17  12  12 
  7  19  28  33   5  12  13  26   6   7   3   7  13   7  21  23 
 35  16  13  12   3  18   2   0   2   4   0   4   4  17   2  74 
 18  35  31  32  38  35  36  37  46  11  34  28  28  11   9   4 
 30  47  50  42  46  14  14  18  29  11  12  21  27  26  20  27 
 26  26  30  30  25  33  29  29  29  24  33  28  28  28  28  28 
 28  28  27  27  27  27  27  27  27  22  38   2  47  21  43  30 
 22  15  11  21  14   8  20   7   7  15  25   6  29  34  36  35 
 35  34  33  32  31  26  25   1   6   6   4   3   2   5   0   0 
 12   2   1   2   2   2   5   1   1   2   5   4   7  17  12  10 
 23  10   5   2  16  41  26   2   0   4   4   0   0   4  17   4 
  4  17   4   4   0   0   0   0   0   0   4  12   7  21  27  12 
 36  29   1   7   7   7   4  17   2  11  19   2   1  22  10   4 
 22   9  47  19  44  34  17  24  31   3  27  11   7   7  41  31 
  2  28  13   8   7   4   2  17  19   2   4  17  12  10  18  93 
 14  29  30  32  29  30  32  33  40  36   6   7   1   4   2   5 
 10   3  17  41  56  34  25  29  22   1  27  28  27  26  27  27 
 25  26  26  30  30  25  29  29  29  29  29  29  29  29  24  28 
 28  28  24  24  32  28  28  27  23  31   2  40  39  42  38  38 
 38  38  16  30  22  12  12  11   4   6   4  24  38  38  37  36 
 36  35  34  33  28  27  10   8   7   5   4   3   2   2   2   3 
 14  18  17  25   7   4  23   6   6  11   9  16   9  20   2   3 
 10  15   5   5  23  57   2  16   2  12  12   4   0   0   4   0 
  0   4   4  17   4   0   0   2   2   2   0   4   4  12  17   4 
  5  10   3  16  17  20   3   4   8   9  17   2  14   8   6  22 
  4  18  15  31  31  21   9  17  18   2  32  47  21  34   1   8 
 14  18  13   4   4   7  17  26  15   7   0  12  16   8   1  25 
 11  23  25  27  29  26  28  30  32  38  35   1   1   7   1   1 
  6   3   3   9   9  10   6  16  29  28  27  28  27  26  27  31 
 25  26  26  26  30  30  25  25  24  25  29  29  29  29  29  25 
 25  25  25  29  29  28  28  24  28  23  34  24  44  42  39  42 
 39  34  39  39  38  33  31  22  15  22  37  40  39  39  38  37 
 36  36  35  30  32  16  10   3   2   7   1   3  10   7   2   3 
 19   3  12  17   2  15  17  10   6  12   8  12   8   7   1  17 
  5  15   5   5  14  46   2  13   2   4   2   0   4   0   0   0 
  0   2   2   4   2   0   5   5   2   5   2   0   0   0   4   4 
  0   2   4   2   7   1  32  26  17   4  14   1  14   3  10  31 
 25  23   4   0   3  10   2   2  16  15  51  31   5  31  17  26 
 10   0   3   3  20  18  14   6  12  27   2  17  12   1  11  89 
  6  11  14  22  20  27  25  27  29  31  38  32   4   5   6   7 
  2   8   8   6   3  19  37  37  44  39  39  38  31  27  26  26 
 30  26  25  25  26  26  25  25  25  26  26  26  26  30  26  26 
 25  25  25  25  25  25  29  25  33  33  15  28  35  40  43  43 
 40  43  35  39  39  39  39  39  34  33  38  37  40  40  39  38 
 37  37  32  34  22  12  11   3   8   1   7  12  14   4   1   5 
 10   7   0   8  30  29  47  18   8   6  15  12   8   4   5   5 
  5  10   0   5  26  18   2  12   2   2   7   1  17   2   2   2 
  5   5   5  12   7   7   0   2   0   2   2   0   0   2   4  12 
 17   3   3  31   2  27  24  47  31   9   7   0  17   3  30   9 
 18  41   2  25  18   5   4   7  16   3   7  27   0   3  13  13 
 10   7   7   7   1  20  17  33  18  19  38  10  14  23  20  76 
  3   5  13  12  15  23  21  22  27  29  28  38  28   2   9  14 
  7  12   1  15  37  44  44  39  39  39  38  38  35  31  26  26 
 25  30  26  25  26  26  25  25  20  26  26  26  26  26  26  25 
 25  26  26  26  26  26  26  25  24   2  29  29  36  41  41  44 
 44  44  44  40  40  40  40  40  35  39  42  39  38  38  37  39 
 35  34  33  27  14   7   6  10   8   8   6   4   3   1   6   5 
 22  17  10  12  41  28  21   6   6  12  12  10  12   2   7  15 
 17  20  15  10   2   4   4   2   2   2   5   5   3   5   2   2 
  5   5   5  22  10   2  22  15   2   5   5   2   5  10   2   0 
  5   7  17  46  23  16  17  24  17  25  14  35  21  22   8   0 
 22   2  11  16  12   2  10  13  21   1  35   8   7  11   4   3 
  0   0   0   3   7  21  36  17  22   6  48  11  44  35  25  41 
  1   1   3  12   8  12  18  21  22  27  29  29  41  32   7  13 
  1  10  28  44  37  39  39  39  36  38  36  35  38  35  26  26 
 30  26  34  34  25  25  26  26  27  26  26  27  27  26  26  26 
 26  27  27  27  27  26  25  25  16  16  47  45  41  41  45  45 
 41  41  45  41  41  41  36  41  41  40  40  40  39  39  38  37 
 37  39  34  17   6  14  12  11   3   7   0   3   4   6   1  10 
  9  10  25  11  21  23   7  12  15   7  10  12   8   1   2   2 
 15  15  15   5   2   7   2   2  10   2   7   2   2   0   0   2 
 15  17   5  10  20  10   5   2   2  10   7   2   5   5   2   0 
 22  31  28  33  18  17  12   2  46  41   9  24  24  43   0   1 
  2   2   2   4  29  15  35  17  41   1  74  25  22  25  12  19 
  7   3   0   2   3  13  10   9  10  17  17  46  33  17  19 115 
  4   7   3   7   7  11  15  24  22  25  28  35  12  16  17   9 
 35  43  47  44  44  39  44  39  39  36  36  31  35  35  35  30 
 30  26  25  30  31  27  27  26  21  21  27  21  27  27  27  27 
 27  27  27  27  27  26  26  26  26  13  35  37  37  42  42  45 
 42  42  42  42  42  42  42  37  42  42  41  41  41  40  39  34 
 38  37  20  12  17   9   8   3  10  13  11   3   2  15  17  11 
  8  21  43  22  17  10   2   7  17  17   4   6   2   0   5  10 
 10   0   5  17  10   5   0   2   2   5   5   0   0   0   0   0 
  7  15   5   5  10  15   5   7   2   5  15   2   2   7   5  16 
  9  16  18   8   0   8  20  41  36  37   2  12   1   4  20  24 
  8  22  20   7  17  28  12  10  30  28  31  28  17  15  14   7 
 23   1   5   2   5  12  13  14  20  16  11   2   4  12   5  99 
  7  13   2   5   3   8  10   7  11   0   3   8  23   3  33  42 
 43  43  44  39  44  39  39  39  36  36  36  35  31  31  37  30 
 26  30  31  26  27  31  31  27  27  21  27  28  28  22  29  28 
 28  22  22  22  22  27  21  21  27  17  26  46  43  43  46  43 
 43  43  43  38  47  43  43  43  43  43  43  42  42  37  41  40 
 39  27  12  14  12  10  19  24  27  20  22  15  12  14  14   6 
  3  22  15   5  10  20  10   9   2  12   2  14  12  17  10   5 
  5   5  10   5   5   7   7   7   7   7   0   0   0   0   0   5 
 20  10   5  20  10  15   2  24   8   8  29   2   2  14  23  17 
 17  11  21  27   5  20  12  48  27  22  26  31  12  12  27   9 
  9  11  11  17  14   6   1   3   1  43   8   1  34  63  46  38 
 24   5   2  13   2  15   5  13   6   3  30  26  18   1  12  81 
 10  21  13   6   1   5  10  16  33  32  17   2  25  34  41  42 
 43  39  39  37  40  39  37  44  39  36  38  38  31  31  30  30 
 34  30  26  37  35  31  28  28  27  28  22  19  23  23  23  23 
 29  29  29  28  22  22  22  28  22  27  27  39  44  39  44  44 
 44  47  44  44  44  48  44  40  44  44  39  44  44  43  43  42 
 25  18  31  32  36  29  36  30  23  26  18  20  17   9  10   5 
  2  10   7   5   5  10  20   1  23   8   8   8   3   5   7  10 
 10   5   0   7   2   2   2   0   5  10   2   0   0   0   0   0 
  5   0   0   5   0   5   0  13  33  18   6  20  31   5  22   8 
 17  10   5  22   7   6  13  37   1   9  17  24   0  12  34  51 
 36  18  16  16  12  22  25  25  21   8  23  17  12   5  38  57 
  4   1   1   2   1  17  12  13  19  15  20   9  48  12  10 123 
 13  24  17  10   4   8   2  24  40   9  26  38  37  34  36  38 
 44  39  37  40  33  37  37  39  39  38  35  35  37  35  34  30 
 30  35  31  27  35  36  36  37  33  38  30  29  30  24  24  21 
 21  21  24  24  23  23  16  23  19  15  22  22  37  44  39  44 
 45  45  40  45  45  49  46  46  46  46  49  46  45  45  39  32 
 26  37  36  34  38  31  34  27  29  22  19  21  12  14  10   5 
  3  10   2  10  20   5  10  26  14  11   2  12  28   3  12  20 
  2   5   7  10   7   2   0   0   0   2   0   0   0   0   0   0 
  0   0   0   0   0   0   5  22  13  15  55  29  51  34  16  12 
 10  12  17  18  17  14  11  17  24  32   3  26   4  17  10  50 
  2  16  20   8  13  11   7  17  45  22   1   3  36  34   9  11 
 10  27  27  14  22  24   0  14   2  41  63  30   7   9  11  84 
 17  31  17   9  17  37  38  15  12  28  27  30  33  40  42  44 
 40  40  41  38  34  38  37  37  36  36  38  37  30  30  30  30 
 34  37  37  35  27  28  33  37  38  41  41  39  40  42  36  31 
 31  31  25  35  35  30  34  34  30  29  29  33  37  40  40  40 
 45  46  46  46  47  47  47  47  47  47  47  47  42  39  35  34 
 40  39  35  36  35  30  31  28  26  28  20  22  18  14  10   6 
  0   3   5   5   5   5   0   5   7   7   2  15   8   7   0  10 
  5   5   0   5   7   0   0   0   0   0   0   0   0   0   0   0 
  0   0   0   0   2   0   2  20   9  11   1  34   7   4  22  12 
 15   4  12   5  22  19  21   3  33  11  31   8   1   4  29  15 
 21  35   6  32  15  31  46   7  27   9  20  26  19  49  38  18 
 13  33  25  19  12  41  29  13   0  59  36  48  23  22  20  82 
 23  40  48  55  52  25   4  18  16  21  28  31  34  37  39  40 
 39  39  35  39  39  38  38  40  44  38  38  26  30  34  34  34 
 37  37  42  38  36  32  28  23  29  24  32  36  37  33  37  44 
 44  44  48  43  43  42  47  46  49  46  46  49  45  46  41  46 
 41  42  47  42  48  48  48  49  49  49  49  42  42  33  37  40 
 42  41  40  38  34  35  33  35  32  24  26  23  14  10  11   7 
  5   0  10  10  10  20   5   5   0   5   0   2  10   7   7   5 
  2   5   5   2   7   2   0   0   0   0   0   0   0   0   0   0 
  0   5   0   9  10   2   5  22   2   8  31   7  28  33  25  25 
 20  22  24  18   8  22  14  17  12   1  22   1  17   7   5  10 
 15  14  24  19  20  22  48  10  10   7  31  16   1   5  70   7 
  2  15   2   0   5  10  12  13  29  20  29   5  22   7   2  95 
 35  88  69  32  10   7   7   7  17  23  27  33  34  36  38  40 
 40  41  37  41  40  35  38  40  39  36  27  26  36  36  36  41 
 36  34  42  43  36  39  37  34  35  36  41  44  45  24  45  50 
 50  45  45  49  49  48  48  47  42  46  46  46  49  46  46  47 
 47  47  43  48  44  49  45  50  46  46  51  46  44  43  43  43 
 44  43  42  41  39  37  35  32  29  26  23  24  20  11  11   7 
 15  10  20  15  15  10  10  20  10  20   5   0   2   0   2   0 
  0   0   2   2   2   0   0   0   0   0   0   0   0   0   0   0 
  5  20   2  24  12   0   0   6  12  17   1  17   5   1  12  19 
  2  15  17   7   2  14   2  14   7   2  15  10  16  22   2  15 
 13  20   3  13  31  15   9  14  21  36  35  26  26   2  40  12 
 21  26   5  33   4   1  16   7   8  28  32  29  38  29  19 103 
 30  58  33  16  13   7   5  15  19  25  30  33  37  39  41  42 
 43  39  39  42  44  40  39  30  22  27  31  37  36  41  35  40 
 36  36  37  37  38  39  40  41  40  44  45  46  44  36  52  47 
 47  47  51  51  50  49  48  51  50  50  46  46  46  47  47  47 
 48  52  49  49  45  46  44  47  47  48  53  48  53  48  48  47 
 47  46  45  43  42  37  37  35  36  28  29  21  21  12  13   8 
 10   0  10  10   5   5  20  15   0   5   0   0   0   5   5   0 
  0   0   5  20   5   0   0   0   0   0   0   0   0   0   0   0 
  0   5   2   1   4  20  31   7   0   2   6  17   4   4  30   9 
  5  15   8   4  22   5   2   5   0   7   6  23  19  12   0  23 
 17  20  10  36   3  14  49   4  38  21  12   2  33  27  11   2 
  2  17  15   3  12  11  12   4  31   3  12  17  11   7   2 105 
 27  50  37  28  12   2   8  15  22  28  33  37  36  42  46  47 
 48  48  45  44  34  32  31  38  29  38  42  41  35  35  40  40 
 35  41  36  42  43  39  41  42  43  50  51  52  53  49  54  54 
 54  53  53  52  51  50  49  48  47  47  50  50  47  47  47  48 
 48  49  50  51  51  52  53  54  54  55  50  48  51  51  51  50 
 50  49  48  46  45  40  40  42  34  35  27  22  18  13  13   9 
 10  10  10   5   0   0  10  15  10   0   0   5   5  15  15   5 
  5   5   0  10   5   0   5   0   5   5   0   0   0   0   0   0 
  0   0   0  17  20  37  39  30  22   9  12   3  26  13  14   3 
 12  20  15   7  10  14   6  31  19   5   2  21   3   2   2   3 
 16  18  22   2  20  19   2   4  16  35  12   8   6  24  17   1 
  2   6  13   7  26  14  22  19  38  49  37  12  15  18  16  77 
 26  51  36  22  14   3  11  15  22  28  37  41  44  46  48  49 
 40  33  29  28  35  34  40  41  39  43  41  40  39  39  39  39 
 39  40  41  42  43  45  46  48  49  51  52  57  55  59  56  59 
 56  59  54  53  52  51  50  52  48  47  47  47  50  47  48  48 
 49  50  51  52  53  53  54  55  56  57  53  53  53  53  53  53 
 53  49  51  50  48  46  43  40  37  38  29  24  24  19   9   4 
  0  10  10   2   0   0   5  10  15  10  10  20  10   5   5  10 
 15  10  10  10  15  15  20  15  15  15   5   0   0   2   0   0 
  0   0   2   3  12  26  22   1  17  14  14  25   6   8  21   4 
 14   6  20   0   7  22   8  12  31  31   7  16  13  17  21  20 
  3   8  11  29  12  33   7   2  41  26  57  35  27  15  15  18 
 24  28   3  27   8   9  27  23  13   2  12  22  22   0  31 123 
 27  56  43  24   6   2  16  24  31  37  42  42  34  33  34  31 
 28  34  32  39  42  44  48  46  44  37  40  39  38  38  37  38 
 42  42  40  41  43  40  46  48  54  52  58  56  57  58  58  59 
 58  58  60  55  54  55  50  49  51  50  46  50  47  47  51  52 
 50  51  52  53  54  58  51  57  61  59  55  56  61  56  56  56 
 56  55  54  53  52  50  52  49  40  36  37  27  21  16  10   4 
  5  15  17  15   2   0   0  10  10  15  10  15  15   5   5  20 
 20  15  10  15  15  15  15  20  10  10   0   0   2  15   2   0 
  0   5   0   2   7   0   2  11  20  17  12  37   9  22  14  20 
 17  12  12  14  16  10  13  18  12  13   3   4   4   7   4  19 
  2  26   6   0   9   7  33  12  12  51  44   1   5  12   0   6 
 22  12  26  37  27  31   6   2  10  39  33  17  41   7  32 175 
 26  56  36  23   9   4  14  22  23  29  23  23  26  27  33  43 
 42  48  54  51  51  47  49  46  43  41  39  38  37  36  36  36 
 37  41  39  41  42  44  46  49  51  54  56  58  60  61  61  61 
 61  63  59  60  58  56  54  48  47  50  46  46  50  47  51  49 
 50  51  52  54  55  56  58  59  60  56  62  63  59  60  65  57 
 59  59  58  57  56  54  56  48  49  40  40  29  28  17  11  10 
  5   5  10   2  15   5   5  15   5  10  15  15  15   5   0  15 
 20  15   0   5  10  10   5   5  10  15   5   5  15  12   2   0 
  5  20   5   0   5  10  20   2  15   5  11   9  18   8   1  23 
 23   6  29   0  11  17  17  31  12  39   2   7   2  17  19  12 
 21  22   7  20  11  23  19   8  31  20  12  24  46  31   9  26 
  4  14  13   5  18  15  14   7   5   9   3   1   8   0  15 135 
 23  48  19  12  21   1  12  14  24  33  30  24  35  41  49  55 
 54  57  58  62  58  53  44  45  43  43  38  36  35  34  33  34 
 39  37  38  40  42  44  46  49  56  59  62  61  63  64  65  65 
 64  63  65  59  57  53  50  48  49  45  48  45  50  51  48  53 
 50  52  53  55  56  58  59  61  63  64  60  66  62  68  63  63 
 63  60  62  62  58  64  56  53  49  44  38  37  26  19  17   6 
  5   5  20  15  15   5   5  10   5   5  10  15  10   5  10  20 
 15  15  10  10  15   5   5   5  15  10  10   0  15  17  15   2 
  0   5   0   5  15  15  10   5  36  17   8   1  17  20   2   0 
  0   2   0  23  12   7   2   7  15   2  10   7  23  16   0  19 
 13   5   7  17  15  24  17   1  11   9  13  31  22   6  13  13 
  7   5  11   6   1   1   0   7   6  13   4  50   3  41  35 101 
 17  34  15  10  21  12  16  33  36  44  42  42  47  55  61  70 
 69  67  66  62  61  54  48  47  45  39  40  38  32  30  34  35 
 34  39  37  42  41  43  46  49  57  58  61  65  67  68  69  69 
 68  70  65  65  59  54  53  46  44  46  43  44  49  47  52  49 
 51  52  57  59  57  59  61  63  65  66  68  70  71  72  67  67 
 65  67  67  67  71  64  67  59  59  49  48  35  33  26  18  10 
 20  10  15  20  10   5  10  15  15  20  10  15  10  15  15  15 
  5   5   5  10  20  10   5   0   5  10  20  15  20  10   2   0 
  0   0   5   0  10  10   2  22  10  31  17   2   3   7   6   7 
  3  28  25   8   7  12  17  15   0   6   7   7  16  10  16  18 
  3  16  16   3  36   3  26   1  28  46   3   3  31  27  46  14 
 32  22  25   8   8  12  12  26   7  22  34  37  19  47  21 137 
 12  26   3  19  40  51  34  37  49  59  54  54  62  70  74  73 
 76  76  77  72  65  55  46  41  43  40  38  36  32  26  29  28 
 35  38  36  38  43  45  48  49  55  60  65  72  75  76  77  73 
 76  71  72  66  65  59  48  47  44  40  44  46  45  47  51  49 
 54  53  58  56  61  64  63  65  68  69  70  73  76  76  76  76 
 76  76  76  77  72  75  68  65  66  60  53  43  30  23  20  11 
 20  10  10  15  10  10  10  20  20  15   5   5   5   5  10  15 
 15   5   0   0   5   2  10   5   5   5  10  15  10   5   5   0 
  5  10  20   7  22  28  14   9  18   2   3   7  21  26   2   8 
 17  13  15   3  15  10  10   0   3  12  17  11  23  37  20  17 
 17  17  24  13   9   2  12   2  32  17  39  23  32   3  31  42 
  7  19  32   7  24  18  15   0   3  15  46  16  22  23  34 154 
  4   2  21  38  53  68  78  62  65  64  64  76  78  83  82  86 
 87  83  85  80  70  55  38  37  42  38  37  36  28  19  22  27 
 32  37  35  37  41  39  45  52  56  62  69  78  78  78  82  78 
 82  79  74  71  66  60  45  43  37  34  40  41  49  52  48  52 
 50  54  60  58  59  65  66  68  71  71  71  78  82  85  79  79 
 80  80  80  84  83  82  80  82  74  69  54  44  38  29  23  14 
  2   0   0   5   5   0   5  10  20  15  15  10  20   5   5   5 
 10   0   0   0   3  10   2   5   5  10  15  10  15  10  17  15 
 15  10  12   8   1  17  36  29   0   7   7   8   2   7   8  26 
 17  26   9  22   1   6   2  29  12  50   4   9   2   2   6   2 
  7   7   4  31  25   3  12  12  48  26  24  11  10   8  33  22 
  8  30  33  18   9  41  34  32  36   1  26   2  48   9  15 101 
  6  19  73  40  30  21  18  25  19  13  13   8  10   8   9   5 
  6   9   5   8  13  17   6  28  31  13  10   2  13  12   2  12 
 14   2   8  12  16  21  23  18  20  22  14   9   9  14   9   9 
  4   7   5   9  15  19  22   9   5   2   9  13  14  12   2   5 
  4   7   5   1   4   1   1   5   3   7   5   8   3   9  21  21 
 17  16  10   3   7   7   5   4  10  10  17  20   1   2   5   2 
 55  47  55  48  42  55  37  60  74  45  56  61  50  59  56  70 
 40  75  64  57  52  65  47  48  48  51  48  43  48  44   1  40 
  6  41  65  12   1  63  98 121 116 113 104  85 102 113  99  80 
 79  88  93  86  87  87 103  98  99 132 146  98 105 145 142 130 
130 139 151  92  79 110 108  78  50  41  31  12  17  19  36  59 
 76  46  87 131 108  96  86  78  79  89  64  70 111 100  58 248 
