P2
# CREATOR: XV Version 3.10a  Rev: 12/29/94
360 240
255
 -510 -255 -255 -255 -255 -255 -255 -255 -255 -255 -255 -255
 -255 -255 -255 -255 -255 -255 -255 -255 -255 -255 -255 -255
 -255 -255 -255 -255 -255 -255 -255 -255 -255 -255 -255 -255
 -255 -255 -255 -255 -255 -255 -255 -255 -255 -255 -255 -255
 -255 -255 -255 -255 -255 -255 -255 -255 -255 -255 -255 -255
 -255 -255 -255 -255 -255 -256 -255 -256 -255 -256 -255 -255
 -256 -256 -256 -256 -251 -257 -255 -256 -256 -281 -252 -268
 -298 -269 -194 -283 -256 -256 -256 -251 -257 -255 -255 -255
 -255 -255 -255 -255 -255 -255 -255 -255 -255 -255 -255 -255
 -255 -255 -255 -255 -255 -255 -255 -255 -255 -255 -255 -255
 -255 -255 -255 -255 -255 -255 -255 -255 -255 -255 -255 -255
 -255 -255 -255 -255 -255 -255 -255 -255 -255 -255 -255 -255
 -255 -255 -255 -255 -255 -255 -255 -256 -252 -252 -256 -255
 -255 -257 -247 -257 -321 -251 -257 -257 -252 -256 -255 -257
 -251 -256 -255 -256 -256 -251 -258 -252 -256 -255 -255 -255
 -255 -255 -255 -255 -255 -255 -255 -255 -255 -255 -255 -255
 -255 -255 -255 -255 -255 -255 -255 -255 -255 -255 -255 -255
 -255 -255 -255 -255 -255 -255 -255 -255 -255 -255 -255 -255
 -255 -255 -255 -255 -255 -255 -255 -255 -255 -255 -255 -255
 -255 -255 -255 -255 -255 -255 -255 -255 -255 -255 -255 -255
 -255 -255 -255 -255 -255 -255 -255 -255 -255 -255 -255 -255
 -255 -255 -255 -255 -255 -255 -255 -255 -255 -255 -255 -255
 -255 -255 -255 -255 -255 -255 -255 -255 -255 -255 -255 -255
 -255 -255 -255 -255 -255 -255 -255 -255 -255 -255 -255 -255
 -255 -255 -255 -255 -255 -255 -255 -255 -255 -255 -255 -255
 -255 -255 -255 -255 -255 -255 -255 -255 -255 -255 -255 -255
 -255 -255 -255 -255 -255 -255 -255 -255 -255 -255 -255 -255
 -255 -255 -255 -255 -255 -255 -255 -255 -255 -255 -255 -255
 -255 -255 -255 -255 -255 -255 -255 -255 -255 -255 -255 -255
 -255 -255 -255 -255 -255 -255 -255 -255 -255 -255 -255 -510
 -255    0    0    0    0    0    0    0    0    0    0    0
    0    0    0    0    0    0    0    0    0    0    0    0
    0    0    0    0    0    0    0    0    0    0    0    0
    0    0    0    0    0    0    0    0    0    0    0    0
    0    0    0    0    0    0    0    0    0    0    0    0
    0    0    0    0   -2    4   -2    4   -2    4   -1   -1
    3    2    2   -2   -2    4   -2  -19 -153  -76  -81  -37
   58   34   40  -43    3    3   -1   -2    3   -1    0   -1
    0    0    0    0    0    0    0    0    0    0    0    0
    0    0    0    0    0    0    0    0    0    0    0    0
    0    0    0    0    0    0    0    0    0    0    0    0
    0    0    0    0    0    0    0    0    0    0    0    0
    0    0    0    0    0    0    0    0   -1   -1   -1   -1
    0    0   -4  -65   81 -249  -80    2    1   -1   -2    3
   -3    0   -1    4   -1   -3    3    2   -1    0    0    0
    0    0    0    0    0    0    0    0    0    0    0    0
    0    0    0    0    0    0    0    0    0    0    0    0
    0    0    0    0    0    0    0    0    0    0    0    0
    0    0    0    0    0    0    0    0    0    0    0    0
    0    0    0    0    0    0    0    0    0    0    0    0
    0    0    0    0    0    0    0    0    0    0    0    0
    0    0    0    0    0    0    0    0    0    0    0    0
    0    0    0    0    0    0    0    0    0    0    0    0
    0    0    0    0    0    0    0    0    0    0    0    0
    0    0    0    0    0    0    0    0    0    0    0    0
    0    0    0    0    0    0    0    0    0    0    0    0
    0    0    0    0    0    0    0    0    0    0    0    0
    0    0    0    0    0    0    0    0    0    0    0    0
    0    0    0    0    0    0    0    0    0    0    0    0
    0    0    0    0    0    0    0    0    0    0    0 -255
 -255    0    0    0    0    0    0    0    0    0    0    0
    0    0    0    0    0    0    0    0    0    0    0    0
    0    0    0    0    0    0    0    0    0    0    0    0
    0    0    0    0    0    0    0    0    0    0    0    0
    0    0    0    0    0    0    0    0    0    0    0    0
    0    0    0   -1    4   -3    0   -1    0   -2    0    0
   -1   -4    2    2   -2   -2  -90 -217  102  391 -169   35
   -2   -3   42  -39   -6   -1    0   -1    3   -1   -1    4
   -1    0    0    0    0    0    0    0    0    0    0    0
    0    0    0    0    0    0    0    0    0    0    0    0
    0    0    0    0    0    0    0    0    0    0    0    0
    0    0    0    0    0    0    0    0    0    0    0    0
    0    0    0    0    0    0    0    0    0   -1    3    3
   -2   -2    8 -185  262  272  -48 -250  -12  -38   -3    0
    2   -2   -2   -2   -2    3   -2   -1    0    0    0    0
    0    0    0    0    0    0    0    0    0    0    0    0
    0    0    0    0    0    0    0    0    0    0    0    0
    0    0    0    0    0    0    0    0    0    0    0    0
    0    0    0    0    0    0    0    0    0    0    0    0
    0    0    0    0    0    0    0    0    0    0    0    0
    0    0    0    0    0    0    0    0    0    0    0    0
    0    0    0    0    0    0    0    0    0    0    0    0
    0    0    0    0    0    0    0    0    0    0    0    0
    0    0    0    0    0    0    0    0    0    0    0    0
    0    0    0    0    0    0    0    0    0    0    0    0
    0    0    0    0    0    0    0    0    0    0    0    0
    0    0    0    0    0    0    0    0    0    0    0    0
    0    0    0    0    0    0    0    0    0    0    0    0
    0    0    0    0    0    0    0    0    0    0    0    0
    0    0    0    0    0    0    0    0    0    0    0 -255
 -255    0    0    0    0    0    0    0    0    0    0    0
    0    0    0    0    0    0    0    0    0    0    0    0
    0    0    0    0    0    0    0    0    0    0    0    0
    0    0    0    0    0    0    0    0    0    0    0    0
    0    0    0    0    0    0    0    0    0    0    0    0
    0    0    0    0   -2    4   -1    0   -1    3   -1   -1
   -3    8   -5    2    2 -192  -94  298   41   75   -7  -70
    6   -5   17   -2  -19   -1    0    0   -1    0   -1   -1
    0    0    0    0    0    0    0    0    0    0    0    0
    0    0    0    0    0    0    0    0    0    0    0    0
    0    0    0    0    0    0    0    0    0    0    0    0
    0    0    0    0    0    0    0    0    0    0    0    0
    0    0    0    0    0    0    0    0    0    0   -1   -2
    4   -1   -6 -268  251   -3  151  254 -327   42  -52  -28
    1    1    5    1    2    0   -1    0    0    0    0    0
    0    0    0    0    0    0    0    0    0    0    0    0
    0    0    0    0    0    0    0    0    0    0    0    0
    0    0    0    0    0    0    0    0    0    0    0    0
    0    0    0    0    0    0    0    0    0    0    0    0
    0    0    0    0    0    0    0    0    0    0    0    0
    0    0    0    0    0    0    0    0    0    0    0    0
    0    0    0    0    0    0    0    0    0    0    0    0
    0    0    0    0    0    0    0    0    0    0    0    0
    0    0    0    0    0    0    0    0    0    0    0    0
    0    0    0    0    0    0    0    0    0    0    0    0
    0    0    0    0    0    0    0    0    0    0    0    0
    0    0    0    0    0    0    0    0    0    0    0    0
    0    0    0    0    0    0    0    0    0    0    0    0
    0    0    0    0    0    0    0    0    0    0    0    0
    0    0    0    0    0    0    0    0    0    0    0 -255
 -255    0    0    0    0    0    0    0    0    0    0    0
    0    0    0    0    0    0    0    0    0    0    0    0
    0    0    0    0    0    0    0    0    0    0    0    0
    0    0    0    0    0    0    0    0    0    0    0    0
    0    0    0    0    0    0    0    0    0    0    0    0
    0    0    0    0    0   -1   -1   -1   -1    3   -6   -5
   -8  -21  -13  -18 -260  157  156   -9   -3   14  145 -151
    9   -1    6   44  -39    3   -1    0    0   -1    4   -1
    0    0    0    0    0    0    0    0    0    0    0    0
    0    0    0    0    0    0    0    0    0    0    0    0
    0    0    0    0    0    0    0    0    0    0    0    0
    0    0    0    0    0    0    0    0    0    0    0    0
    0    0    0    0    0    0    0    0    0   -1    0    0
   -2    0  -77  -49  128   -9    3   38  258 -128  -34   19
  -57   -7    1   -3   -3    6   -2    0    0    0    0    0
    0    0    0    0    0    0    0    0    0    0    0    0
    0    0    0    0    0    0    0    0    0    0    0    0
    0    0    0    0    0    0    0    0    0    0    0    0
    0    0    0    0    0    0    0    0    0    0    0    0
    0    0    0    0    0    0    0    0    0    0    0    0
    0    0    0    0    0    0    0    0    0    0    0    0
    0    0    0    0    0    0    0    0    0    0    0    0
    0    0    0    0    0    0    0    0    0    0    0    0
    0    0    0    0    0    0    0    0    0    0    0    0
    0    0    0    0    0    0    0    0    0    0    0    0
    0    0    0    0    0    0    0    0    0    0    0    0
    0    0    0    0    0    0    0    0    0    0    0    0
    0    0    0    0    0    0    0    0    0    0    0    0
    0    0    0    0    0    0    0    0    0    0    0    0
    0    0    0    0    0    0    0    0    0    0    0 -255
 -255    0    0    0    0    0    0    0    0    0    0    0
    0    0    0    0    0    0    0    0    0    0    0    0
    0    0    0    0    0    0    0    0    0    0    0    0
    0    0    0    0    0    0    0    0    0    0    0    0
    0    0    0    0    0    0    0    0    0    0    0    0
    0    0    0    0   -1   -2    3    3   -6  -42  -30  -22
  -20    1   -3 -235  153   99    0    4   -5    7  144 -121
  -19    0    3   37  -40    0   -2    0    0    0   -1   -1
    0    0    0    0    0    0    0    0    0    0    0    0
    0    0    0    0    0    0    0    0    0    0    0    0
    0    0    0    0    0    0    0    0    0    0    0    0
    0    0    0    0    0    0    0    0    0    0    0    0
    0    0    0    0    0    0    0    0   -1    3   -1   -1
    3   -1 -167  160   41   -5    0    0    4  230 -162  -51
   46  -51   -6    3   -2    2   -2   -1    0    0    0    0
    0    0    0    0    0    0    0    0    0    0    0    0
    0    0    0    0    0    0    0    0    0    0    0    0
    0    0    0    0    0    0    0    0    0    0    0    0
    0    0    0    0    0    0    0    0    0    0    0    0
    0    0    0    0    0    0    0    0    0    0    0    0
    0    0    0    0    0    0    0    0    0    0    0    0
    0    0    0    0    0    0    0    0    0    0    0    0
    0    0    0    0    0    0    0    0    0    0    0    0
    0    0    0    0    0    0    0    0    0    0    0    0
    0    0    0    0    0    0    0    0    0    0    0    0
    0    0    0    0    0    0    0    0    0    0    0    0
    0    0    0    0    0    0    0    0    0    0    0    0
    0    0    0    0    0    0    0    0    0    0    0    0
    0    0    0    0    0    0    0    0    0    0    0    0
    0    0    0    0    0    0    0    0    0    0    0 -255
 -255    0    0    0    0    0    0    0    0    0    0    0
    0    0    0    0    0    0    0    0    0    0    0    0
    0    0    0    0    0    0    0    0    0    0    0    0
    0    0    0    0    0    0    0    0    0    0    0    0
    0    0    0    0    0    0    0    0    0    0    0    0
    0    0    0   -1    3    3   -3  -40  -79    4  -44  -51
  -46  -30 -170  197   73   -1    1   -2    3   -8   97  -89
  -25   -1   -1   24  -15  -15    3   -1    0    0   -1    4
   -1    0    0    0    0    0    0    0    0    0    0    0
    0    0    0    0    0    0    0    0    0    0    0    0
    0    0    0    0    0    0    0    0    0    0    0    0
    0    0    0    0    0    0    0    0    0    0    0    0
    0    0    0    0    0    0    0    0   -1    3   -2   -2
    3  -16 -169  164   15   -3   -2    0    1    3  238 -156
  -68   -3 -140 -102  -91  -74  -39    0   -1    0    0    0
    0    0    0    0    0    0    0    0    0    0    0    0
    0    0    0    0    0    0    0    0    0    0    0    0
    0    0    0    0    0    0    0    0    0    0    0    0
    0    0    0    0    0    0    0    0    0    0    0    0
    0    0    0    0    0    0    0    0    0    0    0    0
    0    0    0    0    0    0    0    0    0    0    0    0
    0    0    0    0    0    0    0    0    0    0    0    0
    0    0    0    0    0    0    0    0    0    0    0    0
    0    0    0    0    0    0    0    0    0    0    0    0
    0    0    0    0    0    0    0    0    0    0    0    0
    0    0    0    0    0    0    0    0    0    0    0    0
    0    0    0    0    0    0    0    0    0    0    0    0
    0    0    0    0    0    0    0    0    0    0    0    0
    0    0    0    0    0    0    0    0    0    0    0    0
    0    0    0    0    0    0    0    0    0    0    0 -255
 -255    0    0    0    0    0    0    0    0    0    0    0
    0    0    0    0    0    0    0    0    0    0    0    0
    0    0    0    0    0    0    0    0    0    0    0    0
    0    0    0    0    0    0    0    0    0    0    0    0
    0    0    0    0    0    0    0    0    0    0    0    0
    0    0    0    0  -35 -130 -213 -108  -73   11   35   36
   12  -62  -42   93   -3    2    2   -1    2    0   60   30
  -97   -1    0   15   13  -28    3   -1    0    0    0   -1
    0    0    0    0    0    0    0    0    0    0    0    0
    0    0    0    0    0   -1    0   -1    0    0   -1    0
   -1    0    0   -1    0    0   -1    0    0    0    0   -1
   -1    0    0   -1    0    0    0    0    0    0    0    0
    0    0    0    0    0    0    0    0    0   -2    2    3
   -4  -42 -167  167    0    1   -5    6   -6    3   18  155
 -191    3   49   -6   -2  -42 -108 -234 -161  -67    0    0
    0    0   -1    0    0    0    0    0    0    0    0    0
    0    0    0    0    0    0    0    0    0    0    0    0
    0    0    0    0    0    0    0    0    0    0    0    0
    0    0    0    0    0    0    0    0    0    0    0    0
    0    0    0    0    0    0    0    0    0    0    0    0
    0    0    0    0    0    0    0    0    0    0    0    0
    0    0    0    0    0    0    0    0    0    0    0    0
    0    0    0    0    0    0    0    0    0    0    0    0
    0    0    0    0    0    0    0    0    0    0    0    0
    0    0    0    0    0    0    0    0    0    0    0    0
    0    0    0    0    0    0    0    0    0    0    0    0
    0    0    0    0    0    0    0    0    0    0    0    0
    0    0    0    0    0    0    0    0    0    0    0    0
    0    0    0    0    0    0    0    0    0    0    0    0
    0    0    0    0    0    0    0    0    0    0    0 -255
 -255    0    0    0    0    0    0    0    0    0    0    0
    0    0    0    0    0    0    0    0    0    0    0    0
    0    0    0    0    0    0    0    0    0    0    0    0
    0    0    0    0    0    0    0    0    0    0    0    0
    0    0    0    0    0    0    0    0    0    0    0    0
    0    0    0  -34  -35  118  246  149  130   77   56   52
   69   87   70    1   -1    0   -1    1   -8    0   -1  196
 -214    5   -2    2   51  -56   -2   -1    0    0   -1    0
    0    0    0    0    0    0    0    0    0    0    0    0
    0    0    0    0   -1    4   -2    4   -1   -2    4   -2
    4   -2   -1    3   -1   -2    4   -2    0    0   -2    3
    3   -1   -2    3   -1    0    0    0    0    0    0    0
    0    0    0    0    0    0    0    0   -1   -2    3   -5
    3 -157  107   57    1   -2    5   -1    0    2   -3   15
  126   90   80   94  109  124  165  256  167   -8  -71    0
    0   -1    2   -1    0    0    0    0    0    0    0    0
    0    0    0    0    0    0    0    0    0    0    0    0
    0    0    0    0    0    0    0    0    0    0    0    0
    0    0    0    0    0    0    0    0    0    0    0    0
    0    0    0    0    0    0    0    0    0    0    0    0
    0    0    0    0    0    0    0    0    0    0    0    0
    0    0    0    0    0    0    0    0    0    0    0    0
    0    0    0    0    0    0    0    0    0    0    0    0
    0    0    0    0    0    0    0    0    0    0    0    0
    0    0    0    0    0    0    0    0    0    0    0    0
    0    0    0    0    0    0    0    0    0    0    0    0
    0    0    0    0    0    0    0    0    0    0    0    0
    0    0    0    0    0    0    0    0    0    0    0    0
    0    0    0    0    0    0    0    0    0    0    0    0
    0    0    0    0    0    0    0    0    0    0    0 -255
 -255    0    0    0    0    0    0    0    0    0    0    0
    0    0    0    0    0    0    0    0    0    0    0    0
    0    0    0    0    0    0    0    0    0    0    0    0
    0    0    0    0    0    0    0    0    0    0    0    0
    0    0    0    0    0    0    0    0    0    0    0    0
    0    0    0  -43  -39  244  -13    0  -12   -7   -3    5
   -3   -3   -3   -2    0   -3    0    4   -1    4    0   78
   15  -83    6   -3   20    9  -25    4   -2   -1    4   -1
    0    0    0    0    0    0    0    0    0    0    0    0
    0    0    0    0   -1   -2    0   -2   -1    4   -3   -1
   -3    4   -2    3   -3    4   -3    4   -1   -1    3   -2
   -2   -1    1    2   -1    0    0    0    0    0    0    0
    0    0    0    0    0    0    0   -1    3    3   -5    7
  -25 -229  258  -11    3   -1    0   -4    0    2    0    9
   -5   -1   -4    2   -6    9  -13   -4  121  163 -144  -42
  -25  -17    4   -3    0    0    0    0    0    0    0    0
    0    0    0    0    0    0    0    0    0    0    0    0
    0    0    0    0    0    0    0    0    0    0    0    0
    0    0    0    0    0    0    0    0    0    0    0    0
    0    0    0    0    0    0    0    0    0    0    0    0
    0    0    0    0    0    0    0    0    0    0    0    0
    0    0    0    0    0    0    0    0    0    0    0    0
    0    0    0    0    0    0    0    0    0    0    0    0
    0    0    0    0    0    0    0    0    0    0    0    0
    0    0    0    0    0    0    0    0    0    0    0    0
    0    0    0    0    0    0    0    0    0    0    0    0
    0    0    0    0    0    0    0    0    0    0    0    0
    0    0    0    0    0    0    0    0    0    0    0    0
    0    0    0    0    0    0    0    0    0    0    0    0
    0    0    0    0    0    0    0    0    0    0    0 -255
 -255    0    0    0    0    0    0    0    0    0    0    0
    0    0    0    0    0    0    0    0    0    0    0    0
    0    0    0    0    0    0    0    0    0    0    0    0
    0    0    0    0    0    0    0    0    0    0    0    0
    0    0    0    0    0    0    0    0    0    0    0    0
    0    0    0    0 -161  110   86   -2   -1    6    4    2
    2    2    2    2    4   -4    1   -2    6   -5   -4   12
  144 -133   -4   -1    2   39  -33   -5    4   -1   -1    0
    0    0    0    0    0    0    0    0    0    0    0    0
    0    0    0   -1    2    2   -3    4   -1   -8    2    2
    2   -2   -1   -2    4   -3    0   -1    0   -1    1   -2
    3   -4    7   -4    0    0    0    0    0    0    0    0
    0    0    0    0    0    0    0    0   -1   -4    2    1
 -118   66   73    3   -2    0    0    1    0   -1   -1   -3
   -2    2    2    3   -5   -5    4   -3  254 -213   45   46
    8   -8  -13    0   -1    0    0    0    0    0    0    0
    0    0    0    0    0    0    0    0    0    0    0    0
    0    0    0    0    0    0    0    0    0    0    0    0
    0    0    0    0    0    0    0    0    0    0    0    0
    0    0    0    0    0    0    0    0    0    0    0    0
    0    0    0    0    0    0    0    0    0    0    0    0
    0    0    0    0    0    0    0    0    0    0    0    0
    0    0    0    0    0    0    0    0    0    0    0    0
    0    0    0    0    0    0    0    0    0    0    0    0
    0    0    0    0    0    0    0    0    0    0    0    0
    0    0    0    0    0    0    0    0    0    0    0    0
    0    0    0    0    0    0    0    0    0    0    0    0
    0    0    0    0    0    0    0    0    0    0    0    0
    0    0    0    0    0    0    0    0    0    0    0    0
    0    0    0    0    0    0    0    0    0    0    0 -255
 -255    0    0    0    0    0    0    0    0    0    0    0
    0    0    0    0    0    0    0    0    0    0    0    0
    0    0    0    0    0    0    0    0    0    0    0    0
    0    0    0    0    0    0    0    0    0    0    0    0
    0    0    0    0    0    0    0    0    0    0    0    0
    0    0    0   -1    3 -279  219   13    4   -4   -2   -3
    1   -1   -1   -1   -1    1    0    1   -5    2    2   -3
  128 -143  -36    7   -1   33  -36  -11   -1   -1    0    0
    0    0    0    0    0    0    0    0    0    0    0    0
    0    0    0   -1    2  -41  -40  -41  -33  -13  -41  -39
  -24  -23   -2   -1   -2  -12  -33  -39  -44  -32   -2  -23
  -22  -18   -7    4   -1    0    0    0    0    0    0    0
    0    0    0    0    0    0    0    0   -2    6    0   -5
 -268  203   14   -2    0    0    0    0    0    0   -1   -1
    0    0    0    0    6  -11   -1  175 -193  -39   -4    2
   13   87  -17   -5   -1    0    0    0    0    0    0    0
    0    0    0    0    0    0    0    0    0    0    0    0
    0    0    0    0    0    0    0    0    0    0    0    0
    0    0    0    0    0    0    0    0    0    0    0    0
    0    0    0    0    0    0    0    0    0    0    0    0
    0    0    0    0    0    0    0    0    0    0    0    0
    0    0    0    0    0    0    0    0    0    0    0    0
    0    0    0    0    0    0    0    0    0    0    0    0
    0    0    0    0    0    0    0    0    0    0    0    0
    0    0    0    0    0    0    0    0    0    0    0    0
    0    0    0    0    0    0    0    0    0    0    0    0
    0    0    0    0    0    0    0    0    0    0    0    0
    0    0    0    0    0    0    0    0    0    0    0    0
    0    0    0    0    0    0    0    0    0    0    0    0
    0    0    0    0    0    0    0    0    0    0    0 -255
 -255    0    0    0    0    0    0    0    0    0    0    0
    0    0    0    0    0    0    0    0    0    0    0    0
    0    0    0    0    0    0    0    0    0    0    0    0
    0    0    0    0    0    0    0    0    0    0    0    0
    0    0    0    0    0    0    0    0    0    0    0    0
    0    0    0    0   -2  -77  -26  103   -2    0   -1   -1
   -3    1    0    0    0    0    0    0    2    2   -5    4
   14  189 -189   -2   -5   12   46  -45   -3    4   -1    0
    0    0    0    0    0    0    0    0    0    0    0    0
    0    0    0    0  -43   86   37   33  -20   18   27   35
   11   12  -39  -45  -71  -23   20   29   54   24  -56    8
   16   27   -9   -4    0    0    0    0    0    0    0    0
    0    0    0    0    0    0    0    0   -1    0    0 -112
   -9  133   -8    4   -1    0    0    0    0   -1    3    4
    0   -3    0   -7    4    7   25  143 -155    4   -3    1
   35  -33  -17    2   -1    0    0    0    0    0    0    0
    0    0    0    0    0    0    0    0    0    0    0    0
    0    0    0    0    0    0    0    0    0    0    0    0
    0    0    0    0    0    0    0    0    0    0    0    0
    0    0    0    0    0    0    0    0    0    0    0    0
    0    0    0    0    0    0    0    0    0    0    0    0
    0    0    0    0    0    0    0    0    0    0    0    0
    0    0    0    0    0    0    0    0    0    0    0    0
    0    0    0    0    0    0    0    0    0    0    0    0
    0    0    0    0    0    0    0    0    0    0    0    0
    0    0    0    0    0    0    0    0    0    0    0    0
    0    0    0    0    0    0    0    0    0    0    0    0
    0    0    0    0    0    0    0    0    0    0    0    0
    0    0    0    0    0    0    0    0    0    0    0    0
    0    0    0    0    0    0    0    0    0    0    0 -255
 -255    0    0    0    0    0    0    0    0    0    0    0
    0    0    0    0    0    0    0    0    0    0    0    0
    0    0    0    0    0    0    0    0    0    0    0    0
    0    0    0    0    0    0    0    0    0    0    0    0
    0    0    0    0    0    0    0    0    0    0    0    0
    0    0    0    0   -2    3 -255  278    4   -9    5    2
    0    0    0    0    0    0    0    1   -3   -3    2   -2
   -1  110  -53  -39    0   -3   31  -14  -11   -4    0    0
    0    0    0    0    0    0    0    0    0    0    0    0
    0    0    0    0  -38   28   25   15   24   27   17   -4
   -6    7   27    5   75   38   22    7   20   11   31   20
   21   35  -33    0    0    0    0    0    0    0    0    0
    0    0    0    0    0    0    0    0   -3    2  -15 -238
  293   -9    3   -1    0    0    0    0    0    0    0   -5
    1    2   -2    0   -4   -4  170 -115  -42    2    1    7
   43  -40    1   -3    0    0    0    0    0    0    0    0
    0    0    0    0    0    0    0    0    0    0    0    0
    0    0    0    0    0    0    0    0    0    0    0    0
    0    0    0    0    0    0    0    0    0    0    0    0
    0    0    0    0    0    0    0    0    0    0    0    0
    0    0    0    0    0    0    0    0    0    0    0    0
    0    0    0    0    0    0    0    0    0    0    0    0
    0    0    0    0    0    0    0    0    0    0    0    0
    0    0    0    0    0    0    0    0    0    0    0    0
    0    0    0    0    0    0    0    0    0    0    0    0
    0    0    0    0    0    0    0    0    0    0    0    0
    0    0    0    0    0    0    0    0    0    0    0    0
    0    0    0    0    0    0    0    0    0    0    0    0
    0    0    0    0    0    0    0    0    0    0    0    0
    0    0    0    0    0    0    0    0    0    0    0 -255
 -255    0    0    0    0    0    0    0    0    0    0    0
    0    0    0    0    0    0    0    0    0    0    0    0
    0    0    0    0    0    0    0    0    0    0    0    0
    0    0    0    0    0    0    0    0    0    0    0    0
    0    0    0    0    0    0    0    0    0    0    0    0
    0    0    0   -1    4   -4  -54 -122  149    5   -9   -2
    5   -1    0    0    0    0    0    0    1    2    0   -1
    0   16  159 -211    4    2    4   39  -55    8   -2   -1
    0    0    0    0    0    0    0    0    0    0    0    0
    0    0    0    0  -29    2   25   -3    3   -6    7   11
   16   -5   17   24   -7    5    2   -2   20  -21   -2   -2
   18    5  -18   -1    0    0    0    0    0    0    0    0
    0    0    0    0    0    0    0   -2    7   -3 -131   10
   86   -2   -1   -4    1    0    0    0    0    0    0    1
    0    0    2    2   -4   37  136 -190    7   -3    0   61
  -64   -4    2    3   -1    0    0    0    0    0    0    0
    0    0    0    0    0    0    0    0    0    0    0    0
    0    0    0    0    0    0    0    0    0    0    0    0
    0    0    0    0    0    0    0    0    0    0    0    0
    0    0    0    0    0    0    0    0    0    0    0    0
    0    0    0    0    0    0    0    0    0    0    0    0
    0    0    0    0    0    0    0    0    0    0    0    0
    0    0    0    0    0    0    0    0    0    0    0    0
    0    0    0    0    0    0    0    0    0    0    0    0
    0    0    0    0    0    0    0    0    0    0    0    0
    0    0    0    0    0    0    0    0    0    0    0    0
    0    0    0    0    0    0    0    0    0    0    0    0
    0    0    0    0    0    0    0    0    0    0    0    0
    0    0    0    0    0    0    0    0    0    0    0    0
    0    0    0    0    0    0    0    0    0    0    0 -255
 -255    0    0    0    0    0    0    0    0    0    0    0
    0    0    0    0    0    0    0    0    0    0    0    0
    0    0    0    0    0    0    0    0    0    0    0    0
    0    0    0    0    0    0    0    0    0    0    0    0
    0    0    0    0    0    0    0    0    0    0    0    0
    0    0    0    0   -1   -2   -1 -199  165    3    8   -3
    0    0    0    0    0    0    0    0    1   -4    2   -2
    6   -8   98   16 -110    0   -2   32   -2  -29   -1    4
   -1    0   -1    0    0    0    0    0    0    0    0    0
    0    0    0    0  -24   -8   31   -2   -1    0   -1   -4
    0    9   -6   -1   -4    0   -5    0   16  -16    0   -2
   29  -14  -15    0    0    0    0    0    0    0    0    0
    0    0   -1    0    0   -1   -1   -2    1  -29 -269  280
   -7    0    4    0    0    0    0    0    0    0    0    0
    0    1   -4    1   -2  130 -132  -32   -1    2   21   -7
  -19   -1   -2   -1    0    0    0    0    0    0    0    0
    0    0    0    0    0    0    0    0    0    0    0    0
    0    0    0    0    0    0    0    0    0    0    0    0
    0    0    0    0    0    0    0    0    0    0    0    0
    0    0    0    0    0    0    0    0    0    0    0    0
    0    0    0    0    0    0    0    0    0    0    0    0
    0    0    0    0    0    0    0    0    0    0    0    0
    0    0    0    0    0    0    0    0    0    0    0    0
    0    0    0    0    0    0    0    0    0    0    0    0
    0    0    0    0    0    0    0    0    0    0    0    0
    0    0    0    0    0    0    0    0    0    0    0    0
    0    0    0    0    0    0    0    0    0    0    0    0
    0    0    0    0    0    0    0    0    0    0    0    0
    0    0    0    0    0    0    0    0    0    0    0    0
    0    0    0    0    0    0    0    0    0    0    0 -255
 -255    0    0    0    0    0    0    0    0    0    0    0
    0    0    0    0    0    0    0    0    0    0    0    0
    0    0    0    0    0    0    0    0    0    0    0    0
    0    0    0    0    0    0    0    0    0    0    0    0
    0    0    0    0    0    0    0    0    0    0    0    0
    0    0    0    0   -1   -1    1 -126  110   53    1   -4
    1    0    0    0    0    0    0    0    0    2   -4    0
    0    2   -6  179 -149  -18    4   -3   48  -37   -8   -3
    0   -1    4   -1    0    0    0    0    0    0    0    0
    0    0    0   -1  -14  -21   34    3    0    0    1   -3
    1   -1    1    0    1    0    1    0   12  -11   -2   -2
   33  -25   -8    0    0    0    0    0    0    0    0    0
   -1   -1    4   -1   -2    3    2    1   -2 -241  265   16
    3   -4    0    0    0    0    0    0    0    0    0    0
    0    0    0   -2   14  167 -152   -4   -2    0   50  -48
    4   -3    4   -1    0    0    0    0    0    0    0    0
    0    0    0    0    0    0    0    0    0    0    0    0
    0    0    0    0    0    0    0    0    0    0    0    0
    0    0    0    0    0    0    0    0    0    0    0    0
    0    0    0    0    0    0    0    0    0    0    0    0
    0    0    0    0    0    0    0    0    0    0    0    0
    0    0    0    0    0    0    0    0    0    0    0    0
    0    0    0    0    0    0    0    0    0    0    0    0
    0    0    0    0    0    0    0    0    0    0    0    0
    0    0    0    0    0    0    0    0    0    0    0    0
    0    0    0    0    0    0    0    0    0    0    0    0
    0    0    0    0    0    0    0    0    0    0    0    0
    0    0    0    0    0    0    0    0    0    0    0    0
    0    0    0    0    0    0    0    0    0    0    0    0
    0    0    0    0    0    0    0    0    0    0    0 -255
 -255    0    0    0    0    0    0    0    0    0    0    0
    0    0    0    0    0    0    0    0    0    0    0    0
    0    0    0    0    0    0    0    0    0    0    0    0
    0    0    0    0    0    0    0    0    0    0    0    0
    0    0    0    0    0    0    0    0    0    0    0    0
    0    0    0   -1    4   -2    2  -20 -217  237  -13    1
    0    0    0    0    0    0    0    0    0    0    1   -1
    2    1    2   29  144 -213    5   -2   10   37  -52    7
   -3    0   -1    0    0   -1    0    0    0    0    0    0
    0    0    0    0  -17  -22   41   -1   -3    1    0    1
    0    0    0    0    0    0    0    0   15  -13    3   -4
   42  -37   -3    0    0    0    0    0    0    0    0   -1
    4   -1   -1   -1    4   -2   -4    1 -114  -74  137    5
   -9    3    2    1    0    0    0    0    0    0    0    0
    1   -1    4   -5   69   61 -117    7   -4   29    4  -20
   -3    0   -1   -1    0    0    0    0    0    0    0    0
    0    0    0    0    0    0    0    0    0    0    0    0
    0    0    0    0    0    0    0    0    0    0    0    0
    0    0    0    0    0    0    0    0    0    0    0    0
    0    0    0    0    0    0    0    0    0    0    0    0
    0    0    0    0    0    0    0    0    0    0    0    0
    0    0    0    0    0    0    0    0    0    0    0    0
    0    0    0    0    0    0    0    0    0    0    0    0
    0    0    0    0    0    0    0    0    0    0    0    0
    0    0    0    0    0    0    0    0    0    0    0    0
    0    0    0    0    0    0    0    0    0    0    0    0
    0    0    0    0    0    0    0    0    0    0    0    0
    0    0    0    0    0    0    0    0    0    0    0    0
    0    0    0    0    0    0    0    0    0    0    0    0
    0    0    0    0    0    0    0    0    0    0    0 -255
 -255    0    0    0    0    0    0    0    0    0    0    0
    0    0    0    0    0    0    0    0    0    0    0    0
    0    0    0    0    0    0    0    0    0    0    0    0
    0    0    0    0    0    0    0    0    0    0    0    0
    0    0    0    0    0    0    0    0    0    0    0    0
    0    0    0    0   -2    0   -2   -2 -169  143   38   -6
    1   -1    0    0    0    0    0    0    0    0    0    0
   -1   -1   -2   -3  107   37 -104    3    0   34   -4  -26
    3   -1    0    0   -2    4   -1    0    0    0    0    0
    0    0    0    0  -15  -28   43   -5   -1    2    0    0
    0    0    0    0    0    0    0    2    7  -10   -2   -4
   44  -44   -2    0    0    0    0    0    0    0    0    0
   -2   -2    0    0   -1   -3    6  -35 -240  314  -14   -1
    2    3   -6   -2    1    0    0    0    0    0    0    1
   -3    0    0   -9  200 -208   -7   -2    0   47  -58   -3
    0   -1   -1    4   -1    0    0    0    0    0    0    0
    0    0    0    0    0    0    0    0    0    0    0    0
    0    0    0    0    0    0    0    0    0    0    0    0
    0    0    0    0    0    0    0    0    0    0    0    0
    0    0    0    0    0    0    0    0    0    0    0    0
    0    0    0    0    0    0    0    0    0    0    0    0
    0    0    0    0    0    0    0    0    0    0    0    0
    0    0    0    0    0    0    0    0    0    0    0    0
    0    0    0    0    0    0    0    0    0    0    0    0
    0    0    0    0    0    0    0    0    0    0    0    0
    0    0    0    0    0    0    0    0    0    0    0    0
    0    0    0    0    0    0    0    0    0    0    0    0
    0    0    0    0    0    0    0    0    0    0    0    0
    0    0    0    0    0    0    0    0    0    0    0    0
    0    0    0    0    0    0    0    0    0    0    0 -255
 -255    0    0    0    0    0    0    0    0    0    0    0
    0    0    0    0    0    0    0    0    0    0    0    0
    0    0    0    0    0    0    0    0    0    0    0    0
    0    0    0    0    0    0    0    0    0    0    0    0
    0    0    0    0    0    0    0    0    0    0    0    0
    0    0    0   -1    4   -2    2    2  -66  -77  114   -1
   -2    3   -1    0    0    0    0    0    0    0    0    0
    0    0   -2    3  -12  173 -173  -43    0   -9   53  -46
  -11    0    0   -1    4   -2    0    0    0    0    0    0
    0    0    0   -1  -11  -28   42   -1   -2   -3    1    0
    0    0    0    0    0    0    0    2    9  -10   -2    0
   47  -43    8   -2    0    0    0    0    0    0    0   -1
    2    7   -3    0   -1    2   -1 -303  253    9   10   -2
    0   -1   -2    2    0    0    0    0    0    0    0    1
   -4    7   -8   41   99 -145    1    3   18    2  -24    8
   -3    4   -1   -1    0    0    0    0    0    0    0    0
    0    0    0    0    0    0    0    0    0    0    0    0
    0    0    0    0    0    0    0    0    0    0    0    0
    0    0    0    0    0    0    0    0    0    0    0    0
    0    0    0    0    0    0    0    0    0    0    0    0
    0    0    0    0    0    0    0    0    0    0    0    0
    0    0    0    0    0    0    0    0    0    0    0    0
    0    0    0    0    0    0    0    0    0    0    0    0
    0    0    0    0    0    0    0    0    0    0    0    0
    0    0    0    0    0    0    0    0    0    0    0    0
    0    0    0    0    0    0    0    0    0    0    0    0
    0    0    0    0    0    0    0    0    0    0    0    0
    0    0    0    0    0    0    0    0    0    0    0    0
    0    0    0    0    0    0    0    0    0    0    0    0
    0    0    0    0    0    0    0    0    0    0    0 -255
 -255    0    0    0    0    0    0    0    0    0    0    0
    0    0    0    0    0    0    0    0    0    0    0    0
    0    0    0    0    0    0    0    0    0    0    0    0
    0    0    0    0    0    0    0    0    0    0    0    0
    0    0    0    0    0    0    0    0    0    0    0    0
    0    0    0    0   -1   -1    2   -2  -33 -126  132   10
    1    1   -1    0    0    0    0    0    0    0    0    0
    0   -1    3    0    8    4  220 -184  -22    9    1   66
  -61   -2    0   -1   -2    0    0    0    0    0    0    0
    0    0    0   -1  -12  -26   41    2    0    2    0    0
    0    0    0    0    0    0    0    2    8  -10   -1    3
   32  -37   -2    0    0    0    0    0    0    0    0    0
   -1   -4    3   -1   -4    3 -243  162   96    0  -11    1
    6   -8    8   -1    0    0    0    0    0    0    0    0
    3   -6    5   72  -10  -79    5   -4   33  -21  -10   -2
    0   -1    0    0    0    0    0    0    0    0    0    0
    0    0    0    0    0    0    0    0    0    0    0    0
    0    0    0    0    0    0    0    0    0    0    0    0
    0    0    0    0    0    0    0    0    0    0    0    0
    0    0    0    0    0    0    0    0    0    0    0    0
    0    0    0    0    0    0    0    0    0    0    0    0
    0    0    0    0    0    0    0    0    0    0    0    0
    0    0    0    0    0    0    0    0    0    0    0    0
    0    0    0    0    0    0    0    0    0    0    0    0
    0    0    0    0    0    0    0    0    0    0    0    0
    0    0    0    0    0    0    0    0    0    0    0    0
    0    0    0    0    0    0    0    0    0    0    0    0
    0    0    0    0    0    0    0    0    0    0    0    0
    0    0    0    0    0    0    0    0    0    0    0    0
    0    0    0    0    0    0    0    0    0    0    0 -255
 -255    0    0    0    0    0    0    0    0    0    0    0
    0    0    0    0    0    0    0    0    0    0    0    0
    0    0    0    0    0    0    0    0    0    0    0    0
    0    0    0    0    0    0    0    0    0    0    0    0
    0    0    0    0    0    0    0    0    0    0    0    0
    0    0    0    0   -1   -2    3   -3    2 -177  189   -5
    3    1   -1    0    0    0    0    0    0    0    0    0
    0    0   -1    0   -7    2   27  169 -216   -9    0    4
   45  -60   -2    2    3   -1   -1    0    0    0    0    0
    0    0    0    0  -19  -20   36   -3    1   -4    1    0
    0    0    0    0    0    0    0    1   11  -10   -6    6
   29  -36    0   -1    0    0    0    0    0    0    0    0
   -1    3    1   -4   12 -201   17  151   -7    4    1    1
    0    0   -5    1    0    0    0    0    0    0    0    1
   -4    1   -1  119  -78  -39   -3    4   50  -46    0    0
    0    0    0    0    0    0    0    0    0    0    0    0
    0    0    0    0    0    0    0    0    0    0    0    0
    0    0    0    0    0    0    0    0    0    0    0    0
    0    0    0    0    0    0    0    0    0    0    0    0
    0    0    0    0    0    0    0    0    0    0    0    0
    0    0    0    0    0    0    0    0    0    0    0    0
    0    0    0    0    0    0    0    0    0    0    0    0
    0    0    0    0    0    0    0    0    0    0    0    0
    0    0    0    0    0    0    0    0    0    0    0    0
    0    0    0    0    0    0    0    0    0    0    0    0
    0    0    0    0    0    0    0    0    0    0    0    0
    0    0    0    0    0    0    0    0    0    0    0    0
    0    0    0    0    0    0    0    0    0    0    0    0
    0    0    0    0    0    0    0    0    0    0    0    0
    0    0    0    0    0    0    0    0    0    0    0 -255
 -255    0    0    0    0    0    0    0    0    0    0    0
    0    0    0    0    0    0    0    0    0    0    0    0
    0    0    0    0    0    0    0    0    0    0    0    0
    0    0    0    0    0    0    0    0    0    0    0    0
    0    0    0    0    0    0    0    0    0    0    0    0
    0    0    0   -1    3    3   -2    0   -3 -135  114   50
   -2    1   -1    0    0    0    0    0    0    0    0    0
    0    0    0    0    0    2   -5   55  167 -208    6   -5
   24   36  -49    2   -3   -1    4   -1    0    0    0    0
    0    0    0   -1  -16  -15   33    1   -1    1    0    1
    0    0    0    0    0    0    0    0   12  -11    0   -1
   40  -39   -1    3   -1    0    0    0    0    0    0    0
   -1   -3    3   -2 -161  -13  206  -14    3   -4    2   -3
    3   -4    7   -1    0    0    0    0    0    0    0    0
    1   -2   -2  187 -165  -11    3   28  -14  -16    0    0
    0    0    0   -1    0    0    0    0    0    0    0    0
    0    0    0    0    0    0    0    0    0    0    0    0
    0    0    0    0    0    0    0    0    0    0    0    0
    0    0    0    0    0    0    0    0    0    0    0    0
    0    0    0    0    0    0    0    0    0    0    0    0
    0    0    0    0    0    0    0    0    0    0    0    0
    0    0    0    0    0    0    0    0    0    0    0    0
    0    0    0    0    0    0    0    0    0    0    0    0
    0    0    0    0    0    0    0    0    0    0    0    0
    0    0    0    0    0    0    0    0    0    0    0    0
    0    0    0    0    0    0    0    0    0    0    0    0
    0    0    0    0    0    0    0    0    0    0    0    0
    0    0    0    0    0    0    0    0    0    0    0    0
    0    0    0    0    0    0    0    0    0    0    0    0
    0    0    0    0    0    0    0    0    0    0    0 -255
 -255    0    0    0    0    0    0    0    0    0    0    0
    0    0    0    0    0    0    0    0    0    0    0    0
    0    0    0    0    0    0    0    0    0    0    0    0
    0    0    0    0    0    0    0    0    0    0    0    0
    0    0    0    0    0    0    0    0    0    0    0    0
    0    0    0    0   -1   -1    0   -1   -2  -63  -58  124
   -6    1   -1    0    0    0    1    0    0    1    0    1
    0    0    1    1   -1    1    4   -4   70  108 -207   -3
    1   27   13  -51    4   -1   -1    0   -1   -1    0    0
   -1   -1   -1    0  -25   -7   27    5   -2    1    1   -4
    1    0    0    0    0    0    0   -2   20  -20    2   -9
   52  -46   -2    3   -1   -1    0    0    0    0   -1   -1
    3    2   -4 -141 -142  239   -5    5    0   -3    3   -3
   -3    2   -3    1    1    0    0    2    1    0    0    0
    0    5    9  156 -170    5   -1   40  -47   -2    0    0
    0    0   -1    4   -1    0    0    0    0    0    0    0
    0    0    0    0    0    0    0    0    0    0    0    0
    0    0    0    0    0    0    0    0    0    0    0    0
    0    0    0    0    0    0    0    0    0    0    0    0
    0    0    0    0    0    0    0    0    0    0    0    0
    0    0    0    0    0    0    0    0    0    0    0    0
    0    0    0    0    0    0    0    0    0    0    0    0
    0    0    0    0    0    0    0    0    0    0    0    0
    0    0    0    0    0    0    0    0    0    0    0    0
    0    0    0    0    0    0    0    0    0    0    0    0
    0    0    0    0    0    0    0    0    0    0    0    0
    0    0    0    0    0    0    0    0    0    0    0    0
    0    0    0    0    0    0    0    0    0    0    0    0
    0    0    0    0    0    0    0    0    0    0    0    0
    0    0    0    0    0    0    0    0    0    0    0 -255
 -255    0    0    0    0    0    0    0    0    0    0    0
    0    0    0    0    0    0    0    0    0    0    0    0
    0    0    0    0    0    0    0    0    0    0    0    0
    0    0    0    0    0    0    0    0    0    0    0    0
    0    0    0    0    0    0    0    0    0    0    0    0
    0    0    0    0    0   -1   -1    3    3   -8 -229  212
   -9    1   -1    0    0    1   -3    1    1   -3    3   -5
    2    2   -2   -3    0    4   -7    6  -11   79  152 -208
    0   -3   31   26  -49    0    0   -2    3    3   -1   -2
    3    2    3   -1  -30    5   28   -1    0   -4    2    1
    0    0    0    0    0    0    0   -2   15   -9   -8    5
   35  -33    0   -3   -2    4   -2   -1   -1   -2    4   -3
   -3    1 -166  -64  257   -8    3   -2    2    2   -4    6
   -1    6   -8    4   -5    1    2   -7   -2    0    0    1
   -4   -4   85   -4  -87    4   10   23  -30   -1    0    0
    0    0    0   -1    0    0    0    0    0    0    0    0
    0    0    0    0    0    0    0    0    0    0    0    0
    0    0    0    0    0    0    0    0    0    0    0    0
    0    0    0    0    0    0    0    0    0    0    0    0
    0    0    0    0    0    0    0    0    0    0    0    0
    0    0    0    0    0    0    0    0    0    0    0    0
    0    0    0    0    0    0    0    0    0    0    0    0
    0    0    0    0    0    0    0    0    0    0    0    0
    0    0    0    0    0    0    0    0    0    0    0    0
    0    0    0    0    0    0    0    0    0    0    0    0
    0    0    0    0    0    0    0    0    0    0    0    0
    0    0    0    0    0    0    0    0    0    0    0    0
    0    0    0    0    0    0    0    0    0    0    0    0
    0    0    0    0    0    0    0    0    0    0    0    0
    0    0    0    0    0    0    0    0    0    0    0 -255
 -255    0    0    0    0    0    0    0    0    0    0    0
    0    0    0    0    0    0    0    0    0    0    0    0
    0    0    0    0    0    0    0    0    0    0    0    0
    0    0    0    0    0    0    0    0    0    0    0    0
    0    0    0    0    0    0    0    0    0    0    0    0
    0    0    0    0   -2    3   -1   -1   -1   -2 -168  159
   12    1   -1    0    0    1   -3    0    1   -2   -3    6
   -5   -4   -2    3    1   -1   -1    1    4   -2   69  125
 -207  -10   -2   30   10  -50   -2    4   -2   -1   -1    4
   -2   -1   -1   -1  -37   17   11    2   -1    2   -4    1
    0    0    0    0    0    0    0   -2   12   -4   -4   -7
   35  -26  -11    2    2   -3    3    2    1    3   -6    6
    0 -188  -44  216   -4    0   -1    2   -9    3   -3    1
   -2    0    4   -6    6   -1    0    2    0    4    0    0
    1   -5  134  -96  -43    4    8   26  -28    0    0    0
    0    0    0    0    0    0    0    0    0    0    0    0
    0    0    0    0    0    0    0    0    0    0    0    0
    0    0    0    0    0    0    0    0    0    0    0    0
    0    0    0    0    0    0    0    0    0    0    0    0
    0    0    0    0    0    0    0    0    0    0    0    0
    0    0    0    0    0    0    0    0    0    0    0    0
    0    0    0    0    0    0    0    0    0    0    0    0
    0    0    0    0    0    0    0    0    0    0    0    0
    0    0    0    0    0    0    0    0    0    0    0    0
    0    0    0    0    0    0    0    0    0    0    0    0
    0    0    0    0    0    0    0    0    0    0    0    0
    0    0    0    0    0    0    0    0    0    0    0    0
    0    0    0    0    0    0    0    0    0    0    0    0
    0    0    0    0    0    0    0    0    0    0    0    0
    0    0    0    0    0    0    0    0    0    0    0 -255
 -255    0    0    0    0    0    0    0    0    0    0    0
    0    0    0    0    0    0    0    0    0    0    0    0
    0    0    0    0    0    0    0    0    0    0    0    0
    0    0    0    0    0    0    0    0    0    0    0    0
    0    0    0    0    0    0    0    0    0    0    0    0
    0    0    0   -1    3    2   -1    0   -1    3 -143  104
   33    2   -1    0    0    0    0    2    0    2    1    0
    1    8    0   -2   -3   -1    3    3    0   -1   -5   59
  182 -216  -36    7   28   32  -57   -4   -1   -2    0   -1
    0    0   -2    4  -51   53    5    1   -1    1    0    0
    0    0    0    0    0    0    0   -2    9    0   -9   -1
   28  -14  -11    1    2   -3   -1   -2    3   -4    6   -4
 -246   16  211   -1   -2    1    0    1    6    1    1   -7
   10   -6   -7   11   -3    0    1    0    0    0   -3    1
    3   -8  170 -185    8  -12   33  -21  -12    0    0    0
    0    0    0    0    0    0    0    0    0    0    0    0
    0    0    0    0    0    0    0    0    0    0    0    0
    0    0    0    0    0    0    0    0    0    0    0    0
    0    0    0    0    0    0    0    0    0    0    0    0
    0    0    0    0    0    0    0    0    0    0    0    0
    0    0    0    0    0    0    0    0    0    0    0    0
    0    0    0    0    0    0    0    0    0    0    0    0
    0    0    0    0    0    0    0    0    0    0    0    0
    0    0    0    0    0    0    0    0    0    0    0    0
    0    0    0    0    0    0    0    0    0    0    0    0
    0    0    0    0    0    0    0    0    0    0    0    0
    0    0    0    0    0    0    0    0    0    0    0    0
    0    0    0    0    0    0    0    0    0    0    0    0
    0    0    0    0    0    0    0    0    0    0    0    0
    0    0    0    0    0    0    0    0    0    0    0 -255
 -255    0    0    0    0    0    0    0    0    0    0    0
    0    0    0    0    0    0    0    0    0    0    0    0
    0    0    0    0    0    0    0    0    0    0    0    0
    0    0    0    0    0    0    0    0    0    0    0    0
    0    0    0    0    0    0    0    0    0    0    0    0
    0    0    0    0   -1   -1    0    0   -1    3 -119   55
   56    2   -1    0    0    0   -2    7   -7    4   47   81
   -3   -3    1   -2    1    5    0  -10    9    2    3    0
   32  198 -157  -82   -1   24   51  -62   -8    6   -3    0
    0   -1    3   -3  -67   54    1    2   -1   -4    5   -1
    0    0    0    0    0    0    0   -2    5   15  -15   -2
   24    2  -24   -1   -3    8   -2   -1   -2   -1  -28 -300
  183  153   -9    2    5   -5    3   -8    3  -10    5    3
   -3   -3   51  122   -1   -1   -4    1    0    2   -1    3
   -9   12  135 -143   -5   -2   48  -46   -2    0    0    0
    0    0    0    0    0    0    0    0    0    0    0    0
    0    0    0    0    0    0    0    0    0    0    0    0
    0    0    0    0    0    0    0    0    0    0    0    0
    0    0    0    0    0    0    0    0    0    0    0    0
    0    0    0    0    0    0    0    0    0    0    0    0
    0    0    0    0    0    0    0    0    0    0    0    0
    0    0    0    0    0    0    0    0    0    0    0    0
    0    0    0    0    0    0    0    0    0    0    0    0
    0    0    0    0    0    0    0    0    0    0    0    0
    0    0    0    0    0    0    0    0    0    0    0    0
    0    0    0    0    0    0    0    0    0    0    0    0
    0    0    0    0    0    0    0    0    0    0    0    0
    0    0    0    0    0    0    0    0    0    0    0    0
    0    0    0    0    0    0    0    0    0    0    0    0
    0    0    0    0    0    0    0    0    0    0    0 -255
 -255    0    0    0    0    0    0    0    0    0    0    0
    0    0    0    0    0    0    0    0    0    0    0    0
    0    0    0    0    0    0    0    0    0    0    0    0
    0    0    0    0    0    0    0    0    0    0    0    0
    0    0    0    0    0    0    0    0    0    0    0    0
    0    0    0    0    0    0   -1    0    0   -1 -101   20
   78    1   -1    1    0    0   -1    0    3   70 -119  -60
  180   -3    1   -4    2   -5    2   -2   -2   -5    7   -5
    3    9  205  -80 -153   -2    8   56  -44  -25    3   -1
    0   -1    3  -19  -25   44   -4   -1    5   -4    1    0
    0    0    0    0    0    0    0   -1   -1   20  -18   -1
    4   18  -20   -2    0   -3   -1    2    3  -99 -249  240
   86   -4   -1    0   -5    1    1    4   -2    6   -3    4
  -12  121  158 -395  175   -6    1    1    1   -2   -5    1
    7   14  113 -125   -5    5   37  -34   -1    0    0    0
    0    0    0    0    0    0    0    0    0    0    0    0
    0    0    0    0    0    0    0    0    0    0    0    0
    0    0    0    0    0    0    0    0    0    0    0    0
    0    0    0    0    0    0    0    0    0    0    0    0
    0    0    0    0    0    0    0    0    0    0    0    0
    0    0    0    0    0    0    0    0    0    0    0    0
    0    0    0    0    0    0    0    0    0    0    0    0
    0    0    0    0    0    0    0    0    0    0    0    0
    0    0    0    0    0    0    0    0    0    0    0    0
    0    0    0    0    0    0    0    0    0    0    0    0
    0    0    0    0    0    0    0    0    0    0    0    0
    0    0    0    0    0    0    0    0    0    0    0    0
    0    0    0    0    0    0    0    0    0    0    0    0
    0    0    0    0    0    0    0    0    0    0    0    0
    0    0    0    0    0    0    0    0    0    0    0 -255
 -255    0    0    0    0    0    0    0    0    0    0    0
    0    0    0    0    0    0    0    0    0    0    0    0
    0    0    0    0    0    0    0    0    0    0    0    0
    0    0    0    0    0    0    0    0    0    0    0    0
    0    0    0    0    0    0    0    0    0    0    0    0
    0    0    0    0    0   -1    3   -1    0   -2  -82  -10
   92    1    0   -3    1    0   -1    2  -13  106  -37 -169
 -133  228   30    3    1    0   -1    9   -9    6  -10    5
   -9    7   -8  132  128 -236  -46   16   47   -6  -50   -4
    0   -1   -2  -44   43   12    1   -4    0    3   -3    1
    0    0    0    0    0    0    0   -1    3    6   -2   -1
    3   33  -38    0   -1    4   -2  -18 -212 -108  279   33
   -2    2    0    1    1    5   -2   -9    7   -2    0   -1
  173   38 -201 -202  205  -10   -3   -2    2    2   -2    1
   -1   31   89 -123   -5   16   10  -27    0    0    0    0
    0    0    0    0    0    0    0    0    0    0    0    0
    0    0    0    0    0    0    0    0    0    0    0    0
    0    0    0    0    0    0    0    0    0    0    0    0
    0    0    0    0    0    0    0    0    0    0    0    0
    0    0    0    0    0    0    0    0    0    0    0    0
    0    0    0    0    0    0    0    0    0    0    0    0
    0    0    0    0    0    0    0    0    0    0    0    0
    0    0    0    0    0    0    0    0    0    0    0    0
    0    0    0    0    0    0    0    0    0    0    0    0
    0    0    0    0    0    0    0    0    0    0    0    0
    0    0    0    0    0    0    0    0    0    0    0    0
    0    0    0    0    0    0    0    0    0    0    0    0
    0    0    0    0    0    0    0    0    0    0    0    0
    0    0    0    0    0    0    0    0    0    0    0    0
    0    0    0    0    0    0    0    0    0    0    0 -255
 -255    0    0    0    0    0    0    0    0    0    0    0
    0    0    0    0    0    0    0    0    0    0    0    0
    0    0    0    0    0    0    0    0    0    0    0    0
    0    0    0    0    0    0    0    0    0    0    0    0
    0    0    0    0    0    0    0    0    0    0    0    0
    0    0    0    0    0   -1    2   -1   -1    3  -71  -39
  105    1    0   -2    1    0   -2    5    0  117  -85  -21
  -62 -168  175   93  -10    7    1  -11    8   -6    8    0
    2   -2    7  -10   64  172  -70 -168    0   31   43  -57
  -21    1   -1  -50   52    2   -4    2    1   -3   -2    1
    0    0    0    0    0    0    0    0    1    1    9  -17
    7   32  -41   -2   -1   -8  -92 -255  141  207   -6   -2
    4    0   -3   -2   -3    1   -4    9   -6    0   19  229
  -73 -160   13 -157  142   11    2   -3   -3    2    1   -1
    1   30   89 -125    9   11    1  -19    0    0    0    0
    0    0    0    0    0    0    0    0    0    0    0    0
    0    0    0    0    0    0    0    0    0    0    0    0
    0    0    0    0    0    0    0    0    0    0    0    0
    0    0    0    0    0    0    0    0    0    0    0    0
    0    0    0    0    0    0    0    0    0    0    0    0
    0    0    0    0    0    0    0    0    0    0    0    0
    0    0    0    0    0    0    0    0    0    0    0    0
    0    0    0    0    0    0    0    0    0    0    0    0
    0    0    0    0    0    0    0    0    0    0    0    0
    0    0    0    0    0    0    0    0    0    0    0    0
    0    0    0    0    0    0    0    0    0    0    0    0
    0    0    0    0    0    0    0    0    0    0    0    0
    0    0    0    0    0    0    0    0    0    0    0    0
    0    0    0    0    0    0    0    0    0    0    0    0
    0    0    0    0    0    0    0    0    0    0    0 -255
 -255    0    0    0    0    0    0    0    0    0    0    0
    0    0    0    0    0    0    0    0    0    0    0    0
    0    0    0    0    0    0    0    0    0    0    0    0
    0    0    0    0    0    0    0    0    0    0    0    0
    0   -1    0    0   -1    0   -2    0    0    0    0    0
    0    0    0    0    0   -1    3   -1    0   -2  -61  -58
  113    1    0   -3    1    0   -1    3  -17  169 -170   -2
   32  -33 -284  138  186    0   -1    4    3    0   -4   -2
    1    1   -5    5   -6   16  142   94 -189  -91   11   71
  -19  -43  -18  -40   41    1    1    1    0    1    1    0
    0   -1   -1    0    1    0    0    1   -3    0   12  -12
   -9   39  -26  -13  -55 -212 -118  317   46   -5   -2    2
   -4   -2    3    1    0   -1    1   -5   -9  103  223 -228
  -84    7   15 -106  108   34   -1    5    2   -4    0    5
    1   34   81 -107   -9   31  -18  -13    0    0    0    0
    0    0    0    0    0    0    0    0    0    0    0    0
    0    0    0    0    0    0    0    0    0    0    0    0
    0    0    0    0    0    0    0    0    0    0    0    0
    0    0    0    0    0    0    0    0    0    0    0    0
    0    0    0    0    0    0    0    0    0    0    0    0
    0    0    0    0    0    0    0    0    0    0    0    0
    0    0    0    0    0    0    0    0    0    0    0    0
    0    0    0    0    0    0    0    0    0    0    0    0
    0    0    0    0    0    0    0    0    0    0    0    0
    0    0    0    0    0    0    0    0    0    0    0    0
    0    0    0    0    0    0    0    0    0    0    0    0
    0    0    0    0    0    0    0    0    0    0    0    0
    0    0    0    0    0    0    0    0    0    0    0    0
    0    0    0    0    0    0    0    0    0    0    0    0
    0    0    0    0    0    0    0    0    0    0    0 -255
 -255    0    0    0    0    0    0    0    0    0    0    0
    0    0    0    0    0    0    0    0    0    0    0    0
    0    0    0    0    0    0    0    0    0    0    0    0
    0    0    0    0    0    0    0    0    0    0    0    0
   -1    4   -1   -1    3   -3    8   -3    0    0   -1    0
    0    0    0    0    0    0   -1    0    0   -1  -65  -49
  113    1    0    1    0    0   -1    2    6  133 -139    0
   37  -33   -7 -162 -181  293   71    3   -7    5    3   -4
    0    3   -3    3    3   -2   -3   56  161   44 -237  -45
   24   46  -69  -14   32   -7    3   -4    1    0    0    0
   -2    8    2    0   -4    2   -1    1    2   -4   19   -9
   -5   11    1 -227 -165  221  159   -6    2    1    4   -5
    4   -3   -1   -1    3    2   -2   22  250  -27 -197  -25
   12   26   49 -182   43   71    0    0   -3    1    1   -3
   -3   45   63 -111   -5   35  -27   -4   -1    0    0    0
    0    0    0    0    0    0    0    0    0    0    0    0
    0    0    0    0    0    0    0    0    0    0    0    0
    0    0    0    0    0    0    0    0    0    0    0    0
    0    0    0    0    0    0    0    0    0    0    0    0
    0    0    0    0    0    0    0    0    0    0    0    0
    0    0    0    0    0    0    0    0    0    0    0    0
    0    0    0    0    0    0    0    0    0    0    0    0
    0    0    0    0    0    0    0    0    0    0    0    0
    0    0    0    0    0    0    0    0    0    0    0    0
    0    0    0    0    0    0    0    0    0    0    0    0
    0    0    0    0    0    0    0    0    0    0    0    0
    0    0    0    0    0    0    0    0    0    0    0    0
    0    0    0    0    0    0    0    0    0    0    0    0
    0    0    0    0    0    0    0    0    0    0    0    0
    0    0    0    0    0    0    0    0    0    0    0 -255
 -255    0    0    0    0    0    0    0    0    0    0    0
    0    0    0    0    0    0    0    0    0    0    0    0
    0    0    0    0    0    0    0    0    0    0    0    0
    0    0    0    0    0    0    0    0    0    0    0    0
    0   -2    0   -2    2   -1   -4    3   -2   -1    4   -1
    0    0    0   -1    0    0    0   -1   -1    4  -66  -49
  112    2   -4    1    0    0   -1    1   26   89 -115    8
   27  -34   -3    2  -42 -281   94  219   18   -1  -10    5
    5   -9   -1    2    0    0    0   -3    5   81  202  -71
 -161  -64   13   39   -1    6   -5    2    0    1    2   -1
   13  -11    8   -1    2   -5    7   -4    2   -3    0   16
  -35 -180 -115  106  230   27   -9   -1    0    1   -2    3
   -4    7   -9    5   -3   -8  154  150 -175 -119   -5   19
   46    1  -53  -89  -10  100   -2    2   -3    6    0   -3
    2   44   64 -108    1   28  -23   -8    0    0    0    0
    0    0    0    0    0    0    0    0    0    0    0    0
    0    0    0    0    0    0    0    0    0    0    0    0
    0    0    0    0    0    0    0    0    0    0    0    0
    0    0    0    0    0    0    0    0    0    0    0    0
    0    0    0    0    0    0    0    0    0    0    0    0
    0    0    0    0    0    0    0    0    0    0    0    0
    0    0    0    0    0    0    0    0    0    0    0    0
    0    0    0    0    0    0    0    0    0    0    0    0
    0    0    0    0    0    0    0    0    0    0    0    0
    0    0    0    0    0    0    0    0    0    0    0    0
    0    0    0    0    0    0    0    0    0    0    0    0
    0    0    0    0    0    0    0    0    0    0    0    0
    0    0    0    0    0    0    0    0    0    0    0    0
    0    0    0    0    0    0    0    0    0    0    0    0
    0    0    0    0    0    0    0    0    0    0    0 -255
 -255    0    0    0    0    0    0    0    0    0    0    0
    0    0    0    0    0    0    0    0    0    0    0    0
    0    0    0    0    0    0    0    0    0    0    0    0
    0    0    0    0    0    0    0    0    0    0    0    0
   -1    4   -2    2    0  -25    2    1    3   -1   -1    0
    0    0   -1    4   -1    0   -2    3   -1   -2  -60  -51
  115    0   -4    1    0    0   -1    1   43   61 -104    4
   33  -31   -1   -3    7   -3 -134 -257  262  147   34   -4
   -3    7    1   -5   -3    1    6   -9    3   -8    5   87
  197  -50 -174  -65  -17   -1    2    0    1   -4   -7    4
    7  -26   18   -2    1    1   -4   -3    7    1  -59 -130
 -202  197  142   52   -8   -4   -5    6   -1   -8    7   -5
   -4    4   -4    8   84  258 -106 -176  -30   15   50   28
  -64  -21    4  -64  -74  132    7   -5   -1   -4    1    1
    0   42   65 -114    1   26  -24   -7    0    0    0    0
    0    0    0    0    0    0    0    0    0    0    0    0
    0    0    0    0    0    0    0    0    0    0    0    0
    0    0    0    0    0    0    0    0    0    0    0    0
    0    0    0    0    0    0    0    0    0    0    0    0
    0    0    0    0    0    0    0    0    0    0    0    0
    0    0    0    0    0    0    0    0    0    0    0    0
    0    0    0    0    0    0    0    0    0    0    0    0
    0    0    0    0    0    0    0    0    0    0    0    0
    0    0    0    0    0    0    0    0    0    0    0    0
    0    0    0    0    0    0    0    0    0    0    0    0
    0    0    0    0    0    0    0    0    0    0    0    0
    0    0    0    0    0    0    0    0    0    0    0    0
    0    0    0    0    0    0    0    0    0    0    0    0
    0    0    0    0    0    0    0    0    0    0    0    0
    0    0    0    0    0    0    0    0    0    0    0 -255
 -255    0    0    0    0    0    0    0    0    0    0    0
    0    0    0    0    0    0    0    0    0    0    0    0
    0    0    0    0    0    0    0    0    0    0    0    0
    0    0    0    0    0    0    0    0    0    0    0    0
    0   -1   -1    1  -35   49  -38   -2   -2    0    0    0
    0   -1    0   -1    0   -1    3    1   -2    0  -65  -63
  118    3   -1    0    0    0   -1    2   57   23  -76   19
   18  -27    0   -2   -2   -5   -5  -33 -227 -116  167  169
   15   -6    5   -7    9   -5   -1    4   -4    9   -3    5
    0  108  138   36 -119 -138  -26  -10   -1    9   -4   25
  -21   -7    1   22   -8    7   -6   -9 -106 -210   -3  110
  173   25    0   -1   -4    4    2    2   -8    3   -1    3
    1    4   86  211  -23 -199  -72   10   54   17  -36  -35
    1    3   -2  -36 -122  158    2    1    1    2    0    1
   -1   42   76 -116    4   31  -27   -1   -1    0    0    0
    0    0    0    0    0    0    0    0    0    0    0    0
    0    0    0    0    0    0    0    0    0    0    0    0
    0    0    0    0    0    0    0    0    0    0    0    0
    0    0    0    0    0    0    0    0    0    0    0    0
    0    0    0    0    0    0    0    0    0    0    0    0
    0    0    0    0    0    0    0    0    0    0    0    0
    0    0    0    0    0    0    0    0    0    0    0    0
    0    0    0    0    0    0    0    0    0    0    0    0
    0    0    0    0    0    0    0    0    0    0    0    0
    0    0    0    0    0    0    0    0    0    0    0    0
    0    0    0    0    0    0    0    0    0    0    0    0
    0    0    0    0    0    0    0    0    0    0    0    0
    0    0    0    0    0    0    0    0    0    0    0    0
    0    0    0    0    0    0    0    0    0    0    0    0
    0    0    0    0    0    0    0    0    0    0    0 -255
 -255    0    0    0    0    0    0    0    0    0    0    0
    0    0    0    0    0    0    0    0    0    0    0    0
    0    0    0    0    0    0    0    0    0    0    0    0
    0    0    0    0    0    0    0    0    0    0    0    0
   -1    0    0  -33   -9   65   -8  -21    4   -2    0    0
   -1    4   -1    0    0    0   -2    2    3   -1  -77  -25
  103   -1   -1    0    0    0   -1   -1   98  -50  -48   35
  -30   -6   -4    8  -35  -33  -15   11  -11  -84 -235  -95
  209  170   70  -14   -7    4   -2    7    2   -4    5   -2
   -2  -12    5   51  146  117 -112 -106 -114  -45   18    5
   -3    1    6   38   -9 -108 -127 -148   24  225   81   23
   -6    0   -8   -1    8   -9   10  -12    6    5  -15   23
  135  170   62 -247  -77   15   42   44  -46  -42  -13    9
    0   -2   -1  -10 -190  214   -6   -3    4   -3    2   -4
    1   31   89 -118   -1   33  -34   -4    0    0    0    0
    0    0    0    0    0    0    0    0    0    0    0    0
    0    0    0    0    0    0    0    0    0    0    0    0
    0    0    0    0    0    0    0    0    0    0    0    0
    0    0    0    0    0    0    0    0    0    0    0    0
    0    0    0    0    0    0    0    0    0    0    0    0
    0    0    0    0    0    0    0    0    0    0    0    0
    0    0    0    0    0    0    0    0    0    0    0    0
    0    0    0    0    0    0    0    0    0    0    0    0
    0    0    0    0    0    0    0    0    0    0    0    0
    0    0    0    0    0    0    0    0    0    0    0    0
    0    0    0    0    0    0    0    0    0    0    0    0
    0    0    0    0    0    0    0    0    0    0    0    0
    0    0    0    0    0    0    0    0    0    0    0    0
    0    0    0    0    0    0    0    0    0    0    0    0
    0    0    0    0    0    0    0    0    0    0    0 -255
 -255    0    0    0    0    0    0    0    0    0    0    0
    0    0    0    0    0    0    0    0    0    0    0    0
    0    0    0    0    0    0    0    0    0    0    0    0
    0    0    0    0    0    0    0    0    0    0    0   -1
    3  -17  -69  -15   50  -13   61  -65   -6    4   -1    0
    0   -1   -1    0    0    0    0   -1   -1   -1  -83   -9
   89    1   -1    0    0    0   -1   -3  144 -113  -18   51
  -48  -10 -112 -221  -99 -117  -86   -8   33   37   35 -122
 -173 -192   66  275  106   40   16  -14   -4    1   -4    5
   -3    8   10  -10    5   20  113  103  119  -56 -174 -134
  -56    4 -208 -279 -108   80  136  128   63   -5    1   -2
    4    0    0    3    0   -4   -9    6   35   57  189  181
 -137 -161  -86   22   64   -1  -49 -132 -193 -182 -193 -176
  -59   -2    3   -2 -177  185   26    1   -7   -1    1    1
    1   27   97 -124   -4   34  -29   -4    0    0    0    0
    0    0    0    0    0    0    0    0    0    0    0    0
    0    0    0    0    0    0    0    0    0    0    0    0
    0    0    0    0    0    0    0    0    0    0    0    0
    0    0    0    0    0    0    0    0    0    0    0    0
    0    0    0    0    0    0    0    0    0    0    0    0
    0    0    0    0    0    0    0    0    0    0    0    0
    0    0    0    0    0    0    0    0    0    0    0    0
    0    0    0    0    0    0    0    0    0    0    0    0
    0    0    0    0    0    0    0    0    0    0    0    0
    0    0    0    0    0    0    0    0    0    0    0    0
    0    0    0    0    0    0    0    0    0    0    0    0
    0    0    0    0    0    0    0    0    0    0    0    0
    0    0    0    0    0    0    0    0    0    0    0    0
    0    0    0    0    0    0    0    0    0    0    0    0
    0    0    0    0    0    0    0    0    0    0    0 -255
 -255    0    0    0    0    0    0    0    0    0    0    0
    0    0    0    0    0    0    0    0    0    0    0    0
    0    0    0    0    0    0    0    0    0    0    0    0
    0    0    0    0    0    0    0    0    0    0    0   -1
  -13  -69   86  -32    4    4    6   55  -52   -3    0    0
    0   -1    4   -1   -1    0   -1    0   -1    0 -104   27
   74    1   -1    0    0    0   -2    7  171 -177   28    4
  -41 -225   81  277  162  204  102 -111 -100    9   20   46
  -58  -27 -119 -242  -14   89  167  192   88   20   -5    2
    4   -2  -13    8   -7    0   -3    9   19  101  194  168
   92   -7  249  250  171   49   15   -1    0    0   -5    2
    0   -4    6   -1    5   67  134  177  100   29 -133 -182
   -3   43   15   -3  -59  -20 -246   -3  232  236  259  209
 -129 -135  -28   -3  -88  -13  116   -2    1    1   -1    2
   -2   13  123 -136   -4   28  -26   -5    0    0    0    0
    0    0    0    0    0    0    0    0    0    0    0    0
    0    0    0    0    0    0    0    0    0    0    0    0
    0    0    0    0    0    0    0    0    0    0    0    0
    0    0    0    0    0    0    0    0    0    0    0    0
    0    0    0    0    0    0    0    0    0    0    0    0
    0    0    0    0    0    0    0    0    0    0    0    0
    0    0    0    0    0    0    0    0    0    0    0    0
    0    0    0    0    0    0    0    0    0    0    0    0
    0    0    0    0    0    0    0    0    0    0    0    0
    0    0    0    0    0    0    0    0    0    0    0    0
    0    0    0    0    0    0    0    0    0    0    0    0
    0    0    0    0    0    0    0    0    0    0    0    0
    0    0    0    0    0    0    0    0    0    0    0    0
    0    0    0    0    0    0    0    0    0    0    0    0
    0    0    0    0    0    0    0    0    0    0    0 -255
 -255    0    0    0    0    0    0    0    0    0    0    0
    0    0    0    0    0    0    0    0    0    0    0    0
    0    0    0    0    0    0    0    0    0    0    0    0
    0    0    0    0   -1    0    0    0    0   -1    0    0
 -137  116   73  -30  -21    3   -2   16   23  -50   -1   -1
    0    0   -1   -1    4   -3    4   -2    4   -1 -121   65
   57    0    0    0    1   -1    1   67   27  -86   26  -22
 -200  255   88  -17  -12  -11   27  213  -83  -96   -2   23
   20  -21   -3   -3  -72 -126 -190 -177   23  170  191  119
  100   97   97   84   87   92   92   95  114  145  131   -4
  -64  -58 -116   79  231  165  111  114   97  102  102   96
  109  110  119  143  196   40  -72 -173  -97  -49   21   24
  -23  -50  -26  -11   -5 -329  277  129    8   -9  -16   26
  248  -78    0  -47  -27 -248  232   -9   -1   -1    5   -3
   -2   10  134 -142    3   30  -24   -6    0    0    0    0
    0    0    0    0    0    0    0    0    0    0    0    0
    0    0    0    0    0    0    0    0    0    0    0    0
    0    0    0    0    0    0    0    0    0    0    0    0
    0    0    0    0    0    0    0    0    0    0    0    0
    0    0    0    0    0    0    0    0    0    0    0    0
    0    0    0    0    0    0    0    0    0    0    0    0
    0    0    0    0    0    0    0    0    0    0    0    0
    0    0    0    0    0    0    0    0    0    0    0    0
    0    0    0    0    0    0    0    0    0    0    0    0
    0    0    0    0    0    0    0    0    0    0    0    0
    0    0    0    0    0    0    0    0    0    0    0    0
    0    0    0    0    0    0    0    0    0    0    0    0
    0    0    0    0    0    0    0    0    0    0    0    0
    0    0    0    0    0    0    0    0    0    0    0    0
    0    0    0    0    0    0    0    0    0    0    0 -255
 -255    0    0    0    0    0    0    0    0    0    0    0
    0    0    0    0    0    0    0    0    0    0    0    0
    0    0    0    0    0    0    0    0    0    0    0    0
    0    0    0   -1    4   -1    0    0   -2    4   -1  -72
   60   52   -3   76  -73   -7    0   -4   38   16  -38    3
   -2    0   -1   -1   -3    4   -3    0   -2    0 -140   92
   33    8   -6    2   -5    0   -1  134 -142  -17   56 -105
  -93  142    2   -1    5    0    4  -16  204 -105  -38    1
   50  -53   -5    2    2   -3    3  -24  -93 -158 -222 -102
  -58  -69  -49  -50  -50  -51  -58  -72  -78 -142 -138   15
  -63  -23  -38 -123 -214 -165  -19  -76  -58  -62  -59  -52
  -78  -78  -88 -151 -183  -81  -72  -19  -20  -23  -43  -26
  -12    3    0   -6 -213  245   70   -1    1   -4    1   -1
   16  195 -184   65  -29 -191  155   22    3   -1   -1   -3
    5   -8  170 -177   -9   30  -25   -7    0    0    0    0
    0    0    0    0    0    0    0    0    0    0    0    0
    0    0    0    0    0    0    0    0    0    0    0    0
    0    0    0    0    0    0    0    0    0    0    0    0
    0    0    0    0    0    0    0    0    0    0    0    0
    0    0    0    0    0    0    0    0    0    0    0    0
    0    0    0    0    0    0    0    0    0    0    0    0
    0    0    0    0    0    0    0    0    0    0    0    0
    0    0    0    0    0    0    0    0    0    0    0    0
    0    0    0    0    0    0    0    0    0    0    0    0
    0    0    0    0    0    0    0    0    0    0    0    0
    0    0    0    0    0    0    0    0    0    0    0    0
    0    0    0    0    0    0    0    0    0    0    0    0
    0    0    0    0    0    0    0    0    0    0    0    0
    0    0    0    0    0    0    0    0    0    0    0    0
    0    0    0    0    0    0    0    0    0    0    0 -255
 -255    0    0    0    0    0    0    0    0    0    0    0
    0    0    0    0    0    0    0    0    0    0    0    0
    0    0    0    0    0    0    0    0    0    0    0    0
    0    0    0    0   -1    0   -1   -2    4   -3  -14  -99
   98   -5   -6    4   77  -81   -2    4   -4   35  -10  -42
    3   -2    2    2    3   -3    3   -2    4   -3 -169  166
   13   -4    2    0    4    6    3  118 -119   10    7 -156
  136   42   -6    2   -2    0   -5    5   -2  204 -207    1
    8   31  -28   -2   -3    4   -3   -2   -3   -9  -66   45
  -16  -31  -35  -34  -34  -34  -34    6  -25  -13   65  -52
  -10   -1   -3    1    7  -57  -20    0  -39  -38  -39  -41
  -22  -35  -13   13  -14    8   15  -50   -6   -8   -2    3
    3   -4    1  -72 -100  157   -2   -5   -3   -2    1    1
   -3  175 -114  -17   39 -157   81   63    1   -2    4    2
   -7   -7  131  -87  -44   33  -31   -2   -1    0    0    0
    0    0    0    0    0    0    0    0    0    0    0    0
    0    0    0    0    0    0    0    0    0    0    0    0
    0    0    0    0    0    0    0    0    0    0    0    0
    0    0    0    0    0    0    0    0    0    0    0    0
    0    0    0    0    0    0    0    0    0    0    0    0
    0    0    0    0    0    0    0    0    0    0    0    0
    0    0    0    0    0    0    0    0    0    0    0    0
    0    0    0    0    0    0    0    0    0    0    0    0
    0    0    0    0    0    0    0    0    0    0    0    0
    0    0    0    0    0    0    0    0    0    0    0    0
    0    0    0    0    0    0    0    0    0    0    0    0
    0    0    0    0    0    0    0    0    0    0    0    0
    0    0    0    0    0    0    0    0    0    0    0    0
    0    0    0    0    0    0    0    0    0    0    0    0
    0    0    0    0    0    0    0    0    0    0    0 -255
 -255    0    0    0    0    0    0    0    0    0    0    0
    0    0    0    0    0    0    0    0    0    0    0    0
    0    0    0    0    0    0    0    0    0    0    0    0
    0    0    0    0    0   -2    2    3   -3   -6  -91   67
   24    4    6   -3   14   61  -76   -2    0   -2   41   14
  -45   -2    3   -3   -1   -2    3   -1   -2   -3 -223  209
  -10    3   -4   -2    1   -5   31  108 -110   50  -57 -165
  192    6    7   -5    5    2    6   -6    1   90   21  -78
    4   50  -46    3    3   -4    2    0    7  -78   68    9
   -6   -5    9   -6   -5   -3   13   -3  -17   58  -25  -46
  -44  -55  -41  -38  -45  -30  -86   74   19   -4   -3    2
   -9    5    1    6   15  -20   43  -43  -10    2    2   -2
   -2    2    1 -257  309   -1    2   -1    5    2   -5    3
   -5  110  -24  -63   52 -112  -76  152   -2   -3    1    1
    2   -1   66   24 -100   40  -23  -11    0    0    0    0
    0    0    0    0    0    0    0    0    0    0    0    0
    0    0    0    0    0    0    0    0    0    0    0    0
    0    0    0    0    0    0    0    0    0    0    0    0
    0    0    0    0    0    0    0    0    0    0    0    0
    0    0    0    0    0    0    0    0    0    0    0    0
    0    0    0    0    0    0    0    0    0    0    0    0
    0    0    0    0    0    0    0    0    0    0    0    0
    0    0    0    0    0    0    0    0    0    0    0    0
    0    0    0    0    0    0    0    0    0    0    0    0
    0    0    0    0    0    0    0    0    0    0    0    0
    0    0    0    0    0    0    0    0    0    0    0    0
    0    0    0    0    0    0    0    0    0    0    0    0
    0    0    0    0    0    0    0    0    0    0    0    0
    0    0    0    0    0    0    0    0    0    0    0    0
    0    0    0    0    0    0    0    0    0    0    0 -255
 -255    0    0    0    0    0    0    0    0    0    0    0
    0    0    0    0    0    0    0    0    0    0    0    0
    0    0    0    0    0    0    0    0    0    0    0    0
    0    0    0   -1   -2    2    2   -4  -38  -33  -50   94
    3   -8    1   -3    2   20   45  -75   -4    5   -7   29
   22  -55   -3    4   -3    4   -4    0   -2  -57  -70  130
  -12    8    1   -2    1   -8  135  -81  -30   14  -23 -172
  178   13   -5   -1   -3    1   -4    3    2    7  153 -125
   -4   34  -21   -7   -3    3    1    2  -45   13   34    0
   -1    3   -4   -1    2   14   15  -28   46  -18  -83   -1
   61   66   29   21   46   36  -15 -113   69    7    7  -12
    7   -5   -4    0   11   -9   -4   67  -52   -5    3   -1
   -1    0  -60  -71  151   -4   -2    1    0   -3    1    0
  -11   92   16  -72   15   11 -272  285  -10   11  -11   -2
    1   -1   23  156 -179   31   -4  -17    0    0    0    0
    0    0    0    0    0    0    0    0    0    0    0    0
    0    0    0    0    0    0    0    0    0    0    0    0
    0    0    0    0    0    0    0    0    0    0    0    0
    0    0    0    0    0    0    0    0    0    0    0    0
    0    0    0    0    0    0    0    0    0    0    0    0
    0    0    0    0    0    0    0    0    0    0    0    0
    0    0    0    0    0    0    0    0    0    0    0    0
    0    0    0    0    0    0    0    0    0    0    0    0
    0    0    0    0    0    0    0    0    0    0    0    0
    0    0    0    0    0    0    0    0    0    0    0    0
    0    0    0    0    0    0    0    0    0    0    0    0
    0    0    0    0    0    0    0    0    0    0    0    0
    0    0    0    0    0    0    0    0    0    0    0    0
    0    0    0    0    0    0    0    0    0    0    0    0
    0    0    0    0    0    0    0    0    0    0    0 -255
 -255    0    0    0    0    0    0    0    0    0    0    0
    0    0    0    0    0    0    0    0    0    0    0    0
    0    0    0    0    0    0    0    0    0    0    0    0
    0    0   -1    2    0    1  -21  -58   39    5   27   18
    1    5   -1    1   -6    8   16   71  -77   -9    6   -1
   25   41  -62  -11    4   -5    8   -5    2 -123   82   56
   -2   -2   -3   -2   -1   16  176 -199   61  -33   -7 -151
  179   16    3    1   -4    4   -1   -8    9    6  113 -102
  -12   34  -23   -8    2   -4   -1  -23  -58   65    1    2
    6  -12   10    0    8    7  -21   37   18  -86   20   46
    3    7   11   21   -6   -1   48  -28  -94   93    6    2
    1    0    2   -1    3   26  -25   11   17  -41   -1    0
   -2    6 -114   64   83    1    0   -5    2   -4    7   -2
   -5  122  -44  -48   31  -10 -110  -24  116   -8    9    0
    1   -4   -5  176 -151    8    6  -23    0    0    0    0
    0    0    0    0    0    0    0    0    0    0    0    0
    0    0    0    0    0    0    0    0    0    0    0    0
    0    0    0    0    0    0    0    0    0    0    0    0
    0    0    0    0    0    0    0    0    0    0    0    0
    0    0    0    0    0    0    0    0    0    0    0    0
    0    0    0    0    0    0    0    0    0    0    0    0
    0    0    0    0    0    0    0    0    0    0    0    0
    0    0    0    0    0    0    0    0    0    0    0    0
    0    0    0    0    0    0    0    0    0    0    0    0
    0    0    0    0    0    0    0    0    0    0    0    0
    0    0    0    0    0    0    0    0    0    0    0    0
    0    0    0    0    0    0    0    0    0    0    0    0
    0    0    0    0    0    0    0    0    0    0    0    0
    0    0    0    0    0    0    0    0    0    0    0    0
    0    0    0    0    0    0    0    0    0    0    0 -255
 -255    0    0    0    0    0    0    0    0    0    0    0
    0    0    0    0    0    0    0    0    0    0    0    0
    0    0    0    0    0    0    0    0    0    0    0    0
    0    0   -1    0    5  -30  -14   32  -54  -51   25    5
    0   -5   -1    7   -1    2    2   13   63  -67  -20   -2
   -1   14   56  -46  -26    3   -6    5    3 -189  187   13
    2    3   -2    2   -2   80  -36  -45   17  -26   -6  -85
   -5   99   -8    4    6   -9    5   -2    5   -2  117  -97
  -17   40  -39   -3    4    6  -14  -60   85   -3   -3   -3
   -6    8  -10    7   15  -13   40   -8  -56  -45   68    0
   -4   -2  -10    3   22  -19    6   51  -49  -86   77    6
    3   -2   -3    0    1   -4   21  -21   33   -8  -23    0
   -1   -2 -140  116   51   -6    0    5   -1    3   -9   -1
    2  224 -206   -2   33  -18  -30 -209  184    7    2   -4
    1    1   -3  126  -94  -26   19  -30    0    0    0    0
    0    0    0    0    0    0    0    0    0    0    0    0
    0    0    0    0    0    0    0    0    0    0    0    0
    0    0    0    0    0    0    0    0    0    0    0    0
    0    0    0    0    0    0    0    0    0    0    0    0
    0    0    0    0    0    0    0    0    0    0    0    0
    0    0    0    0    0    0    0    0    0    0    0    0
    0    0    0    0    0    0    0    0    0    0    0    0
    0    0    0    0    0    0    0    0    0    0    0    0
    0    0    0    0    0    0    0    0    0    0    0    0
    0    0    0    0    0    0    0    0    0    0    0    0
    0    0    0    0    0    0    0    0    0    0    0    0
    0    0    0    0    0    0    0    0    0    0    0    0
    0    0    0    0    0    0    0    0    0    0    0    0
    0    0    0    0    0    0    0    0    0    0    0    0
    0    0    0    0    0    0    0    0    0    0    0 -255
 -255    0    0    0    0    0    0    0    0    0    0    0
    0    0    0    0    0    0    0    0    0    0    0    0
    0    0    0    0    0    0    0    0    0    0    0    0
    0    0   -1    2  -17  -36   -2   -9   62   53   10    0
    4    0    9  -14    5   -5    4   -5   13   71  -47  -42
    3   -5    6   65  -18  -50   -4   -1  -18 -130  145    2
    0   -5    8   -6    5  154 -127   30  -50   -8    8  -29
 -163  178    6   -1   -1    4   -1   -1   -2   11  114  -97
  -10   59  -39    9   -5   -6  -87   70    6    7   -5   -1
    4   -5   13   21  -19   45   -7  -36  -47   66    4    5
    0   -4    5    2    3    7  -11   18    7  -29  -62   82
   -2    9   -7    7   -5    1   10   16  -17   52  -51   -7
    4   -2 -125   93   66    3   -1   -1    0    0    1   -1
   48   80 -123    3   43  -34   -2 -168  203   32   -3   -3
    1    0   -2   87  -27  -65   48  -45    0    0    0    0
    0    0    0    0    0    0    0    0    0    0    0    0
    0    0    0    0    0    0    0    0    0    0    0    0
    0    0    0    0    0    0    0    0    0    0    0    0
    0    0    0    0    0    0    0    0    0    0    0    0
    0    0    0    0    0    0    0    0    0    0    0    0
    0    0    0    0    0    0    0    0    0    0    0    0
    0    0    0    0    0    0    0    0    0    0    0    0
    0    0    0    0    0    0    0    0    0    0    0    0
    0    0    0    0    0    0    0    0    0    0    0    0
    0    0    0    0    0    0    0    0    0    0    0    0
    0    0    0    0    0    0    0    0    0    0    0    0
    0    0    0    0    0    0    0    0    0    0    0    0
    0    0    0    0    0    0    0    0    0    0    0    0
    0    0    0    0    0    0    0    0    0    0    0    0
    0    0    0    0    0    0    0    0    0    0    0 -255
 -255    0    0    0    0    0    0    0    0    0    0    0
    0    0    0    0    0    0    0    0    0    0    0    0
    0    0    0    0    0    0    0    0    0    0   -2   -1
    0   -1   -1  -11 -118   -1   79   31    2   -3    0   -3
    1   -2   -8    6   -3   -3    4    2   -7    2   54   18
  -75    0   -4   -1   27   59  -53  -31  -52 -113  129   10
   -8    8    0   -7   54  101 -101   19  -27    4   -4    3
 -168  207   47   -3    0   -2   -4   -3   11   -2  149 -118
   39  -37   -9    0   -4  -80   82   13   -2    2   -2    8
   -1   11   12  -16   64  -46  -26   -2  -39   46    4    2
    0    0    3   -2    1   15  -14   14   21  -27  -15  -83
   85   18    1   -5    4   -5    3    6    6  -17   65  -69
   -2   -2  -82    5  126   -8   -1    0    0   -1    3   -7
  185 -111  -37    6   35  -37   -5  -32 -230  267   -9   -1
    1   -1    5   35   78 -123   37  -33   -6   -1    0    0
    0    0    0    0    0    0    0    0    0    0    0    0
    0    0    0    0    0    0    0    0    0    0    0    0
    0    0    0    0    0    0    0    0    0    0    0    0
    0    0    0    0    0    0    0    0    0    0    0    0
    0    0    0    0    0    0    0    0    0    0    0    0
    0    0    0    0    0    0    0    0    0    0    0    0
    0    0    0    0    0    0    0    0    0    0    0    0
    0    0    0    0    0    0    0    0    0    0    0    0
    0    0    0    0    0    0    0    0    0    0    0    0
    0    0    0    0    0    0    0    0    0    0    0    0
    0    0    0    0    0    0    0    0    0    0    0    0
    0    0    0    0    0    0    0    0    0    0    0    0
    0    0    0    0    0    0    0    0    0    0    0    0
    0    0    0    0    0    0    0    0    0    0    0    0
    0    0    0    0    0    0    0    0    0    0    0 -255
 -255    0    0    0    0    0    0    0    0    0    0    0
    0    0    0    0    0    0    0    0    0    0    0    0
    0    0    0    0    0    0    0    0   -1   -4    7    1
   -2    4  -25 -104   89   67   -5   -1    2    0    2   -3
    1    1    2    0    1    1   -1    0    2    9   -9   39
   39  -49  -42   -3   -2    3   52   17 -163   35   71   -7
    2   -2    1    8  178 -205   48  -57    0   -1   -1    1
  -12 -267  265   16   10   -1   -2    2   -6   92   72  -44
   18  -35    3   -5  -77   50   18   -1   -4   -1    0   -7
   17    6   25   30  -61  -10    3   -7  -35   41    3   -4
   -3    3    0    0    0   17  -13    5   28  -29   -2   -7
  -76   39   52   -8   -4    2    0   -2   13    4   -6   49
  -55    2  -10 -255  320   -2    2    0   -1   -2   -3  146
   39 -137    0   45  -25   -8    9   -2 -169  104   58    4
   -5    1   -2   -1  204 -232   29    0  -19    4   -2    0
    0    0    0   -1    0    0    0    0    0    0    0    0
    0    0    0    0    0    0    0    0    0    0    0    0
    0    0    0    0    0    0    0    0    0    0    0    0
    0    0    0    0    0    0    0    0    0    0    0    0
    0    0    0    0    0    0    0    0    0    0    0    0
    0    0    0    0    0    0    0    0    0    0    0    0
    0    0    0    0    0    0    0    0    0    0    0    0
    0    0    0    0    0    0    0    0    0    0    0    0
    0    0    0    0    0    0    0    0    0    0    0    0
    0    0    0    0    0    0    0    0    0    0    0    0
    0    0    0    0    0    0    0    0    0    0    0    0
    0    0    0    0    0    0    0    0    0    0    0    0
    0    0    0    0    0    0    0    0    0    0    0    0
    0    0    0    0    0    0    0    0    0    0    0    0
    0    0    0    0    0    0    0    0    0    0    0 -255
 -255    0    0    0    0    0    0    0    0    0    0    0
    0    0    0    0    0    0    0    0    0    0    0    0
    0    0    0    0    0    0    0   -1    2    6   -5    3
   -1  -12  -52  214   16   -7    0    6   -9    4   -3    3
    0    0    0    0    0    0    0    1   -2  -10    8   -6
   18   65    9  -61  -30    4    1   19 -172  212   -4    2
    0   -4    5   54   33  -40  -35  -10   -1   -1   -3    6
   -1  -30 -230  285   92   14  -11   -4   89  239 -191  -17
  -36    0   -4  -77   54   29    7   -3   -1    2    7   18
   16   37  -28  -40    2    3   -5    0  -33   43   -1    3
    3   -7   -1    0    1    8  -16   13   19  -27    3   -2
   -1  -67    8   72    9   -3   -7    5    0   18   -3    4
   24  -46    2  -74 -121  265   21  -20   -9   31  169   89
 -206    7   28   27  -41    2   -6    7  -40 -178  215    0
    0   -1    4   -8  115  -58  -49   21  -28   -2    4   -1
    0    0   -2    4   -1    0    0    0    0    0    0    0
    0    0    0    0    0    0    0    0    0    0    0    0
    0    0    0    0    0    0    0    0    0    0    0    0
    0    0    0    0    0    0    0    0    0    0    0    0
    0    0    0    0    0    0    0    0    0    0    0    0
    0    0    0    0    0    0    0    0    0    0    0    0
    0    0    0    0    0    0    0    0    0    0    0    0
    0    0    0    0    0    0    0    0    0    0    0    0
    0    0    0    0    0    0    0    0    0    0    0    0
    0    0    0    0    0    0    0    0    0    0    0    0
    0    0    0    0    0    0    0    0    0    0    0    0
    0    0    0    0    0    0    0    0    0    0    0    0
    0    0    0    0    0    0    0    0    0    0    0    0
    0    0    0    0    0    0    0    0    0    0    0    0
    0    0    0    0    0    0    0    0    0    0    0 -255
 -255    0    0    0    0    0    0    0    0    0    0    0
    0    0    0    0    0    0    0    0    0    0    0    0
    0    0    0    0    0    0    0    0   -3    2   -2   -2
   -2    1  -29  -63  151   10    2   -3    3   -2   -1   -2
    1    0    0    0    0    0    0    0    2    6   -4    8
   -4    1   27   53   11  -86  -19  -59  -47  107    0   -6
    5   -4    0  229 -155   -3  -31    2    1    2    2   -4
    1    0  -34 -211  -13  219  222  252   51 -217  -35  -10
   -1   -7  -85   66   23   -1  -12    4    2   19   22   47
  -14  -41  -16    0   -1   -3    4   -6  -48   53    1   -3
    1    3   -3    2    3   20  -17   15   22  -28   -1   -2
    0    5  -38  -61   65   44   11   -9    1   -6   23    7
   13    7  -48    6 -122 -150  244  249  235  156 -126 -146
   14   34   31  -52    2   -3    0   -3    3 -163  110  102
   -4    2   -4    7   19  167 -149   25  -30   -1   -1    0
    0   -1    3   -2    0    0    0    0    0    0    0    0
    0    0    0    0    0    0    0    0    0    0    0    0
    0    0    0    0    0    0    0    0    0    0    0    0
    0    0    0    0    0    0    0    0    0    0    0    0
    0    0    0    0    0    0    0    0    0    0    0    0
    0    0    0    0    0    0    0    0    0    0    0    0
    0    0    0    0    0    0    0    0    0    0    0    0
    0    0    0    0    0    0    0    0    0    0    0    0
    0    0    0    0    0    0    0    0    0    0    0    0
    0    0    0    0    0    0    0    0    0    0    0    0
    0    0    0    0    0    0    0    0    0    0    0    0
    0    0    0    0    0    0    0    0    0    0    0    0
    0    0    0    0    0    0    0    0    0    0    0    0
    0    0    0    0    0    0    0    0    0    0    0    0
    0    0    0    0    0    0    0    0    0    0    0 -255
 -255    0    0    0    0    0    0    0    0    0    0    0
    0    0    0    0    0    0    0    0    0    0    0    0
    0    0    0    0    0    0    0   -1    4   -3    3    2
    3   -2   -4  -39 -132  108   45    2    1   -4    4   -3
    1    0    0    0    0    0    0    2   -8    3    0   -1
   -4   -1    5   -3   25   87  -20 -156   99   24    0    1
    4   -1  131 -107  -52  -79  -13    1    2   -3    3   -3
    3   -2   -2   -9  -86 -170 -175 -184 -102  -10    1    2
  -16  -72   67   21   -5   -1    5   23   55   27   -1  -56
  -24    4   -3    0   -1    4   -3    4  -43   53    9    2
    0    0   -7    7    8   -6   -6   30  -11  -10   -2    2
    2   -3   -1  -12  -66   -8   59   43   -8    6  -10    8
    3   20   13  -49    2  -56 -182 -206 -148 -120   11   42
   41    1  -48   -3    1    2   -2   -1    3   -4 -300  257
    8   -9    7   -3    7  141 -145   30  -47   -2    0    0
    0   -1    3   -1    0    0    0    0    0    0    0    0
    0    0    0    0    0    0    0    0    0    0    0    0
    0    0    0    0    0    0    0    0    0    0    0    0
    0    0    0    0    0    0    0    0    0    0    0    0
    0    0    0    0    0    0    0    0    0    0    0    0
    0    0    0    0    0    0    0    0    0    0    0    0
    0    0    0    0    0    0    0    0    0    0    0    0
    0    0    0    0    0    0    0    0    0    0    0    0
    0    0    0    0    0    0    0    0    0    0    0    0
    0    0    0    0    0    0    0    0    0    0    0    0
    0    0    0    0    0    0    0    0    0    0    0    0
    0    0    0    0    0    0    0    0    0    0    0    0
    0    0    0    0    0    0    0    0    0    0    0    0
    0    0    0    0    0    0    0    0    0    0    0    0
    0    0    0    0    0    0    0    0    0    0    0 -255
 -255    0    0    0    0    0    0    0    0    0    0    0
    0    0    0    0    0    0    0    0    0    0    0    0
    0    0    0    0    0    0    0    0   -1    0   -2   -2
   -1   -1    2    3  -10 -136   71   62   -9    5   -4    2
    0    0    0    0    0    0    0    0    5   -8    3    0
    1    2   -5    6    2   -6   19  -54   97    1    1   -3
   -7   49  138 -133    7   33   -7  -58  -35  -29  -28  -16
  -17  -13  -11    0   -6   -4   -6   -5   -8   -8  -11  -32
  -68   82    2    6   27   36   71   11  -53  -40  -24   -4
    3   -4    4   -1   -1   -1   -1   -1   -8  -72   93  -12
   -2    2    6   -6   24  -13    3   58  -45   -3   -1    3
   -4   -1   -1    3   -2  -25  -68  -16   85   30   27    8
    6   23    2    9  -46   -2    3   -8  -20  -27  -35  -30
  -35  -21    2    2    1    0    3   -2   -3    7  -64 -121
  231   -3   -6   -5    3   98  -73  -30  -14  -15    0    0
   -1    0   -1    0    0    0    0    0    0    0    0    0
    0    0    0    0    0    0    0    0    0    0    0    0
    0    0    0    0    0    0    0    0    0    0    0    0
    0    0    0    0    0    0    0    0    0    0    0    0
    0    0    0    0    0    0    0    0    0    0    0    0
    0    0    0    0    0    0    0    0    0    0    0    0
    0    0    0    0    0    0    0    0    0    0    0    0
    0    0    0    0    0    0    0    0    0    0    0    0
    0    0    0    0    0    0    0    0    0    0    0    0
    0    0    0    0    0    0    0    0    0    0    0    0
    0    0    0    0    0    0    0    0    0    0    0    0
    0    0    0    0    0    0    0    0    0    0    0    0
    0    0    0    0    0    0    0    0    0    0    0    0
    0    0    0    0    0    0    0    0    0    0    0    0
    0    0    0    0    0    0    0    0    0    0    0 -255
 -255    0    0    0    0    0    0    0    0    0    0    0
    0    0    0    0    0    0    0    0    0    0    0    0
    0    0    0    0    0    0    0    0    0   -1    2    3
   -1   -1    3   -4    3    2 -109   21   90    3   -4    2
    0    0    0    0    0    0    0    1   -4    5   -4    2
    2   -3    0   -5    3    8  -44  -38   58    5    4   -2
   22  161 -268  -47  -12    3   18   50   26   17   17    1
  -11  -12  -23  -27  -35  -32  -39  -32  -26  -34  -34  -24
   87   35   62   58    5  -28  -63  -32  -10    2   -3    3
    2   -1   -1   -1    4   -2    3   -4    8  -30  -24   86
   12   -1   15   28   -7    8   64  -55   -7    3   -1   -3
    7    2   -2    2   -1   -1    3  -26  -67  -13    6   56
   51   22   29   24   15  -59    1   -1   -3    3   -4   -5
    2   -2    3   -2   -2    3   -3    4   -1   -5    3 -177
   44  131   -4    2    1   14  199 -219   52  -40   -1   -1
    4   -1    0    0    0    0    0    0    0    0    0    0
    0    0    0    0    0    0    0    0    0    0    0    0
    0    0    0    0    0    0    0    0    0    0    0    0
    0    0    0    0    0    0    0    0    0    0    0    0
    0    0    0    0    0    0    0    0    0    0    0    0
    0    0    0    0    0    0    0    0    0    0    0    0
    0    0    0    0    0    0    0    0    0    0    0    0
    0    0    0    0    0    0    0    0    0    0    0    0
    0    0    0    0    0    0    0    0    0    0    0    0
    0    0    0    0    0    0    0    0    0    0    0    0
    0    0    0    0    0    0    0    0    0    0    0    0
    0    0    0    0    0    0    0    0    0    0    0    0
    0    0    0    0    0    0    0    0    0    0    0    0
    0    0    0    0    0    0    0    0    0    0    0    0
    0    0    0    0    0    0    0    0    0    0    0 -255
 -255    0    0    0    0    0    0    0    0    0    0    0
    0    0    0    0    0    0    0    0    0    0    0    0
    0    0    0    0    0    0    0    0    0   -1    3   -2
    0    0   -3    4   -2   -1   -2  -99   16   75   -6   -3
    1    0    0    0    0    0    0    0    3   -4    3   -2
   -2    5   -2    2   -1   -2 -122  136    2   -4   -4   -1
  122 -102   50   16  -14  -48  -43  -42  -35  -31  -29  -26
  -17   -7  -10   -4   -4   -2    0   -2  -13   26   59   89
   28    1  -63  -53  -28  -17    3   -3    4   -3    4   -2
   -1    0   -1    0   -1   -2    2    3   -4    0  -34  -56
   63   53   30   10   36   27  -61   -7    2    2   -1   -1
   -2   -1   -2    3   -2    0   -3    4   -3  -19  -30  -52
  -64   29   38   67   56   58  -51   -5    4   -4    3    2
    0   -2   -1    0    0   -2    0   -1   -2    8   -6    0
 -258  242   56   -1   -5    1  139  -78   -9  -34   -2   -1
   -1    0    0    0    0    0    0    0    0    0    0    0
    0    0    0    0    0    0    0    0    0    0    0    0
    0    0    0    0    0    0    0    0    0    0    0    0
    0    0    0    0    0    0    0    0    0    0    0    0
    0    0    0    0    0    0    0    0    0    0    0    0
    0    0    0    0    0    0    0    0    0    0    0    0
    0    0    0    0    0    0    0    0    0    0    0    0
    0    0    0    0    0    0    0    0    0    0    0    0
    0    0    0    0    0    0    0    0    0    0    0    0
    0    0    0    0    0    0    0    0    0    0    0    0
    0    0    0    0    0    0    0    0    0    0    0    0
    0    0    0    0    0    0    0    0    0    0    0    0
    0    0    0    0    0    0    0    0    0    0    0    0
    0    0    0    0    0    0    0    0    0    0    0    0
    0    0    0    0    0    0    0    0    0    0    0 -255
 -255    0    0    0    0    0    0    0    0    0    0    0
    0    0    0    0    0    0    0    0    0    0    0    0
    0    0    0    0    0    0    0    0    0    0   -1    0
    0   -1    4   -2    0   -1    2   -3 -100   33   72   -2
   -1    0    1    0    0    1   -1    2   -4    2    0   -3
   -1   -6   -2    0    4  -34  -30   63    1   -1   -4  123
  -57  -46    0   16   35   39   50   36   34   35   34   32
   30   26   28   28   33   32   36   31  126   88  -38  -64
  -36  -27   -2    2   -3    4   -3    4   -2    0   -1    0
    0   -1    4   -1   -1    4   -2   -2    4   -2    4  -12
  -45  -45  -39  -37  -31  -26   -2    7    1   -2   -1    4
   -1   -1    4   -3    4   -2    4   -3    4   -2    3   -3
   -2  -36  -41  -44  -29   27   76  -18   -4    4   -2   -3
    6    2   -1    0   -1    4   -1    0    0   -4    8   -3
  -13 -308  289   24    1   -6   36  119 -116   -3  -19   -2
   -1   -1    0    0    0    0    0    0    0    0    0    0
    0    0    0    0    0    0    0    0    0    0    0    0
    0    0    0    0    0    0    0    0    0    0    0    0
    0    0    0    0    0    0    0    0    0    0    0    0
    0    0    0    0    0    0    0    0    0    0    0    0
    0    0    0    0    0    0    0    0    0    0    0    0
    0    0    0    0    0    0    0    0    0    0    0    0
    0    0    0    0    0    0    0    0    0    0    0    0
    0    0    0    0    0    0    0    0    0    0    0    0
    0    0    0    0    0    0    0    0    0    0    0    0
    0    0    0    0    0    0    0    0    0    0    0    0
    0    0    0    0    0    0    0    0    0    0    0    0
    0    0    0    0    0    0    0    0    0    0    0    0
    0    0    0    0    0    0    0    0    0    0    0    0
    0    0    0    0    0    0    0    0    0    0    0 -255
 -255    0    0    0    0    0    0    0    0    0    0    0
    0    0   -1    0   -1    0    0    0    0    0    0    0
    0    0    0    0    0    0    0    0    0    0    0    0
    0    0   -1    0   -1   -2    5    0    3 -117   71   32
    5    1   -4    2    2   -6    7   -4    3   -1    3    3
    5    1    7   -3    4  -84   57   20    6   -1  106  -14
  -83    3   -4   -3    1   -4    0    5    6    5    5   13
   -1   17    5   16    0    2   55  119  -18  -88  -22    3
   -2    0   -1   -1    0   -1    0   -1    0    0    0    0
    0    0   -1    0    0   -1    0    0   -1    0   -1    0
    0   -1   -1    0   -1    0    0   -2   -1    0    0   -1
    0    0   -1    0   -1    0   -1    0   -1    0   -1    0
   -1    0   -2   -5  -11  -24  -26   -2    0   -1    0    0
   -2   -1    0    0    0   -1    0    0    0    0   -2   -1
    4  -36 -264  313   17    1    1  171 -199   19  -38    7
    1    3   -1    0    0    0    0    0    0    0    0    0
    0    0    0    0    0    0    0    0    0    0    0    0
    0    0    0    0    0    0    0    0    0    0    0    0
    0    0    0    0    0    0    0    0    0    0    0    0
    0    0    0    0    0    0    0    0    0    0    0    0
    0    0    0    0    0    0    0    0    0    0    0    0
    0    0    0    0    0    0    0    0    0    0    0    0
    0    0    0    0    0    0    0    0    0    0    0    0
    0    0    0    0    0    0    0    0    0    0    0    0
    0    0    0    0    0    0    0    0    0    0    0    0
    0    0    0    0    0    0    0    0    0    0    0    0
    0    0    0    0    0    0    0    0    0    0    0    0
    0    0    0    0    0    0    0    0    0    0    0    0
    0    0    0    0    0    0    0    0    0    0    0    0
    0    0    0    0    0    0    0    0    0    0    0 -255
 -255    0    0    0    0    0    0    0    0    0    0    0
   -1   -1    4   -2    4   -1    0    0   -1    0    0    0
    0    0    0    0    0    0    0    0    0    0    0    0
    0    0    0   -1    3   -2    2   -5    9   -5 -141  133
    5   -2    1   -2   -4    8   -5   -1   -3    3   -2    2
   -5   -3  -10    6  -14 -115  110   -6   -9  116  -41  -83
    4    2    5   -1   -1    6    3   -5    7   -5    4   -6
   11   -2   -5   -3   38  115   27 -137  -34   -2    0   -2
    0    0    0    0    0    0    0    0    0    0    0    0
    0    0    0    0    0    0    0    0    0    0    0    0
    0    0    0    0    0    0    0    0    0    0    0    0
    0    0    0    0    0    0    0    0    0    0    0    0
    0    0    0    0    0    0    0    0    0    0    0    0
    0    0    0    0    0    0    0    0    0    0    0    0
   -4    7  -45 -307  325   23   -7   56  114 -118  -42   -8
   -1   -1    0   -1    0    0    0    0    0    0    0    0
    0    0    0    0    0    0    0    0    0    0    0    0
    0    0    0    0    0    0    0    0    0    0    0    0
    0    0    0    0    0    0    0    0    0    0    0    0
    0    0    0    0    0    0    0    0    0    0    0    0
    0    0    0    0    0    0    0    0    0    0    0    0
    0    0    0    0    0    0    0    0    0    0    0    0
    0    0    0    0    0    0    0    0    0    0    0    0
    0    0    0    0    0    0    0    0    0    0    0    0
    0    0    0    0    0    0    0    0    0    0    0    0
    0    0    0    0    0    0    0    0    0    0    0    0
    0    0    0    0    0    0    0    0    0    0    0    0
    0    0    0    0    0    0    0    0    0    0    0    0
    0    0    0    0    0    0    0    0    0    0    0    0
    0    0    0    0    0    0    0    0    0    0    0 -255
 -255    0    0    0    0    0    0    0    0   -1   -2  -12
    3   -1   -2    0   -2    0    0   -1    4   -1    0    0
    0    0    0    0    0    0    0    0    0    0    0    0
    0    0    0   -1    2   -1   -1   -1   -2    6  -13 -125
  129   -6    9   -5    3   -5    2    1    3   -9    9    1
   53   35   13    6 -100  113   14   -5  146  -41  -77    6
   -1    3   -7    5    1  -11    6   -2   -6    6   -5    0
    0    7   49  134   10  -88  -66    5    3   -6   10   -4
    0    0    0    0    0    0    0    0    0    0    0    0
    0    0    0    0    0    0    0    0    0    0    0    0
    0    0    0    0    0    0    0    0    0    0    0    0
    0    0    0    0    0    0    0    0    0    0    0    0
    0    0    0    0    0    0    0    0    0    0    0    0
    0    0    0    0    0    0    0    0    0    0    0   -1
    3   -1    3  -44 -258  276   71  -15  192 -131    2  -29
   -2    0   -1    4   -1    0    0    0    0    0    0    0
    0    0    0    0    0    0    0    0    0    0    0    0
    0    0    0    0    0    0    0    0    0    0    0    0
    0    0    0    0    0    0    0    0    0    0    0    0
    0    0    0    0    0    0    0    0    0    0    0    0
    0    0    0    0    0    0    0    0    0    0    0    0
    0    0    0    0    0    0    0    0    0    0    0    0
    0    0    0    0    0    0    0    0    0    0    0    0
    0    0    0    0    0    0    0    0    0    0    0    0
    0    0    0    0    0    0    0    0    0    0    0    0
    0    0    0    0    0    0    0    0    0    0    0    0
    0    0    0    0    0    0    0    0    0    0    0    0
    0    0    0    0    0    0    0    0    0    0    0    0
    0    0    0    0    0    0    0    0    0    0    0    0
    0    0    0    0    0    0    0    0    0    0    0 -255
 -255    0    0    0    0    0    0    0   -1    2  -12    3
  -37   -4    4   -2    4   -1   -1    0   -1    0    0    0
    0    0    0    0    0    0    0    0    0    0    0    0
    0    0    0   -1    2   -2    0   -1    2   -1    2  -46
  -43   94    0    0    0    0    2    1    0    1    4    9
 -107   -6   48   47  -64   77   46  145  -90  -72    5  -10
    0    3   -1   -3   -4    3   -4   -8    1    9   29   72
   76   94    9 -135  -53   -5   -3    1    0   -2    0    3
   -1    0    0    0    0    0    0    0    0    0    0    0
    0    0    0    0    0    0    0    0    0    0    0    0
    0    0    0    0    0    0    0    0    0    0    0    0
    0    0    0    0    0    0    0    0    0    0    0    0
    0    0    0    0    0    0    0    0    0    0    0    0
    0    0    0    0    0    0    0    0    0    0    0    0
   -3    3   -2    0  -28 -325  222  161   32   89 -107  -33
   -1   -2   -1   -1    0    0    0    0    0    0    0    0
    0    0    0    0    0    0    0    0    0    0    0    0
    0    0    0    0    0    0    0    0    0    0    0    0
    0    0    0    0    0    0    0    0    0    0    0    0
    0    0    0    0    0    0    0    0    0    0    0    0
    0    0    0    0    0    0    0    0    0    0    0    0
    0    0    0    0    0    0    0    0    0    0    0    0
    0    0    0    0    0    0    0    0    0    0    0    0
    0    0    0    0    0    0    0    0    0    0    0    0
    0    0    0    0    0    0    0    0    0    0    0    0
    0    0    0    0    0    0    0    0    0    0    0    0
    0    0    0    0    0    0    0    0    0    0    0    0
    0    0    0    0    0    0    0    0    0    0    0    0
    0    0    0    0    0    0    0    0    0    0    0    0
    0    0    0    0    0    0    0    0    0    0    0 -255
 -255    0    0    0    0    0    0    0    0  -10  -29   65
   35  -58  -19   -1   -2   -1    4   -1    0    0    0    0
    0    0    0    0    0    0    0    0    0    0    0    0
    0    0    0   -1    2    2   -2   -1   -3    2    0    7
  -92   35   31    1   -1    5   -8   -1    0    7    9   46
  -55  -29   -4 -359  146  184  117  -86   78   88   71   67
   53   46   52   53   57   59   66   81  104   85   31  -56
  -74  -81  -47    2    2   -4    0   -3    2   -2   -2   -2
    0    0    0    0    0    0    0    0    0    0    0    0
    0    0    0    0    0    0    0    0    0    0    0    0
    0    0    0    0    0    0    0    0    0    0    0    0
    0    0    0    0    0    0    0    0    0    0    0    0
    0    0    0    0    0    0    0    0    0    0    0    0
    0    0    0    0    0    0    0    0    0    0    0   -1
    4   -2    0   -1    1    4 -236  -65  277  225 -157  -49
  -19    3    3   -1    0    0    0    0    0    0    0    0
    0    0    0    0    0    0    0    0    0    0    0    0
    0    0    0    0    0    0    0    0    0    0    0    0
    0    0    0    0    0    0    0    0    0    0    0    0
    0    0    0    0    0    0    0    0    0    0    0    0
    0    0    0    0    0    0    0    0    0    0    0    0
    0    0    0    0    0    0    0    0    0    0    0    0
    0    0    0    0    0    0    0    0    0    0    0    0
    0    0    0    0    0    0    0    0    0    0    0    0
    0    0    0    0    0    0    0    0    0    0    0    0
    0    0    0    0    0    0    0    0    0    0    0    0
    0    0    0    0    0    0    0    0    0    0    0    0
    0    0    0    0    0    0    0    0    0    0    0    0
    0    0    0    0    0    0    0    0    0    0    0    0
    0    0    0    0    0    0    0    0    0    0    0 -255
 -255    0    0    0    0    0    0    0   -2  -17    1   18
   18   52  -13  -50   -6   -2   -1    0    0    0    0    0
    0    0    0    0    0    0    0    0    0    0    0    0
    0    0    0    0   -2    1   -1    1    3   -2   -1   -4
   -1 -109  132   -6    1    2    3   -2    0   -6   -1   42
  -23  -17  -71   93  341  -58 -211  -81  -95  -71  -58  -47
  -11   -9  -16  -11  -14  -22  -35  -55 -103  -83  -54  -25
   -4   -2   -2    2    0    3   -3    3    1    2    2    3
   -1    0    0    0    0    0    0    0    0    0    0    0
    0    0    0    0    0    0    0    0    0    0    0    0
    0    0    0    0    0    0    0    0    0    0    0    0
    0    0    0    0    0    0    0    0    0    0    0    0
    0    0    0    0    0    0    0    0    0    0    0    0
    0    0    0    0    0    0    0    0    0    0    0    0
   -1    0    0   -1    2   -1    1 -126 -174  182  401  -96
  -57   -2   -1   -1    0    0    0    0    0    0    0    0
    0    0    0    0    0    0    0    0    0    0    0    0
    0    0    0    0    0    0    0    0    0    0    0    0
    0    0    0    0    0    0    0    0    0    0    0    0
    0    0    0    0    0    0    0    0    0    0    0    0
    0    0    0    0    0    0    0    0    0    0    0    0
    0    0    0    0    0    0    0    0    0    0    0    0
    0    0    0    0    0    0    0    0    0    0    0    0
    0    0    0    0    0    0    0    0    0    0    0    0
    0    0    0    0    0    0    0    0    0    0    0    0
    0    0    0    0    0    0    0    0    0    0    0    0
    0    0    0    0    0    0    0    0    0    0    0    0
    0    0    0    0    0    0    0    0    0    0    0    0
    0    0    0    0    0    0    0    0    0    0    0    0
    0    0    0    0    0    0    0    0    0    0    0 -255
 -255    0    0    0    0    0    0   -1    4  -38   38    8
   -8    1   27   60  -44  -36  -16    0    0   -2    0    0
    0    0    0    0    0    0    0    0    0    0    0    0
    0    0    0    0   -1   -1    8   -1   -2   -1    0    0
   -3  -39  -42   77   -6    4   -5    5   -8    9   -9   14
   36 -153 -129  170 -233  -80    2    7  -19  -49  -40  -33
  -80  -71  -55  -40  -35  -30  -28  -12   -3    3    1    2
   -5    7   -2   -3    3   -4    4   -2   -1   -1   -1   -2
    0    0    0    0    0    0    0    0    0    0    0    0
    0    0    0    0    0    0    0    0    0    0    0    0
    0    0    0    0    0    0    0    0    0    0    0    0
    0    0    0    0    0    0    0    0    0    0    0    0
    0    0    0    0    0    0    0    0    0    0    0    0
    0    0    0    0    0    0    0    0    0    0    0    0
    0    0    0    0   -2    2   -3    3  -58 -168  -26   92
  -15  -21   -1    3   -1    0    0    0    0    0    0    0
    0    0    0    0    0    0    0    0    0    0    0    0
    0    0    0    0    0    0    0    0    0    0    0    0
    0    0    0    0    0    0    0    0    0    0    0    0
    0    0    0    0    0    0    0    0    0    0    0    0
    0    0    0    0    0    0    0    0    0    0    0    0
    0    0    0    0    0    0    0    0    0    0    0    0
    0    0    0    0    0    0    0    0    0    0    0    0
    0    0    0    0    0    0    0    0    0    0    0    0
    0    0    0    0    0    0    0    0    0    0    0    0
    0    0    0    0    0    0    0    0    0    0    0    0
    0    0    0    0    0    0    0    0    0    0    0    0
    0    0    0    0    0    0    0    0    0    0    0    0
    0    0    0    0    0    0    0    0    0    0    0    0
    0    0    0    0    0    0    0    0    0    0    0 -255
 -255    0    0   -1    0    0    0    0  -71 -184   43   -8
    6   -1   -1    0   47   29   -9  -52  -19    2   -3    0
    0   -1    0    0    0    0    0   -1    0    0    0   -1
    0    0    0    0   -1    0   -1    2   -3    4   -1    0
    0   -2 -103   83    7    4    2   -4    3   -1   -2  -72
 -123   61  380 -173  -36    8   -4  -23  -22   37   36   30
   45   43   -7  -35    1   -3    0   -2    0   -1   -1   -1
    0   -2   -1    4   -3    4   -2    0    0    0   -1    4
   -1    0    0    0    0    0    0    0    0    0    0    0
    0    0    0    0    0    0    0    0    0    0    0    0
    0    0    0    0    0    0    0    0    0    0    0    0
    0    0    0    0    0    0    0    0    0    0    0    0
    0    0    0    0    0    0    0    0    0    0    0    0
    0    0    0    0    0    0    0    0    0    0    0    0
    0    0    0    0   -1    3   -1   -2    3  -12  -68    2
   97  -53   -1    3   -1    0    0    0    0    0    0    0
    0    0    0    0    0    0    0    0    0    0    0    0
    0    0    0    0    0    0    0    0    0    0    0    0
    0    0    0    0    0    0    0    0    0    0    0    0
    0    0    0    0    0    0    0    0    0    0    0    0
    0    0    0    0    0    0    0    0    0    0    0    0
    0    0    0    0    0    0    0    0    0    0    0    0
    0    0    0    0    0    0    0    0    0    0    0    0
    0    0    0    0    0    0    0    0    0    0    0    0
    0    0    0    0    0    0    0    0    0    0    0    0
    0    0    0    0    0    0    0    0    0    0    0    0
    0    0    0    0    0    0    0    0    0    0    0    0
    0    0    0    0    0    0    0    0    0    0    0    0
    0    0    0    0    0    0    0    0    0    0    0    0
    0    0    0    0    0    0    0    0    0    0    0 -255
 -255    0   -1    3   -1    0    0  -70  -30  268 -204 -105
    8    1   -7    7   -5    9   24   55  -13  -33  -36  -19
   -3    4   -2   -2    0    0   -2    4   -1   -1   -1    3
   -1    0   -1    0   -2    7   -3   -2    4   -2    0    0
   -1    0  -34  -36   72   -3   -5    4   -2  -72 -118  -19
  168  270 -187    5  -30   -6  -30 -109   36  -29  -31  -51
  -14    6   42    5  -38    3   -4    3   -1    0    0    0
    0    0    0   -1    0   -1    0    0    0    0    0   -1
    0    0    0    0    0    0    0    0    0    0    0    0
    0    0    0    0    0    0    0    0    0    0    0    0
    0    0    0    0    0    0    0    0    0    0    0    0
    0    0    0    0    0    0    0    0    0    0    0    0
    0    0    0    0    0    0    0    0    0    0    0    0
    0    0    0    0    0    0    0    0    0    0    0    0
    0    0    0    0    0   -1    0    0   -1   -1   -4  -38
   -6   43  -14   -1    0    0    0    0    0    0    0    0
    0    0    0    0    0    0    0    0    0    0    0    0
    0    0    0    0    0    0    0    0    0    0    0    0
    0    0    0    0    0    0    0    0    0    0    0    0
    0    0    0    0    0    0    0    0    0    0    0    0
    0    0    0    0    0    0    0    0    0    0    0    0
    0    0    0    0    0    0    0    0    0    0    0    0
    0    0    0    0    0    0    0    0    0    0    0    0
    0    0    0    0    0    0    0    0    0    0    0    0
    0    0    0    0    0    0    0    0    0    0    0    0
    0    0    0    0    0    0    0    0    0    0    0    0
    0    0    0    0    0    0    0    0    0    0    0    0
    0    0    0    0    0    0    0    0    0    0    0    0
    0    0    0    0    0    0    0    0    0    0    0    0
    0    0    0    0    0    0    0    0    0    0    0 -255
 -255   -1   -1    2   -1    0   -1 -161  179   91  193   38
 -252  -57   -1    3    2   -9    0    2   22   33   41   -5
  -51  -37  -19   -6  -13   -5    4   -2   -2    3   -2    3
   -1   -1    4   -2    0   -2   -1    0   -1   -1   -5  -14
  -14  -28  -41 -135   98    9  -17  -75 -159   47  119   58
   77   -9 -119   53  -48  -28  -65  134   36   40   47   61
  -48  -34   -4   37   -1  -25    7   -1   -1    0    0    0
    0    0    0    0    0    0    0    0    0    0    0    0
    0    0    0    0    0    0    0    0    0    0    0    0
    0    0    0    0    0    0    0    0    0    0    0    0
    0    0    0    0    0    0    0    0    0    0    0    0
    0    0    0    0    0    0    0    0    0    0    0    0
    0    0    0    0    0    0    0    0    0    0    0    0
    0    0    0    0    0    0    0    0    0    0    0    0
    0    0    0    0    0    0    0    0    0    0    0   -1
   -9  -11   -2    0    0    0    0    0    0    0    0    0
    0    0    0    0    0    0    0    0    0    0    0    0
    0    0    0    0    0    0    0    0    0    0    0    0
    0    0    0    0    0    0    0    0    0    0    0    0
    0    0    0    0    0    0    0    0    0    0    0    0
    0    0    0    0    0    0    0    0    0    0    0    0
    0    0    0    0    0    0    0    0    0    0    0    0
    0    0    0    0    0    0    0    0    0    0    0    0
    0    0    0    0    0    0    0    0    0    0    0    0
    0    0    0    0    0    0    0    0    0    0    0    0
    0    0    0    0    0    0    0    0    0    0    0    0
    0    0    0    0    0    0    0    0    0    0    0    0
    0    0    0    0    0    0    0    0    0    0    0    0
    0    0    0    0    0    0    0    0    0    0    0    0
    0    0    0    0    0    0    0    0    0    0    0 -255
 -256    4   -2    2   -2    0   -5 -212  238  -10   -2   97
  194  -47 -197  -90   -9    4    9   -7    2   -5    5   28
   50   32   -1  -20  -12  -34  -45  -32  -20  -15  -15  -15
   -7   -7   -7   -6  -13  -17  -17  -31  -38  -40  -33  -10
   -7   17   39   30 -104 -102  -71   24  142   50   -1   15
  185 -136  -29   39  -36 -121  146    1   -3    2   -2    3
   68   -7  -51    2   52  -50   -7    7   -2    0    0    0
    0    0    0    0    0    0    0    0    0    0    0    0
    0    0    0    0    0    0    0    0    0    0    0    0
    0    0    0    0    0    0    0    0    0    0    0    0
    0    0    0    0    0    0    0    0    0    0    0    0
    0    0    0    0    0    0    0    0    0    0    0    0
    0    0    0    0    0    0    0    0    0    0    0    0
    0    0    0    0    0    0    0    0    0    0    0    0
    0    0    0    0    0    0    0    0    0    0    0    0
   -1   -2    4   -1    0    0    0    0    0    0    0    0
    0    0    0    0    0    0    0    0    0    0    0    0
    0    0    0    0    0    0    0    0    0    0    0    0
    0    0    0    0    0    0    0    0    0    0    0    0
    0    0    0    0    0    0    0    0    0    0    0    0
    0    0    0    0    0    0    0    0    0    0    0    0
    0    0    0    0    0    0    0    0    0    0    0    0
    0    0    0    0    0    0    0    0    0    0    0    0
    0    0    0    0    0    0    0    0    0    0    0    0
    0    0    0    0    0    0    0    0    0    0    0    0
    0    0    0    0    0    0    0    0    0    0    0    0
    0    0    0    0    0    0    0    0    0    0    0    0
    0    0    0    0    0    0    0    0    0    0    0    0
    0    0    0    0    0    0    0    0    0    0    0    0
    0    0    0    0    0    0    0    0    0    0    0 -255
 -255   -2   -1    2    3   -2  -35 -121  160    1    0   -1
   10   92  230   -8 -201 -120  -71    6    5    5    3   -5
   -3    7   17   23   30   35   52   23    4   -9  -14   -5
  -33  -24  -37  -18  -18   -7   -2   23   42   42   37   36
   12  -61 -117 -191 -101  176   98   39    1    1   -8  162
 -160   17  -44   44  -97   61   27    0    3    3    0    0
    2   54    5  -35   21   17  -25   -2    0    0    0    0
    0    0    0    0    0    0    0    0    0    0    0    0
    0    0    0    0    0    0    0    0    0    0    0    0
    0    0    0    0    0    0    0    0    0    0    0    0
    0    0    0    0    0    0    0    0    0    0    0    0
    0    0    0    0    0    0    0    0    0    0    0    0
    0    0    0    0    0    0    0    0    0    0    0    0
    0    0    0    0    0    0    0    0    0    0    0    0
    0    0    0    0    0    0    0    0    0    0   -1    0
    0    0   -1    0    0    0    0    0    0    0    0    0
    0    0    0    0    0    0    0    0    0    0    0    0
    0    0    0    0    0    0    0    0    0    0    0    0
    0    0    0    0    0    0    0    0    0    0    0    0
    0    0    0    0    0    0    0    0    0    0    0    0
    0    0    0    0    0    0    0    0    0    0    0    0
    0    0    0    0    0    0    0    0    0    0    0    0
    0    0    0    0    0    0    0    0    0    0    0    0
    0    0    0    0    0    0    0    0    0    0    0    0
    0    0    0    0    0    0    0    0    0    0    0    0
    0    0    0    0    0    0    0    0    0    0    0    0
    0    0    0    0    0    0    0    0    0    0    0    0
    0    0    0    0    0    0    0    0    0    0    0    0
    0    0    0    0    0    0    0    0    0    0    0    0
    0    0    0    0    0    0    0    0    0    0    0 -255
 -256    4   -1   -1   -2    2  -56  -69  138   -9    7   -5
    3   -3   -2   95  158  106  -22 -217 -137  -48  -29   -4
    3   -5    2    5   -2   -2   -2    6   17   23   23   28
   34   34   36   32   33   20   23    9  -20  -32  -69 -164
 -190   -9  100  156  124    6   -6    2   -1  -14  165  -79
  -33   36  -45   32  -99   82   15   -6    4   -1    0    1
   -1   -2   62  -58    5   44  -34   -1    0    0    0    0
    0    0    0    0    0    0    0    0    0    0    0    0
    0    0    0    0    0    0    0    0    0    0    0    0
    0    0    0    0    0    0    0    0    0    0    0    0
    0    0    0    0    0    0    0    0    0    0    0    0
    0    0    0    0    0    0    0    0    0    0    0    0
    0    0    0    0    0    0    0    0    0    0    0    0
    0    0    0    0    0    0    0    0    0    0    0    0
    0    0    0    0    0    0    0    0    0   -1    4   -1
    0    0    0    0    0    0    0    0    0    0    0    0
    0    0    0    0    0    0    0    0    0    0    0    0
    0    0    0    0    0    0    0    0    0    0    0    0
    0    0    0    0    0    0    0    0    0    0    0    0
    0    0    0    0    0    0    0    0    0    0    0    0
    0    0    0    0    0    0    0    0    0    0    0    0
    0    0    0    0    0    0    0    0    0    0    0    0
    0    0    0    0    0    0    0    0    0    0    0    0
    0    0    0    0    0    0    0    0    0    0    0    0
    0    0    0    0    0    0    0    0    0    0    0    0
    0    0    0    0    0    0    0    0    0    0    0    0
    0    0    0    0    0    0    0    0    0    0    0    0
    0    0    0    0    0    0    0    0    0    0    0    0
    0    0    0    0    0    0    0    0    0    0    0    0
    0    0    0    0    0    0    0    0    0    0    0 -255
 -255   -1    0    0   -2    1  -72  -33  119   -2    1    2
    2   -2   -4   -1    2   34   97  220   82  -84 -114 -133
 -152 -102  -61  -24    7    9    3    1    6   -2    9    2
    5    5    7  -13  -48  -77 -137 -147 -111 -117  -32  123
  204   92   30    8   -7   -2    2    2   -9  126  -38  -90
   -2   64  -63   37  -84   44   22    6   -2   -3    1   -3
    5   -5   24    7  -27   30  -28   -2    0    0    0    0
    0    0    0    0    0    0    0    0    0    0    0    0
    0    0    0    0    0    0    0    0    0    0    0    0
    0    0    0    0    0    0    0    0    0    0    0    0
    0    0    0    0    0    0    0    0    0    0    0    0
    0    0    0    0    0    0    0    0    0    0    0    0
    0    0    0    0    0    0    0    0    0    0    0    0
    0    0    0    0    0    0    0    0    0    0    0    0
    0    0    0    0    0    0    0    0    0   -1   -1    0
    0    0    0    0    0    0    0    0    0    0    0    0
    0    0    0    0    0    0    0    0    0    0    0    0
    0    0    0    0    0    0    0    0    0    0    0    0
    0    0    0    0    0    0    0    0    0    0    0    0
    0    0    0    0    0    0    0    0    0    0    0    0
    0    0    0    0    0    0    0    0    0    0    0    0
    0    0    0    0    0    0    0    0    0    0    0    0
    0    0    0    0    0    0    0    0    0    0    0    0
    0    0    0    0    0    0    0    0    0    0    0    0
    0    0    0    0    0    0    0    0    0    0    0    0
    0    0    0    0    0    0    0    0    0    0    0    0
    0    0    0    0    0    0    0    0    0    0    0    0
    0    0    0    0    0    0    0    0    0    0    0    0
    0    0    0    0    0    0    0    0    0    0    0    0
    0    0    0    0    0    0    0    0    0    0    0 -255
 -255    0    0   -1    3    1  -83  -67  118    3   -3   -1
   -2    2    6    0    2    1   -1  -10   45  111  126  133
  158   27  -28 -135 -205 -159 -149 -132 -138 -122 -134 -136
 -150 -154 -190 -156  -75  -14  115  151  121  122   92   29
   -7   -6    1    4    0   -4    3  -13  152  -32  -97    4
    2   51  -49   28  -38  -67   98  -11    5   -6    7   -9
    4    1   11   53  -48   59  -38    0    0    0    0    0
    0    0    0    0    0    0    0    0    0    0    0    0
    0    0    0    0    0    0    0    0    0    0    0    0
    0    0    0    0    0    0    0    0    0    0    0    0
    0    0    0    0    0    0    0    0    0    0    0    0
    0    0    0    0    0    0    0    0    0    0    0    0
    0    0    0    0    0    0    0    0    0    0    0    0
    0    0    0    0    0    0    0    0    0    0    0    0
    0    0    0    0    0    0    0    0   -1    4   -1    0
    0    0    0    0    0    0    0    0    0    0    0    0
    0    0    0    0    0    0    0    0    0    0    0    0
    0    0    0    0    0    0    0    0    0    0    0    0
    0    0    0    0    0    0    0    0    0    0    0    0
    0    0    0    0    0    0    0    0    0    0    0    0
    0    0    0    0    0    0    0    0    0    0    0    0
    0    0    0    0    0    0    0    0    0    0    0    0
    0    0    0    0    0    0    0    0    0    0    0    0
    0    0    0    0    0    0    0    0    0    0    0    0
    0    0    0    0    0    0    0    0    0    0    0    0
    0    0    0    0    0    0    0    0    0    0    0    0
    0    0    0    0    0    0    0    0    0    0    0    0
    0    0    0    0    0    0    0    0    0    0    0    0
    0    0    0    0    0    0    0    0    0    0    0    0
    0    0    0    0    0    0    0    0    0    0    0 -255
 -255    0    0   -1   -2  -18  -92   22   96   -4    3   -1
    0   -1   -2   -1   -1   -1   -2    3   -3   -3    0    3
   18   66   98  154  190  145  130  103  114   73   98  111
  124  131  181  168  121   86   33    6    8    3   -4   -2
    3   -4    1   -2    4    5   -1  169  -53 -104    5   -2
   -8   40  -30   22  -20 -103   89   13    1    5   -3    3
   -3    4   -7   73   -5  -33   -6   -2    0    0    0    0
    0    0    0    0    0    0    0    0    0    0    0    0
    0    0    0    0    0    0    0    0    0    0    0    0
    0    0    0    0    0    0    0    0    0    0    0    0
    0    0    0    0    0    0    0    0    0    0    0    0
    0    0    0    0    0    0    0    0    0    0    0    0
    0    0    0    0    0    0    0    0    0    0    0    0
    0    0    0    0    0    0    0    0    0    0    0    0
    0    0    0    0    0    0    0    0    0   -1    0    0
    0    0    0    0    0    0    0    0    0    0    0    0
    0    0    0    0    0    0    0    0    0    0    0    0
    0    0    0    0    0    0    0    0    0    0    0    0
    0    0    0    0    0    0    0    0    0    0    0    0
    0    0    0    0    0    0    0    0    0    0    0    0
    0    0    0    0    0    0    0    0    0    0    0    0
    0    0    0    0    0    0    0    0    0    0    0    0
    0    0    0    0   -1    0    0    0    0    0    0    0
    0    0    0    0    0    0    0    0    0    0    0    0
    0    0    0    0    0    0    0    0    0    0    0    0
    0    0    0    0    0    0    0    0    0    0    0    0
    0    0    0    0    0    0    0    0    0    0    0    0
    0    0    0    0    0    0    0    0    0    0    0    0
    0    0    0    0    0    0    0    0    0    0    0    0
    0    0    0    0    0    0    0    0    0    0    0 -255
 -255    0   -1    3   -3  -50    8  -46  103    1    1   -1
    0    0    0    0    0    0   -1    2    2    1    5    5
   -1   -2   -3   -7   -7    6   15   24   25   39   29   23
   18   11   -4   -9    0   -4    0   -2    4    0    4   -2
   -3    7   -1    2  -10   62  233 -144  -59   10   -2    8
   -4   43  -18   18  -24  -33  -69  133    2   -8    7   -6
    6   -8   10  101  -49  -30   -3    4   -1    0    0    0
    0    0    0    0    0    0    0    0    0    0    0    0
    0    0    0    0    0    0    0    0    0    0    0    0
    0    0    0    0    0    0    0    0    0    0    0    0
    0    0    0    0    0    0    0    0    0    0    0    0
    0    0    0    0    0    0    0    0    0    0    0    0
    0    0    0    0    0    0    0    0    0    0    0    0
    0    0    0    0    0    0    0    0    0    0    0    0
    0    0    0    0    0    0    0    0    0    0    0    0
    0    0    0    0    0    0    0    0    0    0    0    0
    0    0    0    0    0    0    0    0    0    0    0    0
    0    0    0    0    0    0    0    0    0    0    0    0
    0    0    0    0    0    0    0    0    0    0    0    0
    0    0    0    0    0    0    0    0    0    0    0    0
    0    0    0    0    0    0    0    0    0    0    0    0
    0    0    0    0    0    0    0    0    0    0    0    0
    0    0    0   -1    4   -2    0    0    0    0    0    0
    0    0    0    0    0    0    0    0    0    0    0    0
    0    0    0    0    0    0    0    0    0    0    0    0
    0    0    0    0    0    0    0    0    0    0    0    0
    0    0    0    0    0    0    0    0    0    0    0    0
    0    0    0    0    0    0    0    0    0    0    0    0
    0    0    0    0    0    0    0    0    0    0    0    0
    0    0    0    0    0    0    0    0    0    0    0 -255
 -255   -1   -1   -1  -64   59  -78 -211  117    1    2   -1
    0    0    0    0    0    0    0   -1   -1   -1   -2   -2
   -1   -1   -1   -1   -1   -1   -1   -1   -1   -3   -2    4
   -2   -2   -1    0   -6   -1    3    1  -11    7   -7    5
    0   -4    1    3  178  137 -321   51   -1    1   -2    0
    0   37  -28   26  -27   -3  -46  -92  143   30   -3   -1
   -5    9  109  -73  -47   11    1   -3    0    0    0    0
    0    0    0    0    0    0    0    0    0    0    0    0
    0    0    0    0    0    0    0    0    0    0    0    0
    0    0    0    0    0    0    0    0    0    0    0    0
    0    0    0    0    0    0    0    0    0    0    0    0
    0    0    0    0    0    0    0    0    0    0    0    0
    0    0    0    0    0    0    0    0    0    0    0    0
    0    0    0    0    0    0    0    0    0    0    0    0
    0    0    0    0    0    0    0    0    0    0    0    0
    0    0    0    0    0    0    0    0    0    0    0    0
    0    0    0    0    0    0    0    0    0    0    0    0
    0    0    0    0    0    0    0    0    0    0    0    0
    0    0    0    0    0    0    0    0    0    0    0    0
    0    0    0    0    0    0    0    0    0    0    0    0
    0    0    0    0    0    0    0    0    0    0    0    0
    0    0    0    0    0    0    0    0    0    0    0    0
    0    0    0   -1   -2    4   -1    0    0    0    0    0
    0    0    0    0    0    0    0    0    0    0    0    0
    0    0    0    0    0    0    0    0    0    0    0    0
    0    0    0    0    0    0    0    0    0    0    0    0
    0    0    0    0    0    0    0    0    0    0    0    0
    0    0    0    0    0    0    0    0    0    0    0    0
    0    0    0    0    0    0    0    0    0    0    0    0
    0    0    0    0    0    0    0    0    0    0    0 -255
 -256    2    3  -37   40  -93 -131  227    1   -3   -1    0
    0    0    0    0    0    0    0    0    0    0    0    0
    0    0    0    0    0    0    0    0   -1    4    1   -5
    0    5   -1   -1    1    0    0   -2    7   -6    2    0
   -6   -1   75  235  -13 -229 -102  103    1   -4    3    0
    0   37  -22   27  -43   -2    2  -34 -102   64   95   95
   96   97   16  -76   12   -6   -2    4   -1    0    0    0
    0    0    0    0    0    0    0    0    0    0    0    0
    0    0    0    0    0    0    0    0    0    0    0    0
    0    0    0    0    0    0    0    0    0    0    0    0
    0    0    0    0    0    0    0    0    0    0    0    0
    0    0    0    0    0    0    0    0    0    0    0    0
    0    0    0    0    0    0    0    0    0    0    0    0
    0    0    0    0    0    0    0    0    0    0    0    0
    0    0    0    0    0    0    0    0    0    0    0    0
    0    0    0    0    0    0    0    0    0    0    0    0
    0    0    0    0    0    0    0    0    0    0    0    0
    0    0    0    0    0    0    0    0    0    0    0    0
    0    0    0    0    0    0    0    0    0    0    0    0
    0    0    0    0    0    0    0    0    0    0    0    0
    0    0    0    0    0    0    0    0    0    0    0    0
    0    0    0    0    0    0    0    0    0    0    0    0
    0    0   -1    4   -2   -1   -1    0    0    0    0    0
    0    0    0    0    0    0    0    0    0    0    0    0
    0    0    0    0    0    0    0    0    0    0    0    0
    0    0    0    0    0    0    0    0    0    0    0    0
    0    0    0    0    0    0    0    0    0    0    0    0
    0    0    0    0    0    0    0    0    0    0    0    0
    0    0    0    0    0    0    0    0    0    0    0    0
    0    0    0    0    0    0    0    0    0    0    0 -255
 -257    2  -11  -28  -89  -79  207    2    1    3   -1    0
    0    0    0    0    0    0    0    0    0    0    0    0
    0    0    0    0    0    0    0    0    0    1   -4    2
    1   -5    0    4   -1   -1   -6    4   -3    0   -3  -10
   58  223  134 -273 -101   -1  -54   21   34    1    1    1
   -4   38  -18   29  -43   10   -1   -1  -12  -66  -76  -83
  -72  -83  -44    5   -5   -1   -2   -1    0    0    0    0
    0    0    0    0    0    0    0    0    0    0    0    0
    0    0    0    0    0    0    0    0    0    0    0    0
    0    0    0    0    0    0    0    0    0    0    0    0
    0    0    0    0    0    0    0    0    0    0    0    0
    0    0    0    0    0    0    0    0    0    0    0    0
    0    0    0    0    0    0    0    0    0    0    0    0
    0    0    0    0    0    0    0    0    0    0    0    0
    0    0    0    0    0    0    0    0    0    0    0    0
    0    0    0    0    0    0    0    0    0    0    0    0
    0    0    0    0    0    0    0    0    0    0    0    0
    0    0    0    0    0    0    0    0    0    0    0    0
    0    0    0    0    0    0    0    0    0    0    0    0
    0    0    0   -1    0    0    0    0    0    0    0    0
    0    0    0    0    0    0    0    0    0    0    0    0
    0    0    0    0    0    0    0    0    0    0    0    0
    0    0   -1   -2    4   -3    4   -1    0    0    0    0
    0    0    0    0    0    0    0    0    0    0    0    0
    0    0    0    0    0    0    0    0    0    0    0    0
    0    0    0    0    0    0    0    0    0    0    0    0
    0    0    0    0    0    0    0    0    0    0    0    0
    0    0    0    0    0    0    0    0    0    0    0    0
    0    0    0    0    0    0    0    0    0    0    0    0
    0    0    0    0    0    0    0    0    0    0    0 -255
 -252    1  -22  -28  -59  220   -8   -6    0   -1    0    0
    0    0    0    0    0    0    0    0    0    0    0    0
    0    0    0    0    0    0    0    0    1   -4    2    1
    0    0    1   -2   -2    6    2    0    1    4   47  255
  104 -170 -173  -10   -1   -1  -28  -30   61  -10    3    2
   -2   39  -17   10  -26   -5    2   -1   -1    4   -5   -6
   -8    5   -1    1   -3    2    7   -3    0    0    0    0
    0    0    0    0    0    0    0    0    0    0    0    0
    0    0    0    0    0    0    0    0    0    0    0    0
    0    0    0    0    0    0    0    0    0    0    0    0
    0    0    0    0    0    0    0    0    0    0    0    0
    0    0    0    0    0    0    0    0    0    0    0    0
    0    0    0    0    0    0    0    0    0    0    0    0
    0    0    0    0    0    0    0    0    0    0    0    0
    0    0    0    0    0    0    0    0    0    0    0    0
    0    0    0    0    0    0    0    0    0    0    0    0
    0    0    0    0    0    0    0    0    0    0    0    0
    0    0    0    0    0    0    0    0    0    0    0    0
    0    0    0    0    0    0    0    0    0    0    0    0
    0   -1   -1    4   -1    0    0    0    0    0    0    0
    0    0    0    0    0    0    0    0    0    0    0    0
    0    0    0    0    0    0    0    0    0    0    0    0
    0   -1    4   -2   -2    4   -2    0    0    0    0    0
    0    0    0    0    0    0    0    0    0    0    0    0
    0    0    0    0    0    0    0    0    0    0    0    0
    0    0    0    0    0    0    0    0    0    0    0    0
    0    0    0    0    0    0    0    0    0    0    0    0
    0    0    0    0    0    0    0    0    0    0    0    0
    0    0    0    0    0    0    0    0    0    0    0    0
    0    0    0    0    0    0    0    0    0    0    0 -255
 -256   -3  -28 -305  249   -2   -4    6   -1    0    0    0
    0    0    0    0    0    0    0    0    0    0    0    0
    0    0    0    0    0    0    0    0    0    1    1   -4
   -1    5   -6    4   -4   -1  -14   24  124  199  177 -242
 -162  -37   -1   -1    4   -2  -11  -90   96   -6    4   -1
   -9   55  -20    0  -23   -1    3   -2   -1   -3    2    7
   -2   -3   -1   -2    4   -2   -3    4   -1    0    0    0
    0    0    0    0    0    0    0    0    0    0    0    0
    0    0    0    0    0    0    0    0    0    0    0    0
    0    0    0    0    0    0    0    0    0    0    0    0
    0    0    0    0    0    0    0    0    0    0    0    0
    0    0    0    0    0    0    0    0    0    0    0    0
    0    0    0    0    0    0    0    0    0    0    0    0
    0    0    0    0    0    0    0    0    0    0    0    0
    0    0    0    0    0    0    0    0    0    0    0    0
    0    0    0    0    0    0    0    0    0    0    0    0
    0    0    0    0    0    0    0    0    0    0    0    0
    0    0    0    0    0    0    0    0    0    0    0    0
    0    0    0    0    0    0    0    0    0    0    0    0
   -1    4   -1   -1    0    0    0    0    0    0    0    0
    0    0    0    0    0    0    0    0    0    0    0    0
    0    0    0    0    0    0    0    0    0    0    0    0
   -1    0   -2    4   -1   -1    0    0    0    0    0    0
    0    0    0    0    0    0    0    0    0    0    0    0
    0    0    0    0    0    0    0    0    0    0    0    0
    0    0    0    0    0    0    0    0    0    0    0    0
    0    0    0    0    0    0    0    0    0    0    0    0
    0    0    0    0    0    0    0    0    0    0    0    0
    0    0    0    0    0    0    0    0    0    0    0    0
    0    0    0    0    0    0    0    0    0    0    0 -255
 -258    3 -266  309   17   -1    8   -7    1    0    0    0
    0    0    0    0    0    0    0    0    0    0    0    0
    0    0    0    0    0    0    0    0   -1   -1    1    0
    3   -7   -7    7   42   80  219  209  -88 -184 -166  -28
    3    2   -1    0   -3    2    7  -95   84   -2    1   -1
    4   54  -26  -28   -5   -1   -2    3    1    3   -2   -2
   -1    3   -1   -1   -1    0   -1   -1    0    0    0    0
    0    0    0    0    0    0    0    0    0    0    0    0
    0    0    0    0    0    0    0    0    0    0    0    0
    0    0    0    0    0    0    0    0    0    0    0    0
    0    0    0    0    0    0    0    0    0    0    0    0
    0    0    0    0    0    0    0    0    0    0    0    0
    0    0    0    0    0    0    0    0    0    0    0    0
    0    0    0    0    0    0    0    0    0    0    0    0
    0    0    0    0    0    0    0    0    0    0    0    0
    0    0    0    0    0    0    0    0    0    0    0    0
    0    0    0    0    0    0    0    0    0    0    0    0
    0    0    0    0    0    0    0    0    0    0    0    0
    0    0    0    0    0    0    0    0    0    0    0    0
   -1   -1   -1   -6    0    0    0    0    0    0    0    0
    0    0    0    0    0    0    0    0    0    0    0    0
    0    0    0    0    0    0    0    0    0    0    0   -1
    4   -1  -13   -1    0    0    0    0    0    0    0    0
    0    0    0    0    0    0    0    0    0    0    0    0
    0    0    0    0    0    0    0    0    0    0    0    0
    0    0    0    0    0    0    0    0    0    0    0    0
    0    0    0    0    0    0    0    0    0    0    0    0
    0    0    0    0    0    0    0    0    0    0    0    0
    0    0    0    0    0    0    0    0    0    0    0    0
    0    0    0    0    0    0    0    0    0    0    0 -255
 -251 -110   25  102   -4    2   -3    1    0    1    0    0
    0   -1    0    0    0   -1    0    0    0    0    0    0
    0    0    0   -1    0   -1   -1   -2    3    2   -7   -3
   13   91  183  196  123   54 -174 -219  -94  -38   -3    3
   -2   -2    0   -2    4   -3   -2  -79   71   14   -5    1
   -3   52  -20  -29   -5    0    0   -2    3   -2    0    0
   -1    3   -2    4   -1   -1    4   -1    0    0    0    0
    0    0    0    0    0    0    0    0    0    0    0    0
    0    0    0    0    0   -1   -1  -11  -53  -82 -114 -136
 -137 -137 -135 -134 -111  -87  -52   -8    0    0    0    0
   -1    0    0    0   -1    0    0    0    0    0    0    0
    0    0    0    0    0    0    0    0    0    0    0    0
    0    0    0    0    0    0    0    0    0    0   -1    0
   -2    0    0  -25  -59  -81  -81  -80  -81  -82  -57  -37
   -3    0    0    0    0    0    0    0    0    0    0    0
    0    0    0    0    0    0    0    0    0    0    0    0
    0    0    0    0    0    0    0    0    0    0    0    0
    0    0    0    0    0    0    0    0    0    0    0    0
    0   -1    0    0    0    0    0    0    0    0    0   -3
    4  -43 -236   -4   -6    0    0    0    0    0    0    0
    0    0    0    0    0    0    0    0    0   -1    0   -1
    0    0   -1    0    0    0    0    0    0    0   -1    0
  -12 -219  -35  -13    0    0   -1    0    0    0    0    0
    0    0    0    0    0    0    0    0    0    0    0    0
    0    0    0    0    0    0    0    0    0    0    0    0
    0    0    0    0    0    0    0    0    0    0    0    0
    0    0    0    0    0    0    0    0    0    0    0    0
    0    0    0    0    0    0    0    0    0    0    0    0
    0    0    0    0    0    0    0    0    0    0    0    0
    0    0    0    0    0    0    0    0    0    0    0 -255
 -260 -227  355   22   -8   -5   -3   -1    0   -6   -1    0
   -1    4   -1   -1   -1    4   -1   -1   -1    1   -1    0
    0    0   -1    6   13   34   50   70  103  138  160  206
  206   39 -164 -220 -149 -145  -79   -5   12    5  -35  -43
  -24    3   -2    3   -4    4   -2  -73   56   15   -1    3
   10   40    0  -33   -1    0    0    0   -1    0    0    0
    0   -1    0   -1    0    0   -1    0    0   -1    0    0
    0    0    0    0    0    0    0    0   -1    0   -1    0
   -1   -1  -63 -120 -161 -186 -227 -243 -113  -69   10   64
   48   48   41   63   -5  -45 -119 -255 -226 -192 -163 -128
  -71  -16   -1   -2    4   -1    0    0    0   -1    0    0
    0    0    0    0    0    0    0    0    0    0    0    0
    0    0   -1    0    0   -1    0   -1  -10  -71 -119 -164
 -180 -215 -258 -193 -100  -46  -66  -73  -69  -40 -122 -145
 -258 -219 -194 -166 -130  -79  -18   -1    0   -1    0    0
    0    0    0    0    0    0   -1    0    0   -1    0    0
    0    0    0    0    0    0    0    0    0    0    0    0
    0    0    0    0    0    0    0    0    0    0    0    0
   -1    4   -2    0   -1    0    0    0    0   -1   -2   -9
 -210 -323  620 -159  -27    0    0    0    0    0    0    0
    0    0    0    0    0    0    0    0   -2    4   -3    4
   -2   -1    4   -1    0   -1    0    0    0   -2    4 -142
 -404  471   42  -87    0   -1    4   -2    0    0    0    0
    0    0    0    0    0    0    0    0    0    0    0    0
    0    0    0    0    0    0    0    0    0    0    0    0
    0    0    0    0    0    0    0    0    0    0    0    0
    0    0    0    0    0    0    0    0    0    0    0    0
    0    0    0    0    0    0    0    0    0    0    0    0
    0    0    0    0    0    0    0    0    0    0    0    0
    0    0    0    0    0    0    0    0    0    0    0 -255
 -297   53   89  139  251  124   30   11   -2    5    6   -4
   -1    0   -1    4   -1   -1   -1    3    5   -7    6   -1
    0   -1    2    3   85   99   61   41  -66  -82 -121 -189
 -187 -113  -33   -6  -58   41   53   31   17   26   39   43
   16  -56   -7    1    3   -3    1  -63   41   17    3    3
   15   29  -29  -19    0    0    0    0    0    0    0    0
    0    0    0    0    0    0    0    0   -2    4   -1    0
    0    0   -1    0    0    0    0   -2    3   -2  -11  -61
 -157 -296  -99   32  108  153  230  245  189  155  115  101
   91   97   98   94  119  148  187  258  222  163  110   46
  -72 -249 -195  -81  -25   -3    0    0   -1    4   -1    0
    0   -1    0    0    0    0    0    0    0    0    0   -1
    0   -2    4   -1   -5  -17  -83 -190 -265  -82   36  110
  153  207  263  225  173  156  150  161  159  153  180  209
  256  213  171  117   51  -61 -244 -213  -95  -19   -7    0
    0   -1    0    0   -1   -1    4   -2   -1    4   -1    0
    0    0    0    0    0    0    0    0    0    0    0    0
    0    0    0    0    0    0    0    0    0    0    0    0
    0   -2    4   -2    4   -2    0   -1   -1   -4 -118 -355
  146  309  226 -193  -27    0    0    0    0    0    0    0
    0    0    0    0    0    0    0   -1    4   -4    4   -3
    4   -1   -2    0   -1    4   -2    0   -2  -54 -374   26
  324  232  -80  -87    0    0   -3    4   -1    0    0    0
    0    0    0    0    0    0    0    0    0    0    0    0
    0    0    0    0    0    0    0    0    0    0    0    0
    0    0    0    0    0    0    0    0    0    0    0    0
    0    0    0    0    0    0    0    0    0    0    0    0
    0    0    0    0    0    0    0    0    0    0    0    0
    0    0    0    0    0    0    0    0    0    0    0    0
    0    0    0    0    0    0    0    0    0    0    0 -255
 -252  -46 -125 -164 -272  -39  189  160  157   20  -13    5
    3   -5    1   -1    0    1    0    0   -7    8   -6    1
   -1    4   -4  125 -276 -234 -107  -84  -45  -91  -37  -11
    3   -1   -3  -50   70    3  -64  -61  -47   -6   10    0
   20   61  -54   -8   -3   -2    7  -67   43   18    3   -3
   30   40  -71   -2    0    0    0    0    0    0    0    0
    0    0    0    0    0    0    0   -1    4   -2    0    0
   -1   -1    4   -1    0    0   -1    3  -27 -182 -210 -165
  119  330  172  104   62   34    2   -1  -10   -8   -3   -3
   -5   -6   -2   -2    0   -2   -8   -9    2   36   57   94
  159  282  190  -97 -212 -201  -85    0    0   -2   -1    0
   -1    4   -2    0    0    0   -1    0    0    0   -1    4
   -3    4   -2  -96 -200 -219 -108  196  290  164   98   61
   35   15  -15  -11   -4   -5   -3   -9   -8   -8   -2  -16
   -6   10   28   55   91  154  275  242  -77 -228 -194 -110
   -2    4   -3   -1    4   -1   -2    4   -1   -1   -1    0
    0    0    0    0    0    0    0    0    0    0    0    0
    0    0    0    0    0    0    0    0    0    0    0    0
    0    0   -1   -1   -2    4   -3    3  -69 -292 -113  408
   73   -1  222 -194  -27    0    0    0    0    0    0    0
    0    0    0    0    0    0    0    0   -2    3   -2    0
   -1   -1    4   -1    0   -3    4  -17 -256 -260  408  139
   -3  169  -82  -86    0   -2    4   -2    0    0    0    0
    0    0    0    0    0    0    0    0    0    0    0    0
    0    0    0    0    0    0    0    0    0    0    0    0
    0    0    0    0    0    0    0    0    0    0    0    0
    0    0    0    0    0    0    0    0    0    0    0    0
    0    0    0    0    0    0    0    0    0    0    0    0
    0    0    0    0    0    0    0    0    0    0    0    0
    0    0    0    0    0    0    0    0    0    0    0 -255
 -257   -2    3    2   -6  -77 -180 -169 -165  235  196   57
   -2   -2   -1    0    2   -5    0   -1    6   -6    2    0
   -1   -1   -2    0  225 -124  -53   12   36  -32  -15   -2
    3   -4  -13  -17 -116 -170  -23  -10  -49 -197 -147  -39
    6    2   60  -46   -3   -3   -2  -61   29   30    1    2
   58  -20  -38    4   -1    0    0    0    0    0    0    0
    0    0    0    0    0    0    0    0   -1    0    0   -2
    4   -2   -1   -2    0    0  -51 -192 -287  200  210  186
   68  -18   -2   -3   -4    1    2   -6   -3    0    3   -2
    0    0    0   -5   -1   -2   -1   -2    5   -7    6   -5
    2  -13   39  156  205  233  -93 -283  -91   -1    3   -3
    0   -3    4   -1    0   -1    4   -1    0    0   -2   -2
  -24 -111 -307  -60  244  201  163   38  -14   -2   -2    1
   -4   -1    2    0   -1   -1    0    0    0    0   -4    3
   -1   -1   -1    4   -4   -5  -15   24  148  212  227  -11
 -322 -117  -16   -3   -1    0    0   -2    0   -3    4   -1
    0    0    0    0    0    0    0    0    0    0    0    0
    0    0    0    0    0    0    0    0    0    0    0    0
    0    0   -1    4   -1   -2  -27 -220 -239  324  183  -15
    5   -1  217 -192  -27    0    0    0    0    0    0    0
    0    0    0    0    0    0    0    0   -1    3   -1    0
    0    0   -1   -1   -1   -3 -140 -396  295  232   14   -2
   -8  174  -81  -86   -1    4   -3    0    0    0    0    0
    0    0    0    0    0    0    0    0    0    0    0    0
    0    0    0    0    0    0    0    0    0    0    0    0
    0    0    0    0    0    0    0    0    0    0    0    0
    0    0    0    0    0    0    0    0    0    0    0    0
    0    0    0    0    0    0    0    0    0    0    0    0
    0    0    0    0    0    0    0    0    0    0    0    0
    0    0    0    0    0    0    0    0    0    0    0 -255
 -252    2   -4   -2    4   -4    2  -10  -56 -217 -148   99
  229   57   -2   -1   -5    4    2   -1   -2    1   -1   -1
    5   -2    4   -4   10  222 -235  -31    6   64  -51    1
   -4    8  -68 -171  135  217  116  100  126  216  119  -89
 -174    4   13   38  -42    6   -3  -64   41   25   -2   -3
  112  -95    5   -5    0    0    0    0    0    0    0    0
    0    0    0    0    0    0    0    0    0    0   -1    4
   -4    4   -4    6  -13 -223 -184  138  305   51   10    1
   -5    9   -9    5    0    0   -5    6    0    0   -1   -1
    0    0    0    1    1    1    0   -1    0    2   -6    5
   -2   -2    7   -6    8   33  193  259  -70 -295  -60    7
   -3    4   -3    0    0    0   -1    0   -1   -2    7 -150
 -220  -31  295  179   17   10   -6    2    3   -2    1    0
    0    5   -6    1    0    2   -4    1   -1    5   -3   -4
    1    1    0   -4    9   -7    5   -2   -5    3   21  153
  319  -18 -249 -153   -7    0   -1    4   -3    8   -4    0
    0    0    0    0    0    0    0    0    0    0    0    0
    0    0    0    0    0    0    0    0    0    0    0    0
    0    0   -1   -1   -3 -149 -298  113  300   27   -9    6
   -2    0  224 -198  -26    0    0    0    0    0    0    0
    0    0    0    0    0    0    0    0    0   -1    0    0
    0   -1   -1    4  -71 -346  -17  380   42    8   -9    0
   -3  178  -88  -85    0   -2    4   -1    0    0    0    0
    0    0    0    0    0    0    0    0    0    0    0    0
    0    0    0    0    0    0    0    0    0    0    0    0
    0    0    0    0    0    0    0    0    0    0    0    0
    0    0    0    0    0    0    0    0    0    0    0    0
    0    0    0    0    0    0    0    0    0    0    0    0
    0    0    0    0    0    0    0    0    0    0    0    0
    0    0    0    0    0    0    0    0    0    0    0 -255
 -258    0    7   -3   -2    4   -4   -2   -1    3  -45 -147
 -281  181  206   44   -8    1    0   -3    4   -1    4    0
   -5    0   -2    4   -3   22  236 -209   -2   15   11  -31
   -2  -19 -289  323   40  -16   -7   -6   -6  -10   34  149
  158 -242   -1   41  -17  -11    2  -60   40   14    3   52
   19  -54   -5    4   -1    0    0    0    0    0    0    0
    0    0    0    0    0    0    0    0    0    0   -1   -2
    4   -4    1 -119 -346  226  235   58  -15    2   -1   -1
    0   -3    5   -3   -1    4   -1   -1    1   -1   -1    4
    0    0    0    1   -3   -2    1    6   -5    1    1    0
   -3    1   -2    0   -1   -6   -8   23  142  376 -240 -218
  -18   -3    4   -1    0    0    0   -3    4 -101 -323   28
  292  118    7  -10   -1    0   -1   -1   -1    1   -4    1
    0   -2    4   -1    1   -4    2    1    0   -1    0    5
    0   -5    0    5   -2    0   -1   -1    4    0   -4  -12
    5  108  312   70 -315 -110    0   -2    0   -4    4   -1
    0    0    0    0    0    0    0    0    0    0    0    0
    0    0    0    0    0    0    0    0    0    0    0    0
    0   -2    4  -83 -319  -37  373   82   -9   -2    2   -3
    0    1  217 -191  -27    0    0    0    0    0    0    0
    0    0    0    0    0    0    0    0    0   -1    0    0
   -1    4  -36 -251 -253  433  121   -2   -2   -3    6   -5
   -6  171  -77  -87    0    0   -1   -1    0    0    0    0
    0    0    0    0    0    0    0    0    0    0    0    0
    0    0    0    0    0    0    0    0    0    0    0    0
    0    0    0    0    0    0    0    0    0    0    0    0
    0    0    0    0    0    0    0    0    0    0    0    0
    0    0    0    0    0    0    0    0    0    0    0    0
    0    0    0    0    0    0    0    0    0    0    0    0
    0    0    0    0    0    0    0    0    0    0    0 -255
 -252    2   -4    4   -1   -4    8   -2    0   -4    6   -3
  -12 -183 -184  162  173    0    4    1   -2   -5    0    0
    0    5   -1   -1   -2    5   79   43 -161    5   53  -48
    1 -180  264   28    1    1    1   -6    8   -3   -1   -6
   86  166 -221   25   14  -24   -1  -64   37   31    2   92
 -119   -2   -1   -1    0    0    0    0    0    0    0    0
    0    0    0    0    0    0    0    0    0   -1    4   -2
   -2  -11 -273    5  292   65   -4   -1    4   -2    0    0
    0    0   -2    4   -1   -2    4    0   -5    5   -1    0
   -5    1    0    0    2   -2   -2   -4    2    0    0    1
   -3    1    0   -1    4    0   -1    2    1  -10  254  284
 -100  -13   -2    0    0   -1   -2  -15 -282  -39  268  144
   -2    2   -1   -2    5   -6    5   -1    0    0    1    0
    0   -1    3   -1    0    1    2   -4    2   -1    0   -1
   -1    5    0   -4   -4    5   -2    0    0   -2    6   -1
    0   -7   -7  119  265  -19 -283  -19   -2    3   -2    0
    0    0    0    0    0    0    0    0    0    0    0    0
    0    0    0    0    0    0    0    0    0    0    0    0
   -1  -24 -259 -151  262  191  -11    1    3    0   -7   11
   -2    0  225 -198  -26    0    0    0    0    0    0    0
    0    0    0    0    0    0    0    0   -2    4   -3    0
  -15 -163 -302  209  273   -6    3   -2    0    0   -1    1
   -8  178  -84  -86   -1    0   -1    4   -1    0    0    0
    0    0    0    0    0    0    0    0    0    0    0    0
    0    0    0    0    0    0    0    0    0    0    0    0
    0    0    0    0    0    0    0    0    0    0    0    0
    0    0    0    0    0    0    0    0    0    0    0    0
    0    0    0    0    0    0    0    0    0    0    0    0
    0    0    0    0    0    0    0    0    0    0    0    0
    0    0    0    0    0    0    0    0    0    0    0 -255
 -256   -1    0   -1   -1    4   -3    0   -1    3    1   -2
    3   -3  -36 -237  -32  252   43   -5    2    5   -1    0
    1   -5    1    0   -1    1  -12  206 -116  -50    6   53
  -60 -141  180    5    3   -5    1    1   -3    3    2    2
   -8  123   41 -113   35  -27    0  -65   40   16   25   54
  -60    2   -1    0    0    0    0    0    0    0    0    0
    0   -1    0   -1    0    0    0    0    0    0   -3    4
  -38 -312  180  191    1    3   -5    1   -1    0    0    0
    0    0    0   -1    0    0   -1    0    1   -1    0   -1
    5   -1    0    0    0    1    1    1    0    0    0    0
    1   -1    0    0   -1    1    0   -1    3   -7  213  144
 -153   -1    0    0   -2    4 -110 -306  242  195   10   -6
   -1   -1   -1    4   -2    1   -1    0    0    0    0    0
    0    0   -1    0    0    1   -4    3   -5    5   -1    0
    0   -1    0    1    1   -2    4    0   -5    6   -7    5
   -3   10   -6   -2   11  187  236 -306 -118    2   -2    0
    0    0    0   -1    0    0    0    0    0    0    0    0
    0    0    0    0    0    0    0    0    0    0    0    0
 -173 -309  179  265   32   -5   -1   -1   -1   -1    7  -11
    2    2  214 -191  -27   -1    0    0    0    0    0    0
    0    0    0    0    0    0    0   -1    4   -5    8 -104
 -303  -12  360   58   -8   -1   -1    0    0    0    0   -1
   -2  172  -82  -87    4   -1    0   -1    0    0    0    0
    0    0    0    0    0    0    0    0    0    0    0    0
    0    0    0    0    0    0    0    0    0    0    0    0
    0    0    0    0    0    0    0    0    0    0    0    0
    0    0    0    0    0    0    0    0    0    0    0    0
    0    0    0    0    0    0    0    0    0    0    0    0
    0    0    0    0    0    0    0    0    0    0    0    0
    0    0    0    0    0    0    0    0    0    0    0 -255
 -255    0    0    0    0   -1    0    0    0   -1   -1    0
   -1    0   -1   -1 -100 -277  215  156  -12   -6   -1    0
    0    0    0    0   -1    1    1   10  203 -227    1   27
  -43 -151  173   10    0    0    0    0    0   -1    1   -2
    2   -2  193  -77  -22  -16   -1  -63   43   25  129 -106
  -13   -2    0    0    0    0    0    0    0    0    0    0
   -1    4   -2    4   -1    0    0    0    0   -2    4  -66
 -332  332   87   -8    0   -1    1    0    0    0    0    0
    0    0    0    0    0    0    0    0    0    0    0    0
   -1    0    0    1    0    0    0    0    0    0    0    0
   -1    4    0   -1    1   -5    1   -4   -6  211  -15 -244
    3   -1   -1   -1    3 -230 -107  307   58  -11    4   -1
    0    0    0   -1    0    0    0    0    0    0    0    0
    0    0    0    0    0    0    1    0    1   -1    0    0
    0    0    0    0    0    0   -1    0    1   -1    1   -1
    0   -2    1    0    0   -4   52  312  -75 -229    2   -1
    0    0   -2    4   -1   -1    0    0    0    0    0    0
   -1    0    0    0    0    0    0    0    0    0  -80 -362
   83  298   83   -5   -3    4   -5    1    0    0   -1    2
    0    1  220 -193  -29    4   -2   -1    0    0    0    0
    0    0    0    0    0    0    0    0   -2  -44 -273 -143
  343  139   -6   -2    0    0    0    0    0    0    0    0
   -7  174  -82  -86   -1    0    0    0    0    0    0    0
    0    0    0    0    0    0    0    0    0    0    0    0
    0    0    0    0    0    0    0    0    0    0    0    0
    0    0    0    0    0    0    0    0    0    0    0    0
    0    0    0    0    0    0    0    0    0    0    0    0
    0    0    0    0    0    0    0    0    0    0    0    0
    0    0    0    0    0    0    0    0    0    0    0    0
    0    0    0    0    0    0    0    0    0    0    0 -255
 -255    0    0    0    0    0    0    0    0    0    0    0
    0    0    0    0   -2  -16 -251  -18  278    4    7   -3
   -2    4    0   -1    0    2   -1   -6   79   97 -169   16
   39 -225  249   15    5   -3    0    0    0    3  -10    2
   -2   -3  123  -18  -90   -1    0  -72   53   61    8  -60
    2    2   -1    0    0    0    0    0    0    0    0    0
    0   -1   -1   -2    0   -1    0    0   -1    4  -64 -272
  363   33   -6    4   -1    0    0    0    0    0    0    0
    0    0    0    0    0    0    0    0    0    0    0    0
    0    0    1   -4    1    0    0    0    0    0    0    0
    1    0   -6    6   -2    3    3   -6  177   78 -243    6
   -3   -3    3   -7 -339  107  264   -5   -2    4   -2   -1
    0    0    0    0    0    0    0    0    0    0    0    0
    0    0    0    0    0    0    0    0    0    0    0    0
    0    0    0    0    0    0    0    0    0    0    0    0
    0    0    0    1   -5    4   -1   -4  246   91 -324  -12
    0   -1    4   -2   -1    4   -1    0    0    0    0   -1
    4   -1    0    0   -1   -1    0   -1  -19 -288 -149  285
  162   -5   -1   -2    0   -1    1    0    0    0    0    0
    0    1  219 -194  -23   -4    3    3   -2   -1    0    0
    0    0    0    0    0   -1    0   -7 -201 -246  180  254
    8    0    3   -1    0    0    0    0    0    0    0    0
   -6  174  -82  -86    0    0    0    0    0    0    0    0
    0    0    0    0    0    0    0    0    0    0    0    0
    0    0    0    0    0    0    0    0    0    0    0    0
    0    0    0    0    0    0    0    0    0    0    0    0
    0    0    0    0    0    0    0    0    0    0    0    0
    0    0    0    0    0    0    0    0    0    0    0    0
    0    0    0    0    0    0    0    0    0    0    0    0
    0    0    0    0    0    0    0    0    0    0    0 -255
 -255    0    0    0    0    0    0    0    0    0    0    0
    0    0    0   -1    4   -3    8 -130 -249  299   30    2
    2   -2   -6    6   -6    5   -5    1   -6  166  -97  -42
   41  -91 -153  233  -10    3   -1   -1    0   -7   10   -5
    2    2  129  -62  -56    3   -2  -79   71  126 -103   -8
    2    1   -1    0    0    0    0    0    0    0    0    0
    0   -1    3    3   -4    4   -1    0   -1  -42 -345  358
    9    0   -1   -1    0    0    0    0    0    0    0    0
    0    0    0    0    0    0    0    0    0    0    0    0
    0    0    0    1    0    0    0    0    0    0    0    1
   -4    0    7   -7   -1    4   -8  147  155 -283    6   -4
   -2    7  -25 -380  344  109   -7   -1   -4   -1    0    4
   -1    0    0    0    0    0    0    0    0    0    0    0
    0    0    0    0    0    0    0    0    0    0    0    0
    0    0    0    0    0    0    0    0    0    0    0    0
    0    0    0    0    1    0   -5   -1   -4  122  298 -344
  -36   -1   -1    0    0   -1    0    0   -1    0    0    0
   -1    0    0   -1    3    2   -2 -164 -374  312  223   25
   -3   -1   -1    4    0    0    0   -1    0    0    0    0
    0    1  219 -193  -29    3   -2   -2    3    3   -2    0
    0    0    0    0   -1    4 -115 -349   98  317   62  -12
    0    0   -5    1    0    0    0    0    0    0    0    0
   -6  174  -82  -86    0    0    0    0    0    0    0    0
    0    0    0    0    0    0    0    0    0    0    0    0
    0    0    0    0    0    0    0    0    0    0    0    0
    0    0    0    0    0    0    0    0    0    0    0    0
    0    0    0    0    0    0    0    0    0    0    0    0
    0    0    0    0    0    0    0    0    0    0    0    0
    0    0    0    0    0    0    0    0    0    0    0    0
    0    0    0    0    0    0    0    0    0    0    0 -255
 -255    0    0    0    0    0    0    0    0    0    0    0
    0    0    0    0   -2    0   -3    3  -55 -265  246   60
   -2    1    5   -3    1   -2    1   -1   -1   19  172 -229
   24   36 -211   82  146   -7   -3    3    2    1   -1    6
    0   -4  218 -120  -36   -3   -1 -115  202  -86  -27    4
   -4    3   -1    0    0    0    0    0    0    0    0    0
    0    0   -1   -3    8   -3    0   -1  -16 -297  358   26
   -6    1   -2    0    0    0    0    0    0    0    0    0
    0    0    0    0    0    0    0    0    0    0    0    0
    0    0    0    0    0    0    0    0    0    0    0    0
    1    1   -7    5    4  -13  118  163 -308   -1   -2   -1
    0  -55 -340  321   54   -2    1   -1    0    6   -6    0
    0    0    0    0    0    0    0    0    0    0    0    0
    0    0    0    0    0    0    0    0    0    0    0    0
    0    0    0    0    0    0    0    0    0    0    0    0
    0    0    0    0    0   -1    5    4   -8   -4   69  307
 -299  -39   -2    0    0   -1    0   -1    4   -1    0    0
    0    0   -1    0   -3  -67 -392  103  299   50   -3    3
   -4    4   -1    0   -5    1   -1    4   -1    0    0    0
    0    1  219 -193  -29    3   -2    0   -2   -2    4   -1
    0    0    0    0  -44 -313  -51  281  137  -10    6   -1
   -1    0    1    0    0    0    0    0    0    0    0    0
   -6  174  -82  -86    0    0    0    0    0    0    0    0
    0    0    0    0    0    0    0    0    0    0    0    0
    0    0    0    0    0    0    0    0    0    0    0    0
    0    0    0    0    0    0    0    0    0    0    0    0
    0    0    0    0    0    0    0    0    0    0    0    0
    0    0    0    0    0    0    0    0    0    0    0    0
    0    0    0    0    0    0    0    0    0    0    0    0
    0    0    0    0    0    0    0    0    0    0    0 -255
 -255    0    0    0    0    0    0    0    0    0    0    0
    0    0    0   -1    4   -1   -1    3   -1  -32 -284  236
   84   -1   -8    6   -3    4   -3    4    2   -3  132  -24
 -100   48  -42 -252  139  212   19   -9   -4    7   -2   -4
  -14  152  142 -165    6   -2  -55    0   49  -67    0   -2
    3   -2   -1    0    0    0    0    0    0    0    0    0
    0    0    0   -1   -2    0    0    0 -272  181   77  -10
   11    3    2   -1    0    0    0    0    0    0    0    0
    0    0    0    0    0    0    0    0    0    0    0    0
    0    0    0    0    0    0    0    0    0    0    0    0
    0   -1    6   -2   -4   58  301 -326   -1   -1   -1    3
  -43 -308  396   27   -4    3   -2    0    1   -6    6   -1
    0    0    0    0    0    0    0    0    0    0    0    0
    0    0    0    0    0    0    0    0    0    0    0    0
    0    0    0    0    0    0    0    0    0    0    0    0
    0    0    0    0   -1    1   -6   -2    8    0    0   47
  311 -343  -37   -2   -2    4   -2    0   -1    0    0    0
   -1   -3    4  -25 -283 -213  398  117    4   -2    4   -4
    4   -2   -1   -1    6   -2    1   -1    0    0    0    0
    0    1  219 -194  -23   -3    4   -2    4   -1   -2    0
    0   -1    0 -220 -275  272  211   16   -2    2   -3   -1
    5   -1    0    0    0    0    0    0    0    0    0    0
   -6  174  -82  -86    0    0    0    0    0    0    0    0
    0    0    0    0    0    0    0    0    0    0    0    0
    0    0    0    0    0    0    0    0    0    0    0    0
    0    0    0    0    0    0    0    0    0    0    0    0
    0    0    0    0    0    0    0    0    0    0    0    0
    0    0    0    0    0    0    0    0    0    0    0    0
    0    0    0    0    0    0    0    0    0    0    0    0
    0    0    0    0    0    0    0    0    0    0    0 -255
 -255    0    0    0    0    0    0    0    0    0    0    0
    0    0    0    0   -1    0   -1   -1   -2    4  -15 -294
  200   93    0   -8    3   -2    5   -7    1   -7    7  198
 -156    3    6  -23 -177 -196  278  183  100   79   77  107
  266   60 -230   -7   -5  -56  -38  160  -75  -18   -1   -1
    3   -2    4   -2    0    0    0    0    0    0    0    0
    0    0   -1    4   -2    0   -1 -126  -22  209  -17    2
   -3   -3    0    0    0    0    0    0    0    0    0    0
    0    0    0    0    0   -1   -1   -1   -1   -1    0   -1
   -1    0    0    0   -1   -1   -1    0    0    0    0    0
    0    0   -5    2    6  346 -397   -7   -2   -1   -2  -16
 -374  359    8    0    0   -1   -1    1    0    1   -1    0
    0    0    0    0    0    0    0    0    0    0    0    0
    0    0    0    0    0    0    0    0    0    0    0    0
    0    0    0    0    0    0    0    0    0    0    0    0
    0    0    0   -1    5   -2    5   -1   -3    3   -3    1
   32  365 -311  -26    3   -3    4   -2    0    0   -1   -2
    2    0 -164 -379  346  211    8   -4    1    2   -7    6
   -2   -1    4    0   -6    7   -6    2    0    0    0    0
    0    1  219 -193  -28    0   -1   -1   -1   -1    4   -1
   -1  -97 -412  205  266   47   -4   -1   -1   -1    0    1
   -5    2   -1    0    0    0    0    0    0    0    0    0
   -6  174  -82  -86    0    0    0    0    0    0    0    0
    0    0    0    0    0    0    0    0    0    0    0    0
    0    0    0    0    0    0    0    0    0    0    0    0
    0    0    0    0    0    0    0    0    0    0    0    0
    0    0    0    0    0    0    0    0    0    0    0    0
    0    0    0    0    0    0    0    0    0    0    0    0
    0    0    0    0    0    0    0    0    0    0    0    0
    0    0    0    0    0    0    0    0    0    0    0 -255
 -255    0    0    0    0    0    0    0    0    0    0    0
    0    0    0    0   -1   -1    4   -2    4   -3   -3   -1
 -278  186   85   -3    6   -7   -1    6   -1    0    0   96
  -59  -64   58  -53    2  -41 -224 -110   10   51   47    8
 -160 -148   -3    0  -52   -4  -23  188  -97   -5    1   -1
   -1    0   -2    4   -1    0    0    0    0    0    0    0
    0    0    0   -2    4   -3  -15 -260  302   -4    1    4
   -2    5   -5    1    0    0    0    0    0    0    0    0
    0    0    0    0   -2    2    1    1    3    7    5   12
   13    8    7    3    2    1    2   -2    0    0    0    0
   -1    4    0  -15  305 -248  -50    3    2    1   -6 -344
  335   35    8   -6    1   -1    5   -5    1    0    1    0
    0    0    0    0    0    0    0    0    0    0    0    0
    0    0    0    0    0    0    0    0    0    0    0    0
    0    0    0    0    0    0    0    0    0    0    0    0
    0    0    0    1   -5    0   -1    0    0   -2    5   -6
    3   44  275 -350  -11    0   -2    4   -2   -2    3   -1
  -83 -367   42  357   28    1    2    0   -4   -5    7   -6
    1    0   -1    0    2   -6    7   -5    1    0    0    0
    0    1  219 -193  -27    0   -1    4   -1    0   -3  -36
 -329  -84  338  104    0    2   -2    0    0    0    0    0
    2   -5    5   -1    0    0    0    0    0    0    0    0
   -6  174  -82  -86    0    0    0    0    0    0    0    0
    0    0    0    0    0    0    0    0    0    0    0    0
    0    0    0    0    0    0    0    0    0    0    0    0
    0    0    0    0    0    0    0    0    0    0    0    0
    0    0    0    0    0    0    0    0    0    0    0    0
    0    0    0    0    0    0    0    0    0    0    0    0
    0    0    0    0    0    0    0    0    0    0    0    0
    0    0    0    0    0    0    0    0    0    0    0 -255
 -255    0    0    0    0    0    0    0    0    0    0    0
    0    0    0   -1    4   -1   -1    0   -2    3    3   -4
   -6 -292  256   47   -1    2    0   -5    1   -1    2    1
  240 -252   35  -11  -10   -3    4  -45  -90 -106 -110  -85
  -32    3    0  -59   22  -83  150   73  -94   -4    7   -2
    0    0    0   -1    0    0    0    0    0    0    0    0
    0   -1    0    0   -2    4 -127  -10  118   -2    0   -1
    0   -1    1    0    0    0   -1    1    0    0    0    0
    0   -1    0   -2   -1  -10   60  139  175  182  186  188
  191  194  188  179  174  113   32  -11   -7   -2   -1    0
    0   -2   -2  164   15 -167    0   -1   -3    3 -309  246
   80   -5   -2    1    0    0   -1    1    0    1   -4    1
    0    0    0    1   -1    1    0    0    0   -1   -1   -1
    0    0    0   -1    0   -2   -4   -5   -5   -3    1    0
    0   -1    0    0   -1    0    0    0    0    1    0    1
   -1    1   -1    0    0    3   -1    0    0    0   -1   -1
    7   -5   81  280 -303   -5   -1   -2    3    3   -6 -260
 -215  441  106   -4   -2   -1   -1   -1    4    4   -2    1
    0    0    0    0    0    1   -1    1    0    0    0    0
    0    1  219 -193  -27    0   -1   -1    0   -2 -167 -334
  374  183    8   -5   -1   -1    0    0    0    0    0    0
    0    1   -1    0    0    0    0    0    0    0    0    0
   -6  174  -82  -86    0    0    0    0    0    0    0    0
    0    0    0    0    0    0    0    0    0    0    0    0
    0    0    0    0    0    0    0    0    0    0    0    0
    0    0    0    0    0    0    0    0    0    0    0    0
    0    0    0    0    0    0    0    0    0    0    0    0
    0    0    0    0    0    0    0    0    0    0    0    0
    0    0    0    0    0    0    0    0    0    0    0    0
    0    0    0    0    0    0    0    0    0    0    0 -255
 -255    0    0    0    0    0    0    0    0    0    0    0
    0    0    0    0   -1    0    0    0    0   -1   -1    0
   -1  -16 -299  276   13    6   -3    1    0    1   -2   -4
  101   16  -67   10  -25   -1   -1    0   -1   -2    4   -2
   -1   -7  -63   34 -103  115   57   17  -59    0   -2    0
    0    0    0    0    0    0    0    0    0    0    0    0
   -2    4   -2    0    0  -11 -307  344   -6   -1    0    0
    0    0    0    0    0   -1    5   -6    2    1    0    0
   -1    5   -6   16  106  311  111  -86 -158 -159 -176 -185
 -202 -203 -180 -159 -149  -27  196  283  122   45    5   -5
   -1   -1   34  236 -304    4   -1   -1    4 -183   63  155
  -10    4   -1    1    0    0    0    0    0    0    1    0
    0    0    1   -4    7   -6    1    0   -2    3    3    2
   -4   -8    8   40   50   85  112  115  117   99   51   44
   20    2   -6   -2    5   -2    0    0    1   -4    2   -6
    7   -6    5   -2   -2    4   -3    1   -1    0    0    0
   -5    4   -6  135   69 -213    2   -1   -1   -1 -202  303
  236   -7   -4    3   -1    0    0    0   -1   -1    0    0
    0    0    0    0    0    0    0    0    0    0    0    0
    0    1  219 -193  -27   -2    4   -1   -1 -139  129  316
   26   -7    3   -1    0    0    0    0    0    0    0    0
    0    0    0    0    0    0    0    0    0    0    0    0
   -6  174  -82  -86    0    0    0    0    0    0    0    0
    0    0    0    0    0    0    0    0    0    0    0    0
    0    0    0    0    0    0    0    0    0    0    0    0
    0    0    0    0    0    0    0    0    0    0    0    0
    0    0    0    0    0    0    0    0    0    0    0    0
    0    0    0    0    0    0    0    0    0    0    0    0
    0    0    0    0    0    0    0    0    0    0    0    0
    0    0    0    0    0    0    0    0    0    0    0 -255
 -255    0    0    0    0    0    0    0    0    0    0    0
    0    0    0    0    0    0    0    0    0    0    0    0
    0   -4  -37 -236  291   -6    1    0    0   -4    0    3
   13  142 -134   25  -29    3   -3   -1    3   -1   -4    3
  -12  -55   52 -101  115   12  128 -136  -10    0    0    0
    0    0    0    0    0    0    0    0    0    0    0   -1
    4   -4    4   -1   -1 -112   38  118   -2   -1    0    0
    0    0    0    0    0    0   -2    6   -4   -3    1   -1
    1   -9   99  254   34 -314 -175  -88  -42  -34  -18  -16
   -9  -10  -21  -30  -56 -111 -212 -266    8  158  235  123
   -3  -13  309 -226  -44   -2    0   -1  -69 -247  293  -13
    8   -3    1   -4    1    0    0    0    0    0    0    0
    0    0    1   -3   -5    6    0   -1    3   -1   -6   -5
   68  218  207  136  127   53   -9   10   -7   19  126  127
  175  233  133    5  -13    5    0    0    0    1   -1    6
   -6    1   -3    4    5   -9   10   -7    5   -1    0   -2
    8   -5    3  -20  334   86  -80   -1    0   -1 -241  284
   -1   -2    5   -3    0    0    0    0    0    0    0    0
    0    0    0    0    0    0    0    0    0    0    0    0
    0    1  219 -193  -28    3   -2   -1    4 -178  141   78
    2   -3    3   -1    0    0    0    0    0    0    0    0
    0    0    0    0    0    0    0    0    0    0    0    0
   -6  174  -82  -86    0    0    0    0    0    0    0    0
    0    0    0    0    0    0    0    0    0    0    0    0
    0    0    0    0    0    0    0    0    0    0    0    0
    0    0    0    0    0    0    0    0    0    0    0    0
    0    0    0    0    0    0    0    0    0    0    0    0
    0    0    0    0    0    0    0    0    0    0    0    0
    0    0    0    0    0    0    0    0    0    0    0    0
    0    0    0    0    0    0    0    0    0    0    0 -255
 -255    0    0    0    0    0    0    0    0    0    0    0
    0    0    0    0    0    0    0    0    0    0    0    0
   -2    7   -1  -89 -178  241   -2   -7    5    0    1   -3
    2  164 -187   36  -53   -3    8   -3    2   -3    7  -32
  -39   61 -125  103   19   11   93 -107   -1    0    0    0
    0    0    0    0    0    0    0    0    0    0    0    0
   -2    4   -2    0   -3 -173  159   41    2   -1    0    0
    0    0    0    0    0    0    0    0    1    2   -1    3
   -7  164  175 -355 -115  -14    4   -1   -1    0   -1    0
    0    0    0   -1    0    0   -1  -20 -113 -178 -282    3
  323  249   12 -161   -4    0   -2  -13 -288  369   -6    0
   -3    0   -1    1    0    0    0    0    0    0    0    0
    0    0    0    4    0   -1   -5    1   -6   18  119  294
  133 -225 -231 -180 -171 -144 -116 -120 -118 -132 -168 -173
 -198 -285  -31  312  192   61  -13    1    0    0   -1   -1
    0    3    5   -6   -5    6   -3    0    0    0    0   -1
   -3    3   -7  177  233 -247   -1   -1    0   -1 -248  247
    2    1   -6    6   -1    0    0    0    0    0    0    0
    0    0    0    0    0    0    0    0    0    0    0    0
    0    1  219 -193  -28    3   -1   -1   -1 -177  103   76
   -2   -1   -1    0    0    0    0    0    0    0    0    0
    0    0    0    0    0    0    0    0    0    0    0    0
   -6  174  -82  -86    0    0    0    0    0    0    0    0
    0    0    0    0    0    0    0    0    0    0    0    0
    0    0    0    0    0    0    0    0    0    0    0    0
    0    0    0    0    0    0    0    0    0    0    0    0
    0    0    0    0    0    0    0    0    0    0    0    0
    0    0    0    0    0    0    0    0    0    0    0    0
    0    0    0    0    0    0    0    0    0    0    0    0
    0    0    0    0    0    0    0    0    0    0    0 -255
 -255    0    0    0    0    0    0    0    0    0    0    0
    0    0    0    0    0    0    0    0    0    0    0    0
    0   -4    0    6 -168   75   93   -2    0    0   -5    7
  -10   69   55  -92   -5  -13   -3   -3    3   -4  -47   -4
   43 -114   94   24    1   27   61  -74   -1    0    0    0
    0    0    0    0    0    0    0    0    0    0    0    0
   -1   -1    0    0   -8 -208  200   12    2   -1    0    0
    0    0    0    0    0    0    1   -4    2   -4   -2   -3
  166   52 -286    1   -5    4   -2    0    0    0    0    0
    0    0    0    0    0   -1    4   -1    0   -4  -17 -126
 -270  113 -179   -7    3   -2    4 -176   58   94    2   -2
    4   -2    4   -2    0    0    0    0    0    0    0    0
    0    2   -6    4   -1    2    3   -8  164  261  -48 -261
 -171  -47    0   -8    3   -3   -1    0   -1    0    0   -3
   -5  -13 -108 -279 -141  108  278    6   -2   -1    4   -2
    0    1   -7    7    0   -1   -1    6   -5    1   -2    4
   -5    4  320  -36 -278   -1    1   -1   -1    2 -241  237
    2    1    1   -5    1    0    0    0    0    0    0    0
    0    0    0    0    0    0    0    0    0    0    0    0
    0    1  219 -193  -27   -2   -2    4   -1 -177  103   76
   -1   -1    0    0    0    0    0    0    0    0    0    0
    0    0    0    0    0    0    0    0    0    0    0    0
   -6  174  -82  -86    0    0    0    0    0    0    0    0
    0    0    0    0    0    0    0    0    0    0    0    0
    0    0    0    0    0    0    0    0    0    0    0    0
    0    0    0    0    0    0    0    0    0    0    0    0
    0    0    0    0    0    0    0    0    0    0    0    0
    0    0    0    0    0    0    0    0    0    0    0    0
    0    0    0    0    0    0    0    0    0    0    0    0
    0    0    0    0    0    0    0    0    0    0    0 -255
 -255    0    0    0    0    0    0    0    0    0    0    0
    0    0    0    0    0    0    0    0    0    0    0    0
   -1    1    2   -3   -2 -295  301   21   -7    4    2   -6
   -1   -4  233 -184   10  -25    2    7  -21  -58   39   22
 -121  103   24   -2   -8  124  -76  -28   -1    0    0    0
    0    0    0    0    0    0    0    0    0    0    0   -1
    4   -2    0   -2  -19 -228  247  -10    2   -1    0    0
    0    0    0    0    0    0    0    1    0   -2    8   35
  196 -305    8   -4    4   -2    0    0   -1    0    0   -1
    0    0    0    0    0    0   -1    0    0   -1    4   -4
   -8  -91   -8   -2   -1   -1  -45 -267  328  -15    3   -1
   -1    0   -2    4   -1    0    0    0    0    0    0    0
    1   -5    6    0   -6   -2   62  280    5 -314 -101  -17
   -2    4   -4    4   -5    8   -2   -1    4   -1    0    0
    0   -1    4   -1  -62 -206 -244  329  128  -14   -2    4
    0   -6    8   -6    1    0    0   -6    2   -1    4  -12
   90  339 -265 -152    3   -4    3   -1   -1    3 -248  236
   15   -7    5    0    0    0    0    0    0    0    0    0
    0    0    0    0    0    0    0    0    0    0    0    0
    0    1  219 -193  -28    3    3   -3    0 -177  103   76
   -1   -1    0    0    0    0    0    0    0    0    0    0
    0    0    0    0    0    0    0    0    0    0    0    0
   -6  174  -82  -86    0    0    0    0    0    0    0    0
    0    0    0    0    0    0    0    0    0    0    0    0
    0    0    0    0    0    0    0    0    0    0    0    0
    0    0    0    0    0    0    0    0    0    0    0    0
    0    0    0    0    0    0    0    0    0    0    0    0
    0    0    0    0    0    0    0    0    0    0    0    0
    0    0    0    0    0    0    0    0    0    0    0    0
    0    0    0    0    0    0    0    0    0    0    0 -255
 -255    0    0    0    0    0    0    0    0    0    0    0
    0    0    0    0    0    0    0    0    0    0    0    0
   -2    7   -4   -1    4  -27 -263  225    2    3   -6    4
    1   -2  113  -64   -3  -35   -8  -46  -13   51  -19 -110
  106   30   -7   -1   10  130 -129    3   -1    0    0    0
    0    0    0    0    0    0    0    0    0    0    0    0
   -2    4   -2    4  -81  -53  154  -13    3   -1    0    0
    0    0    0    0   -1    0   -1    0   -2    4  -12  191
 -168  -60   -2    0   -1   -1    0   -1    4   -1   -1    4
   -1    0    0    0    0    0    0    0    0   -1   -3    4
   -2    0   -1    4   -2    0 -224  271   19   -5   -1    0
    0   -1    0   -1    0    0    0    0    0    0    0    0
    0    1    0   -6    1  157  213 -284 -137   -4    4   -1
    0   -1   -1   -2    4   -3    0    0   -1    0    0    0
    0    0   -1   -1    3    3  -56 -304    5  294  -13   -1
   -1    5   -6    2    0   -1    3    4   -1    0   -7  200
  169 -314  -61    8   -4    4   -3    0    0   -3 -239  247
   -9    3   -1    0    0    0    0    0    0    0    0    0
    0    0    0    0    0    0    0    0    0    0    0    0
    0    1  219 -193  -28   -1   -3    4   -1 -177  103   75
   -1   -1    0    0    0    0    0    0    0    0    0    0
    0    0    0    0    0    0    0    0    0    0    0    0
   -6  174  -82  -86    0    0    0    0    0    0    0    0
    0    0    0    0    0    0    0    0    0    0    0    0
    0    0    0    0    0    0    0    0    0    0    0    0
    0    0    0    0    0    0    0    0    0    0    0    0
    0    0    0    0    0    0    0    0    0    0    0    0
    0    0    0    0    0    0    0    0    0    0    0    0
    0    0    0    0    0    0    0    0    0    0    0    0
    0    0    0    0    0    0    0    0    0    0    0 -255
 -255    0    0    0    0    0    0    0    0    0    0    0
    0    0    0    0    0    0    0    0    0    0    0    0
    0   -4    4   -1   -1   -3 -140   83  108   -7    0    3
    3   -4   71   19  -38  -73  -39   24   46  -61  -73  125
    7   -7    5   -4  109  -93  -32   -2    0    0    0    0
    0    0    0    0    0    0    0    0    0    0    0    0
    0   -1    0   -1 -117   13  114    2    0   -1    0    0
    0    0    0   -1    4   -2    4   -2    4   -2   -1  264
 -288   -1    0    0   -1    4   -1    0   -1    0    0   -1
    0    0    0    0   -1    0    0    0   -1    3    3   -2
   -1    0    0   -1   -2  -51 -227  200    3    3    3   -1
   -2    4   -1    0    0    0    0    0    0    0    0    0
    0   -1    0   -5  223   68 -304  -23   -3    4   -2    0
    0   -1    4   -1   -1    0    0    0    0    0    0    0
    0    0    0    0   -1   -2   -2    1 -198 -132  328    1
   -1    2    0    0   -1    0   -1   -3    1    6  308  -12
 -274   -7   -3   -2    0   -2    4   -1    0   -1 -244  239
    9   -1    0   -1    0    0    0    0    0    0    0    0
    0    0    0    0    0    0    0    0    0    0    0    0
    0    1  219 -194  -23   -2    4   -2    0 -177  101   80
   -2   -1    0    0    0    0    0    0    0    0    0    0
    0    0    0    0    0    0    0    0    0    0    0    0
   -6  174  -82  -86    0    0    0    0    0    0    0    0
    0    0    0    0    0    0    0    0    0    0    0    0
    0    0    0    0    0    0    0    0    0    0    0    0
    0    0    0    0    0    0    0    0    0    0    0    0
    0    0    0    0    0    0    0    0    0    0    0    0
    0    0    0    0    0    0    0    0    0    0    0    0
    0    0    0    0    0    0    0    0    0    0    0    0
    0    0    0    0    0    0    0    0    0    0    0 -255
 -255    0    0    0    0    0    0    0   -1    0    0    0
    0    0    0    0    0    0    0    0    0    0    0    0
   -1    4   -2    0   -2    7    0 -294  263   19    0   -4
   -5    4   34   88 -117    0   44   13 -100   -8  105   -4
    1   -3    2   10  137 -119   -1    3   -1    0    0    0
    0    0    0    0    0    0    0    0    0    0    0    0
    0    0    0    0 -148   99   82   -3    2   -1    0    0
    0    0    0    0   -1    0   -1    0    0   -6   37   81
 -187    3   -1    0    0   -1    0    0    0    0    0    0
    0    0    0   -1    4   -1    0    0    0   -1   -1   -1
    4   -1    0   -2    7 -260  281   33    1   -2   -1   -1
    4   -2    0    0    0    0    0    0   -1    1   -1   -1
   -2    5  -19  312  -77 -222   -2   -1    0   -1    0    0
    0    0   -1    0    0    0    0    0    0    0    0    0
    0    0    0    0   -1    4   -1   -2   -1 -123 -286  337
  -10    1   -2   -2    2   -2   -2   -1   75  384 -328 -141
    8   -5    4   -1    0    0   -1    0    0   -1 -243  241
    2    0   -1    4   -1    0    0    0    0   -1    0    0
    0    0    0    0    0    0    0    0    0    0    0    0
    0    1  219 -193  -28    0   -1    0    0 -178  107   74
   -1    0    0    0    0    1   -1    0    0    0    0    0
    0    0    0   -1    0    0    0    0    0    0    0    0
   -6  174  -82  -86    0    0    0    0    0    0    0    0
    0    0    0    0    0    0    0    0    0    0    0    0
    0    0    0    0    0    0    0    0    0    0    0    0
    0    0    0    0    0    0    0    0    0    0    0    0
    0    0    0    0    0    0    0    0    0    0    0    0
    0    0    0    0    0    0    0    0    0    0    0    0
    0    0    0    0    0    0    0    0    0    0    0    0
    0    0    0    0    0    0    0    0    0    0    0 -255
 -255    0    0    0    0    0    0   -1    4   -1   -1    0
    0   -1    0   -1    0    0    0   -1   -1    0    0    0
    0   -1    0    0   -2   -3    3  -54 -155  161   -1    0
    0    0   12  147 -167   20  -29 -112   65   64    1   -1
    1   -3   -4  156 -116  -31    2   -2    0    0    0    0
    0    0    0    0    0    0    0    0    0    0    0    0
    0    0    0    0 -150   91   77   -4   -1    0    0    0
    0    0    0    0    0   -1    1    0   -2    5    1  247
 -281   -2    0    0   -1    0    0    0    0    0    0    0
    0   -1    0    0   -1    0    0    0    0    0    0    0
   -1    0    0    0  -68 -130  219   -8   -2    0    0    0
   -1    0    0    0    0    0   -1   -1    6   -7    4    2
    3  -12  285 -160 -172    2    3   -1    0    0    0    0
    0    0    0    0    0    0    0    0    0    0    0    0
    0    0    0    0    0   -1    0    0   -1    3  -99 -212
  350   -6    0    0    4    1   -6  233  126 -322  -40    4
   -3    0   -1    0    0    0    0    0    0   -1 -243  241
    3    0    0   -1    1    0    0    1   -1    4   -1    0
    0    0    0    0    0    0    0    0    0    0    0    0
    0    1  219 -193  -27    0    0    0    0 -177  102   76
    0   -5    1   -1    1   -5    6   -1    0    0    0    0
    0    0   -2    4   -1    0    0    0    0    0    0    0
   -6  174  -82  -86    0    0    0    0    0    0    0    0
    0    0    0    0    0    0    0    0    0    0    0    0
    0    0    0    0    0    0    0    0    0    0    0    0
    0    0    0    0    0    0    0    0    0    0    0    0
    0    0    0    0    0    0    0    0    0    0    0    0
    0    0    0    0    0    0    0    0    0    0    0    0
    0    0    0    0    0    0    0    0    0    0    0    0
    0    0    0    0    0    0    0    0    0    0    0 -255
 -255    0    0    0    0    0    0    0   -1   -1    4   -1
   -2    4   -3    4   -1    0   -1    3    3   -1    0    0
    0   -1   -1   -2    8   -2   -1    0 -220  253   17    1
   -3    7  -16  194 -184  -80  -80  130   21   -8   -4    2
    2   -3   49   39  -94    2    1   -2    0    0    0    0
    0    0    0    0    0    0    0    0    0    0    0    0
   -1    0    0   -1 -127   36  104   -5    0    0    0    0
    0    0    0    0   -1    4   -5    1    5   -7   -4  192
 -196  -72   -1   -1    4   -1    0    0    0    0    0    0
   -2    4   -1    0    0   -1    0    0    0    0    0    0
    0    0    0   -3 -153  121   56    2   -1    0    0    0
    0    0    0    0    0   -1    4   -1   -6    5   -1   -2
   -7  223  -28 -184    4   -2   -1    0    0    0    0    0
    0    0    0    0    0    0    0    0    0    0    0    0
    0    0    0    0    0    0    0    0    0   -2    3 -141
 -150  214   -5    1   -1   22  288  -40 -252   -8   -1   -1
    0    0    0    0    0    0    0    0    0   -1 -243  241
    3    0    0    1   -3    1    1   -5    1   -1    0    0
    0    0    0    0    0    0    0    0    0    0    0    0
    0    1  219 -193  -27    0    0    0    0 -177  103   76
   -1   -1   -1    5   -1    2   -6    1    0    0    0    0
    0   -1    4   -2    0    0    0    0    0    0    0    0
   -6  174  -82  -86    0    0    0    0    0    0    0    0
    0    0    0    0    0    0    0    0    0    0    0    0
    0    0    0    0    0    0    0    0    0    0    0    0
    0    0    0    0    0    0    0    0    0    0    0    0
    0    0    0    0    0    0    0    0    0    0    0    0
    0    0    0    0    0    0    0    0    0    0    0    0
    0    0    0    0    0    0    0    0    0    0    0    0
    0    0    0    0    0    0    0    0    0    0    0 -255
 -255    0    0    0    0    0    0    0    0   -1   -1   -1
    4  -19   -5   -6    0   -1    0   -1   -1   -1    0    0
   -2    2    3   -1   -8   -9  -13  -23  -67 -278  244   -3
   -3   -5    2  111 -142   20   84    2   -1    0    7   -4
   -2    0  190 -158   -5   -3    2    3   -1    0    0    0
    0    0    0    0    0    0    0    0    0    0    0   -1
    4   -1    0    0 -111    6  121   -5    0    0    0    0
    0    0    0    0   -1    3    1   -4    0    0   -3   11
  312 -388  -98  -15   -1   -1    0    0    0    0    0   -1
    4   -3    0    0   -2    4   -2    0    0    0    0    0
    0    0   -2    8 -303  260    3    3   -1    0    0    0
    0    0    0    0   -1    0   -2    3   -1    4   -6    2
  106   87 -246    4   -3    0    0    0    0    0    0    0
    0    0    0    0    0    0    0    0    0    0    0    0
    0    0    0    0    0    0    0    0    0   -1   -3    7
 -236  171  117  -14   88  347 -291 -133   -2    3   -1   -1
    0    0    0    0    0    0    0    0    0   -1 -243  241
    3    0    0    1   -3    2   -1    5   -1   -1    0    0
    0    0    0    0    0    0    0    0    0    0    0    0
    0    1  219 -193  -27    0    0    0    0 -177  103   76
   -2    3    0   -6    1   -1    5   -1    0    1   -1    0
    1    0   -1    0    0    0    0    0    0    0    0    0
   -6  174  -82  -86    0    0    0    0    0    0    0    0
    0    0    0    0    0    0    0    0    0    0    0    0
    0    0    0    0    0    0    0    0    0    0    0    0
    0    0    0    0    0    0    0    0    0    0    0    0
    0    0    0    0    0    0    0    0    0    0    0    0
    0    0    0    0    0    0    0    0    0    0    0    0
    0    0    0    0    0    0    0    0    0    0    0    0
    0    0    0    0    0    0    0    0    0    0    0 -255
 -255    0    0    0    0    0    0    0   -1    4   -1    0
  -18   17  -24  -32  -45  -29  -27  -22  -20  -11  -17  -22
  -20  -23  -36  -46  -22  -22  -19    6   42  -98   65   42
    2    2   -7   42   64  -24    0   -4    0    6   -5    2
   -1  153 -137  -31    7   -2   -1   -1    0    0    0    0
    0    0    0    0    0    0    0    0    0    0    0    0
   -1    0    0    0  -76  -65  162   -6    0    0    0    0
    0    0    0    0    0   -1    0    1   -1    4    3   -4
   20  344  -98 -258 -162  -32   -4   -2   -2    0    0   -1
   -2    3   -1   -2    4   -3    4   -1   -1    0    0    0
    0    0    0  -84 -105  179   -5   -1    0    0    0    0
    0    0    0   -1    4   -1   -1    3   -1   -2   -2   22
  347 -325    3   -5    4   -1    0    0    0    0    0    0
    0    0    0    0    0    0    0    0    0    0    0    0
    0    0    0    0    0    0    0    0   -1    4   -2    1
    3 -355  265  258  155 -350  -37   -1    0   -1   -1    4
   -1    0    0    0    0    0    0    0    0   -1 -243  241
    3    0    0    0    1   -4    0   -2   -2    4   -1    0
    0    0    0    0    0    0    0    0    0    0    0    0
    0    1  219 -193  -27    0    0    0    0 -177  103   76
    0   -3   -1    5    0   -1   -1   -1    0   -5    5   -1
   -4    1    0    0    0    0    0    0    0    0    0    0
   -6  174  -82  -86    0    0    0    0    0    0    0    0
    0    0    0    0    0    0    0    0    0    0    0    0
    0    0    0    0    0    0    0    0    0    0    0    0
    0    0    0    0    0    0    0    0    0    0    0    0
    0    0    0    0    0    0    0    0    0    0    0    0
    0    0    0    0    0    0    0    0    0    0    0    0
    0    0    0    0    0    0    0    0    0    0    0    0
    0    0    0    0    0    0    0    0    0    0    0 -255
 -255    0    0    0    0    0    0    0    0   -1    0   -1
  -34   66   31   36   50   26    9    4    0  -16  -12    6
    7    5   33   50   24   33   28   14   -2  -25 -116  137
   -4    1   -4   32   30  -63    5   -3    4   -5   -2   -4
  124  -21  -71    1   -3   -1   -1    0    0    0    0    0
    0    0    0    0    0    0    0    0    0    0    0    0
    0    0    0   -1  -21 -215  238  -13    1    0    0    0
    0    0    0    0    0   -1    0    0    0   -6    0    5
   -5   -4  136  283  102 -240 -236 -174 -139 -103  -64  -18
   -3    3   -3    4   -2    0   -1   -1    4   -1   -1    0
    0   -1    0 -224  270   21   -3   -4    1    0    0    0
    0    0    0    0   -1    0    0   -1   -2    3    0  257
 -324  -33   -3    4   -3    0    0   -1    0    0    0    0
    0    0    0    0    0    0    0    0    0    0    0    0
    0    0    0    0    0    0    0    0   -1   -1    0   -1
   -3  -53  -40   53 -237    0   -1    0    0   -1    0   -1
    0    0    0    0    0    0    0    0    0   -1 -243  241
    3    0    0   -1    4   -2    2   -4   32    1    1    0
    0    0    0    0    0    0    0    0    0    0    0    0
    0    1  219 -193  -27    0    0    0    0 -177  103   77
   -6    5   -2   -2   -6    5   -8   10   16   -1   -1    4
   -1    0    0    0    0    0    0    0    0    0    0    0
   -6  174  -82  -86    0    0    0    0    0    0    0    0
    0    0    0    0    0    0    0    0    0    0    0    0
    0    0    0    0    0    0    0    0    0    0    0    0
    0    0    0    0    0    0    0    0    0    0    0    0
    0    0    0    0    0    0    0    0    0    0    0    0
    0    0    0    0    0    0    0    0    0    0    0    0
    0    0    0    0    0    0    0    0    0    0    0    0
    0    0    0    0    0    0    0    0    0    0    0 -255
 -255    0    0    0    0    0    0    0    0    0    0    0
  -31   21   11   -6   -2    7   18   17   20   28   27   19
   15    8    3    1    5   -2   -4   -3  -25  -97 -218  155
   21   -2   -3   17   48  -58   -4    5   -8    7   -5  102
    0 -111   -5    7   -3    2    3   -2    0    0    0    0
    0    0    0    0    0    0    0    0    0    0    0    0
    0    0   -1    0   -8 -214  206   11    0    0    0    0
    0    0    0    0   -1    4   -1   -1    3    5   -5    0
    2    0    2   -1   81  236  203  128   77  -31 -102 -212
 -253 -203 -156 -122  -80  -45  -31  -23  -12   -3    4   -1
   -2    4  -25 -201  238   -8    4    0    0    0    0    0
    0    0    0    0    0    0    1   -1    4   -5   56  173
 -187    3   -1   -2    4   -1   -1    4   -1    0    0    0
    0    0    0    0    0    0    0    0    0    0    0    0
    0    0    0    0    0    0    0   -1    4   -1    0    0
    0   -2  -62  -87    3   -2    0    0   -2    4   -1    0
    0    0    0    0    0    0    0    0    0   -1 -243  241
    3    0    0    0   -2    0    3  170  114   24   -1    1
    0    0    0    0    0    0    0    0    0    0    0    0
    0    1  219 -193  -27    0    0    0    0 -177  103   76
    1   -7    3    7    0  -11  103  225  -12   19   -5   -1
    4   -1    0    0    0    0    0    0    0    0    0    0
   -6  174  -82  -86    0    0    0    0    0    0    0    0
    0    0    0    0    0    0    0    0    0    0    0    0
    0    0    0    0    0    0    0    0    0    0    0    0
    0    0    0    0    0    0    0    0    0    0    0    0
    0    0    0    0    0    0    0    0    0    0    0    0
    0    0    0    0    0    0    0    0    0    0    0    0
    0    0    0    0    0    0    0    0    0    0    0    0
    0    0    0    0    0    0    0    0    0    0    0 -255
 -255    0    0    0    0    0    0    0    0    0    0    0
  -23   14   19    1    0   -1   -2   -1   -1   -2   -2   -1
    0    5    6   -4  -32  -55  -69  -71  -47   92   77 -100
   74    5    0   14   57  -76    9   -3   -1   -3   91   80
 -135    0    6   -4   -1    3   -3    4   -1    0    0    0
    0    0    0    0    0    0    0    0    0    0    0    0
   -1   -2    4   -1   -4 -175  163   36    0    0    0    0
    0    0    0    0    0   -1    0    1   -1   -1    1    1
   -4    1    0   -2   -5  -11   17   44   73  130  175  229
  279  182   94   15  -72 -157 -165 -163 -189 -204 -177 -122
  -60   -4  -62  -92  152    2   -3    0    0    0    0    0
    0    0    0    0    0    1   -4    2   -2   -8  308 -281
  -31   -1    0    0   -1    0    0   -1    0    0    0    0
    0    0    0    0    0    0    0    0    0    0    0    0
    0    0    0    0    0    0    0    0   -1    0    0    0
    0   -1    4   -1   -1   -1    0   -1    4   -3    0    0
    0    0    0    0    0    0    0    0    0   -1 -243  241
    3    0    0    0   -7   54  312    7 -565  219    7    0
    0    0    0    0    0    0    0    0    0    0    0    0
    0    1  219 -193  -27    0    0    0    0 -177  103   76
   -1    0    0  -11   16  277  196 -633  154   30    2    0
   -1    0    0    0    0    0    0    0    0    0    0    0
   -6  174  -82  -86    0    0    0    0    0    0    0    0
    0    0    0    0    0    0    0    0    0    0    0    0
    0    0    0    0    0    0    0    0    0    0    0    0
    0    0    0    0    0    0    0    0    0    0    0    0
    0    0    0    0    0    0    0    0    0    0    0    0
    0    0    0    0    0    0    0    0    0    0    0    0
    0    0    0    0    0    0    0    0    0    0    0    0
    0    0    0    0    0    0    0    0    0    0    0 -255
 -255    0    0    0    0    0    0    0    0    0    0   -1
  -29 -155  -27  -53  -38  -34  -31  -28  -28  -32  -34  -39
  -50  -59  -85  -90  -25   45   72   67   58    9   -6  -71
   67    6    1   12   57  -66    1   -3   -2  101   30 -145
    4   -4   -2   -3    0   -2   -1   -1    0    0    0    0
    0    0    0    0    0    0    0    0    0    0    0   -1
    3    3   -2    0    0 -137   88   88   -3    0   -1    0
    0    0    0   -1    0    0    1   -4    1    0    0    0
    1    1   -5    4    3   -1   -2    3    2   -7   -5  -16
   -5   18   69  105  154  188  190  176  183  197  149   17
 -100 -296 -308  -54  112    5    2    0    0    0    0    0
    0    0    0    0    0    0    2   -4   -2   77   91 -180
    4   -1    0    0    0    0    0    0    0    0    0    0
    0    0    0    0    0    0    0    0    0    0    0    0
    0    0    0    0    0    0    0    0    0    0    0    0
    0    0   -1    0   -1    4   -1    0   -2    4   -1    0
    0    0    0    0    0    0    0    0    0   -1 -242  241
    3   -1   -1   -4  172  322 -361 -184 -163  204    6    0
    0    0    0    0    0    0    0    0    0    0    0    0
    0    1  219 -193  -27    0    0   -1    0 -177  103   76
   -1   -2   -9   94  397 -286 -228 -197  177   34    0    0
    0    0    0    0    0    0    0    0    0    0    0    0
   -6  174  -82  -86    0    0    0    0    0    0    0    0
    0    0    0    0    0    0    0    0    0    0    0    0
    0    0    0    0    0    0    0    0    0    0    0    0
    0    0    0    0    0    0    0    0    0    0    0    0
    0    0    0    0    0    0    0    0    0    0    0    0
    0    0    0    0    0    0    0    0    0    0    0    0
    0    0    0    0    0    0    0    0    0    0    0    0
    0    0    0    0    0    0    0    0    0    0    0 -255
 -255    0    0    0    0    0    0    0    0    0    0  -29
  -20  213   40   23   -1  -10  -14  -24  -25   -9  -11    3
   15   39   72   86   52   21    3    4   -6    7  -10  -38
   26   30   -2   18   55  -65    0   -4  123   25 -136  -34
  -37  -30  -33  -34  -24    2    3   -1    0    0    0    0
    0    0    0    0    0    0    0    0    0    0    0    0
   -1   -1    0    0    0  -35 -234  302  -15   -3    4   -1
    0    0   -2    4   -1    0    0    1    0    0    0    0
    0    0    1   -1   -1    0    0   -2    2    2    1    2
    0    3   -3   -2   -4   -4    5   12   18   19   51  113
  180  289  128   51   21    1   -1   -4    1    0    0    0
    0    0    0    0    0    0   -1   -1    7  174 -183  -51
   -1    0    0    0    0    0    0    0    0    0    0    0
    0    0    0    0    0    0    0    0    0    0    0    0
    0    0    0    0    0    0    0    0    0    0    0    0
    0    0    0    0    0   -1    0    0    0   -1    0    0
    0    0    0    0    0    0    0    0    0    0 -246  242
    1    3   21  341   12 -340  -24  -28 -181  210    5    0
    0    0    0    0    0    0    0    0    0    0    0    0
    0    1  219 -193  -27    0   -1    3   -1 -177  102   76
   -3   -4  284  161 -356  -67   -6 -202  175   33    0    0
    0    0    0    0    0    0    0    0    0    0    0    0
   -6  174  -82  -86    0    0    0    0    0    0    0    0
    0    0    0    0    0    0    0    0    0    0    0    0
    0    0    0    0    0    0    0    0    0    0    0    0
    0    0    0    0    0    0    0    0    0    0    0    0
    0    0    0    0    0    0    0    0    0    0    0    0
    0    0    0    0    0    0    0    0    0    0    0    0
    0    0    0    0    0    0    0    0    0    0    0    0
    0    0    0    0    0    0    0    0    0    0    0 -255
 -255    0    0    0    0    0    0    0    0    0   -2  -13
  -75   88   16   27   31   44   46   52   53   43   40   37
   28   24    2    0    2   -4    0   -1    0   -2   -1   -5
 -106  114   -1   23   39  -64    7  155  -28 -155  -28   35
   44   40   33   56    6  -53  -15    0    0    0    0    0
    0    0    0    0    0    0    0    0    0    0    0    0
   -1    0    0    0   -1    4 -198  152   64    7   -3   -2
    0    0    3   -2    0    0    0    0    0    0    0    0
    0    0    0    0    0    0    0    0   -1   -1   -1   -1
   -1   -1    0    0    0    0   -1   -1   -1    0   -3   -3
  -12   -9   23   25   -2    4   -1    2    0    0    0    0
    0    0    0    0    1   -1    4   -2   11  217 -205  -15
    0    0    0    0    0    0    0    0    0    0    0    0
    0    0    0    0    0    0    0    0    0    0    0    0
    0    0    0    0    0    0    0    0    0    0    0    0
    0    0    0    0    0    0    0    0    0    0    0    0
    0    0    0    0    0    0    0    0    0    0 -247  240
    0  146  395 -374 -155    0   -2  -27 -185  201    7    0
    0    0    0    0    0    0    0    0    0    0    0    0
    0    1  219 -193  -27    0   -1    3   -1 -179  108   70
   90  404 -227 -240  -10   -2   -4 -202  175   33    0    0
    0    0    0    0    0    0    0    0    0    0    0    0
   -6  174  -82  -86    0    0    0    0    0    0    0    0
    0    0    0    0    0    0    0    0    0    0    0    0
    0    0    0    0    0    0    0    0    0    0    0    0
    0    0    0    0    0    0    0    0    0    0    0    0
    0    0    0    0    0    0    0    0    0    0    0    0
    0    0    0    0    0    0    0    0    0    0    0    0
    0    0    0    0    0    0    0    0    0    0    0    0
    0    0    0    0    0    0    0    0    0    0    0 -255
 -255    0    0    0    0    0    0    0    0   -1    4   -4
 -125  145   -3   -1    1    5   -4    0    1   -7    2    3
    3   -2    1    0    0    3   -1   -1    0   -1    4   -1
  -75   50   13   42    5  -14  182 -118 -124   37   43    9
   -7   -7  -16   -1   20   50  -22  -18    0    0    0    0
    0    0    0    0    0    0    0    0    0    0    0   -1
    4   -1    0    0    0   -1  -39 -228  235   -4   -1    7
   -1   -6    5   -1    0    0    0    0    0    0    0    0
    0    0    0    0    0    0    0    0    0    0    0    0
    0    0    0    0    1    0    0    0    0    0   -1    3
   -1   -3    3    3   -1   -5    2   -4    1    0    0    0
    0    0    0    1   -4    1    0   -8   54  171 -192    0
    0    0    0    0    0    0    0    0    0    0    0    0
    0    0    0    0    0    0    0    0    0    0    0    0
    0    0    0    0    0    0    0    0    0    0    0    0
    0    0    0    0    0    0    0    0    0    0    0    0
    0    0    0    0    0    0    0    0   -1   -2 -240  269
  366  -33 -341  -29    4   -3    4  -35 -174  205    6    0
    0    0    0    0    0    0    0    0    0    0    0    0
    0    1  219 -193  -27    0    0   -1   -2 -172  108  330
  123 -330  -89   -1   -2    0   -8 -202  175   33    0    0
    0    0    0    0    0    0    0    0    0    0    0    0
   -6  174  -82  -86    0    0    0    0    0    0    0    0
    0    0    0    0    0    0    0    0    0    0    0    0
    0    0    0    0    0    0    0    0    0    0    0    0
    0    0    0    0    0    0    0    0    0    0    0    0
    0    0    0    0    0    0    0    0    0    0    0    0
    0    0    0    0    0    0    0    0    0    0    0    0
    0    0    0    0    0    0    0    0    0    0    0    0
    0    0    0    0    0    0    0    0    0    0    0 -255
 -255    0    0    0    0    0    0    0    0    0   -1    0
  -94   98   15    6   -4    0   -4    0   -2    1   -1   -2
   -2   -1   -1   -2   -2   -2   -1    4    0   -1   -3    1
  -16  -55   62   46   87   96 -184  -52    8   27  -29  -82
  -50  -56  -46  -60  -68   -5   61  -50   -5    0    0    0
    0    0    0    0    0    0    0    0    0    0    0    0
   -1    0    0    0    0    0    0 -202  203  100   -8    1
   -2    7   -6    1    0    0    0    0    0    0    0    0
    0    0    0    0    0    0    0    0    0    0    0    0
    0    0    0    1   -4    1    0    0    0    0    0   -1
   -2    5   -2   -6    5   -1    0    1    0    0    0    0
    0    0    0    0    1    0    0   -6  140  -57  -96    0
    0    0    0    0    0    0    0    0    0    0    0    0
    0    0    0    0    0    0    0    0    0    0    0    0
    0    0    0    0    0    0    0    0    0    0    0    0
    0    0    0    0    0    0    0    0    0    0    0    0
    0    0    0    0    0    0    0   -1    4   -3 -208  557
 -304 -161    2   -1   -3    4   -3  -26 -186  206    7   -1
    0    0    0    0    0    0    0    0    0    0    0    0
    0    1  219 -193  -27   -1    0   -2    4 -165  365  -13
 -263  -21   -1    3    3   -1   -8 -197  174   33    0    0
    0    0    0    0    0    0    0    0    0    0    0    0
   -6  174  -82  -86    0    0    0    0    0    0    0    0
    0    0    0    0    0    0    0    0    0    0    0    0
    0    0    0    0    0    0    0    0    0    0    0    0
    0    0    0    0    0    0    0    0    0    0    0    0
    0    0    0    0    0    0    0    0    0    0    0    0
    0    0    0    0    0    0    0    0    0    0    0    0
    0    0    0    0    0    0    0    0    0    0    0    0
    0    0    0    0    0    0    0    0    0    0    0 -255
 -255    0    0    0    0    0    0    0    0   -1    0    0
  -43  -48   96  -10    6   -5    2   -2    3   -1    0    0
    0    0   -2    3    2    4   -1   -1   -6    4    1    0
  -11  -67   66  189 -159 -137    0  -39   47  -87  -35  100
   68   65   65   69   83 -108  -31   40  -31    0    0    0
    0    0    0    0    0    0    0    0    0    0    0    0
    0    0    0    0    0   -1    0   -1 -360  313   15    7
    0   -5    2    0    0    0    0    0    0    0    0    0
    0    0    0    0    0    0    0    0    0    0    0    0
    0    0    0    0    1    0    0    0    0    0    0   -1
    5   -7    5    0   -2    4   -1    0    0    0    0    0
    0    0    0    0    0    0    0  -11  217 -194  -35    0
    0    0    0    0    0    0    0    0    0    0    0    0
    0    0    0    0    0    0    0    0    0    0    0    0
    0    0    0    0    0    0    0    0    0    0    0    0
    0    0    0    0    0    0    0    0    0    0    0    0
    0    0    0    0    0    0    0    0   -1   -2   -4 -190
  -48    4   -2   -1    4   -2   -1  -32 -178  206    1    5
   -1    0    0    0    0    0    0    0    0    0    0    0
    0    1  219 -193  -28    4   -2    4   -3   -2 -139 -108
   -1    4   -1   -2   -1    0   -8 -202  175   33    0    0
    0    0    0    0    0    0    0    0    0    0    0    0
   -6  174  -82  -86    0    0    0    0    0    0    0    0
    0    0    0    0    0    0    0    0    0    0    0    0
    0    0    0    0    0    0    0    0    0    0    0    0
    0    0    0    0    0    0    0    0    0    0    0    0
    0    0    0    0    0    0    0    0    0    0    0    0
    0    0    0    0    0    0    0    0    0    0    0    0
    0    0    0    0    0    0    0    0    0    0    0    0
    0    0    0    0    0    0    0    0    0    0    0 -255
 -255    0    0    0    0    0    0    0   -2    4   -1   -2
    6 -149  117    6   -6    2   -2    3    2   -1    0    0
    0   -1    4   -2   -1   -5   -1    2    3   -4    3   -2
   10    2  132  206 -230    3   -3  -40  -35   65   80    7
    1   -9    2    0   16  127  -30   11  -40    0    0    0
    0    0    0    0    0    0    0    0    0    0    0    0
    0    0    0    0   -1    4   -1   -1  -34 -280  389    3
   -6    2   -1    0    0    0    0    0    0    0    0    0
    0    0    0    0    0    0    0    0    0    0    0    0
    0    0    0    0    0    0    0    0    0    0    0    0
   -1    2   -1    0    1   -1    0    0    0    0    0    0
    0    0    0    0    1    0    0   -8  260 -267    4   -2
    0    0    0    0    0    0    0    0    0    0    0    0
    0    0    0    0    0    0    0    0    0    0    0    0
    0    0    0    0    0    0    0    0    0    0    0    0
    0    0    0    0    0    0    0    0    0    0    0    0
    0    0    0    0    0    0    0    0   -1    4   -2   -6
   -1   -1    0   -1   -1   -1    4  -31 -184  207    6   -1
    0    0    0    0    0    0    0    0    0    0    0    0
    0    1  219 -193  -27   -1   -1   -1    0   -1   -7    4
   -1   -1   -1    3   -1   -1   -3 -202  175   33    0    0
    0    0    0    0    0    0    0    0    0    0    0    0
   -6  174  -82  -86    0    0    0    0    0    0    0    0
    0    0    0    0    0    0    0    0    0    0    0    0
    0    0    0    0    0    0    0    0    0    0    0    0
    0    0    0    0    0    0    0    0    0    0    0    0
    0    0    0    0    0    0    0    0    0    0    0    0
    0    0    0    0    0    0    0    0    0    0    0    0
    0    0    0    0    0    0    0    0    0    0    0    0
    0    0    0    0    0    0    0    0    0    0    0 -255
 -255    0    0    0    0    0    0   -1    3   -2    0   -2
   -6 -102   86   22   -1   -1    4   -1   -1    0    0    0
    0    0   -1    0    4   -1    3    1    1    2    0   54
  138 -198  -50  205 -143    1   -2  -72   30   59    0   -1
   -3    8    0    6   -4   -4  123  -66  -47    0    0    0
    0    0    0    0    0    0    0    0    0    0    0    0
    0    0    0    0   -1   -1   -1    0   -2  -66 -320  367
   22   -4    4   -2    0    0    0    0    0    0    0    0
    0    0    0    0    0    0    0    0    0    0    0    0
    0    0    0    0    0    0    0    0    0   -1   -1    0
    1   -4    1    1   -4    2   -1    0    0    0    0    0
    0    0    0    1   -5    1    1    8  184 -211   -3    4
   -1    0    0    0    0    0    0    0    0    0    0    0
    0    0    0    0    0    0    0    0    0    0    0    0
    0    0    0    0    0    0    0    0    0    0    0    0
    0    0    0    0    0    0    0    0    0    0    0    0
    0    0    0    0    0    0    0    0    0   -1    0   -1
    4   -1   -1    4   -1    0   -1  -31 -178  200   11   -1
    0    0    0    0    0    0    0    0    0    0    0    0
    0    1  219 -193  -27   -2    4   -1    0    0    0   -1
    0    0   -1    3   -1    0   -8 -201  175   33    0    0
    0    0    0    0    0    0    0    0    0    0    0    0
   -6  174  -82  -86    0    0    0    0    0    0    0    0
    0    0    0    0    0    0    0    0    0    0    0    0
    0    0    0    0    0    0    0    0    0    0    0    0
    0    0    0    0    0    0    0    0    0    0    0    0
    0    0    0    0    0    0    0    0    0    0    0    0
    0    0    0    0    0    0    0    0    0    0    0    0
    0    0    0    0    0    0    0    0    0    0    0    0
    0    0    0    0    0    0    0    0    0    0    0 -255
 -255    0    0    0    0    0    0   -1    3   -1   -2    8
  -30   13  -85   73   -1   -3    0   -4    1    0   -1    0
    1   -1    0   -5    0    0   -1   -2   -4   12   46  -56
  -90   -6 -102  165 -122    3   -2 -113  138    6   -5    3
   -3    1   -2   -4    8   -5   14  113  -97    0    0    0
    0    0    0    0    0    0    0    0    0    0    0    0
    0    0    0   -1    4   -2    4   -1   -1    2  -63 -298
  350   83   -7    3   -1    0    0    0   -1    1   -1    0
    0    0    0    0    1    0    0    0    0    0   -1    0
    0    0    0    0    1    0    0    0   -1    3    3   -1
    0    1    0    0    2   -5    5   -1    0    0    0    0
    0    0    0   -1    6   -1    0   19  184 -207    4   -2
    0    0    0    0    0    0    0    0    0    0    0    0
    0    0    0    0    0    0    0    0    0    0    0    0
    0    0    0    0    0    0    0    0    0    0    0    0
    0    0    0    0    0    0    0    0    0    0    0    0
    0    0    0    0    0    0    0    0    0    0    0    0
   -1    0    0   -1    0    0    0  -31 -180  206    5    0
    0    0    0    0    0    0    0    0    0    0    0    0
    0    1  219 -193  -28    4   -2    0    0    0    0    0
    0    0    0   -1    0    0   -7 -201  175   33    0    0
    0    0    0    0    0    0    0    0    0    0    0    0
   -6  174  -82  -86    0    0    0    0    0    0    0    0
    0    0    0    0    0    0    0    0    0    0    0    0
    0    0    0    0    0    0    0    0    0    0    0    0
    0    0    0    0    0    0    0    0    0    0    0    0
    0    0    0    0    0    0    0    0    0    0    0    0
    0    0    0    0    0    0    0    0    0    0    0    0
    0    0    0    0    0    0    0    0    0    0    0    0
    0    0    0    0    0    0    0    0    0    0    0 -255
 -255    0    0    0    0    0    0    0   -1    0    0   -4
  -40   51 -121   71    1    5   -2    1   -1   -1    4    0
   -6    4    2    4   -2    0   -1    3    0   30  -39  -99
  -65    3  -94   19  -68  -40    4 -122  159  -10    0   -2
    1    1   -1    0   -5    0   -7  165 -115    0    0    0
    0    0    0    0    0    0    0    0    0    0    0    0
    0    0    0    0   -1    0   -1    0    0   -3    3  -39
 -355  190  244    4   -2    0    0   -2    5   -7    6   -1
    0    1   -1    1   -3    0    1    0    0   -1    4   -1
   -1    0    0    1   -4    1    0    0    0   -1   -1    0
    0    0    0    0    0    1   -1    0    0    0    0    0
    0    0    0    1   -5    1    1   13  191 -206   -1    0
    0    0    0    0    0    0    0    0    0    0    0    0
    0    0    0    0    0    0    0    0    0    0    0    0
    0    0    0    0    0    0    0    0    0    0    0    0
    0    0    0    0    0    0    0    0    0    0    0    0
    0    0    0    0    0    0    0    0    0    0    0    0
    0    0    0    0    0    0    0  -31 -180  205    6    0
    0    0    0    0    0    0    0    0    0    0    0    0
    0    1  219 -193  -27   -1    0    0    0    0    0    0
    0    0    0    0    0    0   -7 -201  175   33    0    0
    0    0    0    0    0    0    0    0    0    0    0    0
   -6  174  -82  -86    0    0    0    0    0    0    0    0
    0    0    0    0    0    0    0    0    0    0    0    0
    0    0    0    0    0    0    0    0    0    0    0    0
    0    0    0    0    0    0    0    0    0    0    0    0
    0    0    0    0    0    0    0    0    0    0    0    0
    0    0    0    0    0    0    0    0    0    0    0    0
    0    0    0    0    0    0    0    0    0    0    0    0
    0    0    0    0    0    0    0    0    0    0    0 -255
 -255    0    0    0    0    0    0    0    0    0    0  -10
  -22  -21   46   27    2    0    0   -2    3   -1   -1   -1
    4   -3   -2   -1    4   -1    0   -3    2   -1   33   82
   54 -165  -54  195  -66   27  -56 -103  128    1   -1   -3
    6    1   -1    4   -8    2   36  102  -86    0    0    0
    0    0    0    0    0    0    0    0    0    0    0    0
    0    0    0    0    0    0    0    0   -1    4   -3    4
   -9 -202 -244  376  139   35  -11    2   -3    5   -7    0
    1   -6    6    1   -5    6   -5    1    0    0   -1    0
    4   -1   -1    0    1    0    0    0    0    0    0    0
    0    0    0    0    0    0    0    0    0    0    0    0
    0    0    0    0    1    0    1   18  164 -206    0    0
    0    0    0    0    0    0    0    0    0    0    0    0
    0    0    0    0    0    0    0    0    0    0    0    0
    0    0    0    0    0    0    0    0    0    0    0    0
    0    0    0    0    0    0    0    0    0    0    0    0
    0    0    0    0    0    0    0    0    0    0    0    0
    0    0    0    0    0    0    0  -31 -180  205    6    0
    0    0    0    0    0    0    0    0    0    0    0    0
    0    1  219 -193  -27    0    0    0    0    0    0    0
    0    0    0    0    0    0   -7 -201  175   33    0    0
    0    0    0    0    0    0    0    0    0    0    0    0
   -6  174  -82  -86    0    0    0    0    0    0    0    0
    0    0    0    0    0    0    0    0    0    0    0    0
    0    0    0    0    0    0    0    0    0    0    0    0
    0    0    0    0    0    0    0    0    0    0    0    0
    0    0    0    0    0    0    0    0    0    0    0    0
    0    0    0    0    0    0    0    0    0    0    0    0
    0    0    0    0    0    0    0    0    0    0    0    0
    0    0    0    0    0    0    0    0    0    0    0 -255
 -255    0    0    0    0    0    0    0    0    0   -3   -5
  -16  -62   86    2    1   -1   -5    4    3   -1    0   -1
    2    1    4   -6    0    1    0    4   -2   -1   -4   -2
   38    3   76  166 -155   32   36 -104  -46  154    1    0
   -5   -2   -6    0   11   -3  180 -152  -12    0    0    0
    0    0    0    0    0    0    0    0    0    0    0    0
    0    0    0    0    0    0    0    0    0   -1    0   -2
    3   -1  -53 -308  -44  200  248   45    6    1    3    2
   -3    6   -7   -4    6   -1   -1   -1   -2   -1    0   -4
    0   -1    3   -1    0    0   -1    0   -1    0    0    0
    0    0    0    0    0    0    0    0    0    0    0    0
    0    0    0    0    0    2   -5    1  241 -235   -2    0
    0    0    0    0    0    0    0    0    0    0    0    0
    0    0    0    0    0    0    0    0    0    0    0    0
    0    0    0    0    0    0    0    0    0    0    0    0
    0    0    0    0    0    0    0    0    0    0    0    0
    0    0    0    0    0    0    0    0    0    0    0    0
    0    0    0    0    0    0    0  -31 -180  205    6    0
    0    0    0    0    0    0    0    0    0    0    0    0
    0    1  219 -193  -27    0    0    0    0    0    0    0
    0    0    0    0    0    0   -7 -201  175   33    0    0
    0    0    0    0    0    0    0    0    0    0    0    0
   -6  174  -82  -86    0    0    0    0    0    0    0    0
    0    0    0    0    0    0    0    0    0    0    0    0
    0    0    0    0    0    0    0    0    0    0    0    0
    0    0    0    0    0    0    0    0    0    0    0    0
    0    0    0    0    0    0    0    0    0    0    0    0
    0    0    0    0    0    0    0    0    0    0    0    0
    0    0    0    0    0    0    0    0    0    0    0    0
    0    0    0    0    0    0    0    0    0    0    0 -255
 -255    0    0    0    0    0    0    0    0   -2    4  -20
   -8  -20   64   -4   -2    0    0    0   -5    0   -1   -1
   -3    3   -3    4   -1   -4   -3    0   -1   -1    1    8
   -9  -67   89  191 -225  -47   11   77 -166  -37  158   71
   30   13   15   31   76  175  -93  -43   -1    0    0    0
    0    0    0    0    0    0    0    0    0    0    0    0
    0    0    0    0    0    0    0    0    0    0    0    0
   -2    3   -2    2  -93 -237 -212  212  216  185   95   18
  -12  -11    8   -2    0   -7    8   -1    6    2    2   -1
    0   -1    2    0    0   -1    4   -2    4   -1    0    0
    0    0    0    0    0    0    0    0    0    0    0    0
    0    0    0    0    1   -4    2  -15  254 -266   -8   -2
    0    0    0    0    0    0    0    0    0    0    0    0
    0    0    0    0    0    0    0    0    0    0    0    0
    0    0    0    0    0    0    0    0    0    0    0    0
    0    0    0    0    0    0    0    0    0    0    0    0
    0    0    0    0    0    0    0    0    0    0    0    0
    0    0    0    0    0    0    0  -31 -180  205    6    0
    0    0    0    0    0    0    0    0    0    0    0    0
    0    1  219 -193  -27    0    0    0    0    0    0    0
    0    0    0    0    0    0   -7 -201  175   33    0    0
    0    0    0    0    0    0    0    0    0    0    0    0
   -6  174  -82  -86    0    0    0    0    0    0    0    0
    0    0    0    0    0    0    0    0    0    0    0    0
    0    0    0    0    0    0    0    0    0    0    0    0
    0    0    0    0    0    0    0    0    0    0    0    0
    0    0    0    0    0    0    0    0    0    0    0    0
    0    0    0    0    0    0    0    0    0    0    0    0
    0    0    0    0    0    0    0    0    0    0    0    0
    0    0    0    0    0    0    0    0    0    0    0 -255
 -255    0    0    0    0    0    0    0   -1    3   -3   -1
 -119   99   19   -9    4   -2    4   -1    0    3    2    2
    4   -2   -1    1    2    4    0   -2    5   -1   -3   -3
   -9  -68   65   66   53  -11 -107   -3   74 -132 -113  -30
   80  117   97   78  -50 -122  -39    6   -2    0    0    0
    0    0    0    0    0    0    0    0    0    0    0    0
    0    0    0    0    0    0    0    0   -1    0    0    0
    0   -1   -2    3   -2    4  -50 -193 -192 -167   20  240
  271  153   77   56   25   12  -13   -4   -7   -8    3    4
   -1   -1    5   -5    1    0    0    0   -2    0    0    0
    0    0    0    0    0    0    0    0    0    0    0    0
    0    0    0    0    0    1    0   -9  166  -97  -78    4
   -1    0    0    0    0    0    0    0    0    0    0    0
    0    0    0    0    0    0    0    0    0    0    0    0
    0    0    0    0    0    0    0    0    0    0    0    0
    0    0    0    0    0    0    0    0    0    0    0    0
    0    0    0    0    0    0    0    0    0    0    0    0
    0    0    0    0    0    0    0  -31 -180  205    6    0
    0    0    0    0    0    0    0    0    0    0    0    0
    0    1  219 -193  -27    0    0    0    0    0    0    0
    0    0    0    0    0    0   -7 -201  175   33    0    0
    0    0    0    0    0    0    0    0    0    0    0    0
   -6  174  -82  -86    0    0    0    0    0    0    0    0
    0    0    0    0    0    0    0    0    0    0    0    0
    0    0    0    0    0    0    0    0    0    0    0    0
    0    0    0    0    0    0    0    0    0    0    0    0
    0    0    0    0    0    0    0    0    0    0    0    0
    0    0    0    0    0    0    0    0    0    0    0    0
    0    0    0    0    0    0    0    0    0    0    0    0
    0    0    0    0    0    0    0    0    0    0    0 -255
 -255    0    0    0    0    0    0    0   -1    1    2   -1
 -122  135  -10    7    0   -1   -1    0   -1   -1   -2    0
   -5    0   -1    2   -3   -1   -2    4   -6   -2    3    5
  -41  -12   41   44   -1   30   68 -111  -24   77  -71  -51
  -87 -104  -99  -84  -39   -5    2   -3    0    0    0    0
    0    0    0    0    0    0    0    0    0    0    0    0
    0    0    0    0    0    0    0   -1    4   -1    0    0
    0   -1    4   -3    0   -1    0    0  -18  -50 -127 -224
 -241  -62   84  118  172  206  243  166  116   56    3   -9
   -1   -2   -7    2   -1   -1   -5   -2    4   -2   -1    0
    0    0    0    0    0    0    0    0    0    0    0    0
    0    0    0    0    0    0    0   -5   77  100 -154   -2
    0    0    0    0    0    0    0    0    0    0    0    0
    0    0    0    0    0    0    0    0    0    0    0    0
    0    0    0    0    0    0    0    0    0    0    0    0
    0    0    0    0    0    0    0    0    0    0    0    0
    0    0    0    0    0    0    0    0    0    0    0    0
    0    0    0    0    0    0    0  -31 -180  205    6    0
    0    0    0    0    0    0    0    0    0    0    0    0
    0    1  219 -193  -27    0    0    0    0    0    0    0
    0    0    0    0    0    0   -7 -201  175   33    0    0
    0    0    0    0    0    0    0    0    0    0    0    0
   -6  174  -82  -86    0    0    0    0    0    0    0    0
    0    0    0    0    0    0    0    0    0    0    0    0
    0    0    0    0    0    0    0    0    0    0    0    0
    0    0    0    0    0    0    0    0    0    0    0    0
    0    0    0    0    0    0    0    0    0    0    0    0
    0    0    0    0    0    0    0    0    0    0    0    0
    0    0    0    0    0    0    0    0    0    0    0    0
    0    0    0    0    0    0    0    0    0    0    0 -255
 -255    0    0    0    0    0    0    0   -2    2   -2  -22
  -68   88    3   15   29   37   45   44   49   43   39   27
   15    3  -11   -3    1   -4    1    1   -3    9   -8    6
 -125  122   -2   29   31  -59   23  135  -97  -34   64  -55
   -4   -1   -3    8   -3    3   -2    0    0    0    0    0
    0    0    0    0    0    0    0    0    0    0    0    0
    0    0    0    0    0    0    0    0   -1    0    0    0
    0    0   -2    4   -2    0    0    0   -1   -1    3    2
  -21  -82 -142 -166 -193 -212 -244  -84    3  123  251  236
  195  180  153  117   90   58   13   -6  -13    1    3    0
    0    0    0    0    0    0    0    0    0    0    0    0
    0    0    0    0    0    0   -1    5    8  236 -226   -6
    0    0    0    0    0    0    0    0    0    0    0    0
    0    0    0    0    0    0    0    0    0    0    0    0
    0    0    0    0    0    0    0    0    0    0    0    0
    0    0    0    0    0    0    0    0    0    0    0    0
    0    0    0    0    0    0    0    0    0    0    0    0
    0    0    0    0    0    0    0  -31 -180  205    6    0
    0    0    0    0    0    0    0    0    0    0    0    0
    0    1  219 -193  -27    0    0    0    0    0    0    0
    0    0    0    0    0    0   -7 -201  175   33    0    0
    0    0    0    0    0    0    0    0    0    0    0    0
   -6  174  -82  -86    0    0    0    0    0    0    0    0
    0    0    0    0    0    0    0    0    0    0    0    0
    0    0    0    0    0    0    0    0    0    0    0    0
    0    0    0    0    0    0    0    0    0    0    0    0
    0    0    0    0    0    0    0    0    0    0    0    0
    0    0    0    0    0    0    0    0    0    0    0    0
    0    0    0    0    0    0    0    0    0    0    0    0
    0    0    0    0    0    0    0    0    0    0    0 -255
 -255    0    0    0    0    0    0   -1    2    2   -1  -33
  -23  209  120   73   57   32   15   22   21   12   44   50
   79  120  133   81   35   14    8   -4    1   -3    0  -27
  -29   57   -1   17   44  -61   -1    1  105  -53  -52   54
  -63    3    2   -3    0   -2    0    0    0    0    0    0
    0    0    0    0    0    0    0    0    0    0    0    0
    0    0    0    0    0    0    0    0    0    0    0    0
    0    0    0   -2    4   -1    0   -1    4   -1   -2   -1
    0    0   -1    1   -1   -3  -17  -70 -118 -171 -225 -228
 -167 -127  -75  -22   42  113  213  263  160   57   14   -1
   -2   -1    0   -1   -1   -1    0    0    0    0    0    0
    0    0    0    0    0    0    1   -6   10  182 -189  -32
   -2    0   -1    0    0    0    0    0    0    0    0    0
    0    0    0    0    0    0    0    0    0    0    0    0
    0    0    0    0    0    0    0    0    0    0    0    0
    0   -1    0    0   -1    0    0    0    0    0    0    0
    0    0    0    0    0    0    0    0    0    0    0    0
    0    0    0    0    0    0    0  -31 -180  205    6    0
    0    0    0    0    0    0    0    0    0    0    0    0
    0    1  219 -193  -27    0    0    0    0    0    0    0
    0    0    0    0    0    0   -7 -201  175   33    0    0
    0    0    0    0    0    0    0    0    0    0    0    0
   -6  174  -82  -86    0    0    0    0    0    0    0    0
    0    0    0    0    0    0    0    0    0    0    0    0
    0    0    0    0    0    0    0    0    0    0    0    0
    0    0    0    0    0    0    0    0    0    0    0    0
    0    0    0    0    0    0    0    0    0    0    0    0
    0    0    0    0    0    0    0    0    0    0    0    0
    0    0    0    0    0    0    0    0    0    0    0    0
    0    0    0    0    0    0    0    0    0    0    0 -255
 -255    0    0    0    0    0    0   -1    3   -2   -1  -13
    4  -80 -123  -97  -85  -74  -67  -67  -67  -67  -77  -84
  -98 -119 -126  -48   53  108   87  101   35   -6   -4  -62
   66   11   -1   17   61  -73    5   -1    0  109  -48  -46
   40  -50    3   -2   -1    4   -3    0    0    0    0    0
    0    0    0    0    0    0    0    0    0    0    0    0
    0    0    0    0    0    0    0    0    0    0    0    0
    0    0    0    0   -1    0    0    0   -1   -1    4   -1
    0    0    0   -1   -1   -1    0    0    0    0    0   -7
  -29  -51  -76 -103 -135 -171 -225 -268  -73  140  212  195
  117  -13   -5    3    1    3   -2    0    0    0    0    0
    0    0    0    0    0    0    0    3   -8  127  -56 -112
    4   -2    4   -1    0   -1    0    0    0    0    0    0
    0    0    0    0    0    0    0    0    0    0    0    0
    0    0    0    0    0    0    0    0    0    0    0    0
   -1    4   -1   -1    4   -1    0    0    0    0    0   -1
    0    0    0    0    0    0    0    0    0    0    0    0
    0    0    0    0    0    0    0  -31 -180  205    6    0
    0    0    0    0    0    0    0    0    0    0    0    0
    0    1  219 -193  -27    0    0    0    0    0    0    0
    0    0    0    0    0    0   -7 -201  175   33    0    0
    0    0    0    0    0    0    0    0    0    0    0    0
   -6  174  -82  -86    0    0    0    0    0    0    0    0
    0    0    0    0    0    0    0    0    0    0    0    0
    0    0    0    0    0    0    0    0    0    0    0    0
    0    0    0    0    0    0    0    0    0    0    0    0
    0    0    0    0    0    0    0    0    0    0    0    0
    0    0    0    0    0    0    0    0    0    0    0    0
    0    0    0    0    0    0    0    0    0    0    0    0
    0    0    0    0    0    0    0    0    0    0    0 -255
 -255    0    0    0    0    0    0    0   -1   -1    4   -2
  -10  -11   -3    0    0    0    0    0    0    0    0    0
   -1    1   -7  -37  -79 -111  -86  -97   62  123   42  -99
   76    9    2   11   51  -66    5   -1    1  -10   99  -17
  -27    2  -27    3   -2   -3    8   -2    0    0    0    0
    0    0    0    0    0    0    0    0    0    0    0    0
    0    0    0    0    0    0    0    0    0    0    0    0
   -1    0    0    0    0    0    0   -1    0    0   -1    0
    0    0    0    0    0    0    0    0    0    0    0    0
    0    0    0    0    0   -1    4  -14  -84 -173 -201 -229
  -14  364   60  -14    3   -4    5   -1    0    0    0    0
    0    0    0    0    0   -1    1   -5    5   -3  346 -340
   -3   -1   -1    0   -2    4   -1    0    0    0    0    0
    0    0    0    0    0    0    0    0    0    0    0    0
    0    0    0    0    0    0    0    0   -1    0   -1    0
    0   -1    0    0   -1   -1    0    0    0   -1   -1    4
   -1    0    0    0    0    0    0    0    0    0    0    0
    0    0    0    0    0    0    0  -31 -180  205    6    0
    0    0    0    0    0    0    0    0    0    0    0    0
    0    1  219 -193  -27    0    0    0    0    0    0    0
    0    0    0    0    0    0   -7 -201  175   33    0    0
    0    0    0    0    0    0    0    0    0    0    0    0
   -6  174  -82  -86    0    0    0    0    0    0    0    0
    0    0    0    0    0    0    0    0    0    0    0    0
    0    0    0    0    0    0    0    0    0    0    0    0
    0    0    0    0    0    0    0    0    0    0    0    0
    0    0    0    0    0    0    0    0    0    0    0    0
    0    0    0    0    0    0    0    0    0    0    0    0
    0    0    0    0    0    0    0    0    0    0    0    0
    0    0    0    0    0    0    0    0    0    0    0 -255
 -255    0    0    0    0    0    0    0    0    0   -1    0
   -1   -2    4   -2    0    0    0    0    0    0    0    0
   -1    3   -3    2   -1   -2  -10  -29 -129  -82  -80   40
   51  -13    5   16   61  -70   -5    3   -1    8   -6   99
  -68    5  -46   -5    3   -1   -2   -1    0    0    0    0
    0    0    0    0    0    0    0    0    0    0    0    0
    0    0    0    0    0    0    0    0   -1    0    0   -2
    4   -1   -1    0   -1    0   -1    4   -1   -1    0    0
    0    0    0    0    0    0    0    0    0    0    0    0
    0    0    0    0   -1   -1   -1   -1    0    0   -9  -31
 -131 -343  172  178  -11    4   -6    1    0    0    0    0
    0    0    0    0   -1    4   -1    1   -2   -5  118   46
 -133    4   -1   -1    4   -2    0    0    0    0    0    0
    0    0    0    0    0    0    0    0    0    0    0    0
    0    0    0    0    0    0    0   -1    4   -2    4   -1
    0    0    0    0   -2    4   -1    0   -1    4   -1   -2
    0    0    0    0    0    0    0    0    0    0    0    0
    0    0    0    0    0    0    0  -31 -180  205    6    0
    0    0    0    0    0    0    0    0    0    0    0    0
    0    1  219 -193  -27    0    0    0    0    0    0    0
    0    0    0    0    0    0   -7 -201  175   33    0    0
    0    0    0    0    0    0    0    0    0    0    0    0
   -6  174  -82  -86    0    0    0    0    0    0    0    0
    0    0    0    0    0    0    0    0    0    0    0    0
    0    0    0    0    0    0    0    0    0    0    0    0
    0    0    0    0    0    0    0    0    0    0    0    0
    0    0    0    0    0    0    0    0    0    0    0    0
    0    0    0    0    0    0    0    0    0    0    0    0
    0    0    0    0    0    0    0    0    0    0    0    0
    0    0    0    0    0    0    0    0    0    0    0 -255
 -255    0    0    0    0    0    0    0   -1    0    0    0
   -1   -2   -2    4   -1    0    0    0    0    0    0    0
   -1   -2   -1    3   -2   -1    3  -17  -19   16 -221  197
   -7    8   -7   27   32  -59   13   -8   -4    3    4   -5
  124  -72   28  -44   -2    0   -1    4   -1    0    0    0
    0    0    0    0    0    0    0    0    0    0    0    0
    0    0    0    0    0    0    0   -1    4   -2   -1    3
   -2   -2   -1 -160  -22   -2    0   -2   -1    4   -1   -1
    0    0    0    0    0    0    0    0    0    0    0    0
    0    0    0   -1    3    3   -2    4   -1    0    0   -1
    2  -15 -305   86   76    3   -1    0    0    0    0    0
    0    0    0    0   -1    0    0   -1    5   -5   10  250
 -322  -12    0    0   -1    0    0    0    0    0    0    0
    0    0    0    0    0    0    0    0    0    0    0    0
    0    0    0    0    0    0    0    0   -1    0   -1   -1
    0   -1  -34 -171  -13   -2   -2    0    0   -2   -1    4
   -1    0    0    0    0    0    0    0    0    0    0    0
    0    0    0    0    0    0    0  -31 -180  205    6    0
    0    0    0    0    0    0    0    0    0    0    0    0
    0    1  219 -193  -27    0    0    0    0    0    0    0
    0    0    0    0    0    0   -7 -201  175   33    0    0
    0    0    0    0    0    0    0    0    0    0    0    0
   -6  174  -82  -86    0    0    0    0    0    0    0    0
    0    0    0    0    0    0    0    0    0    0    0    0
    0    0    0    0    0    0    0    0    0    0    0    0
    0    0    0    0    0    0    0    0    0    0    0    0
    0    0    0    0    0    0    0    0    0    0    0    0
    0    0    0    0    0    0    0    0    0    0    0    0
    0    0    0    0    0    0    0    0    0    0    0    0
    0    0    0    0    0    0    0    0    0    0    0 -255
 -255    0    0    0    0    0    0   -1    4   -1    0   -3
    2    7   -2   -1    0    0    0    0    0    0    0   -1
    3    3   -2   -2    4   -1   -3  -57   55  -75    1   73
    2   -4    2   24   69  -38   -5   -2    8   -4   -3    1
    2  104  -86  -20  -15    0    0   -1    0    0    0    0
    0    0    0    0    0    0    0    0    0    0    0    0
    0    0    0    0    0    0    0    0   -3    4   -2    2
   -2  -12 -317  376 -254  -29   -2    4   -1   -1   -2    4
   -1    0    0    0    0    0    0    0    0    0    0    0
    0    0    0    0   -1   -1   -1   -1    0    0    0   -1
    3   -2  -27 -246  203   -6    5   -1    0    0    0    0
    0    0    0   -1    5   -5    1    0    0   -2    0   95
  164 -243   -1    0    0    0    0    0    0    0    0    0
    0    0    0    0    0    0    0    0    0    0    0    0
    0    0    0    0    0    0    0    0    0    0   -2    4
   -2  -31 -210  404 -332  -74    8   -2   -1    4   -1   -1
    0    0    0    0    0    0    0    0    0    0    0    0
    0    0    0    0    0    0    0  -31 -180  205    6    0
    0    0    0    0    0    0    0    0    0    0    0    0
    0    1  219 -193  -27    0    0    0    0    0    0    0
    0    0    0    0    0    0   -7 -201  175   33    0    0
    0    0    0    0    0    0    0    0    0    0    0    0
   -6  174  -82  -86    0    0    0    0    0    0    0    0
    0    0    0    0    0    0    0    0    0    0    0    0
    0    0    0    0    0    0    0    0    0    0    0    0
    0    0    0    0    0    0    0    0    0    0    0    0
    0    0    0    0    0    0    0    0    0    0    0    0
    0    0    0    0    0    0    0    0    0    0    0    0
    0    0    0    0    0    0    0    0    0    0    0    0
    0    0    0    0    0    0    0    0    0    0    0 -255
 -255    0    0    0    0    0    0    0   -1   -1   -2    7
   -3   -2    0    0    0    0    0    0    0    0    0    0
   -2   -2    4   -1   -1   -1  -39   33   18 -241  182   12
   -1   -1   -3  104  -81   74   69   -1   -5   -2   -3    0
    4   22   96  -53  -48   -1    0    0    0    0    0    0
    0    0    0    0    0    0    0    0    0    0    0    0
    0    0    0    0    0    0    0   -1    4   -3   -3    3
  -28 -337  243  143  310 -369  -13   -2   -1   -2    4   -2
    0    0    0    0    0    0    0    0    0    0    0    0
    0    0    0    0   -1   -1    4   -1   -1    0    0    0
   -1    0   -1 -255  222    5   -7    1    0    0    0    0
    0    0    0    0   -1    3   -1    1   -6    9   -4  -11
  232 -114 -108   -1    0    0    0    0    0    0    0    0
    0    0    0    0    0    0    0    0    0    0    0    0
    0    0    0    0    0    0    0    0    0   -1    4   -4
   -1 -325  213  103  395 -233 -209    0   -2   -1    0    0
    0    0    0    0    0    0    0    0    0    0    0    0
    0    0    0    0    0    0    0  -31 -180  205    6    0
    0    0    0    0    0    0    0    0    0    0    0    0
    0    1  219 -193  -27    0    0    0    0    0    0    0
    0    0    0    0    0    0   -7 -201  175   33    0    0
    0    0    0    0    0    0    0    0    0    0    0    0
   -6  174  -82  -86    0    0    0    0    0    0    0    0
    0    0    0    0    0    0    0    0    0    0    0    0
    0    0    0    0    0    0    0    0    0    0    0    0
    0    0    0    0    0    0    0    0    0    0    0    0
    0    0    0    0    0    0    0    0    0    0    0    0
    0    0    0    0    0    0    0    0    0    0    0    0
    0    0    0    0    0    0    0    0    0    0    0    0
    0    0    0    0    0    0    0    0    0    0    0 -255
 -255    0    0    0    0    0    0    0   -1    4   -2    2
   -1    0   -1    0    0    0    0    0    0    0    0   -1
    4   -1   -1    0   -2  -12  -34   39 -120   70   80    4
   -6    2  -17  198 -191 -184   13  140   14    1    3   -1
   -5   -2   65   -1  -32  -19   -1    0    0    0    0    0
    0    0    0    0    0    0    0    0    0    0    0    0
    0    0    0    0    0    0    0    0   -3    0    7  -64
 -356  336   68    0   52  330 -371  -33    2    3   -3    0
    0    0    0    0    0    0    0    0    0    0    0    0
    0    0    0   -1    4   -1   -1   -1    4   -1    0    0
    0    0    0 -235  225   -7    6   -1    0    0    0    0
    0    0    0    0    2   -9    6   -1    1   -3    3    0
  -11  333 -332  -51   -1   -1    0    0    0    0    0    0
    0    0    0    0    0    0    0    0    0    0    0    0
    0    0    0    0    0    0    0    0    0    0   -5    8
 -256  157  135   -8   -4  242  157 -346  -36   -2    0    0
    0    0    0    0    0    0    0    0    0    0    0    0
    0    0    0    0    0    0    0  -31 -180  205    6    0
    0    0    0    0    0    0    0    0    0    0    0    0
    0    1  219 -193  -27    0    0    0    0    0    0    0
    0    0    0    0    0    0   -7 -201  175   33    0    0
    0    0    0    0    0    0    0    0    0    0    0    0
   -6  174  -82  -86    0    0    0    0    0    0    0    0
    0    0    0    0    0    0    0    0    0    0    0    0
    0    0    0    0    0    0    0    0    0    0    0    0
    0    0    0    0    0    0    0    0    0    0    0    0
    0    0    0    0    0    0    0    0    0    0    0    0
    0    0    0    0    0    0    0    0    0    0    0    0
    0    0    0    0    0    0    0    0    0    0    0    0
    0    0    0    0    0    0    0    0    0    0    0 -255
 -255    0    0    0    0    0    0    0    0   -1    0   -1
    0   -1    4   -1   -1    0    0    0    0    0    0    0
   -1    0    0   -1   -2  -51   64  -13 -178  194   -3    1
   -1   -1    2  218 -219    1  -94  -89  141   37   -1    3
   -1    2   -7  123  -80  -44    4   -2    0    0    0    0
    0    0    0    0    0    0    0    0    0    0    0    0
    0    0    0    0    0    0    0   -1    1    5  -94 -258
  358   32    1   -3    1   59  300 -296  -62   -2    4   -1
    0    0    0    0    0    0    0    0    0    0    0    0
    0    0    0    0   -1   -1    0   -1   -1    0    0    0
    0    0  -11 -238  218    0   -1    0    0    0    0    0
    0    0    0    0    0    2   -1    0    0   -1    3   -1
   -1   14  364 -335  -30    3   -2    0    0    0    0    0
    0    0    0    0    0    0    0    0    0    0   -1    0
    0    0    0    0    0    0    0    0    0   -2    8 -217
  -52  209  -14    4    2   -6  118  274 -242 -135    0    0
   -1    0    0    0    0    0    0    0    0    0    0    0
    0    0    0    0    0    0    0  -31 -180  205    6    0
    0    0    0    0    0    0    0    0    0    0    0    0
    0    1  219 -193  -27    0    0    0    0    0    0    0
    0    0    0    0    0    0   -7 -201  175   33    0    0
    0    0    0    0    0    0    0    0    0    0    0    0
   -6  174  -82  -86    0    0    0    0    0    0    0    0
    0    0    0    0    0    0    0    0    0    0    0    0
    0    0    0    0    0    0    0    0    0    0    0    0
    0    0    0    0    0    0    0    0    0    0    0    0
    0    0    0    0    0    0    0    0    0    0    0    0
    0    0    0    0    0    0    0    0    0    0    0    0
    0    0    0    0    0    0    0    0    0    0    0    0
    0    0    0    0    0    0    0    0    0    0    0 -255
 -255    0    0    0    0    0    0    0    0    0    0    0
    0    0   -1   -1    4   -1    0    0    0    0    0    0
   -1    0    0   -1  -53   36   12 -161   53   63   -7    3
    3   -3   34  128 -160   -1   -2  -30 -189  145   77  -12
    6   -6    2   22  112 -100   -9    4   -1    0    0    0
    0    0    0    0    0    0    0    0    0    0    0    0
    0    0    0    0    0   -1    0   -3    2 -132 -267  346
   10    1   -2   -1   -2   -4   31  368 -322 -151   -1    0
   -1    0   -1    0    0   -1    0    0    0    0    0    0
    0    0    0    0   -2    4   -3    4   -1    0    0    0
    0   -1  -59 -171  168   -5    0    0    0    0    0    0
    0    0    0    0    0    0    0    0    0    0   -1    0
   -1    2   18  374 -390  -56    4   -2    0    0    0   -1
    0    0    0    0    0   -1    0   -1    0   -2    4   -1
    0    0    0    0    0    0    0   -1   -1    0 -239   -7
  258  -12    6   -2   -2   -1   -5   30  313  -90 -259  -10
    4   -1    0   -1    0    0    0    0    0    0    0    0
    0    0    0    0    0    0    0  -31 -180  205    6    0
    0    0    0    0    0    0    0    0    0    0    0    0
    0    1  219 -193  -27    0    0    0    0    0    0    0
    0    0    0    0    0    0   -7 -201  175   33    0    0
    0    0    0    0    0    0    0    0    0    0    0    0
   -6  174  -82  -86    0    0    0    0    0    0    0    0
    0    0    0    0    0    0    0    0    0    0    0    0
    0    0    0    0    0    0    0    0    0    0    0    0
    0    0    0    0    0    0    0    0    0    0    0    0
    0    0    0    0    0    0    0    0    0    0    0    0
    0    0    0    0    0    0    0    0    0    0    0    0
    0    0    0    0    0    0    0    0    0    0    0    0
    0    0    0    0    0    0    0    0    0    0    0 -255
 -255    0    0    0    0    0    0    0    0    0    0    0
    0    0    0    0   -1    0    0    0    0    0    0   -1
    3   -1   -1  -42   23   28  -51 -110  197  -11    5   -2
   -2    3   68   66 -123   -1    4   -4    1 -153   -5  164
  -14    5   -3   -1   96  -91  -25   -2    0    0    0    0
    0    0    0    0    0    0    0    0    0    0    0    0
    0    0    0    0   -1    3   -5    8 -194 -111  319    2
    2   -2   -1    3    2    5   -4    4  310   24 -309  -37
    3   -2    3   -1   -1    4   -1    0    0    0    0    0
    0   -1   -1   -1    4   -3    4   -2   -1    0   -1   -1
   -2    1 -274  139   63   -3    5   -2    0    0    0    0
    0    0    0    0    0    0    0    0    0    0    0    0
    2   -6    3   28  341 -267 -138    3   -2    0   -2    4
   -1    0    0    0   -2    4   -3    4   -3    4   -2    0
    0    0   -1    0    0    0   -2    3  -16 -286   47  222
  -14    5   -7    0    3    2    3   -3    1  213  209 -360
  -67    0   -1    4   -2    0    0    0    0    0    0    0
    0    0    0    0    0    0    0  -31 -180  205    6    0
    0    0    0    0    0    0    0    0    0    0    0    0
    0    1  219 -193  -27    0    0    0    0    0    0    0
    0    0    0    0    0    0   -7 -201  175   33    0    0
    0    0    0    0    0    0    0    0    0    0    0    0
   -6  174  -82  -86    0    0    0    0    0    0    0    0
    0    0    0    0    0    0    0    0    0    0    0    0
    0    0    0    0    0    0    0    0    0    0    0    0
    0    0    0    0    0    0    0    0    0    0    0    0
    0    0    0    0    0    0    0    0    0    0    0    0
    0    0    0    0    0    0    0    0    0    0    0    0
    0    0    0    0    0    0    0    0    0    0    0    0
    0    0    0    0    0    0    0    0    0    0    0 -255
 -255    0    0    0    0    0    0    0    0    0    0    0
    0    0    0    0    0    0    0    0    0    0    0   -1
    2   -2  -25  -16   41    0 -215  194    5    2   -1    0
    0   -2  116  -39  -75    0   -2    3    2   -3  -95  -71
  158    7   -3   -2   22   96 -108    0    0    0    0    0
    0    0    0    0    0    0    0    0    0    0    0    0
    0    0    0    0   -2    1    6 -248  -50  311  -14    3
   -3    0    1    0   -8    5    3   -4  -10  161  267 -264
 -187   -4    3   -2    0   -1    0    0    0    0    0    0
   -1    3    3   -1   -1    0   -1   -1    4   -2    3    2
    1 -260    6  210  -18    9   -8    5   -1    0    0    0
    0    0    0    0    0    0    0    0    0    0    0    1
   -4    3   -5   -2    3  361  -96 -280  -17   -3    3   -2
   -1    0    0   -1    4   -3    4   -3    4   -2    0    0
   -1   -1    4   -1    0   -1    4  -95 -297  170  176   -6
   -1    2    4   -2   -1   -1   -1    1   -6   -7   54  398
 -224 -208    0   -3    4   -1   -1    0    0    0    0    0
    0    0    0    0    0    0    0  -31 -180  205    6    0
    0    0    0    0    0    0    0    0    0    0    0    0
    0    1  219 -193  -27    0    0    0    0    0    0    0
    0    0    0    0    0    0   -7 -201  175   33    0    0
    0    0    0    0    0    0    0    0    0    0    0    0
   -6  174  -82  -86    0    0    0    0    0    0    0    0
    0    0    0    0    0    0    0    0    0    0    0    0
    0    0    0    0    0    0    0    0    0    0    0    0
    0    0    0    0    0    0    0    0    0    0    0    0
    0    0    0    0    0    0    0    0    0    0    0    0
    0    0    0    0    0    0    0    0    0    0    0    0
    0    0    0    0    0    0    0    0    0    0    0    0
    0    0    0    0    0    0    0    0    0    0    0 -255
 -255    0    0    0    0    0    0    0    0    0    0    0
    0    0    0    0    0    0    0    0    0    0   -1   -1
    3  -24  -26   50    7 -164   42   90   -3    7   -6    2
    0  -12  225 -181  -23    0    0   -2   -2    3   -2  -65
 -139  183   -6    4   -3  142 -107  -19    0    0    0    0
    0    0    0    0    0    0    0    0    0    0    0    0
    0    0   -1   -1    4   -4 -301  106  212  -22    5   -8
    5    0   -4    0    4    2   -8    8   -1   -8   43  235
  168 -372 -132  -38   -2    0    0    0    0    0    0    0
    0   -1   -1   -1    0   -1    0    0   -1    0   -1  -80
 -335  123  193  -15   -1    3    0   -1    0    0    0    0
    0    0    0    0    0    0    0    0    0    0    0    0
    2    0    0    0   -2  -13  164  297 -343 -147  -34   -3
    4   -2    0    0   -1    0   -1    0   -1   -1    0   -2
    4   -1   -2    0   -1  -69 -250 -151  308   76   -1   -7
    5   -2   -2    4    0   -1    0    0    1    0   -2   -2
  241  152 -336  -38   -2   -3    4   -1    0    0    0    0
    0    0    0    0    0    0    0  -31 -180  205    6    0
    0    0    0    0    0    0    0    0    0    0    0    0
    0    1  219 -193  -27    0    0    0    0    0    0    0
    0    0    0    0    0    0   -7 -201  175   33    0    0
    0    0    0    0    0    0    0    0    0    0    0    0
   -6  174  -82  -86    0    0    0    0    0    0    0    0
    0    0    0    0    0    0    0    0    0    0    0    0
    0    0    0    0    0    0    0    0    0    0    0    0
    0    0    0    0    0    0    0    0    0    0    0    0
    0    0    0    0    0    0    0    0    0    0    0    0
    0    0    0    0    0    0    0    0    0    0    0    0
    0    0    0    0    0    0    0    0    0    0    0    0
    0    0    0    0    0    0    0    0    0    0    0 -255
 -255    0    0    0    0    0    0    0    0    0    0    0
    0    0    0    0    0    0    0    0   -1   -2    4   -2
  -21  -39   54   -3  -46 -117  207  -14    7   -5    0   -5
    5   29  197 -184    0   -1   -1    4   -2    3   -4    8
  -53 -117  183    2    2   46   19  -58   -1    0    0    0
    0    0    0    0    0    0    0    0    0    0    0    0
    0   -1    3   -1   -9 -361  191  181  -16    6   -3    5
   -2    0    1    0    0   -2    1    3   -7    6   -2    1
   82  323   20 -190 -233  -83  -10   -4   -2    0    0    0
    0    0   -1    4   -2    4   -3   -6  -18 -114 -299 -106
  240  136  -16    7    4   -7    1    0    0    0    0    0
    0    0    0    0    0    0    0    0    0    0    0    1
   -4    0    4   -3    5   -1    1   24  324   30 -217 -206
  -44   -3   -3    0    0    0    0   -1   -1    4   -3    4
   -2   -5   -5  -97 -279 -124  172  244   -2    2   -1    5
   -3    0    0    1   -5    5   -1    0    0    0    0   -1
   -6  132  243 -242 -120    8   -3    0    0    0    0    0
    0    0    0    0    0    0    0  -31 -180  205    6    0
    0    0    0    0    0    0    0    0    0    0    0    0
    0    1  219 -193  -27    0    0    0    0    0    0    0
    0    0    0    0    0    0   -7 -201  175   33    0    0
    0    0    0    0    0    0    0    0    0    0    0    0
   -6  174  -82  -86    0    0    0    0    0    0    0    0
    0    0    0    0    0    0    0    0    0    0    0    0
    0    0    0    0    0    0    0    0    0    0    0    0
    0    0    0    0    0    0    0    0    0    0    0    0
    0    0    0    0    0    0    0    0    0    0    0    0
    0    0    0    0    0    0    0    0    0    0    0    0
    0    0    0    0    0    0    0    0    0    0    0    0
    0    0    0    0    0    0    0    0    0    0    0 -255
 -255    0    0    0    0    0    0    0    0    0    0    0
    0    0    0    0    0    0    0   -1    3    3   -5  -19
  -40   69   -8   -2 -267  223   -2   -1   -4    2    7   -1
  -10  167 -136  -58   -1    4   -1   -7   -9  -11    4   -4
    2  -43 -167  183   -6   22   69  -83   -2    0    0    0
    0    0    0    0    0    0    0    0    0    0    0    0
    0   -2    3  -28 -373  356   82  -13    1   -1    0   -1
    0    0    0    2   -6    7   -6   -2    7   -6    1    0
   -6    0   92  227  244 -105 -267 -190 -166 -136  -98  -75
  -59  -58  -74  -95 -118 -161 -176 -197 -274  -10  321  155
   26   -5    3    2   -8    7   -1   -1    0    0    0    0
    0    0    0    0    0    0    0    0    0    0    0    0
    1    0   -2    6   -7    2   -7    5   -8   85  259  201
 -246 -221 -177 -135  -84  -49  -31   -5  -28  -37  -64 -111
 -163 -182 -284  -71  312  165   51   -9   -2   -4    8   -8
    5   -1    1   -5    2    0    0    1    0    1   -1    0
    1  -10   38  336 -154 -187   -1    0    0    0    0    0
    0    0    0    0    0    0    0  -31 -180  205    6    0
    0    0    0    0    0    0    0    0    0    0    0    0
    0    1  219 -193  -27    0    0    0    0    0    0    0
    0    0    0    0    0    0   -7 -201  175   33    0    0
    0    0    0    0    0    0    0    0    0    0    0    0
   -6  174  -82  -86    0    0    0    0    0    0    0    0
    0    0    0    0    0    0    0    0    0    0    0    0
    0    0    0    0    0    0    0    0    0    0    0    0
    0    0    0    0    0    0    0    0    0    0    0    0
    0    0    0    0    0    0    0    0    0    0    0    0
    0    0    0    0    0    0    0    0    0    0    0    0
    0    0    0    0    0    0    0    0    0    0    0    0
    0    0    0    0    0    0    0    0    0    0    0 -255
 -255    0    0    0    0    0    0    0    0    0    0    0
    0    0    0    0    0    0    0    0   -2   -4  -19  -30
   53   -4   -1 -205  212   36    0    2    3   -2   -3    3
   11  186 -209   -3   -8  -24  -45  -26  -18  -13  -51  -29
   -5   10  -46 -123  186    4  124 -139   -1    0    0    0
    0    0    0    0    0    0    0    0    0    0    0    0
   -1    4  -63 -338  317   53   -3    0    4   -1    0    0
    0    0    1   -5    7   -7    5    4   -6    2    0   -1
    4   -3    2   -5   30  160  229  158  127   42  -46  -89
 -130 -135  -86  -46   -8  112  128  171  235  122    2   -4
    3    2   -2   -2    6   -6    0    5   -1    0    0    0
    0    0    0    0    0    0    0    0    0    0    0    0
    0    0    1   -6    5   -2    9   -3   -2    7   -5   45
  223  183  149   45  -76 -151 -174 -258 -172 -189 -104  -19
  114  150  231  149    8    2   -6   -1    3    2   -3    1
   -1    0   -2    5    0   -4    2   -4    2   -5    6   -1
   -1    5   -1  -14  331  202 -105   -1    0    0    0    0
    0    0    0    0    0    0    0  -31 -180  205    6    0
    0    0    0    0    0    0    0    0    0    0    0    0
    0    1  219 -193  -27    0    0    0    0    0    0    0
    0    0    0    0    0    0   -7 -201  175   33    0    0
    0    0    0    0    0    0    0    0    0    0    0    0
   -6  174  -82  -86    0    0    0    0    0    0    0    0
    0    0    0    0    0    0    0    0    0    0    0    0
    0    0    0    0    0    0    0    0    0    0    0    0
    0    0    0    0    0    0    0    0    0    0    0    0
    0    0    0    0    0    0    0    0    0    0    0    0
    0    0    0    0    0    0    0    0    0    0    0    0
    0    0    0    0    0    0    0    0    0    0    0    0
    0    0    0    0    0    0    0    0    0    0    0 -255
 -255    0    0    0    0    0    0    0    0    0    0    0
    0    0    0   -1    0    0   -1   -2    2  -35  -26   60
   -5    7 -185   41   90   -5    2   -2   -1   -1   -2    1
   53  132 -136  -29  -33    7   53   42   29   32   57   27
  -48  -18    3  -61 -108  134  101  -67  -30    0    0   -1
    0    0    0   -1    0    0    0    0    0    0    0    0
    0  -43 -118  371   28   -3    2   -2   -1    0    0    0
    0    0   -1    1   -1    1   -1   -1    1    0    0    0
   -1    0   -2    3   -4   -1    1   29   49   94  136  167
  183  191  158  144  117   64   44   22   -2   -8    0    0
   -1   -1    0    0   -1    1    1   -5    1    0    1   -1
    0    0    0    0    0    0    1    0    1    0    0    0
    0    0    0    0    4   -5   -1    0    0   -2   -3    2
   -8   17   43   91  155  193  221  240  224  210  170  125
   63   33    2    0   -7    4    0    0   -2    3   -1    0
    0   -1    4   -2    0    1    0    2   -1    3   -5    1
   -1   -1   -2   47  293 -302   -2    0    0    0    0    0
    0    0    0    0    0    0    0  -31 -180  205    6    0
    0    0    0    0    0    0    0    0    0    0    0    0
    0    1  219 -193  -27    0    0    0    0    0    0    0
    0    0    0    0    0    0   -7 -201  175   33    0    0
    0    0    0    0    0    0    0    0    0    0    0    0
   -6  174  -82  -86    0    0    0    0    0    0    0    0
    0    0    0    0    0    0    0    0    0    0    0    0
    0    0    0    0    0    0    0    0    0    0    0    0
    0    0    0    0    0    0    0    0    0    0    0    0
    0    0    0    0    0    0    0    0    0    0    0    0
    0    0    0    0    0    0    0    0    0    0    0    0
    0    0    0    0    0    0    0    0    0    0    0    0
    0    0    0    0    0    0    0    0    0    0    0 -255
 -255    0    0    0    0    0    0    0    0    0    0    0
    0   -1   -1    3   -1   -2    3   -2  -50   18   37   -1
   11 -158   46  138   -5    3    3   -1   -1    4    1  -15
  281 -242  -68    2   47   17    3    6  -15  -20  -28    5
   72  -33   -8    6  -82  -24  179    9  -59   -2   -1    4
   -2    0   -1    4   -1    0    0    0    0    0    0    0
   -1  -59  -19  305   -7   -2    5    1   -1    0   -1    1
   -1   -1    4   -1    0    0    0    0    0    0    0    0
    0    0    0   -1    0   -1    0   -1    3   -1   -4   -7
   -8   -9   -5   -4   -6   -1    0    0    0    1    0    0
    0    0    0    0    0    0    0    1    0    1   -5    6
   -1    0    0    0    0    1   -4    2   -5    1    0    0
    0    0    0    0   -1    1    0    0    0   -1    3    1
    2    3   -1   -2   -8   -7  -10  -14  -14   -8   -5   -6
   -1    0    0   -1    1   -1    0    0    0   -1    0    0
    0    0   -1    0    0    0    0   -5    6   -5    3   -1
    4   -2    7  338 -325  -22    4   -2    0    0    0    0
    0    0    0    0    0    0    0  -31 -180  205    6    0
    0    0    0    0    0    0    0    0    0    0    0    0
    0    1  219 -193  -27    0    0    0    0    0    0    0
    0    0    0    0    0    0   -7 -201  175   33    0    0
    0    0    0    0    0    0    0    0    0    0    0    0
   -6  174  -82  -86    0    0    0    0    0    0    0    0
    0    0    0    0    0    0    0    0    0    0    0    0
    0    0    0    0    0    0    0    0    0    0    0    0
    0    0    0    0    0    0    0    0    0    0    0    0
    0    0    0    0    0    0    0    0    0    0    0    0
    0    0    0    0    0    0    0    0    0    0    0    0
    0    0    0    0    0    0    0    0    0    0    0    0
    0    0    0    0    0    0    0    0    0    0    0 -255
 -255    0    0    0    0    0    0    0    0    0    0    0
   -1    4   -2    3   -3    4  -13  -51   33   22   -2   10
 -156  -50  157   -4    4   -1   -5    1    1   -7    8   64
   81 -186   29   31    1   -1  -41 -181 -136 -107  -81 -152
 -147   18  -30   -2   -3 -120   57  137 -105    4   -3   -2
    4   -1   -1   -2    0    0    0    0    0    0    0    0
   -1    3 -155  -93  277   -6    1    2   -1   -2    5   -7
    5   -1   -2    0    0    0    0    0    0    0    0    0
    0    0    0    0    0    0    0    0   -1   -1   -1   -1
   -1   -1   -1   -1    0    0    0    0    0    0    0    0
    0    0    0    0    0    0    0    0    0    1    2   -6
    1    0    0    0    0    0    1   -2    5    0    1    0
    0    0    0    0    0    0    0    0    0    0   -1   -1
   -1   -1    0    0    0   -1   -1    0    0   -1   -1    0
    0    0    0    0    0    0    0    0    0    0    0    0
    0    0    0    0    0   -2    5    0   -1    2   -4    1
   -3    3  338 -246  -62   -3   -2    4   -1    0    0    0
    0    0    0    0    0    0    0  -31 -180  205    6    0
    0    0    0    0    0    0    0    0    0    0    0    0
    0    1  219 -193  -27    0    0    0    0    0    0    0
    0    0    0    0    0    0   -7 -201  175   33    0    0
    0    0    0    0    0    0    0    0    0    0    0    0
   -6  174  -82  -86    0    0    0    0    0    0    0    0
    0    0    0    0    0    0    0    0    0    0    0    0
    0    0    0    0    0    0    0    0    0    0    0    0
    0    0    0    0    0    0    0    0    0    0    0    0
    0    0    0    0    0    0    0    0    0    0    0    0
    0    0    0    0    0    0    0    0    0    0    0    0
    0    0    0    0    0    0    0    0    0    0    0    0
    0    0    0    0    0    0    0    0    0    0    0 -255
 -255    0    0    0    0    0    0    0    0    0    0    0
   -1   -1    0   -2    3  -36  -50   66   -2    8    7 -139
  -60  205   -4   -2   -1   -1    1    0    0    2   -4  195
 -204  -59   36    5  -29 -165 -123  199  182  137  138  198
  154 -147 -111   -1    3   -7 -140  235 -102  -14    7   -2
   -1   -2    3    3   -1    0    0    0    0    0    0    0
    0   -3    8 -193  -55  278   -6   -1   -1    4   -4    6
   -2   -1    4   -1    0    0    0    0    0    0    0    0
    0    0    0    0    0    0    0    0    0    0    0    0
    0    0    0    0    0    0    0    0    0    0    0    0
    0    0    0    0    0    0    0    0    2   -5    0    5
    0   -1    0    0    0    1   -1    4   -1   -2   -4    2
    0    0    0    0    0    0    0    0    0    0    0    1
    1    0    0    0    0    0    0    0    0    0    0    0
    0    0    0    0    0    0    0    0    0    0    0    0
    0    0    0    0   -1    6   -7    1    0    0    0   -1
   -3  303 -184 -112   -4    4   -1   -2    0    0    0    0
    0    0    0    0    0    0    0  -31 -180  205    6    0
    0    0    0    0    0    0    0    0    0    0    0    0
    0    1  219 -193  -27    0    0    0    0    0    0    0
    0    0    0    0    0    0   -7 -201  175   33    0    0
    0    0    0    0    0    0    0    0    0    0    0    0
   -6  174  -82  -86    0    0    0    0    0    0    0    0
    0    0    0    0    0    0    0    0    0    0    0    0
    0    0    0    0    0    0    0    0    0    0    0    0
    0    0    0    0    0    0    0    0    0    0    0    0
    0    0    0    0    0    0    0    0    0    0    0    0
    0    0    0    0    0    0    0    0    0    0    0    0
    0    0    0    0    0    0    0    0    0    0    0    0
    0    0    0    0    0    0    0    0    0    0    0 -255
 -255    0    0    0    0    0    0    0    0    0    0   -1
    4   -2    0  -14  -62   27   49    1    8    8 -171   -7
  176   -2   -4    5   -2    4   -1   -1    0   -8   60  199
 -222   59    3  -79 -187  195  151   12   -5   -3   -2  -11
   37  274 -174  -65   -1   -8  -31  -12   50  -72    2   -2
   -1    4   -2   -1    0    0    0    0    0    0    0    0
    0    0   -4    7 -171 -175  320   -1   -1   -3    4   -8
    1   -1   -1    0    0    0    0    0    0    0    0    0
    0    0    0    0    0    0    0    0    0    0    0    0
    0    0    0    0    0    0    0    0    0    0    0    0
    0    0    0    0    0    0    0    1   -6    6   -2    0
   -5    5   -2   -1    1   -5    0   -2   -1   -4    7   -6
    1    0    0    0    0    0    0    0    0    0    1   -3
   -3    1    0    0    0    0    0    0    0    0    0    0
    0    0    0    0    0    0    0    0    0    0    0    0
    0    0    0    0    1   -6    6   -1   -1   -2    3  -12
  321 -169 -139    3   -1   -1   -1    4   -1    0    0    0
    0    0    0    0    0    0    0  -31 -180  205    6    0
    0    0    0    0    0    0    0    0    0    0    0    0
    0    1  219 -193  -27    0    0    0    0    0    0    0
    0    0    0    0    0    0   -7 -201  175   33    0    0
    0    0    0    0    0    0    0    0    0    0    0    0
   -6  174  -82  -86    0    0    0    0    0    0    0    0
    0    0    0    0    0    0    0    0    0    0    0    0
    0    0    0    0    0    0    0    0    0    0    0    0
    0    0    0    0    0    0    0    0    0    0    0    0
    0    0    0    0    0    0    0    0    0    0    0    0
    0    0    0    0    0    0    0    0    0    0    0    0
    0    0    0    0    0    0    0    0    0    0    0    0
    0    0    0    0    0    0    0    0    0    0    0 -255
 -255    0    0    0    0    0    0    0    0    0    0   -1
   -2   -2  -50  -24   58   18   -2   -6    1 -198   -9  172
  -12    2    0   -6    1   -1   -2    3    3   -1  270 -309
  -33   34  -37 -155  272   19  -13    2   -1   -1    1   -4
    0   -5  328 -197  -13   -5  -33  -19  150  -70  -28    3
   -1   -1    0    0    0    0    0    0    0    0    0    0
    0   -1   -1    1    3 -148 -139  324   11    1    0    8
   -3    3   -1    0    0    0    0    0    0    0    0    0
    0    0    0    0    0    0    0    0    0    0    0    0
    0    0    0    0    0    0    0    0    0    0    0    0
    0    0    0    0    0    0    0   -1    5   -3    4   -2
    1   -1    3   24   -8    5    2    1    8   -2   -2    5
   -1    0    0    0    0    0    0    0    0    0    0    1
    1    0    0    0    0    0    0    0    0    0    0    0
    0    0    0    0    0    0    0    0    0    0    0    0
    0    0    0    0    0    2   -1   -2    3    1    2  325
 -117 -158    4   -2   -1    0   -1   -1    0    0    0    0
    0    0    0    0    0    0    0  -31 -180  205    6    0
    0    0    0    0    0    0    0    0    0    0    0    0
    0    1  219 -193  -27    0    0    0    0    0    0    0
    0    0    0    0    0    0   -7 -201  175   33    0    0
    0    0    0    0    0    0    0    0    0    0    0    0
   -6  174  -82  -86    0    0    0    0    0    0    0    0
    0    0    0    0    0    0    0    0    0    0    0    0
    0    0    0    0    0    0    0    0    0    0    0    0
    0    0    0    0    0    0    0    0    0    0    0    0
    0    0    0    0    0    0    0    0    0    0    0    0
    0    0    0    0    0    0    0    0    0    0    0    0
    0    0    0    0    0    0    0    0    0    0    0    0
    0    0    0    0    0    0    0    0    0    0    0 -255
 -255    0    0    0    0    0    0    0    0    0   -1   -9
  -38  -53   62   25    7   -1   -5  -13 -230  133  131   -1
    2    2   -3    5    0   -2    5   -2   -3  105    9 -118
  -10   37 -257  254    1   -9    0    8   -6    2   -5    6
   -1    1  140  -59  -48   -8  -20  -12   53  107  -90   -1
   -1    0   -1    0    0    0    0    0    0    0    0    0
   -1    4   -1   -1   -3    4 -107 -326  388   72  -11   -1
   -1    4   -2    0    0    0    0    0    0    0    0    0
    0    0    0    0    0    0    0    0    0    0    0    0
    0    0    0    0    0    0    0    0    0    0    0    0
    0    0    0    0    0    0    0    0   -1   -1   -2    5
   -2  -10   63  118  226    3   -2    0   -7    5   -1   -1
    0    0    0    0    0    0    0    0    0    0    0    0
    0    0    0    0    0    0    0    0    0    0    0    0
    0    0    0    0    0    0    0    0    0    0    0    0
    0    0    0    0    1   -4   -1    4   -5   30  346 -258
 -134    4   -3   -1    4   -2    4   -1    0    0    0    0
    0    0    0    0    0    0    0  -31 -180  205    6    0
    0    0    0    0    0    0    0    0    0    0    0    0
    0    1  219 -193  -27    0    0    0    0    0    0    0
    0    0    0    0    0    0   -7 -201  175   33    0    0
    0    0    0    0    0    0    0    0    0    0    0    0
   -6  174  -82  -86    0    0    0    0    0    0    0    0
    0    0    0    0    0    0    0    0    0    0    0    0
    0    0    0    0    0    0    0    0    0    0    0    0
    0    0    0    0    0    0    0    0    0    0    0    0
    0    0    0    0    0    0    0    0    0    0    0    0
    0    0    0    0    0    0    0    0    0    0    0    0
    0    0    0    0    0    0    0    0    0    0    0    0
    0    0    0    0    0    0    0    0    0    0    0 -255
 -255    0    0    0    0    0    0    0   -3  -13  -49  -19
   33   47    0    0   -4    8  -58 -201  159   89   -9    2
   -2   -2    5   -1   -5    5   -6   -1   10  309 -267    0
  -46  -66  128   55   -2    4   -2   -3    1    0   -1    0
   -6    9  130  -48  -56   -6  -35  -11   40   78  -76  -23
   -1   -1    4   -2    0    0    0    0    0    0    0    0
    0   -1    0   -1    4   -3    4  -41 -330  164  217  -10
    2   -6    5   -1    0    0    0    0    0    0    0    0
    0    0    0    0    0    0    0    0    0    0    0    0
    0    0    0    0    0    0    0    0    0    0    0    0
    0    0    0    0    0    0    0    0   -1    4    0   -8
    1  125  258 -371 -280  345   66   -4    1   -1    0    0
    0    0    0    0    0    0    0    0    0    0    0    0
    0    0    0    0    0    0    0    0    0    0    0    0
    0    0    0    0    0    0    0    0    0    0    0    0
    0    0    0    0    0   -1    4   -6   70  303 -265  -87
    4   -3    4   -1   -1   -1   -1   -1    0    0    0    0
    0    0    0    0    0    0    0  -31 -180  205    6    0
    0    0    0    0    0    0    0    0    0    0    0    0
    0    1  219 -193  -27    0    0    0    0    0    0    0
    0    0    0    0    0    0   -7 -201  175   33    0    0
    0    0    0    0    0    0    0    0    0    0    0    0
   -6  174  -82  -86    0    0    0    0    0    0    0    0
    0    0    0    0    0    0    0    0    0    0    0    0
    0    0    0    0    0    0    0    0    0    0    0    0
    0    0    0    0    0    0    0    0    0    0    0    0
    0    0    0    0    0    0    0    0    0    0    0    0
    0    0    0    0    0    0    0    0    0    0    0    0
    0    0    0    0    0    0    0    0    0    0    0    0
    0    0    0    0    0    0    0    0    0    0    0 -255
 -255    0   -1    0    0    0  -13  -32  -37  -25   53   31
    5   -2   -2    1    2 -147 -165  244   32   -7    3   -2
    0    1   -5    0    0    2   -1   -2  236 -253  -33   -2
  -26 -135  192    2    1   -3    3    3    0   -2    9   -2
    1   -7  173 -102  -35   -4  -26   -9   33   11  139 -124
   -1    0   -2    4   -1    0    0    0    0    0    0    0
    0    0    0    0   -1    0   -1   -1   -8 -269  -20  302
   53   -5   -1   -1    0    0    1    0    0    0    0    0
    0    0    0    1    0   -1    0    0    0   -1    0    0
    0    0    0    0    0    0    0    1    0    0    0    0
    0    0    0   -1    1    0    0   -1   -1   -2   -1   -4
  206  197 -346  -11  -46 -385  264  198  -10    0    0   -1
    0    1    0    0    0    0    0   -1    0    0    0    0
    0    0    0    0    0    0    0    0    0    0    0    0
    0    0    0    0    0    0    0    0   -1    0    0    0
    0    0   -1    0   -1    4  -18  183  284 -366  -37   -3
   -1    0   -1    0   -1    4   -2    4   -1    0    0    0
    0    0    0    0    0   -1    0  -31 -180  205    6    0
    0    0    0    0    0    0    0    0    1    0    0    0
    0    1  219 -193  -27    0    0    0    0    0    0    0
    0    0    0    0    0    0   -7 -201  175   33    0    0
    0    0    0    0    0    0    0    0    0    0    0    0
   -6  174  -83  -86    0    0    0    0    0    0    0    0
    0    0    0    0    0    0    0    0    0    0    0    0
    0    0    0    0    0    0    0    0    0    0    0    0
    0    0    0    0    0    0    0    0    0    0    0    0
    0    0    0    0    0    0    0    0    0    0    0    0
    0    0    0    0    0    0    0    0    0    0    0    0
    0    0    0    0    0    0    0    0    0    0    0    0
    0    0    0    0    0    0    0    0    0    0    0 -255
 -257   -7   -6  -20  -28  -52  -17   28   35   27    7   -3
    4   -1   10  -56 -266  130  169    3   -1    6    1   -1
    0    1    0    3   -4    2   -6   99  112 -159    6   -4
  -12 -153  161   14    4   -3   -1   -1   -6    1   -7   -1
    3   24  285 -210   -3   -4  -25   -7   25    7   52    4
  -44   -2    0   -1    0    0    0    0    0    0    0    0
    0    0    0    0    0    0    0    0   -3    8 -136 -294
  215  205   15   -2   -3    2   -6    2   -1    0    0    0
    0    1    1   -5    0    5   -1    0   -2    5   -1    0
    0    0    0    0    0    0    1   -3    1    0   -1    0
    0    0   -1    4   -5    1   -2    2    0   -3   35  352
 -128 -243    2    0    2    1 -253 -150  370   48   -5    3
    0   -4    1    0    0    1   -1    4   -1   -1    0    0
    0   -1    0    0    0    0    0    0    1    0    0   -1
    0    0    0    0    0    0    0   -1    4   -1   -2   -1
    0   -1    4   -2   -7   40  391 -119 -268   -7    1    3
   -1    0    0    0    0   -1    0   -1    0    0    0    0
    0    0    0    0   -1    4   -1  -31 -179  204    6    0
    0    0    0    0    0    0    0    1   -4    1   -1    0
    0    1  218 -193  -27    0    0    0    0    0    0    0
    0    0    0    0    0    0   -7 -201  174   33    0   -1
    0    0    0    0    0    0    0    0    0    0    0    0
   -6  172  -79  -87   -1   -1    0    0    0    0    0    0
    0    0    0    0    0    0    0    0    0    0    0    0
    0    0    0    0    0    0    0    0    0    0    0    0
    0    0    0    0    0    0    0    0    0    0    0    0
    0    0    0    0    0    0    0    0    0    0    0    0
    0    0    0    0    0    0    0    0    0    0    0    0
    0    0    0    0    0    0    0    0    0    0    0    0
    0    0    0    0    0    0    0    0    0    0    0 -255
 -286  -26  -24    0   14   49   31    9    6   -3   -3    0
    3  -31 -194  -92  235   64  -11   -2    6   -5   -1    1
    2   -5    1    0    6   -2   33  259 -295    3   -1    1
   -2 -179  252    3    1    2   -2    1    8    0    3    2
   -6  295 -267  -26    3  -12  -22   -8   28   10   11   79
  -82    6   -3   -2    0    0    0    0    0    0    0    0
    0    0    0    0    0    0    0    0    0   -4    3  -22
 -267  -62  259  165    4   -8   12   -8    6   -2    1   -1
    1   -4   -1    5    1   -6    1   -1    6   -7    1    0
    0   -1    1    0    0    0    0   -3    1   -1    5   -2
    0    0   -1    3    0   -3    2   -1    3  218  229 -255
 -123    3   -4    3   -3   -1   -3 -104 -275  187  240    8
   -3    1   -1   -1    1   -4    1   -2   -1    4   -1    0
    0    4   -1   -1    0    0    0    1   -5    2   -2    4
   -1    0    0    0    0    0    0    0   -1   -1    7    2
   -1   -1   -3    3  250  194 -305 -113    3   -2   -1   -1
    0    0    0    0    0    0    0    0    0    0    0    0
    0    0    0    0    0   -1    0  -30 -185  211    5   -1
    0    0    0    0    0    0    0    0    1   -1    4   -2
    0    0  224 -193  -27    0    0    0    0    0    0    0
    0    0    0    0    0    0   -7 -202  179   31   -1    4
    0    0   -1    0    0    0    0    0    0    0    0    0
   -7  177  -80  -88    3    3   -1    0    0    0    0    0
    0    0    0    0    0    0    0    0    0    0    0    0
    0    0    0    0    0    0    0    0    0    0    0    0
    0    0    0    0    0    0    0    0    0    0    0    0
    0    0    0    0    0    0    0    0    0    0    0    0
    0    0    0    0    0    0    0    0    0    0    0    0
    0    0    0    0    0    0    0    0    0    0    0    0
    0    0    0    0    0    0    0    0    0    0    0 -255
 -177   36   28   17   19    0   -4    3    0   -1    3  -36
 -146 -197  221  114    8   -6    3   -1    1    3    0   -4
   -4    8   -7    3   -4   -2  241 -256  -47  -10    2    2
   -2  -91  -32  214  -20    0   -2    4   -9   -1  -17   49
  324 -171  -77    2    0   -2  -24   -9   29    2    2   95
 -103  -17    0    6   -2    0    0    0    0    0    0    0
    0    0    0    0    0    0    0    0   -1    4   -2   -2
    4  -94 -300  -48  324  132   13   -3   -9    7   -6    5
    0   -1    5   -1   -5    6   -1    1   -6    6   -1    0
   -1    6   -6    1   -1   -1    5   -1    0    1   -6    5
   -1    1   -1    0   -4   -2   16  134  351 -173 -252  -36
    3   -3    4   -3    4   -2    4   -2  -31 -222 -225  351
  164   29   -7    2   -3    2   -1    4    0   -1    0    1
   -4    0   -1    4   -1   -1    0   -1    7   -7    5   -2
    0    0   -1    0    0    0    0    0    2   -5    1   -2
  -12   28  147  361 -228 -224  -27    4   -3    4   -2    0
    0    0    0    0    0    0    0    0    0    0    0    0
    0    0    0    0    0    0    0  -31 -178  200    6    4
   -1    0    0    0    0    0    0    0    1    0   -2    3
    0    2  215 -196  -26    0    0    0    0    0    0    0
   -1    0    0    0    0    0   -7 -201  174   36   -1    0
   -4    0    4   -1    0    0    0    0    0    0    0    0
   -6  174  -83  -86   -1   -1    0    0    0    0    0    0
    0    0    0    0    0    0    0    0    0    0    0    0
    0    0    0    0    0    0    0    0    0    0    0    0
    0    0    0    0    0    0    0    0    0    0    0    0
    0    0    0    0    0    0    0    0    0    0    0    0
    0    0    0    0    0    0    0    0    0    0    0    0
    0    0    0    0    0    0    0    0    0    0    0    0
    0    0    0    0    0    0    0    0    0    0    0 -255
 -274   31   -2    1  -13    6    1    1  -15  -38 -198  -95
   99  190   16    1   -3   -2    8   -7   -2   -1   -1    6
    1   -6    6    2  -13  198  -73  -97    1  -24  -49  -27
  -14    1 -195   23  295   58   22   21   27   78  271  132
 -228  -83    7   -3   -1  -15  -15  -11   26   16   -1   28
   59  -64    5    0   -1    0    0    0    0    0    0    0
    0    0    0    0    0    0    0    0   -1   -1    0    0
   -2   -2    7 -118 -256  -65  262  208   37    2   -2   -2
   -5    6   -7    0    1   -1    0   -1    1   -1    0    0
    1   -6    6   -1    4    0   -7    6   -1   -2    1   -2
    1   -6    3   -2   30  191  278  -66 -271  -82    8   -3
   -1    0   -1    0   -1   -1   -1    0   -1    4  -57 -283
 -114  232  228   31   16  -11    0    0   -4    1   -1    0
    1   -1   -1   -1   -1    4   -2    0   -6    7   -3    0
    0   -1    3   -1    0    0    0    1   -6    3   -6   28
  217  248  -86 -287  -56    2    3   -3    0   -3    4   -1
    0    0    0    0    0    0    0    0    0    0    0    0
    0    0    0    0    0    0    0  -31 -177  234   33   28
   28   28   28   28   28   28   28   29   24   29   27   32
   23   30  249 -190  -27    0    0    0    0    0    0   -1
    4   -1    0    0    0    0   -7 -199  194   65   27   29
   29   27   28   27   28   28   28   28   28   28   28   28
   23  198  -70  -86    0    0    0    0    0    0    0    0
    0    0    0    0    0    0    0    0    0    0    0    0
    0    0    0    0    0    0    0    0    0    0    0    0
    0    0    0    0    0    0    0    0    0    0    0    0
    0    0    0    0    0    0    0    0    0    0    0    0
    0    0    0    0    0    0    0    0    0    0    0    0
    0    0    0    0    0    0    0    0    0    0    0    0
    0    0    0    0    0    0    0    0    0    0    0 -255
 -293   52    3    2   13   -1  -46 -128 -136 -131  183  153
   32   -3   -6    2    3   -2   -3    3    7   -2    1   -6
    1    2   -6   -7  108   44 -159   22   24   29   57   12
  -16  -41  -30 -153 -233  142  171  148  177   85 -230 -163
  -27    0   -3    0   -2  -12   -6  -20   26    9    2   -8
  120 -101   -7   -1    0    0    0    0    0    0    0    0
    0    0    0    0    0    0    0   -1    4   -2    0   -2
    4   -1   -2    0  -15  -95 -273 -132  232  203  181   57
  -14   -9    4    3   -1    1    1    3   -1    0    0    0
    0    0    1   -4   -1   -1    7   -6   -2    9   -3   -2
  -15   35  156  210  248 -105 -287  -95   -7   -1   -2    0
    0    0   -1    0   -1    4   -1   -1    0   -1   -2    2
  -77 -256 -156  228  201  167   30  -14   -4   -1    4   -2
   -1    2    3   -1    0   -2    3    3    1   -6    6   -2
    0   -1    3   -1    0    1   -4  -11   18  152  214  241
 -129 -268  -86   -4   -1   -1   -2    4   -2    4   -3    0
    0    0    0    0    0    0    0    0    0    0    0    0
    0    0    0    0    0    0    0  -29 -134  359  197  182
  187  186  186  186  186  186  186  186  187  186  186  185
  187  189  373 -145  -25    0    0    0    0    0    0    0
   -1    0    0    0    0    0   -6 -176  318  214  187  180
  187  191  179  191  185  186  186  186  186  186  186  186
  180  351  -16  -75    0    0    0    0    0    0    0    0
    0    0    0    0    0    0    0    0    0    0    0    0
    0    0    0    0    0    0    0    0    0    0    0    0
    0    0    0    0    0    0    0    0    0    0    0    0
    0    0    0    0    0    0    0    0    0    0    0    0
    0    0    0    0    0    0    0    0    0    0    0    0
    0    0    0    0    0    0    0    0    0    0    0    0
    0    0    0    0    0    0    0    0    0    0    0 -255
 -261  -70   17  -68 -111 -199 -107  118  140  127   19   -3
    1    1    7   -3   -2    4   -1   -1   -1   -1   -2    5
   -2   -1    1   47  105 -273  -37  -37  -18    7    2   19
   31   32   37   17  -84 -164 -173 -162 -159 -122  -24    4
   -2   -1    4   -3    3  -22   -1  -22   33    7    0    6
   60  -44  -15   -2    0    0    0    0    0    0    0    0
    0    0    0    0    0    0    0    0   -2    4   -2    4
   -2    0    0   -1    0   -2    7  -75 -200 -208 -155  154
  318  170   89   59   30   -1  -20   -3   -8   -6   -5   -3
   -4    2  -11   -4   -2   -9  -15   -1   28   47   86  155
  286  218 -109 -218 -210  -81    0    0   -1    0    0    0
    0   -1    4   -1    0   -2   -1    4   -1   -2    4   -2
    0    0  -65 -207 -207 -107  224  278  140   73   42   13
  -12   -5   -9   -4   -3   -2   -3   -1    0   -1   -7    1
   -7   -8  -13    3   37   64  132  245  269  -84 -223 -205
  -77   -1    0    0    0    0    0   -1    0   -2    4   -1
    0    0    0    0    0    0    0    0    0    0    0    0
    0    0    0    0    0    0   -1    3  -31 -197 -208 -211
 -207 -208 -208 -208 -208 -208 -208 -208 -208 -208 -208 -209
 -207 -213 -195  -33    0    0    0    0    0    0    0    0
    0    0    0    0    0    0   -2   -4 -175 -208 -210 -198
 -214 -210 -203 -210 -208 -208 -208 -208 -208 -208 -208 -208
 -207 -217  -64   -4    0   -1    0    0    0    0    0    0
    0    0    0    0    0    0    0    0    0    0    0    0
    0    0    0    0    0    0    0    0    0    0    0    0
    0    0    0    0    0    0    0    0    0    0    0    0
    0    0    0    0    0    0    0    0    0    0    0    0
    0    0    0    0    0    0    0    0    0    0    0    0
    0    0    0    0    0    0    0    0    0    0    0    0
    0    0    0    0    0    0    0    0    0    0    0 -255
 -278  -47 -107  -29   48  176  140   38   15   -7    7   -8
    5   -6   -1    0    0   -1    0    2   -5    4    3   -4
    4   -2   -1   79 -210  -44  -66  -82 -124 -167 -157  -96
  -46   11   -5   17   48   27  -25  -46  -25   11   -6   -2
    3   -1   -2    3    2  -29   15  -25   26   12    0    1
   46   -9  -38   -1    0    0    0    0    0    0    0    0
    0    0    0    0    0    0    0    0    0   -1    0   -1
    0    0   -1    4   -1    0   -2    0   -1  -18  -65 -173
 -292  -87   50  109  168  237  249  171  140  104   91   62
   63   60   98  100  130  175  228  244  182  122   58  -65
 -250 -207  -83  -17   -2    0   -1    0    0    0    0    0
    0    0   -1    0   -1    4   -1   -1   -1    4   -2    0
    0   -1   -1    4  -24  -84 -215 -234  -37   88  133  220
  252  173  127   81   54   34   16   -1   -2   43   39   78
  116  162  244  235  154   97  -19 -204 -233  -95  -19   -5
    4   -2    0    0    0    0    0    0    0    0   -1    0
    0    0    0    0    0    0    0    0    0    0    0    0
    0    0    0    0    0    0    0   -1   -1   -7   -6   -5
   -6   -6   -6   -6   -6   -6   -6   -6   -6   -6   -7   -2
   -7   -5   -9    4   -1    0    0    0    0    0    0    0
    0    0    0    0    0    0    0   -2   -6   -6   -6   -8
   -6   -2   -8   -6   -6   -6   -6   -6   -6   -6   -6   -6
   -7   -1   -5   -1   -2    4   -1    0    0    0    0    0
    0    0    0    0    0    0    0    0    0    0    0    0
    0    0    0    0    0    0    0    0    0    0    0    0
    0    0    0    0    0    0    0    0    0    0    0    0
    0    0    0    0    0    0    0    0    0    0    0    0
    0    0    0    0    0    0    0    0    0    0    0    0
    0    0    0    0    0    0    0    0    0    0    0    0
    0    0    0    0    0    0    0    0    0    0    0 -255
 -312   17  336   85   46   12   -5    1   -4    3    1    0
   -1    1    0    0    0    0    1   -4    2   -1   -2    4
   -3    4   -3    8   82  101  110  125  139  183  139   27
  -91 -194 -126 -103  -62   -2   41   59   -6  -55   -9   -5
    3   -2    0   -1   -3  -31   30  -39   37    4    3   -2
   28   37  -60    0    0   -1   -1    0   -1    0    0    0
   -1    0    0    0    0    0    0    0    0    0    0    0
    0    0    0   -1    0    0    0    0    0    0    0    0
   -3  -68 -126 -163 -194 -239 -231  -89  -37   55   48  125
  108  126   43   52  -20  -87 -201 -250 -200 -169 -132  -78
  -17    4   -1   -1    0   -1    4   -1    0    0    0    0
    0    0    0    0    0   -1    0    0    0   -1    0    0
   -1    4   -1   -1    0    0    0  -24  -86 -147 -175 -227
 -249  -99    6   78  134  155  213  230  252  134  160   84
   19  -72 -222 -242 -187 -152  -94  -33   -1    0   -2    4
   -3    4   -1    0    0    0    0    0    0    0    0    0
    0    0    0    0    0    0    0    0    0    0    0    0
    0    0    0    0    0    0    0    0   -1    4   -1    0
    0    0    0    0    0    0    0    0    0    0    0   -1
    0   -1    4   -2    0    0    0    0    0    0    0    0
    0    0    0    0    0    0    0    0    0    0    0    0
    0   -1    0    0    0    0    0    0    0    0    0    0
    0   -1   -1    3    3   -2    0    0    0    0    0    0
    0    0    0    0    0    0    0    0    0    0    0    0
    0    0    0    0    0    0    0    0    0    0    0    0
    0    0    0    0    0    0    0    0    0    0    0    0
    0    0    0    0    0    0    0    0    0    0    0    0
    0    0    0    0    0    0    0    0    0    0    0    0
    0    0    0    0    0    0    0    0    0    0    0    0
    0    0    0    0    0    0    0    0    0    0    0 -255
 -253 -206  158   36    8   -1   -2   -1    0   -1   -1    0
    0    0    0    0    0    0    0    1    0    0    0   -1
    0   -1    0   -2    0   -1   -1   -3    2   -6   27   70
  136  173  110   77  -21 -188 -164  -43   10   47    1  -49
  -12    3   -1   -1    2  -49   48  -52   41    4   -2   -1
   15   56  -72    0   -1    3    2   -2    4   -2   -1   -1
    3   -1    0    0    0   -1    0    0    0    0    0    0
    0    0    0    0    0    0    0    0    0    0    0    0
    0    0    0    0    0    0  -17  -64  -97 -131 -143 -165
 -166 -165 -142 -131 -102  -68  -25    0    0    0    0    0
    0   -1    0    0    0    0   -1    0    0    0    0    0
    0    0    0    0    0    0    0    0    0    0    0    0
    0   -1    0    0    0    0    0    0   -1    0   -1    0
  -12  -64 -112 -148 -175 -192 -213 -222 -222 -191 -182 -153
 -119  -75  -22    0    0    0   -1    0    0    0    0   -1
    0   -1    0    0    0    0    0    0    0    0    0    0
    0    0    0    0    0    0    0    0    0    0    0    0
    0    0    0    0    0    0    0    0    0   -1    0    0
    0    0    0    0    0    0    0    0    0    0    0    0
    0    0   -1    0    0    0    0    0    0    0    0    0
    0    0    0    0    0    0    0    0    0    0    0    0
    0    0    0    0    0    0    0    0    0    0    0    0
    0    0    0   -1   -1    0    0    0    0    0    0    0
    0    0    0    0    0    0    0    0    0    0    0    0
    0    0    0    0    0    0    0    0    0    0    0    0
    0    0    0    0    0    0    0    0    0    0    0    0
    0    0    0    0    0    0    0    0    0    0    0    0
    0    0    0    0    0    0    0    0    0    0    0    0
    0    0    0    0    0    0    0    0    0    0    0    0
    0    0    0    0    0    0    0    0    0    0    0 -255
 -257  -39 -177  274  -18    2    0   -1    0    0    0    0
    0    0    0    0    0    0    0    0    0    0    0    0
    0    0    0    0    0    0    0    0   -1   -6    0   -2
  -10   -1   21   43   92  218  135 -106 -135 -150   13   47
  -35  -36   -2   -1   -8  -23   33  -62   63  -10    3    2
   -1   93  -86    0   -1   -2    2   -1   -2    2    3   -3
    3   -2    0   -1   -1    3   -1    0    0    0    0    0
    0    0    0    0    0    0    0    0    0    0    0    0
    0    0    0    0    0    0    0    0    0    0    0    0
    0    0    0    0    0    0    0    0    0    0    0    0
    0    0    0    0    0    0    0    0    0    0    0    0
    0    0    0    0    0    0    0    0    0    0    0    0
    0    0    0    0    0    0    0    0    0    0    0    0
    0    0    0    0    0    0    0    0    0    0    0    0
    0    0    0    0    0    0    0    0    0    0    0    0
    0    0    0    0    0    0    0    0    0    0    0    0
    0    0    0    0    0    0    0    0    0    0    0    0
    0    0    0    0    0    0    0    0    0    0    0    0
    0    0    0    0    0    0    0    0    0    0    0    0
    0    0    0    0    0    0    0    0    0    0    0    0
    0    0    0    0    0    0    0    0    0    0    0    0
    0    0    0    0    0    0    0    0    0    0    0    0
    0    0    0    0    0    0    0    0    0    0    0    0
    0    0    0    0    0    0    0    0    0    0    0    0
    0    0    0    0    0    0    0    0    0    0    0    0
    0    0    0    0    0    0    0    0    0    0    0    0
    0    0    0    0    0    0    0    0    0    0    0    0
    0    0    0    0    0    0    0    0    0    0    0    0
    0    0    0    0    0    0    0    0    0    0    0    0
    0    0    0    0    0    0    0    0    0    0    0 -255
 -256   -2 -122  -62  185   -2   -8    4   -1    0    0    0
    0    0    0    0    0    0    0    0    0    0    0    0
    0    0    0    0    0    0    0   -1    4    3    0    1
    1    4    3    6   -3  -10   32  112  154  161 -194 -143
  -11   46  -61  -11  -27   17    3  -36   41    6   -1    0
   -1  102 -102   -1    4   -2   -2  -22  -35  -39  -45  -30
  -17    4   -2    2   -2    3   -1   -1    0    0    0    0
    0    0    0    0    0    0    0    0    0    0    0    0
    0    0    0    0    0    0    0    0    0    0    0    0
    0    0    0    0    0    0    0    0    0    0    0    0
    0    0    0    0    0    0    0    0    0    0    0    0
    0    0    0    0    0    0    0    0    0    0    0    0
    0    0    0    0    0    0    0    0    0    0    0    0
    0    0    0    0    0    0    0    0    0    0    0    0
    0    0    0    0    0    0    0    0    0    0    0    0
    0    0    0    0    0    0    0    0    0    0    0    0
    0    0    0    0    0    0    0    0    0    0    0    0
    0    0    0    0    0    0    0    0    0    0    0    0
    0    0    0    0    0    0    0    0    0    0    0    0
    0    0    0    0    0    0    0    0    0    0    0    0
    0    0    0    0    0    0    0    0    0    0    0    0
    0    0    0    0    0    0    0    0    0    0    0    0
    0    0    0    0    0    0    0    0    0    0    0    0
    0    0    0    0    0    0    0    0    0    0    0    0
    0    0    0    0    0    0    0    0    0    0    0    0
    0    0    0    0    0    0    0    0    0    0    0    0
    0    0    0    0    0    0    0    0    0    0    0    0
    0    0    0    0    0    0    0    0    0    0    0    0
    0    0    0    0    0    0    0    0    0    0    0    0
    0    0    0    0    0    0    0    0    0    0    0 -255
 -251   -4    3 -225  171   89   -1    2   -1    0    0    0
    0    0    0    0    0    0    0    0    0    0    0    0
    0    0    0    0    0    0    0    1   -5   -1    3   -2
   -1   -1    0  -10    1   -1   -5    7   -2   34  200  101
  -78 -182   41  -36  -61   36  -20   -9   32   -3    0    2
  -10   88  -67  -10   -3  -11  -42    6   34   55   52   39
  -16  -28   -2    6   -2   -1   -3    4   -1    0    0    0
    0    0    0    0    0    0    0    0    0    0    0    0
    0    0    0    0    0    0    0    0    0    0    0    0
    0    0    0    0    0    0    0    0    0    0    0    0
    0    0    0    0    0    0    0    0    0    0    0    0
    0    0    0    0    0    0    0    0    0    0    0    0
    0    0    0    0    0    0    0    0    0    0    0    0
    0    0    0    0    0    0    0    0    0    0    0    0
    0    0    0    0    0    0    0    0    0    0    0    0
    0    0    0    0    0    0    0    0    0    0    0    0
    0    0    0    0    0    0    0    0    0    0    0    0
    0    0    0    0    0    0    0    0    0    0    0    0
    0    0    0    0    0    0    0    0    0    0    0    0
    0    0    0    0    0    0    0    0    0    0    0    0
    0    0    0    0    0    0    0    0    0    0    0    0
    0    0    0    0    0    0    0    0    0    0    0    0
    0    0    0    0    0    0    0    0    0    0    0    0
    0    0    0    0    0    0    0    0    0    0    0    0
    0    0    0    0    0    0    0    0    0    0    0    0
    0    0    0    0    0    0    0    0    0    0    0    0
    0    0    0    0    0    0    0    0    0    0    0    0
    0    0    0    0    0    0    0    0    0    0    0    0
    0    0    0    0    0    0    0    0    0    0    0    0
    0    0    0    0    0    0    0    0    0    0    0 -255
 -258    8   -3   -3 -298  242   71  -10    0    0    0    0
    0    0    0    0    0    0    0    0    0    0    0    0
    0    0    0    0    0    0    0    0    1    0   -1    1
    1   -4    1    2    0   -2    8   -5    4   -3   -2   34
  132  214 -230  -66  -36   19  -36   17   22  -12    8    1
   -9   83  -58  -17   -7  -58   72   18    9  -43  -38  -35
    2  -62  -36    2   -2   -2    8   -3    0    0    0    0
    0    0    0    0    0    0    0    0    0    0    0    0
    0    0    0    0    0    0    0    0    0    0    0    0
    0    0    0    0    0    0    0    0    0    0    0    0
    0    0    0    0    0    0    0    0    0    0    0    0
    0    0    0    0    0    0    0    0    0    0    0    0
    0    0    0    0    0    0    0    0    0    0    0    0
    0    0    0    0    0    0    0    0    0    0    0    0
    0    0    0    0    0    0    0    0    0    0    0    0
    0    0    0    0    0    0    0    0    0    0    0    0
    0    0    0    0    0    0    0    0    0    0    0    0
    0    0    0    0    0    0    0    0    0    0    0    0
    0    0    0    0    0    0    0    0    0    0    0    0
    0    0    0    0    0    0    0    0    0    0    0    0
    0    0    0    0    0    0    0    0    0    0    0    0
    0    0    0    0    0    0    0    0    0    0    0    0
    0    0    0    0    0    0    0    0    0    0    0    0
    0    0    0    0    0    0    0    0    0    0    0    0
    0    0    0    0    0    0    0    0    0    0    0    0
    0    0    0    0    0    0    0    0    0    0    0    0
    0    0    0    0    0    0    0    0    0    0    0    0
    0    0    0    0    0    0    0    0    0    0    0    0
    0    0    0    0    0    0    0    0    0    0    0    0
    0    0    0    0    0    0    0    0    0    0    0 -255
 -255   -2   -2    8  -17 -271  195  124   -8   -1   -1    0
    0    0    0    0    0    0    0    0    0    0    0    0
    0    0    0    0    0    0    0    0   -1    0    1   -4
    1    1    0    0    1   -1   -2    2   -7    5   -4   -1
    0   24  200   97 -222  -48  -50   59    3    2   -2    1
   -4   80  -59  -25  -41   68   -4  -10  -75   23   45   42
   49   98  -73  -35    4   -1   -4    0    0    0    0    0
    0    0    0    0    0    0    0    0    0    0    0    0
    0    0    0    0    0    0    0    0    0    0    0    0
    0    0    0    0    0    0    0    0    0    0    0    0
    0    0    0    0    0    0    0    0    0    0    0    0
    0    0    0    0    0    0    0    0    0    0    0    0
    0    0    0    0    0    0    0    0    0    0    0    0
    0    0    0    0    0    0    0    0    0    0    0    0
    0    0    0    0    0    0    0    0    0    0    0    0
    0    0    0    0    0    0    0    0    0    0    0    0
    0    0    0    0    0    0    0    0    0    0    0    0
    0    0    0    0    0    0    0    0    0    0    0    0
    0    0    0    0    0    0    0    0    0    0    0    0
    0    0    0    0    0    0    0    0    0    0    0    0
    0    0    0    0    0    0    0    0    0    0    0    0
    0    0    0    0    0    0    0    0    0    0    0    0
    0    0    0    0    0    0    0    0    0    0    0    0
    0    0    0    0    0    0    0    0    0    0    0    0
    0    0    0    0    0    0    0    0    0    0    0    0
    0    0    0    0    0    0    0    0    0    0    0    0
    0    0    0    0    0    0    0    0    0    0    0    0
    0    0    0    0    0    0    0    0    0    0    0    0
    0    0    0    0    0    0    0    0    0    0    0    0
    0    0    0    0    0    0    0    0    0    0    0 -255
 -255    0    0   -2   -9  -14 -221   15   64    1    2   -2
    0    0    0    0    0    0    0    0    0    0    0    0
    0    0    0    0    0    0    0   -1    4   -1    0    1
    0    0    0    1   -5    5    0   -5    7   -7    5   -2
    0  -12   -3   60  253 -143 -183   49    0   -3   -5    8
  -11   88  -61  -68   52    5  -19  -59   76   24    3    5
   -3   17  130  -96  -12   -3    8   -2    0    0    0    0
    0    0    0    0    0    0    0    0    0    0    0    0
    0    0    0    0    0    0    0    0    0    0    0    0
    0    0    0    0    0    0    0    0    0    0    0    0
    0    0    0    0    0    0    0    0    0    0    0    0
    0    0    0    0    0    0    0    0    0    0    0    0
    0    0    0    0    0    0    0    0    0    0    0    0
    0    0    0    0    0    0    0    0    0    0    0    0
    0    0    0    0    0    0    0    0    0    0    0    0
    0    0    0    0    0    0    0    0    0    0    0    0
    0    0    0    0    0    0    0    0    0    0    0    0
    0    0    0    0    0    0    0    0    0    0    0    0
    0    0    0    0    0    0    0    0    0    0    0    0
    0    0    0    0    0    0    0    0    0    0    0    0
    0    0    0    0    0    0    0    0    0    0    0    0
    0    0    0    0    0    0    0    0    0    0    0    0
    0    0    0    0    0    0    0    0    0    0    0    0
    0    0    0    0    0    0    0    0    0    0    0    0
    0    0    0    0    0    0    0    0    0    0    0    0
    0    0    0    0    0    0    0    0    0    0    0    0
    0    0    0    0    0    0    0    0    0    0    0    0
    0    0    0    0    0    0    0    0    0    0    0    0
    0    0    0    0    0    0    0    0    0    0    0    0
    0    0    0    0    0    0    0    0    0    0    0 -255
 -255   -1    0    0   -8  -21   -5 -123  109    0    1    3
   -1   -1    1    0    0   -2   -1   -2   -1   -1   -1   -1
   -1   -2   -1   -3   -4   -6   -8  -10  -12  -11  -10  -10
   -8   -7   -6   -3    0   -1   -1    0   -2    0   -4    2
    1    2    6   -2    5  150   78 -153   -4    2   -1    2
   -7   73  -66  -19   31  -11  -53   78    5    2   -1    2
    7   -2   40   40  -56    4   -4   -1    0    0    0    0
    0    0    0    0    0    0    0    0    0    0    0    0
    0    0    0    0    0    0    0    0    0    0    0    0
    0    0    0    0    0    0    0    0    0    0    0    0
    0    0    0    0    0    0    0    0    0    0    0    0
    0    0    0    0    0    0    0    0    0    0    0    0
    0    0    0    0    0    0    0    0    0    0    0    0
    0    0    0    0    0    0    0    0    0    0    0    0
    0    0    0    0    0    0    0    0    0    0    0    0
    0    0    0    0    0    0    0    0    0    0    0    0
    0    0    0    0    0    0    0    0    0    0    0    0
   -1    0    0    0    0    0    0    0    0    0    0    0
    0    0    0    0    0    0    0    0    0    0    0    0
    0    0    0    0    0    0    0    0    0    0    0    0
    0    0    0    0    0    0    0    0    0    0    0    0
    0    0    0    0    0    0   -1    0    0    0    0    0
    0    0    0    0    0    0    0    0    0    0    0    0
    0    0    0    0    0    0    0    0    0    0    0    0
    0    0    0    0    0    0    0    0    0    0    0    0
    0    0    0    0    0    0    0    0    0    0    0    0
   -1    0    0    0    0    0    0    0    0    0    0    0
    0    0    0    0    0    0    0    0    0    0    0    0
    0    0    0    0    0    0    0    0    0    0    0    0
    0    0    0    0    0    0    0    0    0    0    0 -255
 -257    4   -1    0   -7  -26  -25  -26   95    2   -2   -1
   -1    4   -5    2   -3    8    0    5    1    1    1    1
    4   14    8   43   80  111  145  166  175  177  171  173
  147  121   99   55   16    7    7    3   -1    0    6    1
    1    3   -8    0   -5    1   76  109 -144  -16    4    3
   -4   91 -111   28   10  -59   51   13    1    2   -1    1
   -3    3    8  103  -81   -2    2    3   -1    0    0    0
    0    0    0    0    0    0    0    0    0    0    0    0
    0    0    0    0    0    0    0    0    0    0    0    0
    0    0    0    0    0    0    0    0    0    0    0    0
    0    0    0    0    0    0    0    0    0    0    0    0
    0    0    0    0    0    0    0    0    0    0    0    0
    0    0    0    0    0    0    0    0    0    0    0    0
    0    0    0    0    0    0    0    0    0    0    0    0
    0    0    0    0    0    0    0    0    0    0    0    0
    0    0    0    0    0    0    0    0    0    0    0    0
    0   -1    0    0    0    0    0   -1    0   -1    0   -2
    4   -1    0    0    0    0    0    0    0    0    0    0
    0    0    0    0    0    0    0    0    0    0    0    0
    0    0    0    0    0    0    0    0    0    0    0    0
    0    0    0    0    0   -1    0   -1    0    0   -1    0
   -1    0    0    0    0   -1    4   -1    0    0    0    0
    0    0    0    0    0   -1    0    0    0    0    0    0
    0    0    0    0    0    0    0    0    0    0    0    0
    0    0   -1    0    0    0   -1    0    0    0    0    0
    0    0    0   -1    0    0    0    0    0    0    0   -1
    4   -2    0    0    0    0    0    0    0    0    0    0
    0    0   -1    0    0    0   -1    0    0    0    0    0
    0    0    0    0    0    0    0    0    0    0    0    0
    0    0    0    0    0    0    0    0    0    0    0 -255
 -251   -2   -1   -1    0  -29  -27  -36  100   -3   -1    0
   -1    3    1   -5    7   -7   -2   -1  -14   20   86  148
  157  155  197  126   30   -9  -89 -118 -129 -132 -122 -141
  -88  -27    1   88  189  166  163  150  131   61   -1  -15
   -3   -2    3   -4   11   -2    3   32  147 -172  -11   -5
   -8  111 -133   32  -10  -30   53   -6   -1    0    2   -7
    2   -5   12   84  -70   -2    3   -2    0    0    0    0
    0    0    0    0    0    0    0    0    0    0    0    0
    0    0    0    0    0    0    0    0    0    0    0    0
    0    0    0    0    0    0    0    0    0    0    0    0
    0    0    0    0    0    0    0    0    0    0    0    0
    0    0    0    0    0    0    0    0    0    0    0    0
    0    0    0    0    0    0    0    0    0    0    0    0
    0    0    0    0    0    0    0    0    0    0    0    0
    0    0    0    0    0    0    0    0    0    0    0    0
    0    0    0    0    0    0    0    0    0    0    0    0
   -2    4   -1    0    0    0   -1    4   -2    4   -2    4
   -2    0    0    0    0    0    0    0    0    0    0    0
    0    0    0    0    0    0    0    0    0    0    0    0
    0    0    0    0    0    0    0    0    0    0    0    0
    0    0    0   -1   -1    4   -3    4   -1   -2    4   -2
    3   -1    0    0    0    0   -2    0    0    0   -1    0
    0   -1    0    0   -1    4   -2    0    0    0    0    0
    0    0    0    0    0    0    0    0    0    0    0    0
    0   -2    4   -1    0   -1    4   -1    0    0    0   -1
    0    0   -1    4   -1    0   -1    0    0    0   -1    0
   -2    4   -1   -1    0    0    0    0    0    0    0    0
    0   -1    4   -1    0   -1    4   -1   -2    0    0    0
    0    0    0    0    0    0    0    0    0    0    0    0
    0    0    0    0    0    0    0    0    0    0    0 -255
 -256   -2    4   -1   -2  -37  -15  -15   93   -3    4    0
   -2   -2   -1    2   -9    3   39   92  228  191   10 -134
 -139 -157 -193 -157 -118  -92  -62  -47  -39  -37  -42  -33
  -57  -87 -102 -142 -184 -171 -148 -134  -77   67  237  191
   83   27    8   -7   -5   -2    1    1   26  165 -163   -7
    1   80 -114   41  -30   33   12   -4    4   -4    2   -2
    4   -1   49    7  -45   -1   -2    0    0    0    0    0
    0    0    0    0    0    0    0    0    0    0    0    0
    0    0    0    0    0    0    0    0    0    0    0    0
    0    0    0    0    0    0    0    0    0    0    0    0
    0    0    0    0    0    0    0    0    0    0    0    0
    0    0    0    0    0    0    0    0    0    0    0    0
    0    0    0    0    0    0    0    0    0    0    0    0
    0    0    0    0    0    0    0    0    0    0    0    0
    0    0    0    0    0    0    0    0    0    0    0    0
    0    0    0    0    0    0    0    0    0    0    0   -1
    4   -2    0    0   -1    0    0   -1    0   -1    0   -1
    0    0    0    0    0    0    0    0    0    0    0    0
    0    0    0    0    0    0    0    0    0    0    0    0
    0    0    0    0    0    0    0    0    0    0    0    0
    0    0   -1    4   -1   -3    4   -2   -1    4   -2   -1
    3   -2    0    0   -1   -1    3   -1   -1   -1    4   -1
   -2    4   -2    0   -1   -2    4   -1    0    0    0    0
    0    0    0    0    0    0    0    0    0    0    0    0
   -1    3   -2    0    0    0   -2    0    0    0   -2    4
   -1    0    0   -1    0   -2    4   -1   -1   -2    4   -1
    0   -1   -1    4   -1    0    0   -1    0    0    0    0
    0    0   -1    0    0    0   -1   -2    8   -3    0   -1
    0    0    0    0    0    0    0    0    0    0    0    0
    0    0    0    0    0    0    0    0    0    0    0 -255
 -256    3   -2    0   -2  -20  -28  -32  113    1   -3   -6
    9    0    2   -6  111  210  130   21 -214 -192 -104  -50
  -25  -12    1    3   -1    0   -1    4   -1   -1    4   -3
   -2    4   -2    0    0   -9  -22  -38  -71 -131 -226 -156
   47  126  170  104    9   -6    0   -2   -6   26  148 -153
    5   64  -85  -22    8   65    0    0    8   -4    2   -4
    4    0  109 -101   -9    2    3   -1    0    0    0    0
    0    0    0    0    0    0    0    0    0    0    0    0
    0    0    0    0    0    0    0    0    0    0    0    0
    0    0    0    0    0    0    0    0    0    0    0    0
    0    0    0    0    0    0    0    0    0    0    0    0
    0    0    0    0    0    0    0    0    0    0    0    0
    0    0    0    0    0    0    0    0    0    0    0    0
    0    0    0    0    0    0    0    0    0    0    0    0
    0    0    0    0    0    0    0    0    0    0    0    0
    0    0    0    0    0    0    0    0    0    0    0    0
   -1    0    0   -3    4   -2   -1    0    0    0   -1   -1
    0    0    0    0    0    0    0    0    0    0    0    0
    0    0    0    0    0    0    0    0    0    0    0    0
    0    0    0    0    0    0    0    0    0    0    0    0
    0    0    0   -1   -1    4   -2    0    0   -1   -1    0
   -2    4   -1   -2    4   -2    3   -3    4   -2   -1   -1
    4   -4    4   -2    4   -1   -2    0    0    0    0    0
    0    0    0    0    0    0    0    0    0    0    0    0
   -1    3   -1    0    0   -1    4   -2    0   -1    4   -2
   -1    0    0    0   -1    4   -2   -1    3    3   -2    0
    0    0    0   -1    0    0   -1    4   -1   -2    0   -1
    0   -1    0    0    0    0    0   -1   -3    4   -2    4
   -1    0    0    0    0    0    0    0    0    0    0    0
    0    0    0    0    0    0    0    0    0    0    0 -255
 -256    2   -2   -1    4   -3  -65 -112  145   -2    7   -1
  -17   36  121  282    2 -263 -150  -95  -21   -3    3   -1
   -1   -1   -1   -1    0    0    0   -1    0    0   -2    0
    0   -2    0   -1   -1    3    2    3   -1   -2    3  -42
 -126 -162 -185  -33  198  101   31   -1    4   -6   35  119
 -122   34  -60  -25  -71  104    8   -4   -2   -3    0    1
   -5   78   23  -57    2    1   -3   -2    0    0    0    0
    0    0    0    0    0    0    0    0    0    0    0    0
    0    0    0    0    0    0    0    0    0    0    0    0
    0    0    0    0    0    0    0    0    0    0    0    0
    0    0    0    0    0    0    0    0    0    0    0    0
    0    0    0    0    0    0    0    0    0    0    0    0
    0    0    0    0    0    0    0    0    0    0    0    0
    0    0    0    0    0    0    0    0    0    0    0    0
    0    0    0    0    0    0    0    0    0    0    0    0
    0    0    0    0    0    0    0    0    0    0    0    0
   -1    0   -9  -79 -148 -172 -185 -187 -174 -146  -89   -5
   -1   -2    0    0    0    0    0    0    0    0    0    0
    0    0    0    0    0    0    0    0    0    0    0    0
    0    0    0    0    0    0    0    0    0    0    0    0
    0    0   -1    0    0   -1  -42 -109 -170  -27    4   -1
    0   -1   -5  -56 -122 -165  -12    4   -3    4   -3 -108
 -128 -124  -47    0   -1   -2    4   -1    0    0    0    0
    0    0    0    0    0    0    0    0    0    0    0    0
    0   -1   -1    0    0    0  -29 -126 -127 -128  -49   -2
    4   -1    0    0    0   -2   -1    0   -1   -1    0    0
    0    0    0 -121 -125 -126  -96   -1 -134 -116 -129 -121
 -127 -121 -126  -87    0   -1   -1    4   -1   -1    0   -1
    0    0    0    0    0    0    0    0    0    0    0    0
    0    0    0    0    0    0    0    0    0    0    0 -255
 -256    1    3   -2   -1    0  -21 -163  192   -3   -7    5
  195  168  -70 -248 -103   -7   -6    1    2   -2   -2    0
    0    0    0    0    0    0   -1    0    0   -1    4   -1
   -1    4   -2    4   -2   -2   -3   -1   -1    4   -4    2
  -62   47    1  -93 -221  -29   19  160   47    6   -4   65
  102 -114  -40    0  -36  -68  115   -8    9   -3    5    1
   97   25 -102   -2    2   -1    0    7   -2    0    0    0
    0    0    0    0    0    0    0    0    0    0    0    0
    0    0    0    0    0    0    0    0    0    0    0    0
    0    0    0    0    0    0    0    0    0    0    0    0
    0    0    0    0    0    0    0    0    0    0    0    0
    0    0    0    0    0    0    0    0    0    0    0    0
    0    0    0    0    0    0    0    0    0    0    0    0
    0    0    0    0    0    0    0    0    0    0    0    0
    0    0    0    0    0    0    0    0    0    0    0    0
    0    0    0    0    0    0    0    0    0    0    0   -1
    4  -75 -282  -32   90  145  167  159  141   91  -13 -296
 -107    2   -2    0    0    0    0    0    0    0    0    0
    0    0    0    0    0    0    0    0    0    0    0    0
    0    0    0    0    0    0    0    0    0    0    0    0
    0   -1    4   -1    0  -44 -155   -2  309  -94  -28    0
    0   -4  -85 -111   30  313 -137  -12    0   -4 -103  112
   44  112  -28  -45   -1    4   -2    0    0    0    0    0
    0    0    0    0    0    0    0    0    0    0    0    0
    0   -1    4   -1    0  -28  -27  154   23  114  -87  -44
   -2    0   -1    0   -2    3  -22   -4    0    0   -1    0
    0   -1 -176  125   29   54  162 -228  166   12   32   24
   26   24   65  -11  -88    4   -1   -1    0    0    0    0
    0    0    0    0    0    0    0    0    0    0    0    0
    0    0    0    0    0    0    0    0    0    0    0 -255
 -256    2   -3    4   -1   -1   -1 -203  251  -12  125  256
 -105 -228  -73    0   -2   -2    8   -3   -2    3    3   -1
    0    0    0    0    0   -1    4   -1    0    0   -1    0
    0   -1    0   -2    3    0    7   -3    0   -2    2  -34
   33   14    4  -63   64  -21  -61 -187   49  119   68   -2
  161 -140  -67    5    1  -82   35   98   54   59   70  112
  -21  -88    6    2   -4    5    1   -3    0    0    0    0
    0    0    0    0    0    0    0    0    0    0    0    0
    0    0    0    0    0    0    0    0    0    0    0    0
    0    0    0    0    0    0    0    0    0    0    0    0
    0    0    0    0    0    0    0    0    0    0    0    0
    0    0    0    0    0    0    0    0    0    0    0    0
    0    0    0    0    0    0    0    0    0    0    0    0
    0    0    0    0    0    0    0    0    0    0    0    0
    0    0    0    0    0    0    0    0    0    0    0    0
    0    0    0    0    0    0    0    0    0    0    0    0
 -186 -181  367  149   76   33   24   25   47   72  135  385
  -79 -263  -23    0    0    0    0    0    0    0    0    0
    0    0    0    0    0    0    0    0    0    0    0    0
    0    0    0    0    0    0    0    0    0    0    0    0
    0    0   -1    0   -2 -207  377  122  284 -182  -24   -2
    0  -41 -107  359  112  248 -192   -8   -3    1 -186  241
  127  251  -31  -80    0   -1    0    0    0    0    0    0
    0    0    0    0    0    0    0    0    0    0    0    0
    0    0   -1    0   -1   -1 -222  332  105  172  111 -152
   -1   -1    4   -2    3  -27  -97  -36   -4   -1    4   -1
   -1  -51 -206  311   85  244   59 -334  359   88   95  101
  100  104   85  397 -356   -1    0    0    0    0    0    0
    0    0    0    0    0    0    0    0    0    0    0    0
    0    0    0    0    0    0    0    0    0    0    0 -255
 -256    3   -1   -1   -1    4   -1 -109   20  405  -59 -233
  -79    3    3   -4    4   -1   -2    0    0   -1   -1    0
    0    0    0    0    0    0   -1    0    0    0    0    0
    0    0    0    0   -2    3   -4    3   -2   -1   -6  -44
   38    3  -22  -13   39    1    1    9  -80 -113  -48  160
   72  263 -298   -5   -3    6  -75  -59  -15  -11  -69  -88
  -52   -4   -7   -3   -1    1   -3   -1    0   -1    0   -1
   -1    0   -1   -1    0   -1    0    0    0    0   -1    0
    0    0    0    0    0    0    0    0    0    0    0    0
    0    0    0    0    0    0    0    0    0    0    0    0
    0    0    0    0    0    0    0    0    0    0    0    0
    0    0    0    0    0    0    0    0    0    0    0    0
    0    0    0    0    0    0    0    0    0    0    0    0
    0    0    0    0    0    0    0    0    0    0    0    0
    0    0    0    0    0    0    0    0   -1    0    0   -1
   -1    0    0    0    0    0    0    0    0    0    0 -164
    9  272   -1    7  110  205  237  225  159   63   -6  -16
  168  331 -135  -17    0    0    0   -1    0    0    0    0
    0    0    0    0   -1    0    0    0    0    0    0    0
    0    0   -1    0    0    0    0    0    0   -1    0    0
    0    0   -1    0   -1 -207  190   -2  218 -167  -33    4
   -1  -41 -134  166   14  201 -191  -14    4   -6 -186  158
   23  159  -76  -78    0    0    0    0    0    0    0   -2
   -1    0    0    0    0   -1    0    0    0    0    0    0
    0    0    0    0    0   -3 -155  136   61    3  263 -304
    3   -1   -1   -1    3 -253  488 -220  -19   -1   -1   -1
    0 -223  262   29   -9  343 -322 -237  319   49   64   58
   -5    3   -7  114   61 -128   -2    0    0    0    0    0
    0    0    0    0    0    0    0    0    0    0    0    0
    0    0    0    0    0    0    0    0    0    0    0 -255
 -255   -1    0    0    0   -1    0  -18  -72  -87 -120   -6
   -2   -1   -2    4   -2    0    0    0    0    0    0    0
    0    0    0    0    0    0    0    0    0    0    0    0
    0    0    0    0   -1   -1   -1    2    2   -4  -62   57
    6   -3  -52   38    7    2    1    1   -3   -5  -47 -161
   51  280  169 -159  -39  -35  -31  -40  -56  -59  -34  -19
  -22  -23  -31  -33  -39  -29  -16   -3   -3    4   -3    3
    3   -3    3    3   -3    4   -1   -2    0   -3    4   -1
    0    0    0    0    0    0    0    0    0    0    0    0
    0    0    0    0    0    0    0    0    0    0    0    0
    0    0    0    0    0    0    0    0    0    0    0    0
    0    0    0    0    0    0    0    0    0    0    0    0
    0    0    0    0    0    0    0    0    0    0    0    0
    0    0    0    0    0    0    0    0    0    0    0    0
   -1    0   -1    0   -2    0    0   -2    3   -1   -1    3
    2   -2    0    0    0    0    0    0    0    0  -47 -237
  337  -17   -6  263  -21 -190 -250 -226 -112  107  247   -2
  149  256 -129  -16    0   -1   -1    4   -2   -1  -52 -132
 -164 -163 -109  -19    4   -3   -1    0    0    0    0    0
    0   -2    4  -32 -124 -165 -164 -119  -21    4  -13  -28
  -26  -21    4   -2  -19 -232  190    1  224 -211  -54  -17
   -1  -64 -168  171   13  200 -230  -36   -9    1 -187  156
   30  153  -68  -79    0    0    0    0    0    0   -2  -55
 -136 -168 -160  -96   -9    4   -2    0    0    0    0    0
    0    0    0    0    0    0  -59 -165  235  -21  171  -83
  -92    0    0    0  -61 -155  354  -32 -117    0   -1    4
  -32 -188  220   -4  131  -47 -109 -169  275   86   88    0
   56    1    0   19  214 -220    2   -3    0    0    0    0
    0    0    0    0    0    0    0    0    0    0    0    0
    0    0    0    0    0    0    0    0    0    0    0 -255
 -255    0    0    0    0    0    0   -1  -15  -32   -2   -2
    4   -1    0   -1    0    0    0    0    0    0    0    0
    0    0    0    0    0    0    0    0    0    0    0    0
    0    0    0   -1    4   -1   -1   -2    1  -40   35   14
   -3  -20  -39   59   -4   -2   -4    7    2    0    7   22
  -35 -373  284  -82  -67   35   42   26   38   33   26   19
   18   20   22   21   27   22   -7  -34  -35  -28  -10   -3
   -2    4   -2   -3    3   -2   -2    8   -4    7   -3    0
    0    0    0    0    0    0    0    0    0    0    0    0
    0    0    0    0    0    0    0    0    0    0    0    0
    0    0    0    0    0    0    0    0    0    0    0    0
    0    0    0    0    0    0    0    0    0    0    0    0
    0    0    0    0    0    0    0    0    0    0    0    0
    0    0    0    0    0    0    0    0    0    0    0   -1
    4   -2    4   -3    8   -2   -3    3    2  -66 -152  -23
    1    3   -1   -2    0    0    0    0   -1   -1 -183  261
   28  -13  265 -320 -150  -44  -13  -25  -73 -196 -273  452
  111 -310  -18    4   -2    4   -2   -3  -96 -249 -158   84
  134  153   25 -263 -182  -14    2   -1    0    0    0   -1
   -1  -42 -213 -231   72  146  147   63 -267 -180  -98 -165
 -177 -122  -22  -15 -110 -371  162    5  202 -311 -193 -113
  -46 -172 -272  154    8  168 -338 -175  -51  -12 -187  162
   25  151  -73  -78    0    0    0   -1   -1 -119 -273 -124
   94  144  149  -14 -287 -155   -1   -1    0    0    0    0
   -1    0    0    0   -1    0    0 -257  266   27    2  306
 -250   -3   -1   -1 -155  117   45  366 -338   -1   -1   -2
  -90  -88  134    4  204 -203  -33    3 -165 -161 -211 -335
  164   -1   -5   -5  219 -244  -48    4   -1    0    0    0
    0    0    0    0    0    0    0    0    0    0    0    0
    0    0    0    0    0    0    0    0    0    0    0 -255
 -255    0    0    0    0    0    0    0   -1   -1    0    0
   -1    0    0    0    0    0    0    0    0    0    0    0
    0    0    0    0    0    0    0    0    0    0    0    0
    0    0    0    0   -2   -1    2   -1  -33   -8   34    0
    0  -65   77   -9   -1    2    6   -8    0    3   -4   41
  -25   25 -187  254   85 -212  -52  -23  -47  -55  -56  -32
  -34  -25  -24  -23  -28  -23  -28  -18  -12  -14  -27  -56
  -23   -4   -1    2    1   -2   -2   -3   -2    2   -2    0
    0    0    0    0    0    0    0    0    0    0    0    0
    0    0    0    0    0    0    0    0    0    0    0    0
    0    0    0    0    0    0    0    0    0    0    0    0
    0    0    0    0    0    0    0    0    0    0    0    0
    0    0    0    0    0    0    0    0    0    0    0    0
    0    0    0    0    0    0    0    0    0    0    0    0
   -1    0   -2    0   -2   -3    8  -20 -213  -98  421  -69
  -18   -2   -2    7   -2    0    0   -2    4   -4 -195  204
   23   16  109 -274    2    3   -2    0   -2    1  -77 -100
 -170    1    2   -2    0   -2    2 -251  -36  243  227   96
   73   63  135  270  173 -302  -56    0    0   -1   -1    3
 -107 -230  220  261  107   60   54  118  293   18 -138  354
  268  284 -177 -163  237  304    0    4  -24  192  300  195
 -338  382  205   -1   -1   -5  208  414  -90  -51 -187  158
   26  154  -69  -79    0    0   -1   -2 -302   37  271  203
   93   63   74  149  286  128 -346  -27    0    0   -1   -1
    4   -2    0   -1    4   -2    0  -76 -143  155    4  195
 -172  -36    1   -5 -323  271   -2  120   20 -111    2    3
 -239  225   27   29  247 -220    4   -3   -1    0 -210  167
   57  -22  160   -7   35  248 -229   -3   -1    0    0    0
    0    0    0    0    0    0    0    0    0    0    0    0
    0    0    0    0    0    0    0    0    0    0    0 -255
 -255    0    0    0    0    0    0    0   -1    0   -1    0
    0    0    0    0    0    0    0    0    0    0    0    0
    0    0    0    0    0    0    0    0    0    0    0    0
    0    0    0   -1    3   -5    7  -24  -22   50  -11    6
  -52   20   25    2    1    5  -11    9   -5    2   -4   63
  -59  -13  -28 -257  258  230 -130  -83   37   57   58   49
   48   39   39   43   44   46   47   67   42   21   11   19
  -43  -79  -38    2    1    0    6    1    3   -4    4   -1
    0    0    0    0    0    0    0    0    0    0    0    0
    0    0    0    0    0    0    0    0    0    0    0    0
    0    0    0    0    0    0    0    0    0    0    0    0
    0    0    0    0    0    0    0    0    0    0    0    0
    0    0    0    0    0    0    0    0    0    0    0    0
    0    0    0    0    0    0    0    0    0    0    0    0
    0   -1    3   -2   -2    3  -91 -267  170  342   46 -123
   -1   -1   -2    1   -2   -1   -1    4   -2   -2 -197  231
   15    0  235 -277 -232 -122  -66  -27   -1    2    3  -33
    2   -4    3   -1    0   -1 -274  162  219   15   61  195
  172  189  104   -7   65  390 -293  -44   -3    4   -3  -84
 -212  379   31  -17   61  178  194  130   -2   91   60   -6
   45  100 -163 -159  134  121    9   -2   -5   51  136   94
 -342  240   61   -5    1    2   49  242 -113  -55 -184  154
   26  159  -72  -79    0    0   -5 -310  288  158   -1   84
  194  176  186   83   -6   85  406 -325  -22   -2    4   -1
   -2    4   -1    0   -2    4   -2  -16 -210  224    2  106
  -17 -121    2 -130   21  123    0   30  189 -227    2  -46
 -226  266  -22  228 -170  -63   -2    4   -2  -39 -246  289
  -15  219 -336  172  -13  244 -186  -43    3   -1   -1    0
    0    0    0    0    0    0    0    0    0    0    0    0
    0    0    0    0    0    0    0    0    0    0    0 -255
 -255    0    0    0    0    0    0   -1    4   -3    4   -1
    0    0    0    0    0    0    0    0    0    0    0    0
    0    0    0    0    0    0    0    0    0    0    0    0
    0    0    0   -1    0    7  -19  -46   58   -3    2  -21
  -35   56   -4   -1    4   -6    4   -5    4   -2   12    8
  -98  -39    9    1  -24   53  121   95 -129   -7   -1   -7
   -7    2   -3   -2   -3   -1    1   -9   13   16   27   44
   63   69  -23 -112  -33    0   -3   -2   -4    4   -2   -1
    0    0    0    0    0    0    0    0    0    0    0    0
    0    0    0    0    0    0    0    0    0    0    0    0
    0    0    0    0    0    0    0    0    0    0    0    0
    0    0    0    0    0    0    0    0    0    0    0    0
    0    0    0    0    0    0    0    0    0    0    0    0
    0    0    0    0    0    0    0    0    0    0    0    0
    0   -1    2    1    1 -164 -103  276   81  198 -273    2
   -2    3    1    1    2    3   -2   -1    0   -1 -142  140
  108   -8   -2  201  185   -7  -99 -202 -264 -201 -153  -85
  -14    3   -3    0   -1 -158   24  180  -17  177  150 -283
 -180 -249  -21  300  -22   19  330 -300   -2   -5  -23 -286
  336   -3  -12  270  120 -224 -223  -99  317   59    8    2
   57  113 -169 -113  131   82   56    2   56   46  151   95
 -232  204   67   51   -3   65   43  222  -75  -37 -190  160
   27  148  -65  -80    0   -1 -193  105  115  -16  224   60
 -272 -179 -257   69  226  -15   34  295 -310    4   -2    0
    0   -1   -1    0    0   -1    0   -1 -188  196   53    3
  303 -296   -9 -255  305   -2    3   -9  241 -250  -45 -176
  182   46   32  207 -252   -1   -1   -2    1 -170  165   57
   45  140 -456  213   20   82   65 -140   -1   -1    4   -1
    0    0    0    0    0    0    0    0    0    0    0    0
    0    0    0    0    0    0    0    0    0    0    0 -255
 -255    0    0    0    0    0    0    0   -2    4   -2    0
    0    0    0    0    0    0    0    0    0    0    0    0
    0    0    0    0    0    0    0    0    0    0    0    0
    0    0    0   -1    3  -19  -52   64   -2    3   -5  -67
   66    2    4   -5    1    1    1    3   -3    1   -1   -6
   41   51   27   -6  -98  120   -1   49   99 -121  -17    7
   -2    2    0   -2   -3    3    2    1    0   -1   11   -6
    9   18   75   99  -44 -104  -22    2    7   -4   -1    4
   -1    0    0    0    0    0    0    0    0    0    0    0
    0    0    0    0    0    0    0    0    0    0    0    0
    0    0    0    0    0    0    0    0    0    0    0    0
    0    0    0    0    0    0    0    0    0    0    0    0
    0    0    0    0    0    0    0    0    0    0    0    0
    0    0    0    0    0    0    0    0    0    0    0    0
    0   -2   -2    2 -222  -14  239   -3  123  -58  -71    5
   -3   -2    2   -2   -1   -2    4   -1    0   -1   -9 -327
  358   34   -4    7   27  122  168  225  293  186  100  -55
 -247  -70    4   -3  -32 -224  343  -17  146   30 -282  -28
  -27  -28 -187 -187  271  -19  126   58 -147    4 -221  210
   59   -9  307 -201 -222  -49  -38 -101 -364  213   79   -1
   56  111 -169    4 -114 -363  175    5  238 -356 -183  -98
   -8 -175 -309  185    9  202 -384 -162  -32   -4 -186  158
   26  155  -71  -79   -1  -46 -222  314  -17  206  -43 -236
  -27  -22  -34 -237  -68  236  -23  173   20 -128    0   -1
    0   -1    4   -2    0    0    0   -1  -30 -271  282  -27
  184 -100 -159  -95  147   -2  101   23   38  253 -234 -212
  197   19  110  -18 -108   -2    4   -3   -5 -278  239   -4
  138  -47 -230  105   75    7  261 -310   -2    0   -2    0
    0    0    0    0    0    0    0    0    0    0    0    0
    0    0    0    0    0    0    0    0    0    0    0 -255
 -255    0    0    0    0    0    0    0    0   -1    0    0
    0    0    0    0    0    0    0    0    0    0    0    0
    0    0    0    0    0    0    0    0    0    0    0    0
    0    0    0    0  -25  -43   71    1   -7    6  -77   61
   13   -4    3    1   -3    3   -3   -2    3   -4    8    0
    3    0   -2    7  -54  -14   69   -6   22  143 -150  -24
    5    1    0   -3   -3   -1    0   -4   -4    2   -5    1
   -1    1   -9   14   62  141 -102  -82   -4    4   -2   -2
    0    0    0    0    0    0    0    0    0    0    0    0
    0    0    0    0    0    0    0    0    0    0    0    0
    0    0    0    0    0    0    0    0    0    0    0    0
    0    0    0    0    0    0    0    0    0    0    0    0
    0    0    0    0    0    0    0    0    0    0    0    0
    0    0    0    0    0    0    0    0    0    0    0    0
   -4    8   -9 -273  121  165   -5   -2  322 -269   -2   -4
    3   -2    3   -2    0    0   -2   -1   -1    3    2  -28
 -321  352  194  116   68   13  -19  -27  -24   23   74  133
  390 -240  -83    4 -132   85   77   29  111 -454 -160 -159
 -150 -164 -150 -364  -82  102  -22  338 -258  -58 -171  267
  -13  188 -122 -149    0   -1    4   -4  -11 -324  216   18
   54  117 -170   -2   -2 -201  193   -3  220 -165  -30   -1
    0  -40 -134  174   11  203 -192  -11   -1   -5 -182  157
   26  154  -70  -79    0 -195  248   27   58   19 -428 -160
 -155 -162 -156 -154 -409  -26   70    6  279 -203  -12    4
   -1    0   -2    4   -1   -1    0   -1    3 -212  160   52
   25  229 -419  156   41  173 -250  110   12  224 -220 -252
  201   -7  268 -215  -31    4   -2    0 -115  -31  131   -3
  349 -298  -36 -256  296  -15  150  -24 -113   -1    4   -1
    0    0    0    0    0    0    0    0    0    0    0    0
    0    0    0    0    0    0    0    0    0    0    0 -255
 -255    0    0    0    0    0    0    0    0    0    0    0
    0    0    0    0    0    0    0    0    0    0    0    0
    0    0    0    0    0    0    0    0    0   -1    0    0
   -1    0    0  -35  -18   53   -4   -2    6  -60   25   32
   -5   -4    4    0   -2   -3    3   -3    2    2   -2    4
   -1    4   -9    2   -1 -128  104    5   -3   11  145 -106
  -23    4   -1    4    2    2   -4    4    8    7    5   15
   10    3   16    7    9    3  110   77 -147  -33   -8   -2
   -2    0   -2    0    0    0   -1   -1   -1    0   -1    0
   -1    0    0    0   -1    0   -1   -1    0    0    0    0
    0    0    0   -1    0    0    0    0    0   -1   -1    0
    0    0    0    0    0    0    0    0   -1   -2    0   -1
   -2   -3   -1    0   -1   -1   -1    0    0    0    0    0
    0    0    0    0    0    0   -1    0   -1    0    0   -3
    7  -21 -245  173  141  -10    0  179 -169  -60   -1    3
    2   -1   -2    4   -1   -1    3    3   -1   -1   -1   -1
  -24 -256 -129  -17  107  185  287  226  159   69    4    7
   -5  359 -234  -30 -176  153   56   15   27   41   90   96
   84  102   90   78  -67   62   -7  157  -52 -191   46  103
   23  173 -276   -2   -1    0   -2    4   -3 -151   53   82
   60  104 -164    3   -1 -211  194    6  219 -181  -29    0
    0  -40 -138  172   15  199 -192  -12   -1    1 -188  158
   26  154  -70  -79  -12 -178  194   19   31  -11   61   93
   90   96   95   87   64  -29   39    4  179 -137  -36   -1
    0   -1    0   -1   -1    3   -1    0   -1  -92  -57  134
    5  171 -434  262   -2  273 -482  210   41  102 -209   96
   47   62  170 -189   -1   -2   -1   -5 -300  335   -6  116
   17 -124   -2 -192  153   58    9  290 -242   -8   -1    0
    0    0    0    0    0    0    0    0    0    0    0    0
    0    0    0    0    0    0    0    0    0    0    0 -255
 -255    0    0    0    0    0    0    0    0    0    0    0
    0    0    0    0    0    0    0    0    0    0    0    0
    0    0    0    0    0    0    0    0   -1    4   -2   -4
    3   -5  -53    1   50   -7    4   -1  -47   -8   53   -8
    4    3   -2    0    1    1    0    2   -3   -2    0    4
   -5    5    2   -1    5  -49    6   40    4    0   11  122
 -146   -6   -8    7   33   54   79   79   70   67   63   62
   61   73   58   66   63   68   71   93  226  -29  -38  -39
  -41  -25    7   -2   -1   -1    3    2    3   -2    4   -2
    4   -1   -1   -2    4   -3    2    2   -3  -29  -35  -31
  -33  -40  -27    4   -2   -1   -1    0   -1    1    3   -1
    0    0    0   -1    0    0   -1   -1    2    6   -3    1
    3    0  -21  -34  -16    2    3   -1   -1    0   -1    0
   -1    0    0    0   -1   -1    3   -2    4   -1   -1    3
  -25 -215  114  107   -3   -3   20  184 -208    5   -3   -1
   -1    0    0   -1    0    0   -1   -1    0   -1   -1    0
    0   -1  -47 -101 -160 -202 -264 -208  -95  109  206   11
    1  102   68 -128 -196  193   20    2   14   48   57   55
   54   52   52   53   47  -16  -14  112    3 -252  119   63
   59   72 -165   -2    3   -1   -1   -1    0  -69 -185  191
   41  119 -170   -1   -1 -210  199   -2  217 -170  -31   -1
    0  -40 -141  178    8  201 -192  -13    0   -4 -187  158
   26  154  -70  -79  -20 -162  187   15   -4   31   53   53
   58   51   55   56   60   28   -5  -14  167 -124  -44   -1
   -1    4   -1    0   -1    2   -1    0    0  -22 -230  282
   -6   14  146   -4  114  -39 -161 -201  250   -3   85   62
   -7  243 -275  -31   -1    3    2  -97  -34  145   -1  217
 -464 -152 -148 -199 -340  181  -12  182 -151  -61   -1    0
    0    0    0    0    0    0    0    0    0    0    0    0
    0    0    0    0    0    0    0    0    0    0    0 -255
 -255    0    0    0    0    0    0    0    0    0    0    0
    0    0    0    0    0    0    0    0    0    0    0    0
    0    0    0    0    0    0    0    0    0   -2    0   10
  -23  -58   50   27   -3   -1    4  -50   -8   56   -2   -1
    1    2   -1    0    0    0    0    0    3   -1    1    1
   -1   -3   -1    0    3   -8 -100  123   -1   -1   -4   19
  136 -113  108   82   24  -28  -72  -73  -70  -74  -65  -76
  -68  -76  -64  -72  -72  -71  -69  -67 -103  109   44   45
   37   -5  -71  -38  -16   -6   -2   -1   -1   -1   -1    0
   -1   -2    3    3   -4    2    0  -10  -62   40   37    2
    7   49   11  -76   -2    2    3   -1   -3    7   -3   -1
    0    0   -2    4   -1   -1    4   -1   -3   -9  -26  -36
  -61  -46   -8   65   43  -20   -2   -2    4   -2    3   -3
    4   -1   -1   -1    4   -2    3   -1   -1   -1    0  -33
 -135   79  148   -2    0   -2  100   28 -104   -1   -2    0
    0    0    0    0    0    0   -1    0   -1    3    3   -3
  -10  -50   -1   -2   -2    4   -1  -27  -80 -200 -269  183
   -2   33  218 -191 -193  187   36   -9   57  253  242  244
  240  240  248  242  238  248  238  373  108 -263  111   74
   53   82 -175   -1    2   -2    4   -1    0  -88 -107  153
   43  108 -167   -1    4 -210  194    3  224 -185  -30    4
   -2  -41 -135  169   15  198 -203   -6   -1   -5 -183  158
   25  153  -69  -79  -18 -167  190    4    2  115  249  242
  240  241  245  238  241  250  243  242  425  -58  -58    0
    0   -1    0    0   -1    3   -1    0    0    0 -174  132
   74    1    3   -6  239 -193  -31 -243  211   34    8   -3
   31  180 -207    2   -1   -2    2 -221  170   34   17   18
    6   69   65   60  -28   52    5   59  126 -191    4   -1
    0    0    0    0    0    0    0    0    0    0    0    0
    0    0    0    0    0    0    0    0    0    0    0 -255
 -255    0    0    0    0    0    0    0    0    0    0    0
    0    0    0    0    0    0    0    0    0    0    0    0
    0    0    0    0    0    0    0    0   -1   -2    3  -24
    3   59    6   -3    0    5  -58    8   53   -3   -4    4
    2   -2    0    0    0    0    0    1   -1   -6    3   -3
   -2    5   -6    3   -3    6  -89   48   34    2    2    3
   56   65 -293  -81  -57  -30  -12  -12   -4   -7    4   -4
   -1   -4   -7   -3   -2   -7   -8   -5  -16  -68   33   25
   32   28   63   20  -15  -55  -34   -4   -2    4   -2    0
   -2    3   -2   -2    3    1  -10  -39   71    5   -9   36
   25    9   34   83  -79   -6   -3   -1    4   -3   -1    4
   -2   -1    4   -2   -1   -1  -11  -31  -60  -36   -5   19
   64   57  111    1  -41   -2    3    3   -3   -1    1    3
   -3   -1    4   -2   -2    0   -1    0   -1    4  -29  -58
 -127  192  -13    8   -1   -7  285 -273   -9    1    3   -1
    0    0    0    0    0   -1    4   -1    0   -2   -3   -3
 -187  -35 -123    3    2   -2   -1    0   -1    3 -308  211
    2   39  191 -186 -166  135   55   52   16 -412 -225 -232
 -224 -230 -230 -223 -234 -294 -227 -235 -103 -112   26  117
    4  236 -355   -3    3   -2   -1   -1    0 -186  104   67
   56  118 -169   -1   -1 -208  194    4  215 -209  -33   -3
    4  -41 -141  181   14  195 -203  -14   -1    0 -183  163
   29  160  -99  -78   -9 -188  208   22  106 -195 -352 -228
 -224 -229 -230 -225 -223 -278 -276 -225 -227  -53   -2    0
    0    0    0    0   -1   -1    0    0    0    0  -25 -281
  254   -6   -3   45  234 -215   -1  -90  -81  138   -3   -5
  125   10 -104   -2    0    0  -44 -258  267   -4   -5   16
   81   78   88   82   79   -2    4  -17  315 -283  -29    0
    0    0    0    0    0    0    0    0    0    0    0    0
    0    0    0    0    0    0    0    0    0    0    0 -255
 -255    0    0    0    0    0    0    0    0    0    0    0
    0    0    0    0    0    0    0    0    0    0    0    0
    0    0    0    0    0    0    0   -1    2    3   -4  -28
   68   21   -1    4   -5  -63    8   38    0    8   -5    1
   -1    0    0    0    0    0    0    1   -2    3    1    2
    2   -4    1   -6    8   -8   12  -78   97   -1    3   -2
   -3  162  -38  -84   -3   -1   -3    4   -4    7   -8    2
   -3  -21  -30  -30  -34  -23   -2   -1   -1   -1  -64   42
    3   22   -2   18   32   72   20  -74  -36   -7    4   -3
    3    1   -1    0   -1   -3  -49   59   -1  -25   25   -2
   -2    2    1    1   91  -70    8   -3   -1    0    0   -3
    4   -1   -1   -6  -23  -48  -42    3   75   47   23   24
    7   87  -87  -25   -2    3   -2   -3    4   -4    2   -3
    3   -1   -2    2    3   -1   -1    0   -1  -22  -37 -178
  277   -4    9  -10    1   90   20 -116   -2    3   -2    0
    0    0    0    0    0   -1   -1   -1   -1    4  -28 -367
  236  380 -164 -248  -78   -4    4   -1  -25 -170 -237  174
   -4   73  145 -154 -110   35  113   11  225 -360  -49    0
   -5   -6    4  -58 -225  -21 -236  -65   -3  -35 -209  298
  -21  101  137 -285   -2    4   -3    4  -87 -319  238    2
   54  108 -168    4   -1 -205  218   17  163 -146  -80    3
   -3  -39 -123  176    7  181 -263  -30    0   -4 -174  146
   40  124  -91 -120    3 -166  184   69    5  285 -396  -10
   -5   -3   -3   -4 -108 -105 -105 -219  -50   -3    0    0
   -6  -29  -29  -26    2   -1   -1    0    0    0   -2 -198
  167   41  -12  265 -273  -36    0  -28 -203  243    2   -7
  352 -331   -5    0    0   -1 -232  288   21   -6   83  107
  114  111  111  109  115  117   39    4   53  167 -169    0
    0    0    0    0    0    0    0    0    0    0    0    0
    0    0    0    0    0    0    0    0    0    0    0 -255
 -255    0    0    0    0    0    0    0    0    0    0    0
    0    0    0    0    0    0    0    0    0    0    0    0
    0    0    0    0    0    0    0   -1    3   -4    4   -3
  -52   15   44  -14  -84   48   40    1   -6    3    0   -3
    1    0    0    0    0    0    0    1   -2    2   -4   -4
    0    6   -6    9   19  121   26 -147  103   19   -1    0
   -5    4  229 -263   -3   -4    4   -2    0   -6    7   -4
  -52    8   33   36   18  -24 -131  -83  -30   -1   -5  -62
   39   -5   24    1    0   -2   26   63   39  -75  -28    2
   -3    3   -2    0    0  -20   -2   25  -20   23    5   -5
    1   -7   -3    6   39  -16  -21    4   -2    0   -2    3
   -3   -3  -30  -49    9   34   46   31   -5    2   -6   17
   75  -87   -6    6   -3  -11  -69 -118 -117  -48   -6   -2
    2   -2   -1    3   -3   -2    3   -2   -8  -35  -94   98
   51    2   -5    6   -4  168 -168  -38    0   -1    0    0
    0    0    0    0   -1    4   -3    4   -1  -28 -106  337
   91  -12  215  166  -84 -312 -223 -259 -254   18  225   12
   -6  231 -165  -54   -7 -297  405  -19   47  299 -311 -162
  -78  -77 -194 -274  315  258  225   15  -62    3 -191  155
   79  -13  173   95 -361 -141 -121 -239 -205  300   25   -4
   59  114 -168   -1    0 -170  167   44   28  232 -411  -84
    3  -21 -176  254    0   84   96 -337  -55   -1 -160  178
   62   23  231 -371 -116  -18 -324  364   -9   55  280 -374
 -135  -74  -84 -229 -174  291  267  218   -8  -49    0   -6
  -57 -160 -172 -143  -28   -3    4   -2   -1    0    0 -106
    1  130   35  167 -219    3   -2    4 -194  187   59  104
    7 -123    7   -2   -2  -34 -192  205   -1   92   -6  -41
   -4    1  -11    1   -4  -83  101   34   19  215 -241  -12
    0    0    0    0    0    0    0    0    0    0    0    0
    0    0    0    0    0    0    0    0    0    0    0 -255
 -255    0    0    0    0    0    0    0    0    0    0    0
    0    0    0    0    0    0    0    0    0    0    0    0
    0    0    0    0    0    0    0    0   -2    4   -2   -1
   -2  -35  -64  -33   83   20   -7    3    4   -1    5   -3
    1    0    0    0    0    0    0    1   -2    0    5    3
   -2   -3   27   84   65 -131  -58  -78   39   59   -4    3
    4    2   63  159 -193    3   -3    0   -2    8   -8  -55
   57   24   14 -107 -111    0   85   13 -136 -119   12   -9
  -60   54  -11   23    2    1   -3   -4   13   86  -21  -62
   -7   -3    4   -1   -3  -35   51   -3   -8   14   -2    0
    8    1    2   -5   17   28  -35   -2    4   -2    1    0
  -22  -53   10   41   19   14    7   -3    3   -8   43   58
  -89    1   -2  -14  -55 -192  -63  112   82  -98 -214  -47
    1    3   -2   -3    3    0    2   -7  -52   -3 -158  202
  -11   -5    6   -8   18  207 -192   -2   -1    0    0    0
    0    0    0    0    0   -2    4   -2   -1  -12 -147  294
  166  -10   -1   35  158  281  184  258  227  107    6   -5
  179  187 -210   -2   -1  -73 -213  315  -24   17  316    8
 -137 -128   62  296    1    5  396 -105  -45   -2  -19 -290
  352   13   -3   99  307  -15  -42  132  242   11   49   -3
   55  109 -167   -1   -1  -78  -77  295  -13   35  378  -63
  -85    0 -173  162  162  -13  117  294 -102  -55  -52 -172
  351  -10    8  376  -28 -100 -111  -81  260  -16   37  330
  -26 -139 -122  109  244    3   16  395 -155  -26    0  -52
  -88  420  231  377 -183  -10   -2    3    3   -1    0   -7
 -310  329  109   15 -110    3   -1   -1  -31 -277  268  196
 -231  -29   -2   -2    4 -125   -6  106    3  205 -250 -137
 -110 -112 -105 -112 -110 -178 -126  160  -13  177 -138  -80
    0    0    0    0    0    0    0    0    0    0    0    0
    0    0    0    0    0    0    0    0    0    0    0 -255
 -255    0    0    0    0    0    0    0    0    0    0    0
    0    0    0    0    0    0    0    0    0    0    0    0
    0    0    0    0    0    0    0    0    0   -1   -1    4
   -2  -36   31  159   -4   -8    1    3    0   -9    3   -3
    2    0    0    0    0    0    0    1   -3    3   -5    1
   10   79   90 -113  -69  -23   -3   14 -177  197   -8    0
   -3   -8   -5  170  -79  -64    4   -2    0   -3  -63   59
    9    7 -181   60  162   91   65   96  227  -16 -141   11
   -2  -68   53  -25   23    1    2   -2    3   -6   39   75
  -78  -20   -3   -2    6  -38   40    0   -7    5    6   -5
    0   -3    1    2   10   35  -42   -1   -2   -2   -2  -53
    7   41    5   20    2    1  -10   -4    0   38   28  -74
   -1   -6  -44  -27 -196  276  144   76   74  156  308 -221
  -75   -3    2    2   -4    7   -7  -31   31 -173  252  -12
    7   -4   -1   -5   85   62 -121   -1    0    0    0    0
    0    0    0    0    0    0   -1    0    0   -1  -19 -287
   -6  320   86   25  -16  -31   -6  -16  -25    7   69  275
   66 -281   -5    4   -2    4 -148 -127  382   57   -1   73
  145  138   63    6  122  379 -313  -76    4   -2    3  -58
 -297  387   79    6  -12   71   95   31   33  195  -67   76
   63  128 -169    4   -2    2 -175  -73  320   41   34  317
 -170   -1    3 -310  169  213    8  162  162 -109   -4 -118
 -193  349   59   -4  410 -200   -2 -198  -47  330   52   -9
   88  154  120   58   23  129  385 -347  -45    0    0  -50
 -134  176    4  162 -185   -9    0   -1   -1    0   -1    3
 -137   18  461 -318   -3   -2    0   -1    4 -213  178  310
 -221   -2   -2    4   -3 -342  371    9   50  259 -216    0
    0    0   -1    0    0    0 -296  352   13   20  356 -286
    0    0    0    0    0    0    0    0    0    0    0    0
    0    0    0    0    0    0    0    0    0    0    0 -255
 -255    0    0    0    0    0    0    0    0    0    0    0
    0    0    0    0    0    0    0    0    0    0    0    0
    0    0    0    0    0    0    0    0    0    0    0   -2
    3    2  -68  -50  140   16    6   -3   -1    7   -4    3
   -4    1    0    0    1    1    1    1    2   -3   -5   40
  109  -52  -98  -10   -3    0  -47   52 -153  102   32   -5
    2    2    2   24  167 -204   -2    3   -2  -33   34   10
   10 -175   64  123   -2   -1    4   -1   -5  257 -146  -52
   -2   -5  -46   59  -17   23    1    0   -1    7   -4   11
   69  -29  -37   -2   -6  -25   32   -6   -7   15   -1    1
    2   -3    2   -4    6   51  -47    3    3  -24  -41   40
    9   -1   21    0    2    0    8    0   30   43  -71    2
   -6  -40   51 -155  203   40   -2    0    2   -1   14  294
 -227  -51    2    2   -1   -3  -12  -27  -41  -37   87    6
   -5    1    2   -8  238 -235  -23   -1    0    0    0    0
    0    0    0    0    0    0    0    0    0    0   -1    1
 -153 -210   65  213  272  182  167  170  244  250  105 -140
 -192   -3    0   -1    0   -3    8 -123 -241  125  266  228
  160  167  254  242   26 -298  -40    0   -1    0   -2    4
  -60 -267   88  276  224  163  165  288  210 -224  -65  319
  234  246 -155   -1    0   -1   -1 -154 -180  176  453 -183
  -56   -1    2    2 -246  -73  287  373 -294  -10    3    2
 -110 -217  147  447 -141  -77    3    3 -157 -182  138  287
  211  154  178  267  211    9 -317  -20    0    0   -1  -45
 -130  178   18  205 -181   -9    0    0    0    0   -1    3
  -36 -117  219 -131   -1    0    0    0   -2 -114  200   -7
  -79    3    3   -2 -115  244  288  174  386 -216  -44   -1
    0    0    0    0    0    0 -104  -25  311  177  356   60
  -68    0    0    0    0    0    0    0    0    0    0    0
    0    0    0    0    0    0    0    0    0    0    0 -255
 -255    0    0    0    0    0    0    0    0    0    0    0
    0    0    0    0    0    0    0    0    0    0    0    0
    0    0    0    0    0    0    0    0    0    0    0    0
   -2    1    1  -33 -149  112   72   26   -4   -1   -4   -1
    1    1    1    0   -4   -3   -2   -4    1   -3   87   73
 -140  -27   -4   -2    3    2  -41   49  -55  -40   79    1
    0   -7    7   -4  174 -119  -65    3  -10  -26   41    7
  -81   -7  146   -5    4   -6    2   -5    6    6  235 -170
   -1    3  -16  -49   43  -15   18    5    1   -5    0   -3
    8   65  -21  -49   -2  -39   44    5  -18   17   -4    1
   -4    2    1    0   17   29  -41   -2  -41  -17   53  -18
   21    5   -4   -2   -2    4   -6   18   59  -81    3   -2
  -33   28  -25  -83  164   -8    6   -3    0   -1   -5    8
  330 -241  -13   -3   -2   -3  -52   69 -261  240    0    0
   -4   -1    3   25  152 -188    5    2   -1    0    0    0
    0    0    0    0    0    0    0    0    0    0    0   -1
    0  -38 -132 -211 -257  -72  -68  -63 -199 -241 -152  -60
    0   -1    0    0    0    0   -2   -1  -33 -152 -258 -151
  -52  -50 -201 -231 -117   -5   -1    0    0    0    0   -1
   -2  -16 -141 -259 -148  -44  -42 -252 -200  -67 -101 -213
 -206 -155    0    0    0   -1   -1    3  -53 -218  -65 -100
   -1    0   -3    3   -1  -89 -245  -53  -50    0   -2   -1
   -1  -39 -197 -106  -97   -3   -1   -1   -1  -49 -162 -272
 -127  -51  -52 -234 -212 -108    3   -1    0    0    0  -50
 -133  187  197  245 -154   -6   -1    0    0    0    0   -1
   -4  -21 -124    3   -1   -1    0    0   -1  -14  -66  -91
    0   -1   -1   -1    3 -111 -212 -206 -216  -48    3   -1
    0    0    0    0   -1   -1    4 -104 -211 -206 -212  -68
    0    0    0    0    0    0   -1    0    0    0    0    0
    0    0    0    0    0    0    0    0   -1    0    0 -255
 -255    0    0    0    0    0    0    0    0    0    0    0
    0    0    0    0    0    0    0    0    0    0    0    0
    0    0    0    0    0    0    0    0    0    0    0    0
   -1    2    1    1   -1  -90  -73   70   77   25    4    7
   -2   -4   -3    6    4    5   -1    5    4  138  -63  -89
    1   -2   10    1   -2   -1  -26   12   -8 -105  120    0
    2    4   -4   -8   10  239 -184   -8  -22   10   13   -5
 -141  173   -3   -5   -2    6   -4    3   -4   10  146 -128
  -14   -2    2  -24   -4   31  -20   21   -6    7   -1   -2
    2   -3   59   14  -59  -36   47    4   -8   18   -6    4
    0    2   -5    1   21   10  -22  -52   22   32  -17   26
   -1    6    3    2    0   -8   17   77  -82   -2   -2   -6
  -41   54  -92   44   66    6   -4    3   -6    8   -5    1
  104  -17  -91    4    6  -29   16  -89   66   80   -4   -1
    4    3   -4   83   23 -113    6   -5    0    0    0    0
    0    0    0    0    0    0    0   -1    0    0   -1    0
    0   -1    0   -2   -6  -62  -74  -68  -22   -2    4   -1
   -1    4   -1    0    0    0    0    0   -2    0    0  -39
  -72  -70  -27    4   -1   -1    0    0    0    0   -1    0
    0   -3    3    3  -41  -74  -69  -14    4   -4    4   -2
   -1    0    0    0   -1    4   -1   -1   -2    4  -45    3
    3   -2    4   -2    0   -2    8  -45    8   -3    4   -1
    0   -3    4  -35    1   -2    0   -1    0   -2    3    2
  -46  -75  -64  -19    4   -1   -1    0    0    0    0  -51
 -102  563 -174 -235   -7   -1    4   -1    0   -1    0   -1
   -1    0   -2   -3   -1    4   -1   -2    4   -2  -14    3
   -1    0    0    0   -1   -2    4   -1    0    0   -1    0
    0    0    0   -1    4   -1   -1   -1    0    0    0    0
    0    0    0    0   -1   -1    4   -1    0    0    0    0
    0    0    0   -1   -1    0    0   -1    4   -1    0 -255
 -255    0    0    0    0    0    0    0    0    0    0    0
    0    0    0    0    0    0    0    0    0    0    0    0
    0    0    0    0    0    0    0    0    0    0    0    0
    0   -1   -1   -1   -2    3  -21 -109   -4   -5   31   -1
    2    6    0   -8   -3   -3    1   13  114  -93  -49   -1
   -2    2   -5   -1    0    0  -15  -10   12 -120  127    3
    5   -5    8    7   -3  139 -121  -48  -32   27   13  -51
  -65  104    7    3    4   -1   -3    1    1    3  149 -126
  -19   -1    2    1  -44   25    6   -8   20    1   -5    5
   -1   -3   -4   55    1  -56  -47   44  -11    2   16    0
   -1   -5    6   -4   71  -48  -69   35   23  -25   25   -7
    2   -4    6   -3   -3    4   78  -91   -1   -2    2  -17
   10   19 -116  112   34   -4    4   -9   10   -9    1    6
    5  244 -222    2   -6  -60   50 -159  165    5    0    1
    0   -3    0  137  -84  -62   -4    8   -2    0    0    0
    0    0    0    0    0    0   -2    4   -1   -1    4   -2
   -1    3   -2    4   -2   -1    4   -1   -1    0   -1    0
   -1   -1   -1    0    0    0    0   -2    4   -1    0    0
    0    0   -1   -1    0    0    0    0   -1   -1    3   -1
    0    0   -1   -1    0    0   -1    0   -2    4   -3    3
    3   -1    0    0    0   -1    0    0    0   -1    0   -1
   -2    0   -1    0   -1    0   -3    4   -3   -1   -1   -1
   -1    4   -2    0   -2    4   -2    4   -1    0   -2    3
   -2    4   -2    0   -2    0    0    0    0    0    0  -27
   41 -213  -82   -1    0    0   -1   -1   -1    3   -2    4
   -1   -1   -2    8   -2   -1   -1    4   -3    4   -3    3
   -2    0    0    0    0   -1   -1    0    0    0   -1    0
    0    0    0   -1   -1   -1   -1    4   -2    0    0    0
    0    0    0   -1    4   -1   -1   -1    0    0    0   -1
   -1    0   -1    3    3   -1    0    0   -1    0    0 -255
 -255    0    0    0    0    0    0    0    0    0    0    0
    0    0    0    0    0    0    0    0    0    0    0    0
    0    0    0    0    0    0    0    0    0    0    0    0
    0    0    0    0    0   -1   -1  -13  -19  -31   23   12
    4   -6   -7    8    6   -4   21  139 -124  -30    4   -1
   -1    1    3   -1   -1    0   -7  -34   45 -137  126   19
   -6    7  -10    0    0   51  111 -146  -33   35    6 -112
  100   37   -6   -1   -4    2    2   -1    2   13  145 -120
  -19    0   -1   -3    0  -55   62  -18    6    7   -4    0
    0   -2   -3    2   52    5  -82   33   26  -17   13   11
    2   -4   -2   48   20 -101   52   20  -21   24    5   -2
    1    1   -1   -3    3   89  -71   -5    1   -2    2  -28
   15   10  -97   62   61   -4   -3    5   -4    0   -1   -2
   -2  193 -129  -39  -38   48  -30 -127  133    6    0   -2
   -4    4   -1  183 -159  -25   -1   -2    0    0    0    0
    0    0    0    0    0   -1    4   -2    0    0   -2    4
   -3    3   -2   -1    0   -2   -1    0    0   -1    0   -1
    4   -3    4   -1    0    0   -1    4   -2    0    0    0
    0   -1    4   -1   -1    0    0   -1    4   -3    3   -1
    0    0    0    0   -1   -1    3   -1    0   -1   -1   -1
   -1    0    0    0    0   -1    0    0    0    0    0   -2
    4   -2   -1   -1    4   -1    0   -1   -1    4   -3    4
   -1   -1    0    0    0   -1    0   -1    0   -1    0   -2
    0   -1   -1   -1    4   -1    0   -1    0    0   -1    3
  -23  -14    4   -1   -1    0   -2    4   -2    3   -1   -1
    0    0    0   -2    0    0   -1   -1   -1   -2    4   -3
    4   -1    0   -1   -1    4   -1    0    0   -1    4   -1
    0    0   -1    4   -3    4   -1   -3    4   -1    0    0
    0    0    0    0   -1    0   -1    3   -1    0   -1    3
    3   -1    0   -1   -1   -1    0    0    0   -1    0 -255
 -255    0    0    0    0    0    0    0    0    0    0    0
    0    0    0    0    0    0    0    0    0    0    0    0
    0    0    0    0    0    0    0    0    0    0    0    0
    0    0    0    0    0    0   -1    1  -46   44  -17   45
   -5   11    0   -4   -4   24  114 -146  -12    4   -3    0
   -1    2   -2   -2    4   -2   -1  -35   34  -71   -7   77
    2    0   -2    3   -2  -13  238 -231  -52   50    7 -147
  147   17    3   -8    5   -4   -2    0    4    5  161 -145
  -10   -2   -1    4   -3  -10  -41   52  -25   18    5   -3
    6   -5    8   -1   -1   59  -21  -81   14   37   37   32
   56   59   72    6 -121   46   11  -25   16    0   -1   -2
    2   -2   -4    2   46  -33  -29    2   -2   -1    2  -24
   26   12  -72    3   88   -3    2   -5    3   -4    3    7
  -10  131  -25  -77  -39   51 -186  168   26   -7   -2   -2
    2    1   -5  238 -216   -2    3   -1    0    0    0    0
    0    0    0    0    0    0   -1    0    0    0    0   -4
    4  -10  -18  -40  -25    2   -2    0   -1    4   -1   -1
   -2    4   -2    0    0    0   -1   -1    0    0    0    0
    0    0   -1   -1    4   -1   -1    0   -2    4   -2    0
    0   -1    0   -1    4   -3    3   -1    0   -1    4   -1
    0    0   -1    0   -1   -2  -20    0    0  -10  -30    2
   -4    3    3   -2   -1    0    0    0    0   -2    4   -2
   -1    0    0    0   -2    0    0    0   -1    4   -2    4
   -1   -1    4   -1   -1   -1   -1    4   -1    0    0   -1
   -2    4   -2   -1    4   -2    4   -2    0   -1    0    0
    0    0    0    0    0   -1    4   -2    4   -1   -1    0
   -1    0   -1    3   -1   -1    0    0    0    0   -1    0
    0    0    0   -2    4   -2   -1    4   -2   -3  -35   -5
    0   -5  -13   -4    0    0  -33    0   -1    0    0   -1
   -1    0    0    0   -1    4   -1   -1   -1    3   -1 -255
 -255    0    0    0    0    0    0    0    0    0    0    0
    0    0    0    0    0    0    0    0    0    0    0    0
    0    0    0    0    0    0    0    0    0    0    0    0
    0    0    0    0   -1    0    0   -1  -11  -38  -30   76
    6  -11    5    1   14  134 -144   -4    0   -3    3   -1
   -2    3   -3    4   -2   -2    3  -33   34  -21 -131  144
   -7   -5    4   -2   -2    4   70   79 -137   28   13 -148
  146    7  -10    7   -6    8   -5    1   -5   44  180 -146
    2    7   -3   -1   -1    2  -33   19   12  -25   28    1
   -4   -2   -1    0   -1    0   71  -53  -38  -32  -39  -48
  -53  -27  -61  -75   41   18  -14   14    8    5    2   -5
    3   -3    1   24   51  -60   -1   -1   -1   -1   -1  -18
   -5   29  -21 -154  210   -3   -2    6    0   -1    2   -5
   -9  115   20 -113   10  -14 -145  183   -5    2    0    1
    1   -6   67   71 -130    2    2   -2    0    0    0    0
    0    0    0    0    0    0   -1    0    0    0   -3    8
  -74  -97  -71   -3  -66 -107  -81    0   -1   -1   -1    4
   -1   -1    0    0    0   -1    4   -2    0    0   -1    0
    0   -1    0    0   -2   -1    4   -1   -1   -1    0    0
   -1    4   -2    0   -2    3   -2   -1    0    0   -1    0
    0   -1    4   -1   -6  -96  -24  -19  -11  -52  -13  -51
    2   -3   -2    4   -1    0    0    0    0   -1   -1   -1
    4   -1   -1   -2    8   -2    0    0    0   -1   -1   -1
    0   -1   -2    0   -1    4   -1   -1    0    0    0    0
    0   -1    0   -1   -1   -1   -1    0    0    0    0    0
    0    0    0    0    0    0   -1    0   -1    0    0    0
   -1    0   -2    3   -1    0    0    0    0    0   -1    0
    0   -1    0    0   -1    0   -1   -1   -3  -45   16  -75
  -10  -51  -69  -11   -4  -55    5  -89   -3    0    0    0
    0   -1    0    0    0   -1   -2    4   -2    3   -1 -255
 -255    0    0    0    0    0    0    0    0    0    0    0
    0    0    0    0    0    0    0    0    0    0    0    0
    0    0    0    0    0    0    0    0    0    0    0    0
    0    0    0   -1    4   -2    0    0   -3  -25   12  -15
   54    1    5    1  135 -137   -8    0   -2    3    1   -3
    4   -3    3   -2    0   -1   -3  -23   26    3 -160  153
   -2    4   -4   -1   -2    0   19  149 -174   -5   39 -138
  147   15    5    6   -1   -8    7    0   -6  261 -246  -16
   -2   -4    4   -1    0   -4  -11  -59   57   -9   -9   23
   -2    1   -5  -10  -10   -2    2   86  -82   -3   -1   -1
   -4   -4  -38    3   30   -8   -1    7    8  -14   -6   -2
   -6    8    3   70  -80    0    2   -3    1    3   -1   -7
  -38   51    2 -149   95   50    0   -4   -6   12  -10    3
   -9  164  -76 -106   52  -81   35   68   -4    7   -3    2
    1  -11  139  -62  -75   -2   -2    4   -1    0    0    0
    0    0    0    0    0   -1    4   -1    0   -2    4 -140
   37  123  142  150  146  130   81 -130    4   -1    0  -15
  -22  -18    0    0    0    0  -14   -6   -1  -21  -16   -2
   -1    4   -2  -13   -2   -6  -22  -20    4   -3    0   -1
    0   -2  -14  -23  -13    3   -4    3   -1    0    0  -17
  -20  -14   -1    0 -104  194  163 -103  -61  106  288  -10
  -31   -6   -9   -2  -20  -19   -1   -1   -2    3   -1   -4
  -21  -22    0   -6  -15    0    0    0    0   -1    3   -1
   -2  -13  -19  -18    0   -1   -1    0    0  -12  -23  -19
   -3    0   -2    4   -3    3  -21  -20   -1    0  -10  -21
  -12    0   -1    0    0   -1  -21  -20   -2    0  -12  -22
   -8   -2    4   -3  -12  -10    0    0    0   -9   -8   -2
   -1   -8  -10   -4  -21  -21    4   -2  -22  -39  284  106
 -122   49  254  -82  -43  -28  295  134  -68   -1    0   -7
  -22  -17   -6    0   -1   -2    4   -5  -22  -22   -9 -255
 -255    0    0    0    0    0    0    0    0    0    0    0
    0    0    0    0    0    0    0    0    0    0    0    0
    0    0    0    0    0    0    0    0    0    0    0    0
    0    0    0    0   -2    4   -1   -1    3   -6  -18 -118
  118   10   -3  128 -113  -21    0   -1    4   -3    2    3
   -2   -1    3   -1    0   -1    2  -35   25   15 -132  100
   22    4   -1    1    0    3    5  162 -180  -56   57  -71
   11   81   -7   -3    1    9   -5   -7   83   68 -128    3
   -3    3   -9  -21  -36  -32  -24  -42  -20  -11  -93  -94
 -123 -122 -106 -105 -109 -110 -122 -111  -40 -126  -25    3
   -2  -35  -14   47  -58 -109 -108 -149 -136 -119 -123 -121
 -138 -154  -72 -161  -67    0    1    1    6   -3   -2    8
  -36   24   11  -10 -187  239    1   -1    6   -7    4   -1
   -1  292 -269    7   22 -119   90   33    1   -3    7   -9
    1   -1  188 -179  -26    3   -1   -1    0    0    0    0
    0    0    0    0    0   -1   -1   -1   -1    4  -95   67
  116  132    8  -76   -3  105  156  103  -55    0  -99  -75
  -53  -59 -122  -20    0  -12  -76  -65 -117  -49  -51 -119
  -11   -3   -8  -75  -80 -107  -50  -53 -103    8   -4    4
  -13 -117  -60  -51  -83  -79    7    1   -1  -11 -119  -61
  -60  -74  -98   -4 -165  116   60 -171  -36 -104   -9 -101
  -13  -69  -74 -126  -49  -54 -110    2    1    2  -27 -108
  -55  -49 -114  -64  -71  -13    0    0    0   -1    3   -5
 -106  -68  -55  -62 -111   -4    4   -1  -91  -85  -48  -59
 -112  -30    4   -3    3 -111  -50  -51 -109  -51  -94  -46
  -84  -67    4   -3   -1 -110  -46  -51  -99  -51  -84  -49
  -85  -58   -2   -8  -77  -65  -10    0   -8  -54  -79  -13
  -13  -80  -61 -113  -48  -51 -104    4  -11  -72    6 -118
 -106  -19  127 -150  -55 -105   -4 -125  -17    4  -55 -101
  -53  -52 -107  -32    3    3  -19 -120  -44  -56  -93 -321
 -255    0    0    0    0    0    0    0    0    0    0    0
    0    0    0    0    0    0    0    0    0    0    0    0
    0    0    0    0    0    0    0    0    0    0    0    0
    0    0    0    0    0   -1    0   -1    2    2    1  -10
 -137  148   78  -53  -42    3   -2    0   -1    0   -1   -1
    0    0   -1    0    0    0   -3  -31   30    0  -98   55
   36    5   -2    0   -1    2   -4  124  -69  -72  -59   40
  -95  217    0   -1    1   -6  -10   80  290 -263   -3  -19
  -25  -41  -34   10   35   -5  -59  -81 -155 -107    5   62
  136  126  112  112  113  115  127  127  106    1 -176 -205
 -118  -59 -101 -196  -66   53  121  152  138  130  127  127
  149  150  112    7  -98 -245 -173 -132  -85  -17   -1   -2
  -13  -20   46    1  -68 -132  245    6   -9    0   -7  -10
  144   15 -145   38    9 -206  180    2   -4    2   -5    4
   -1    3  180 -194   -7    3   -1    0    0    0    0    0
    0    0    0    0   -1    4   -3    4   -2  -22  -92  127
  135 -187  -74  -42  -77 -115  142 -122   -4 -176  117  157
  157  148  178 -131  -29 -114  237   46   54  173  127  181
 -144   -7 -118  248   12  122  164  132  101 -144    4  -24
 -158  172  166  163  177   33 -135   -3  -27 -166  177  149
  159  158  110 -217  150   43   18  235 -101    6  198  -46
 -111  186   59  122  160  136  153 -176    3  -45 -129  170
  153  161  145  -70  275 -119    0   -1    0    0  -10 -183
  154  148  159  148  152 -169   -4 -158   93  161  154  152
  176 -111  -49    0 -163  147  141  161  108 -158  204  138
  168   -1  -67    8 -165  146  143  158   89 -161  200  143
  172  -31  -49 -115  236  154  -93    0  -74   97  259 -100
 -124  264  -14  126  156  143  103 -150  -11  -61  201  -38
  -12  140   -4  181   66 -133  221   30  -51  -91  -32  187
  164  158  184 -114  -56  -19 -149  216  159  172  192 -194
 -255    0    0    0    0    0    0    0    0    0    0    0
    0    0    0    0    0    0    0    0    0    0    0    0
    0    0    0    0    0    0    0    0    0    0    0    0
    0    0    0    0    0    0    0    0   -1   -1   -2    3
  -40  -22  122  -92    3   -3    3   -1    0    0    0    0
    0    0    0    0   -1   -1    3  -30   20   12  -85   35
   50    1   -1    0    0    3   -1   39  138 -144   -3  -31
 -108 -122  298   82   38   69  259   81 -265  -28  -56    2
   21   34   26  -82 -179  -45   51   90  156  133   80   35
    5    8    5    5    5    4   -9   15   33  105  251  379
  193   -5  336  301  156   66   24    3   -3    7    2    5
   -6   14   32   96  158  231  156   77  -12 -218 -161  -51
   -7  -33    1   41    6 -100 -140  223  137   50   61  235
  149 -224  -34   36  -49  -83  132   -5    0    1    3   -5
    5   14  161 -172   -4   -1    0    0    0    0    0    0
    0    0    0    0    0   -2    4   -3    3  -60   37  104
  -31  -61    4   -3    4  -14  -68    0 -100  134  138   21
  -82  -29  128  174 -145 -124  120   32  127  -91   41   86
   80  -77 -119  129   61   50  -89   89  123   16  -71 -122
  191  116  -77 -106   29  151   49  -79 -115  184  143  -22
  -92   35  200   80  -97   77   46   21  -93  -15  145  -66
 -121   90   76   65  -88   45  107  109 -106  -93  189  134
  -45  -86   90   71  119 -113   -3    4   -1   -6 -115  172
  116    3  -82   -5  164  232 -180   87  124   53  -79  -51
  130  174 -102  -91   59  127    7  -67  120   91   63 -104
   95  143  -83  -82   56  129    1  -59  121  100   52 -100
   98  145 -107 -118  137   74  -94    0  -74   30  160 -119
 -113  112   76   51  -88   77  119   38  -85  -76  157  -44
  -78   52   64    4   -7 -117  158    2 -100  -43  167   60
 -106  -82  112  183  -83 -109  164   64 -119 -105   66 -141
 -255    0    0    0    0    0    0    0    0    0    0    0
    0    0    0    0    0    0    0    0    0    0    0    0
    0    0    0    0    0    0    0    0    0    0    0    0
    0    0    0    0    0    0    0    0    0    0   -1    2
   -2  -32  -63    3   -2   -2    2   -1    0    0    0    0
    0    0    0   -1    4   -1   -2  -29   23    7  -75    2
   68    1   -1    1   -3    2   -8  -10  239 -224   -3   -4
    6  -72 -236   86  148   93 -220 -174  -42   12   67   22
  -52 -124 -146   28  206  105   51   25   -6   -2  -10    5
   -6    1  -11   -4    0  -11   29   80  107  138   28 -269
 -121  -38 -207  -85  120  129  120   54   -7   -2    0    4
   -3   -3   -4   -3  -11   -7   27   62  111  255  145 -157
 -184 -131  -43    4   54   19  -24 -212    3  136  137 -120
 -194  -25  -10   29 -130   85   46   -7    7   -3   -3    2
   -1   27  128 -157   -4   -1    0   -1    0    0    0    0
    0    0    0    0    0    0   -2    0   -1  -84   83  119
  -87  -32   -2    4   -2    0    0  -26  -72  148   23 -139
  -36  -98  -65  135   60 -189  118  128 -205  -49 -175   89
  177 -123 -118  134   86 -171  -50 -192  108  163 -164   10
  130 -146 -176 -115 -246   44  159 -200   65  129 -101  -93
  -35 -120   71 -105 -142  122   58 -150  -62   -7  149  -68
 -113   99   81 -177  -46 -172   74  117 -148   39  120  -92
  -90  -44 -185  127  130 -120    4   -2    0  -38  -40  134
   17 -129  -40 -103   58 -144 -110  163   97 -170  -41  -79
 -106  117   79 -182  138   85 -171 -127   -5  137 -131 -119
  -71  176  -85 -125  151   93 -172 -129    6  124 -129 -127
  -48  177  -78 -130  136   74  -94    0  -74   29  163 -111
 -121  137   90 -176  -47 -195  122  150 -128  -72  157  -18
 -133  -18  147 -143  -59  -90  165   -9 -157  127  105 -251
 -126 -159 -212  105   83 -182  154   51 -192 -114 -168 -360
 -255    0    0    0    0    0    0    0    0    0    0    0
    0    0    0    0    0    0    0    0    0    0    0    0
    0    0    0    0    0    0    0    0    0    0    0    0
    0    0    0    0    0    0    0    0    0    0   -1    2
    3   -4    7    1   -2    3    2   -1    0    0    0    0
    0    0    0    0   -1    0   -1  -29   24    7  -65  -14
   76    1   -2    1   -3    1    1   -2  138  -78  -46    3
   -4   -1  -13 -104 -142 -155  -39   47   31   13  -49 -212
  -31  146  127   62    1  -14    0    5   -2   -2    7   -4
    6   -3   11   11   47  137  137  -73 -119 -117  -33  -60
   26    8  -18  -36 -113 -126 -142   60  214   74   29  -12
    0   -2   -2    0    1    5   -8   -1    1  -16   55  161
  194  102 -312 -128  -63    2   29   36  -80 -155 -129  -57
    7  -39   45    7 -179  196   12   -2   -5   -1    2    0
   -1   40  116 -148   -5    4   -2    4   -1    0    0    0
    0    0    0    0    0   -1    4   -1    0  -72   59  109
  -61  -39   -1   -3    0   -2  -26  -48   25  144  -93  -36
   -2    0 -150   90  163 -226  136   54  -96    8  -76    7
  154 -105 -118  159   17  -80    4  -93   61  121 -195  109
   20  111  166  163  159   90  176 -107   56  100 -114   -4
   -4    3  -48    0 -104  110   86  -94  -47  -13  149  -65
 -125  116   63  -85    1  -86   70  106 -179   81  119 -115
   -9    3  -68  -54  176 -120   -1    0    0  -73   77  143
 -146  -17    0   -1  -43  -50   32  146 -113  -39    3   -3
 -141  119  137 -209  110   80  -94  -58  -10  152  -80  -61
  -35  157  -46 -138  134   51  -88  -57  -12  150  -88  -68
   -8  154  -74 -133  140   62  -93   -1  -74   24  159 -116
 -119  156   15  -78    3  -81   37  125 -118  -76  161  -21
 -104   14  144  -78  -28  -91  169  -11 -160  141   -1  156
  165  171  141   86  202 -161  -13  204  160  127  136 -281
 -255    0    0    0    0    0    0    0    0    0    0    0
    0    0    0    0    0    0    0    0    0    0    0    0
    0    0    0    0    0    0    0    0    0    0    0    0
    0    0    0    0    0    0    0    0    0    0    0   -1
   -3    3   -3   -1    0   -1   -1    0    0    0    0    0
    0    0    0    0    0    0   -1  -27   17   12  -52  -44
   90   -1    3   -1    1    0   -1    1   91  -12  -76   -6
    3    2   -4  -48  -25   42   34    3  -40 -165  -61  175
  117   15    3   -2   -2    7    1   -2    2   -7   -3    7
   -3   -2   98  132   37 -102 -154  -39   -6   -6   -2   46
  -14  -11    4   16  -10   -6  -19 -117 -194   -1  102  175
   34   -3   -1    4   -6   -1   10   -5    5    1  -10    2
   11   87  297   -2 -203 -147  -28  -27  -14   11    0   -2
   -8  -39   46  -27 -107  135   -9    4    7   -3    1    0
    0   44  100 -143   -3   -1    0   -1    0    0    0    0
    0    0    0    0    0    0   -2    0    0  -34  -50  105
   93 -185  -12    7   -8  -97  -13 -120   -1  147  -73  -45
    2   -5 -192  137  128 -214  134   77  -96   -2  -74   30
  161 -114 -121  153   43  -79   -1  -90   70  124 -185   81
  101 -118  -41  -27  -31 -138  -46 -106   66  126 -156  -13
    3  -13 -110  -25 -107  134   54  -98  -53   -7  149  -71
 -111  103   78  -87    0  -82   71  109 -165   57  127 -138
  -25   -1 -136   65  142 -113   -1    0    0  -62   43  142
 -100  -29   -2   -5 -100  -77  -20  154  -34  -74    1    7
 -184  135  118 -200  109   89  -95  -58    3  146  -75  -61
  -30  159  -61 -138  138   56  -82  -60   10  147  -82  -66
  -15  168  -87 -128  151   85 -143    3 -100   16  166 -108
 -121  159   35  -77   -1  -88   67  126 -124  -74  157  -19
 -109   23  143 -117  -27  -84  163   -7 -173  157   60 -142
  -24  -29  -51 -142   -3  -39 -120 -138   -2   23   92  -58
 -255    0    0    0    0    0    0    0    0    0    0    0
    0    0    0    0    0    0    0    0    0    0    0    0
    0    0    0    0    0    0    0    0    0    0    0    0
    0    0    0    0    0    0    0    0    0    0    0   -1
    3    2   -1    0    0   -1   -1   -1    0    0    0    0
    0    0    0    0    0    0    0  -34   27    5  -50  -42
   91    0   -2    0    0    0   -1    1   65   59 -114    6
   -3  -32  -47   55   30   14  -33 -144 -130  210   97    5
   -3   -4    7   -2    2   -3   -9    4    2    8  -12   25
   91  211  -61 -165  -74  -24    1    7   -3   -1    2    9
   -7  -25   19   -4    7    1   -4    5   -1  -66 -129 -199
  170  159   63   -4    4   -5   -8   10  -13    6    2   -3
   -3   -6    1   85  262   24 -278  -80    0   -5   -2    3
  -15   -4   20  -40  -72  110    4    0   -7   -2    1    0
    1   46   88 -139   -2   -1    0    0    0    0    0    0
    0    0    0    0    0   -1    4   -1    0   -5 -118  166
   66  146 -168 -116 -178   88  191   62 -157  152  129 -194
  -94 -179  107  134  -46 -158  138   68  -90   -1  -75   31
  152 -107 -123  158   37  -78    0  -92   78  119 -138  -70
  147   14 -211 -123 -227  188  -30  -91    9  123  104 -190
 -100 -176  292  -49 -124  150  148 -199  -78   -9  146  -71
 -120  109   72  -86   -4  -80   63  112 -137  -22  122  122
 -186 -161  -36   97  122 -118    0   -1    0  -18 -105  156
  106 -193  -94 -186  237    5 -185  166  126 -152 -109 -169
   45  113   -2 -155  107   87  -95  -58   -1  154  -78  -61
  -31  158  -61 -137  128   71  -90  -59    7  145  -83  -66
  -15  164  -86  -97   85  125  -63 -155 -147  131  156 -108
 -120  160   38  -78   -2  -76   55  126 -123  -73  151  -19
  -99   31  149  -74 -114  -95  164   -9 -133   75  113 -116
 -168 -144 -153  205  -97  -77  101  -98 -153 -177 -202  -42
 -255    0    0    0    0    0    0    0    0    0    0    0
    0    0    0    0    0    0    0    0    0    0    0    0
    0    0    0    0    0    0    0    0    0    0    0    0
    0    0    0    0    0    0    0    0    0    0    0    0
   -1   -1    0    0   -1    3    2    2   -1    0    0    0
    0    0    0    0    0   -1   -1  -31   27    5  -50  -40
   91    0   -1    0   -1    0   -1    3   32  100 -139   -9
  -64   18   48    2    7 -114 -137  129  148    2   -4    7
    5   -1   -2    2   -4    2    4    3   -2   -3  173  153
  -71 -177  -78   23    0    5   -7    7   -1    4    2   -2
   16  -26   19  -10    2   -4    2   -1    3   -1   -1   29
 -182 -139   37  213   28    3    3   -1    5   -1    1    1
    1    0    1    5  -10  130  223  -52 -224   -9   -3   -4
  -25   19   11  -58  -40  101    2    0   -4    7    0    0
    0   52   87 -140   -2    2   -1    0    0    0    0    0
    0    0    0    0    0    0   -2    0   -1    4  -15 -152
  126  115  135   97  142  122  150  -84  -79  -19  185  138
   61  107  149   90 -118 -118  188  116  -97   -1  -70   57
  215 -115 -118  208   69  -78    0  -93  116  175 -110  -92
   57  199   95   43  129  208   40  -52 -126   75  157  122
   62  142  174   18  -57 -127  191  219  -86   -6  203  -58
 -113  156  104  -80   -3  -88  117  150  -89 -113   57  164
  156  145  205  -79  166 -120   -1    4   -2    3  -75   10
  188  131   59  122  188   61  -89  -75  204  135   66   96
  160  135 -121 -112  158  128  -96  -60   31  200  -65  -63
  -10  206  -46 -140  184  101  -89  -60   34  197  -74  -70
   13  218  -77  -30 -137  181  123   76  126  171  -82  -36
 -116  212   67  -78   -1  -82   94  178 -125  -70  212    1
  -54 -129  164  180   89 -140  217   20  -69 -136  185  158
   68   55  171  194  -53 -100  248  178   57   29  161 -100
 -255    0    0    0    0    0    0    0    0    0    0    0
    0    0    0    0    0    0    0    0    0    0    0    0
    0    0    0    0    0    0    0    0    0    0    0    0
    0    0    0    0    0    0    0    0    0    0    0    0
    0    0    0    0    0   -1   -2    3   -1    0    0    0
    0    0    0    0   -1    4   -3  -29   27    4  -51  -41
   91    0   -1   -1    4   -1   -1    1   20  144 -196  -36
   67   17   -2  -14 -174  -24  201   26   -7   -1    5   -3
   -1   -4    2   -4    2   -6    6  -14  124  218  -71 -252
    2    1  -14   12    9   -9    6   -1   -6   -3    1   -1
    1   15   -5    6   -1    1   -1   -1   -1   -1   40  -46
   35   13 -135 -195  163  158   13    1   -2   -4   -4    0
    2   -4    0   -3   -2   -8   21  182  159 -264  -91    6
  -32   23   14  -94   23   62   -3    2    6   -5   -3    1
   -1   57   83 -138   -3    7   -2    0    0    0    0    0
    0    0    0    0    0   -1    4   -1    0   -1   -2   -2
 -136  -23   91   95   95  -14 -145  -17    4  -73 -119  111
  108  117  -25 -126   -1  -68   97   64  -58   -1  -46   31
  118  -66  -75  119   35  -47    0  -55   59   91  -62    0
 -110  -65  119  122  108 -148  -63    3    3 -115  -46  113
  109   99 -127  -57    3  -35 -139  190 -115    0  107  -35
  -68   82   65  -55   -1  -49   58   83  -49   -6 -145 -150
   57   65 -252   -4  176 -111    0   -1    0   -2    3  -91
  -88  112  107  114 -106  -80   -2  -49 -143   99  109  123
  -12 -141   -8  -52   77   72  -57  -35   11  115  -49  -35
  -12  120  -33  -81   94   61  -55  -36   14  109  -50  -37
    2  119  -47  -11  -26 -138   95  111  108  -98  -61    3
  -72  113   40  -48    0  -51   53   93  -73  -32  102    0
  -25   -3 -172  152  -48  -76  119    9  -35   -8 -169   48
  118  133   35 -165  -18   -6 -168   44  124  131   79 -409
 -255    0    0    0    0    0    0    0    0    0    0    0
    0    0    0    0    0    0    0    0    0    0    0    0
    0    0    0    0    0    0    0    0    0    0    0    0
    0    0    0    0    0    0    0    0    0    0    0    0
    0    0    0    0    0    0    0   -1    0    0    0    0
    0    0    0    0    0   -1   -2  -32   32    1  -48  -41
   90    0   -1    0   -1    0   -1    1    1  166 -169   47
    0    7  -86 -196  189   93   -6    0   -3    5   -5    2
    1    0    1   -1    4   -1   38  282  -61 -218  -74  -31
   20    8   -4   -6    8    5   -2    2   -2    3   -4    0
    2    1   -1   -2   -1   -1    3    3    0   -4   60  -73
  -46  -21   69  -20 -148 -187  222   94    3    2    4    2
   -4    1    5   -5    9  -10    7   -8   62  267  -86 -210
  -46   37    9 -128   87   42   -1   -7    0    1    1    0
   -1   52   81 -142   -3   -2   -1    0    0    0    0    0
    0    0    0    0    0    0   -1    0   -1    0    0   -2
    0  -45  -86  -90  -88  -47    0    0   -3    4  -21  -85
  -89  -91  -42    3   -1   -1  -64  -59    2    2    2  -45
  -71   -3    4  -73  -47    4   -2    4  -55  -64   -1   -3
    8  -38  -83  -90  -80  -13    3   -2   -1    0  -39  -88
  -88  -80  -17    4   -2    0  -14  -80    0  -33  -68  -15
   -4  -60  -53    0    0   -2  -52  -60   -5  -47   29  115
 -258 -225  -53  154   45  -70    0    0   -1    0   -3    4
  -30  -87  -89  -81  -26    4   -2    2  -11  -81  -89  -92
  -49    0    0   -2  -60  -57    0    0  -35  -69  -10    0
  -25  -69  -16    0  -66  -51    2    3  -36  -66   -9    2
  -29  -71  -11    3    3  -13  -79  -89  -86  -22    1    2
   -1  -70  -48    3   -1    0  -50  -63   -1  -13  -64  -28
   -1   -1    0  -72  -23   -8  -70  -34    0   -1    0  -63
  -91  -93  -60    0    0    0    0  -62  -91  -93  -71 -258
 -255    0    0    0    0    0    0    0    0    0    0    0
    0    0    0    0    0    0    0    0    0    0    0    0
    0    0    0    0    0    0    0    0    0    0    0    0
    0    0    0    0    0    0    0    0    0    0    0    0
    0    0    0    0    0    0    0    0    0    0    0    0
    0    0    0    0    0    0   -2  -39   37   -1  -50  -36
   88    0   -1    0    0    0   -1    3  -15  147 -106  -22
    6 -198  -29  212   13    3    1    5   -4    6   -5   -3
   -5    5   -6    7  -15  181  126 -230  -98   -1   -2  -16
   -1   21   -9   -8   15   -5    2   -3    2    0    1    0
   -1   -1   -1    3    3   -1   -1   -1   -4   33    3  -34
    7  -22  -53   38   37  -32 -226   18  202   18  -11   10
   -5    3   -1    3   -4    2    4    0   -7    3  212  116
 -314   13    0 -145  123   21    1    1    4   -1   -1   -1
    5   40  103 -139    3   -3    4   -1    0    0    0    0
    0    0    0    0    0    0   -1   -1    4   -1    0    0
   -1    3   -2    3   -1   -1    0   -1    4   -2   -1    4
   -2    0   -1   -1    0   -1   -1   -1    3   -3    2   -1
    0    0   -2    4   -2   -1    0   -1   -1    0    0    0
   -2    0   -2   -1    0   -1    3   -1    0   -1    0   -1
   -1   -1    0   -1    0   -2    4   -1   -2    3    3   -2
    4   -1    0   -1   -2    4   -1    0   -4  -67  162  162
  170  151  186  125 -122   -6   -1   -1    4   -3    4   -2
   -1    4   -2   -1    0   -1    0   -1   -1    0   -1    0
    0    0    0    0    0    0    0    0    0    0    0    0
    0    0    0    0    0   -1   -1   -1    0    0    0   -1
   -1    0    0   -1   -1    0    0   -1    0   -2    3   -2
    0    0   -1    3   -1    0    0    0    0    0    0    0
    0    0    0    0    0    0    0    0    0    0    0    0
    0    0    0    0    0    0    0    0    0    0    0 -255
 -255    0    0    0    0    0    0    0    0    0    0    0
    0    0    0    0    0    0    0    0    0    0    0    0
    0    0    0    0    0    0    0    0    0    0    0    0
    0    0    0    0    0    0    0    0    0    0    0    0
    0    0    0    0    0    0    0    0    0    0    0    0
    0    0    0    0    0    0   -7  -31   34   -1  -65  -25
   78    1   -1    0    0    0   -1    1   -1  104  -55  -74
 -207  154  114   -4    7  -12    7   -5   -1   -5    9    2
    3    1   -3   22  276  -86 -193  -15    1   -2    0  -13
  -16   31    4  -18   18   -4    2   -4    1    1    0    1
    0    0    0   -1   -1    0    0   -1    2   35  -22  -14
   -3   -3    7  -51  -10   51    7  -95 -233  239  101  -18
    5   -8    4   -3   -2    3   -8    2    7   -8   -3   66
  308 -229  -75 -175  165   -2    1   -1   -1    0    4   -1
    0   34  116 -153   -1   -1   -1    0    0    0    0    0
    0    0    0    0    0   -1    4   -1   -1    0    0   -1
   -1    3   -1   -1   -2    4   -1    0   -1    0   -1   -1
    0    0    0    0   -1    4   -1    0   -1   -2    3   -1
    0    0    0   -2    4   -1    0   -1    4   -2    0    0
    0   -2    4   -1    0    0   -2    0   -1    4   -2    4
   -3    4   -1   -1   -1    4   -2    0    0   -1   -1   -1
   -1    0   -1    3    3   -3    0    0    0   -4 -105  -91
   58   80  -61 -121   -7   -2    0    0   -2    4   -3    0
   -1   -1   -1    0    0    0    0    0    0    0    0    0
    0    0    0    0    0    0    0    0    0    0    0    0
    0    0    0    0    0    0    0    0    0    0    0    0
    0    0    0    0    0    0    0    0    0    0   -1    0
    0    0    0   -1    0    0    0    0    0    0    0    0
    0    0    0    0    0    0    0    0    0    0    0    0
    0    0    0    0    0    0    0    0    0    0    0 -255
 -255    0    0    0    0    0    0    0    0    0    0    0
    0    0    0    0    0    0    0    0    0    0    0    0
    0    0    0    0    0    0    0    0    0    0    0    0
    0    0    0    0    0    0    0    0    0    0    0    0
    0    0    0    0    0    0    0    0    0    0    0    0
    0    0    0    0    0    0  -18   -5   22    2  -73    7
   66    1   -1    0    0    0   -1    2   -5   86  -58 -226
  176   56   -3   -1    2    2   -4    2    3   -3   -2   -2
   -3   -3  108  207 -242  -90   -2    1    2   -1   -1   -4
  -35   37   -8  -10    8    6   -3    3    1   -5    2   -4
    1    0    0    0    0    0    0   -1    1   48  -50   -3
   -2    0   -4    4  -27  -42   53    9  -19 -211    0  221
   -7    3   -3    1    1    2   -2   -1   -5    0    7   -3
    6  210  -46 -320  199   -9   -1    3    0   -3    0    0
    0   30  127 -158   -5    0    0    0    0    0    0    0
    0    0    0    0    0    0   -1    0    0    0   -2    4
   -7   -1   -1   -5    0   -2    0    0    0   -1    4   -1
    0    0    0   -1    0   -2    0    0   -1    4   -2    0
    0    0    0    0   -1    0    0    0   -3    4   -1   -1
   -1    4   -2   -1    0   -2    4   -4   -4   -3    0   -2
    4   -2   -3    4   -2   -1    0    0   -1   -6   -3    4
   -2    0   -2   -5   -6    4   -1   -4   -4   -4   -4  -28
  -69  -74  -33   -1   -1    0    0    0  -10  -14    0   -2
    4   -3    4   -1    0    0    0    0    0    0    0    0
    0    0    0    0    0    0    0    0    0    0    0    0
    0    0    0    0    0    0    0    0    0    0    0    0
    0    0    0    0    0    0    0    0    0    0    0    0
    0    0    0    0    0    0    0    0    0    0    0    0
    0    0    0    0    0    0    0    0    0    0    0    0
    0    0    0    0    0    0    0    0    0    0    0 -255
 -255    0    0    0    0    0    0    0    0    0    0    0
    0    0    0    0    0    0    0    0    0    0    0    0
    0    0    0    0    0    0    0    0    0    0    0    0
    0    0    0    0    0    0    0    0    0    0    0    0
    0    0    0    0    0    0    0    0    0    0    0    0
    0    0    0    0    0   -1  -32   29    4    2  -85   30
   53    1   -1    0    0    0    0    3   -8   46  -78  127
   26   -2   -3   -2    0    2   -1    2   -4    1    2    2
   -2  189   93 -257  -18   -2    0   -1   -2   -1    3   -1
  -42   41    8   -1  -17   20   -2    7   -6    7   -1    1
    0    0    0    0    0    0    0   -2    8   57  -55    2
    2   -2    0   -2    3   -8  -59   45   22    3 -148 -119
  228   22   -3    5    1   -6    7   -5    6    0   -6    1
    1    0  179 -148   88  -10   -1    3    1   -2    1   -1
    0   18  147 -156   -7   -1    0    0    0    0    0    0
    0    0    0    0    0    0    0    0    0   -1   -3 -104
  -50   -7    0  -76  -99   -4    0    0    0    0   -1   -1
    0    0   -2    4   -3    4   -1    0    0   -1    0    0
   -1    0    0    0    0    0    0   -1    4   -2   -1    4
   -1   -2   -1    4   -2    3   -5  -56 -101   -2   -2    0
   -1   -2    8   -4    4   -1    0   -1  -50  -87  -42   -4
    4   -3   -6  -89  -70   -5   -5  -76  -95  -96  -96  -88
 -104  -69    0   -1   -2    0  -44 -111  -77  -72 -100  -77
   -2    3   -2    0    0    0    0    0    0    0    0    0
    0    0    0    0    0    0    0    0    0    0    0    0
    0    0    0    0    0    0    0    0    0    0    0    0
    0    0    0    0    0    0    0    0    0    0    0    0
    0    0    0    0    0    0    0    0    0    0    0    0
    0    0    0    0    0    0    0    0    0    0    0    0
    0    0    0    0    0    0    0    0    0    0    0 -255
 -255    0    0    0    0    0    0    0    0    0    0    0
    0    0    0    0    0    0    0    0    0    0    0    0
    0    0    0    0    0    0    0    0    0    0    0    0
    0    0    0    0    0    0    0    0    0    0    0    0
    0    0    0    0    0    0    0    0    0    0    0    0
    0    0    0    0   -1    2  -44   45    1    4 -107   63
   38    1   -1    0    0    1   -4    3    3   -6   37   16
   -7    5    2   -3    2    0   -6    3    2    0    4   -2
  255 -133 -170    1   -4    4   -2   -1    3   -2    3   -2
  -33   30    3   -3  -14   15    1   -3   -2   -4    1    0
    0    0    0    0    0    0    0   -2   22   12  -33   -3
    2    3   -2    0   -2    3   -4  -50   15   26   12  -64
 -248  245   35   -2   -5    6   -3    0   -1    1    0    2
   -3    0   -1   77   -8    0    5    0   -3   -2    1    4
    0   -3  199 -211   -5    4   -1    0    0    0    0    0
    0    0    0    0    0    0    0    0    0   -8  -75  199
  118  -74  -88  143  232 -110    0    0    0    0   -1    3
   -1   -2    4   -3    4   -2    0    0    0    0    0   -1
    3   -1    0    0    0    0    0    0   -1    0   -1   -1
   -1    4   -1   -1   -1    3  -66   74  256  -97   -6    0
    0    0   -2   -1   -1    0    0  -48   34  218   19  -44
   -1  -10  -73  194  138  -83  -84  150  105  111  108  108
  134   56 -155    2    7 -116  -38  144  118  124  127   76
 -174   -7   -2    0    0    0    0    0    0    0    0    0
    0    0    0    0    0    0    0    0    0    0    0    0
    0    0    0    0    0    0    0    0    0    0    0    0
    0    0    0    0    0    0    0    0    0    0    0    0
    0    0    0    0    0    0    0    0    0    0    0    0
    0    0    0    0    0    0    0    0    0    0    0    0
    0    0    0    0    0    0    0    0    0    0    0 -255
 -255    0    0    0    0    0    0    0    0    0    0    0
    0    0    0    0    0    0    0    0    0    0    0    0
    0    0    0    0    0    0    0    0    0    0    0    0
    0    0    0    0    0    0    0    0    0    0    0    0
    0    0    0    0    0    0    0    0    0    0    0    0
    0    0    0    0   -1   -6  -27   35    0    1 -132  111
   14    2   -1    0    0    1   -2   -2    8   -6    9   -3
    1    1   -5    2    3   -9    4   -4   -3   -1    6  265
 -144 -109   -3    5    1   -3    4   -2    2   -1   -3    2
  -19    0   18    3  -14    8    3    2   -1    1    0    1
    0    0    0    0    0    0    0   -3   43  -24  -18    4
   -2   -3    3   -1    0   -1    0   -3  -43   13   24    5
  -23 -224  172   75   -4   -3    2    4    0   -5    6   -3
   -1    1   -1   -1    4    0   -5   -3    2    2   -4    0
    1  -11  194 -177  -27   -3    0    0    0    0    0    0
    0    0    0    0    0    0    0   -1   -1   -2 -161  130
   27 -149  -92   67  152 -136  -95 -110  -60   -2   -1    3
  -73  -56  -89  -93   -3   -4  -62 -104 -110  -78  -15   -1
    3  -27  -76  -23    0    0  -12  -72  -41   -2    4  -16
  -82 -112  -95  -20  -78  -47  -63   17  168 -114  -91 -113
  -77   -8   -1    4   -1    0    0  -49  -18  145  -20  -47
    0  -12  -80  120   73  -87  -95   82   39   63   81   70
  113   93  116 -102 -124   56  117  125   44   27  112   91
  195  -64   -6   -2    0    0    0    0    0    0    0    0
    0    0    0    0    0    0    0    0    0    0    0    0
    0    0    0    0    0    0    0    0    0    0    0    0
    0    0    0    0    0    0    0    0    0    0    0    0
    0    0    0    0    0    0    0    0    0    0    0    0
    0    0    0    0    0    0    0    0    0    0    0    0
    0    0    0    0    0    0    0    0    0    0    0 -255
 -255    0    0    0    0    0    0    0    0    0    0    0
    0    0    0    0    0    0    0    0    0    0    0    0
    0    0    0    0    0    0    0    0    0    0    0    0
    0    0    0    0    0    0    0    0    0    0    0    0
    0    0    0    0    0    0    0    0    0    0    0    0
    0    0    0    0   -1  -15   -8   23    0    8 -185  164
   -4    1   -1    0   -1    1   -3    1   -1   -3    0   -4
    2   -5    6    0   -6    9    2    2    4    8  274 -246
  -77    3    2    0    2   -1   -1   -1    3   -2    2    2
  -18  -10   25   -2  -10    6    4    0    4   -1    1   -4
    1    0    0    0    0    0    0   -2   53  -56   -5   -2
   -1    3    2   -1    0    0   -2    2    6  -48   19   36
   -2  -12 -247  189   72    0    3   -6    2    2   -1   -1
   -2    1    2   -5    0   -1    5    0    0    0    1    0
    1   -4  123  -48  -82    8   -2    0    0    0    0    0
    0    0    0    0    0   -1   -1    4   -1  -74   75   46
   30   84 -167   73  121 -245  153  175   16 -126   -2  -72
  120  -28   93  205  -97 -150   26  151  169   72 -127  -53
  -27  -11  142  -16  -23  -13  -42  126   29  -37  -59 -132
   86  178  148 -203  135   34 -114   20  155 -244  101  187
   75 -140   -8   -2    0    0    0  -50   -8  131  -12  -48
    0  -12  -75  114   69  -87  -95   79  123 -183 -102  -95
 -197  105  144 -147   -7  102  172 -141 -106  -80 -188  144
  139  -84   -5    4   -1    0    0    0    0    0    0    0
    0    0    0    0    0    0    0    0    0    0    0    0
    0    0    0    0    0    0    0    0    0    0    0    0
    0    0    0    0    0    0    0    0    0    0    0    0
    0    0    0    0    0    0    0    0    0    0    0    0
    0    0    0    0    0    0    0    0    0    0    0    0
    0    0    0    0    0    0    0    0    0    0    0 -255
 -255    0    0    0    0    0    0    0    0    0    0    0
    0    0    0    0    0    0    0    0    0    0    0    0
    0    0    0    0    0    0    0    0    0    0    0    0
    0    0    0    0    0    0    0    0    0    0    0    0
    0    0    0    0    0    0    0    0    0   -1    0    0
    0    0    0    0   -1  -26   19    4    6  -34  -97  126
   -8    6   -2   -1    3   -1    1    0    0    1    0    1
    0    1   -1    0    0    3   -6    4   11  269 -228  -53
    0   -1   -1   -1   -1    0    0    0   -1   -1    3   -2
  -13  -12   22    0   -7   -5   11    1   -5    1    0    2
    0    0    0    0    0    0    0    0   52  -53    1    2
   -1   -1   -1    0    0   -1    4   -2   -2   -2  -39   -4
   37   -2   -3 -230  134   75   -6    1   -2   -6    6   -5
    2    1   -6    7   -1    0   -1    0    0    0    0    1
   -4   -1   53  102 -143   -3   -1   -1    0    0    0    0
    0    0    0    0   -1    4   -1   -1    0 -104  225   18
   44  245 -181   68   10  177   76  120  106   64  -82 -104
  133   70  134  109 -243  170  152   65   37  164  161  -65
  -83  -23  193  -42  -33  -15  -68  176   37 -106  -38  160
  159   28  110  137   81   50 -136   20   48  121  120   87
   94  142 -124    3   -1    0    0  -97 -105  150 -109 -160
 -120 -123 -214  113   65  -86  -94   71  124  -94  -15   -5
  -77  -69  134  -75   48  118 -130  -45    4   -2   -5  -67
  -83   -4    4   -2    0    0    0    0    0    0    0    0
    0    0    0    0    0    0    0    0    0    0    0    0
    0    0    0    0    0    0    0    0    0    0    0    0
    0    0    0    0    0    0    0    0    0    0    0    0
    0    0    0    0    0    0    0    0    0    0    0    0
    0    0    0    0    0    0    0    0    0    0    0    0
    0    0    0    0    0    0    0    0    0    0    0 -255
 -255    0    0    0    0    0    0    0    0    0    0    0
    0    0    0    0    0    0    0    0    0    0    0    0
    0    0    0    0    0    0    0    0    0    0    0    0
    0    0    0    0    0    0    0    0    0    0    0    0
    0    0    0    0    0    0    0    0   -1    4   -1   -1
    0    0    0    0   -1  -48   44    3   -4  -90   32   57
   -3    1   -1   -1    2   -1    0    0    0    0    0    0
    0    1    0   -1   -1    0   -3   -4  272 -203  -65    3
   -1    0    0    0    0    0    0    0    0    0   -1    0
  -10  -21   34   -2   -8   -2   12    1   -3    1    2   -4
    1    0    0    0    0    0    0    3   46  -52    1    2
   -1    0   -1    0    0    0   -1   -1   -1    4   -4  -39
   17   31   -5   -4 -218  191   59    4   -6   11   -3    6
   -1    0    6   -6    1    0    0    0    0    0    0    0
    1    0   -3  246 -230    2    2    3   -1    0    0    0
    0    0    0    0    0   -1    0    0   -1    0 -201  115
   12 -183  -98   72   90  -63 -138 -208  108  178 -107 -112
  105   91 -202 -182  145  122  -39 -141 -106 -143  129  172
 -146  -36  148  -40  -35  -15  -72  136   12 -154  123  111
 -128 -114 -172   53   81   14 -128   21   78   58 -173 -184
   55  153  -55  -25   -2    0  -53   51  152  -19   84  139
  146  135  135   23   66  -88 -192   67  121 -174 -110 -104
 -154   94  140 -200  118   69 -104   -6   -2    4   -1   -6
   -1    0   -2    0    0    0    0    0    0    0    0    0
    0    0    0    0    0    0    0    0    0    0    0    0
    0    0    0    0    0    0    0    0    0    0    0    0
    0    0    0    0    0    0    0    0    0    0    0    0
    0    0    0    0    0    0    0    0    0    0    0    0
    0    0    0    0    0    0    0    0    0    0    0    0
    0    0    0    0    0    0    0    0    0    0    0 -255
 -255    0    0    0    0    0    0    0    0    0    0    0
    0    0    0    0    0    0    0    0    0    0    0    0
    0    0    0    0    0    0    0    0    0    0    0    0
    0    0    0    0    0    0    0    0    0    0    0    0
    0    0    0    0    0    0    0    0    0   -1   -1    4
   -1   -1    0    0  -13  -24   37   -9   13 -152  157   12
   -2    2   -1   -1    3   -1    0    0    0    0    0    0
    1   -3    0    2    4   -1   -8  268 -236  -66    3    2
   -1    0    0    0    0    0    0    0    0    0    0    0
   -8  -26   34   -3   -4    1    4    3   -4    2   -4    2
    0    0    0    0    0    0    0    6   38  -45    2   -2
    0   -1    4   -1    0   -1   -1    4   -1   -2    4   -2
  -50   26   15   -1  -11 -260  206   12    4   -5   -2   -3
    2   -4    0    2    0    0    0    0    0    0    0    0
    0    3  -11  179 -139  -32   -2   -1    0    0    0    0
    0    0    0    0    0    0    0   -1    0  -13  -73  122
   51  -78  -88   67  142 -156    0  -54  -49  148  -61 -120
  109   87 -108  -78  132   37 -127   -3    3  -84  -27  135
  -90  -59  158  -51  -32  -19  -76  139   12 -171  148   45
 -108    2   -4 -165  164   17 -134   16  164 -157   -9  -24
 -115  160    0  -50    3   -1  -45   21  107    7   45   77
   73   83   68   31   60 -178  192   26    2   95  118  114
  114   86  120 -207  117   88 -105   -6   -1   -1   -1    4
   -1   -1    4   -1    0    0    0    0    0    0    0    0
    0    0    0    0    0    0    0    0    0    0    0    0
    0    0    0    0    0    0    0    0    0    0    0    0
    0    0    0    0    0    0    0    0    0    0    0    0
    0    0    0    0    0    0    0    0    0    0    0    0
    0    0    0    0    0    0    0    0    0    0    0    0
    0    0    0    0    0    0    0    0    0    0    0 -255
 -255    0    0    0    0    0    0    0    0    0    0    0
    0    0    0    0    0    0    0    0    0    0    0    0
    0    0    0    0    0    0    0    0    0    0    0    0
    0    0    0    0    0    0    0    0    0    0    0    0
    0    0    0    0    0    0    0    0    0    0   -1   -1
   -2    4   -1    0  -41   46    5    0  -23 -102  124    1
   -1    3   -1    0   -1    0    0    0    0    0    0    0
    1   -3    0    3   -4  -14  215  -82 -101    4   -2   -1
    0    0    0    0    0    0    0    0    0    0    0    0
   -8  -26   34   -3   -2   -7    6    2    0    1    1    0
    0    0    0    0    0    0    0    8   33  -39   -3    0
    0    0   -1    0   -1    4   -1   -1    0   -1   -1    0
   -2  -50   47   16    4  -24 -212  268   -1    2    2   -4
    1    1    1   -4    1    0    0    0    0    0    0    0
    3  -10   12  105  -52  -73   -3    0    0    0    0    0
    0    0    0    0    0    0   -2    4   -2   -5  -88  122
   47  -78  -93   66  147 -118    0  -53  -10  156  -70 -126
  104   96 -113  -60  127   12  -92    4   -4  -57  -30  138
  -88  -38  148  -74  -33  -14  -88  129   24 -169  154   32
 -100   -4    0 -175  172   15 -134   15  167 -112   -3  -28
  -68  169  -30  -48    3   -1   -1  -91  -86  144  -87 -143
 -100 -103 -190  111   74 -171  123   38   13   63   71   86
   83   33 -127  -93  102  106 -136  -35    2   -1   -5  -75
  -72   -1   -1    0    0    0    0    0    0    0    0    0
    0    0    0    0    0    0    0    0    0    0    0    0
    0    0    0    0    0    0    0    0    0    0    0    0
    0    0    0    0    0    0    0    0    0    0    0    0
    0    0    0    0    0    0    0    0    0    0    0    0
    0    0    0    0    0    0    0    0    0    0    0    0
    0    0    0    0    0    0    0    0    0    0    0 -255
 -255    0    0    0    0    0    0    0    0    0    0    0
    0    0    0    0    0    0    0    0    0    0    0    0
    0    0    0    0    0    0    0    0    0    0    0    0
    0    0    0    0    0    0    0    0    0    0    0    0
    0    0    0    0    0    0    0    0    0   -1    4   -2
    4   -2   -1   -7  -31   35   -3    3  -32  -93   99    1
    0   -1    0    0    0    0    0    0    0    0    0    0
    0    1   -1    3   -5  105   41 -170   -2   -1    0    0
    0    0    0    0    0    0    0    0    0    0    0   -1
  -10  -20   33   -2   -5   -7   14    0    0   -3    2    0
    0    0    0    0    0    0    0    9   33  -39   -3    0
    0    0    0    0    0   -1    0    0   -1    4   -1   -1
   -1   -5  -60   48   -2    1  -43 -213  208  -10    0    6
    0   -1    2    1    0    0    0    0    0    0    0    1
   -4    3   -3   68   56 -132    7   -3    0    0    0    0
    0    0    0    0    0   -1    4   -3    0   -9  -80  128
   44 -166  -94   67  140 -117   -1  -53  -10  153  -72 -121
  110   89  -98 -115  170  140 -173  -86  -66 -186   92  147
 -102  -76  143  -15 -145 -120  -97  133   30 -146  120  108
 -151  -97 -151   11   95   19 -129   14  163 -108   -7  -26
  -65  158  -22  -43   -3   -1    4  -50  -14  140  -27  -46
    4  -14  -76  115   67  -88 -171   54  136 -191  -94  -93
  -86  -59   -1  -56    8  103  184 -171  -96  -95 -153  109
  108  -73   -1    0    0    0    0    0    0    0    0    0
    0    0    0    0    0    0    0    0    0    0    0    0
    0    0    0    0    0    0    0    0    0    0    0    0
    0    0    0    0    0    0    0    0    0    0    0    0
    0    0    0    0    0    0    0    0    0    0    0    0
    0    0    0    0    0    0    0    0    0    0    0    0
    0    0    0    0    0    0    0    0    0    0    0 -255
 -255    0    0    0    0    0    0    0    0    0    0    0
    0    0    0    0    0    0    0    0    0    0    0    0
    0    0    0    0    0    0    0    0    0    0    0    0
    0    0    0    0    0    0    0    0    0    0    0    0
    0    0    0    0    0    0    0    0    0    0   -1    0
   -1   -2    4  -24    0   15    3    7 -107   36   51    0
    0    0    0    0    0    0    0    0    0    0    0    0
    0    0   -1    3   19  245 -246   -1    2   -3    0   -1
    0    0    0    0    0    0    0    0    0   -1   -1    4
  -13  -19   27    0  -10   -2   11    0    0   -1   -3    2
    0    0    0    0    0    0    0   11   25  -38    2   -1
    0    0    0    0    0   -1    0    0   -1   -1   -1    3
    2    2  -11  -30   58   -5   -7 -100   17  128   -6   -5
   -4    8   -9    3    0    0    0    0    0    0    0    0
    2    0   -1    7  235 -259    0    2   -1    0    0    0
    0    0    0    0    0    0   -2    4   -1    0  -97  138
  116  117 -166   77  164 -120    4  -55    1  178  -70 -125
  118  110  -99  -26 -119  179  132   13   -8  110  164   21
  -82  -99  186   93   48   37  108  209 -126  -59  -18  168
  109   63   86  149   40   23 -135   28  172  -97   -8  -26
  -63  182  -20  -48    4   -2   -1  -48  -15  151  -13  -47
   -1  -12  -83  125   81  -87  -95   88  141  -95  -10   -1
    4   -1   -3    3 -121   57  105  122   63   55   95   86
  225  -86   -5    0    0    0    0    0    0    0    0    0
    0    0    0    0    0    0    0    0    0    0    0    0
    0    0    0    0    0    0    0    0    0    0    0    0
    0    0    0    0    0    0    0    0    0    0    0    0
    0    0    0    0    0    0    0    0    0    0    0    0
    0    0    0    0    0    0    0    0    0    0    0    0
    0    0    0    0    0    0    0    0    0    0    0 -255
 -255    0    0    0    0    0    0    0    0    0    0    0
    0    0    0    0    0    0    0    0    0    0    0    0
    0    0    0    0    0    0    0    0    0    0    0    0
    0    0    0    0    0    0    0    0    0    0    0    0
    0    0    0    0    0    0    0    0    0    0    0    0
   -1    4   -4  -57   55    3   -2    0 -201  201   -1   -1
    0    0    0    0    0    0    0    0    0    0    0    0
   -1   -1   -2    5  258 -253  -24   -2    1    6   -3    4
   -1    0    0    0    0    0    0    0   -1    4   -2   -1
  -18   -4   21   -2   -6   -4   13    1    0   -1    3   -4
    1    0    0    0    0    0    0   10   29  -38   -4   -1
    0    0    0   -1   -1    4   -1   -1    4   -1    0   -1
   -2   -1   -1  -34    2   23    1   12 -233  158   47    3
    0   -4    2   -4    1    0    0    0    0    0    0    1
   -4    2    2  -15  165 -102  -66    1   -1    0    0    0
    0    0    0    0    0    0    0   -1    0   -2    3 -163
   86  234 -179  125  195  -96   -3  -45   25  214  -46 -108
  169  143  -79   -3  -57  -65  113  151  162  122   -8 -113
    0  -23 -134  120  136  140  125 -121  -35    3  -89  -74
  108  113  129 -255  149   45 -124   70  223  -87   -6  -23
  -35  222    8  -39   -2    4   -2  -43   26  191   18  -41
   -1   -6  -64  172  121  -75  -81  132  181  -67  -11    0
   -1   -1    4   -3    3 -123    4  104  125  137  107   88
 -150  -14    0    0    0    0    0    0    0    0    0    0
    0    0    0    0    0    0    0    0    0    0    0    0
    0    0    0    0    0    0    0    0    0    0    0    0
    0    0    0    0    0    0    0    0    0    0    0    0
    0    0    0    0    0    0    0    0    0    0    0    0
    0    0    0    0    0    0    0    0    0    0    0    0
    0    0    0    0    0    0    0    0    0    0    0 -255
 -255    0    0    0    0    0    0    0    0    0    0    0
    0    0    0    0    0    0    0    0    0    0    0    0
    0    0    0    0    0    0    0    0    0    0    0    0
    0    0    0    0    0    0    0    0    0    0    0    0
    0    0    0    0    0    0    0    0    0    0   -1    0
    0   -3  -29   26   15   -2    0  -63  -15   90   -1    0
    0    0    0    0    0    0    0    0    0    1    1    1
    2    2    2  135  -83  -88    8   -2   -2    2   -1   -1
    0    0    0    0    0    0    0    0   -1   -2    3   -1
  -25    8   18    1   -4   -5    5   -1    2   -7    2   -1
   -1    0   -2    0    1    0    0    8   32  -42    1    3
   -2    0   -1    4   -1   -1    0    0   -1    0    0   -1
    4   -1    0   -5  -44   60   -3   -2  -10 -205  198   -6
    4   -6    9   -1    0    0    0    0    0    0    0    0
    2   -3   -4    6   14  234 -199    2   -2    0    0    0
    0   -1    0    0    0    0    0    0   -1    3    2   -2
  -72  -91   -2  -82  -88   -1    3   -3  -38  -98  -16   -3
  -82  -81   -3    3    2  -37  -88 -100 -107  -92  -53    4
   -1    0  -16  -85  -99 -100  -88  -24    8   -4  -55  -73
 -194 -166 -224  -33  156  -63  -31  -62  -96   -4   -1   -1
  -25  -94  -37   -1    0   -2    4   -1  -45  -91  -39   -1
    0   -2   -8  -85  -73   -1   -1  -79  -91   -9    3   -1
    0    0   -1    0   -1   -1  -49  -90 -102 -107  -87  -80
   -5    3   -1    0    0    0    0    0    0    0    0    0
    0    0    0    0    0    0    0    0    0    0    0    0
    0    0    0    0    0    0    0    0    0    0    0    0
    0    0    0    0    0    0    0    0    0    0    0    0
    0    0    0    0    0    0    0    0    0    0    0    0
    0    0    0    0    0    0    0    0    0    0    0    0
    0    0    0    0    0    0    0    0    0    0    0 -255
 -255    0    0    0    0    0    0    0    0    0    0    0
    0    0    0    0    0    0    0    0    0    0    0    0
    0    0    0    0    0    0    0    0    0    0    0    0
    0    0    0    0    0    0    0    0    0    0    0    0
    0    0    0    0    0    0    0    0    0   -1    4   -1
   -2    5  -53   42    0    1   -3 -120  118   16    1   -3
    1    0    0    0    0    0    0    0    2   -2    0   -8
    6   -4   29  226 -211   -1   -2    0    0   -1    0    0
    0    0    0    0    0    0    0   -1    4   -3    3   -1
  -34   32    5   -3   -5    2   10   -1    1    3   -3    6
    2   -2    6   -1   -4    1    0    4   41  -38   -6   -3
    4   -2    0   -1    0    0    0    0    0    0    0    0
   -1    0   -1    4  -17  -38   47   -5    5  -91  -26  153
   -7   -1   -2   -1    0    0    0    0    0    0    0    0
    0    2    2    2   -4  173 -190  -24    2   -1    0   -1
   -1    4   -1   -1    0    0    0    0    0   -1   -1    0
   -1   -2    0    0   -3   -1   -1    0   -2   -1   -1    0
   -2   -1    0   -1   -1    0   -1   -2   -1   -1    0   -1
    0    0    0   -1   -2   -2   -1    0   -2  -38   21  291
  102    5   42  155  140 -111    5   -4    2   -2   -1    4
   -1   -2   -1    0    0    0   -1    0    0   -2   -1    0
    0    0   -1   -2   -1    0    0   -1   -2   -1   -1    0
    0    0    0    0    0    0   -1   -1   -1   -1   -3    0
   -1   -1    0    0    0    0    0    0    0    0    0    0
    0    0    0    0    0    0    0    0    0    0    0    0
    0    0    0    0    0    0    0    0    0    0    0    0
    0    0    0    0    0    0    0    0    0    0    0    0
    0    0    0    0    0    0    0    0    0    0    0    0
    0    0    0    0    0    0    0    0    0    0    0    0
    0    0    0    0    0    0    0    0    0    0    0 -255
 -255    0    0    0    0    0    0    0    0    0    0    0
    0    0    0    0    0    0    0    0    0    0    0    0
    0    0    0    0    0    0    0    0    0    0    0    0
    0    0    0    0    0    0    0    0    0    0    0    0
    0    0    0    0    0    0    0    0    0   -1   -1   -1
   -1  -40   23   17    0   -4  -10 -178  141    1    0   -3
    1    0    0    0    0    0    0    1   -3   -2   -1    5
   -7    4  237 -278  -14    0    0    0    0    0    0    0
    0    0    0    0    0    0    0    0   -2    4   -2    0
  -47   48    0   -3  -11   -1    3    0   -3   -5    3    7
    9    6   17   -1    2   -1   -1    0   53  -63    7    2
   -3    3   -1    0    0    0    0    0    0    0    0    0
    0    0   -1   -3    8  -41   20   18   -3    8 -224  147
   25    2   -3    4   -1    0    0    0    0    0    0    0
    1   -3   -2   -4    0  102   -3 -111    2   -2   -2    4
   -2   -2   -2    4   -1    0    0    0    0    0    0    0
    0    0    0    0    0    0    0    0    0    0    0    0
    0    0    0    0    0    0    0    0    0    0    0    0
    0    0    0    0    0    0    0    0   -2    8  -78  -62
  143  129  148   58 -160   -4   -3    4   -3    0    0   -1
    0    0    0    0    0    0    0    0    0    0    0    0
    0    0    0    0    0    0    0    0    0    0    0    0
    0    0    0    0    0    0    0    0    0    0    0    0
    0    0    0    0    0    0    0    0    0    0    0    0
    0    0    0    0    0    0    0    0    0    0    0    0
    0    0    0    0    0    0    0    0    0    0    0    0
    0    0    0    0    0    0    0    0    0    0    0    0
    0    0    0    0    0    0    0    0    0    0    0    0
    0    0    0    0    0    0    0    0    0    0    0    0
    0    0    0    0    0    0    0    0    0    0    0 -255
 -255    0    0    0    0    0    0    0    0    0    0    0
    0    0    0    0    0    0    0    0    0    0    0    0
    0    0    0    0    0    0    0    0    0    0    0    0
    0    0    0    0    0    0    0    0    0    0    0    0
    0    0    0    0    0    0    0    0   -1    4   -2    3
   -9  -26   42   -2    0    8 -169  141   41   -4    4    1
    0    0    0    0    0    0    0    0   -1    7   -1   -4
    7   56   67 -124    4   -1    0    0    0    0    0    0
    0    0    0    0    0    0    0    0    0   -1    0   -7
  -22   44   14   26   25    5   13    9   14   33   54   36
   20    1   -9   23    4   24   15    2   57  -52   -8   -2
   -2    3   -2   -1    0    0    0    0    0    0    0    0
    0   -1    4   -2   -4    0  -36   42   -2   -1  -36 -102
  145    2    1   -2    0    0    0    0    0    0    0    0
   -1    1   -1    5    4  -13  295 -297   -4    2    3   -4
    3    2    2   -2    0    0    0    0    0    0    0    0
    0    0    0    0    0    0    0    0    0    0    0    0
    0    0    0    0    0    0    0    0    0    0    0    0
    0    0    0    0    0    0    0    0   -1   -3    4  -42
  -94  -84  -87  -73   -1    3   -1   -2    4   -1    0    0
    0    0    0    0    0    0    0    0    0    0    0    0
    0    0    0    0    0    0    0    0    0    0    0    0
    0    0    0    0    0    0    0    0    0    0    0    0
    0    0    0    0    0    0    0    0    0    0    0    0
    0    0    0    0    0    0    0    0    0    0    0    0
    0    0    0    0    0    0    0    0    0    0    0    0
    0    0    0    0    0    0    0    0    0    0    0    0
    0    0    0    0    0    0    0    0    0    0    0    0
    0    0    0    0    0    0    0    0    0    0    0    0
    0    0    0    0    0    0    0    0    0    0    0 -255
 -255    0    0    0    0    0    0    0    0    0    0    0
    0    0    0    0    0    0    0    0    0    0    0    0
    0    0    0    0    0    0    0    0    0    0    0    0
    0    0    0    0    0    0    0    0    0    0    0    0
    0    0    0    0    0    0    0    0   -1   -1    0   -1
  -65   48    1    0    1  -32 -110  154   -9    1    0   -3
    1    0    0    0    0    0    0   -1    7   -4   -8    3
  -10  273 -228   -9   -3    0    0    0    0    0    0    0
    0    0    0    0    0    0    0    0    0    0    0  -11
   11   30   14   -4  -76   97   44   41   27   -5  -52  -62
  -27   14   25   16   55  -12   28   38   89   24  -23    3
    3   -5    3    3   -1    0    0    0    0    0    0    0
    0   -1   -2    4   -2   -2  -37   32   14    4    0 -190
  187   30    2   -2    0    0    0    0    0    0    0   -1
    6   -2    6   -5   -2    1   81   86 -122   -2   -2    4
   -2   -2    2   -2    0    0    0    0    0    0    0    0
    0    0    0    0    0    0    0    0    0    0    0    0
    0    0    0    0    0    0    0    0    0    0    0    0
    0    0    0    0    0    0    0   -1    4   -1   -1    0
   -2   -7   -5    0   -1    3   -1   -1   -1   -1    0    0
    0    0    0    0    0    0    0    0    0    0    0    0
    0    0    0    0    0    0    0    0    0    0    0    0
    0    0    0    0    0    0    0    0    0    0    0    0
    0    0    0    0    0    0    0    0    0    0    0    0
    0    0    0    0    0    0    0    0    0    0    0    0
    0    0    0    0    0    0    0    0    0    0    0    0
    0    0    0    0    0    0    0    0    0    0    0    0
    0    0    0    0    0    0    0    0    0    0    0    0
    0    0    0    0    0    0    0    0    0    0    0    0
    0    0    0    0    0    0    0    0    0    0    0 -255
 -255    0    0    0    0    0    0    0    0    0    0    0
    0    0    0    0    0    0    0    0    0    0    0    0
    0    0    0    0    0    0    0    0    0    0    0    0
    0    0    0    0    0    0    0    0    0    0    0    0
    0    0    0    0    0    0    0   -1    4   -2    0  -32
   63   12    6   -4   -3 -140   96   34    2   -4    3   -3
    1    0    0    0    0    0    0    2  -10    1   11   -5
  117  -39 -103    1   -1    0    0    0    0    0    0    0
    0    0    0    0    0    0    0    0    0    0    0    0
  -11  -27  -24  -17  -10  -49  -43  -48  -34  -21   -7   -2
   -7  -26  -30  -36  -40  -23  -41  -44  -51  -19    3   -2
   -4    8   -3   -2    0    0    0    0    0    0    0    0
   -1    4   -1   -3    4   -2    1  -59   42    0    0   -7
 -237  192   -9    5   -1    0    0    0    0    0    0    2
   -9    3   -4   -3    4    1    4  222 -296   -8    0   -1
    0   -2    2    3   -1    0    0    0    0    0    0    0
    0    0    0    0    0    0    0    0    0    0    0    0
    0    0    0    0    0    0    0    0    0    0    0    0
    0    0    0    0    0    0    0    0   -2    0   -1    0
   -1    4   -1    0    0   -1   -1    4   -3    4   -1    0
    0    0    0    0    0    0    0    0    0    0    0    0
    0    0    0    0    0    0    0    0    0    0    0    0
    0    0    0    0    0    0    0    0    0    0    0    0
    0    0    0    0    0    0    0    0    0    0    0    0
    0    0    0    0    0    0    0    0    0    0    0    0
    0    0    0    0    0    0    0    0    0    0    0    0
    0    0    0    0    0    0    0    0    0    0    0    0
    0    0    0    0    0    0    0    0    0    0    0    0
    0    0    0    0    0    0    0    0    0    0    0    0
    0    0    0    0    0    0    0    0    0    0    0 -255
 -255    0    0    0    0    0    0    0    0    0    0    0
    0    0    0    0    0    0    0    0    0    0    0    0
    0    0    0    0    0    0    0    0    0    0    0    0
    0    0    0    0    0    0    0    0    0    0    0    0
    0    0    0    0    0    0    0    0   -2    4   -3  -13
    8   47   39   34  -42 -120  146   -4    7   -5   -3    2
   -1   -1   -1    0    0    0    0   -1    6    1   -8    4
  169 -197   -7    0   -1    0    0    0    0    0    0    0
    0    0    0    0    0    0    0    0    0    0    0    0
   -2    4   -1   -2    3   -4    1   -1   -2    3   -3    2
    2   -3    2    2   -3   -4    3   -3   -1   -1   -1   -2
    4   -4   -1    4   -1    0    0    0    0    0    0    0
    0   -2   -1    4   -3   -1    2  -26   22    8    5   -2
 -129  109   33   -1    0    0    0    0    0    0    0    0
    2    0    1    1   -1    0    0   73  155 -195   -1    0
   -2    4   -2   -1    0    0    0    0    0    0    0    0
    0    0    0    0    0    0    0    0    0    0    0    0
    0    0    0    0    0    0    0    0    0    0    0    0
    0    0    0    0    0    0    0   -1    4   -3    4   -1
   -1   -1   -1    0   -1    0   -1   -2    4   -3    0    0
    0    0    0    0    0    0    0    0    0    0    0    0
    0    0    0    0    0    0    0    0    0    0    0    0
    0    0    0    0    0    0    0    0    0    0    0    0
    0    0    0    0    0    0    0    0    0    0    0    0
    0    0    0    0    0    0    0    0    0    0    0    0
    0    0    0    0    0    0    0    0    0    0    0    0
    0    0    0    0    0    0    0    0    0    0    0    0
    0    0    0    0    0    0    0    0    0    0    0    0
    0    0    0    0    0    0    0    0    0    0    0    0
    0    0    0    0    0    0    0    0    0    0    0 -255
 -255    0    0    0    0    0    0    0    0    0    0    0
    0    0    0    0    0    0    0    0    0    0    0    0
    0    0    0    0    0    0    0    0    0    0    0    0
    0    0    0    0    0    0    0    0    0    0    0    0
    0    0    0    0    0    0    0    0    0   -1   -2    6
  -21  -42  -39  -20 -183  223    2   -9    3    4    1    0
    2    1    2   -2    0    0    0    0    0   -7   11   41
  145 -144   -4    2   -1    0    0    0    0    0    0    0
    0    0    0    0    0    0    0    0    0   -1    0   -1
    4   -2   -1    3    1    2    2   -1    0   -3    3    2
   -3    3   -2   -1    0    0   -3    3   -2   -1   -2    4
   -5    4   -2   -1    0    0    0    0    0    0    0    0
   -1    4   -2   -2    4   -1   -1  -11  -27   42   -8    6
  -46  -88  145   -8   -1   -1   -1   -1   -1   -1   -1   -1
   -1   -1    0    0   -7    8   -5   -6  195 -125  -61   -2
    4   -2    0   -1    0    0    0    0    0    0    0    0
    0    0    0    0    0    0    0    0    0    0    0    0
    0    0    0    0    0    0    0    0    0    0    0    0
    0    0    0    0    0    0    0    0   -2    4   -2   -2
    4   -2    4   -2    4   -3    4   -1   -3    4   -1    0
    0    0    0    0    0    0    0    0    0    0    0    0
    0    0    0    0    0    0    0    0    0    0    0    0
    0    0    0    0    0    0    0    0    0    0    0    0
    0    0    0    0    0    0    0    0    0    0    0    0
    0    0    0    0    0    0    0    0    0    0    0    0
    0    0    0    0    0    0    0    0    0    0    0    0
    0    0    0    0    0    0    0    0    0    0    0    0
    0    0    0    0    0    0    0    0    0    0    0    0
    0    0    0    0    0    0    0    0    0    0    0    0
    0    0    0    0    0    0    0    0    0    0    0 -255
 -255    0    0    0    0    0    0    0    0    0    0    0
    0    0    0    0    0    0    0    0    0    0    0    0
    0    0    0    0    0    0    0    0    0    0    0    0
    0    0    0    0    0    0    0    0    0    0    0    0
    0    0    0    0    0    0    0    0    0    0    0   -2
   -2    8   -6 -113  169  260  109   61   44   30   19   16
   21   33   25    3    0    0   -1    0    1    0  -10  219
 -198  -32    3    2   -1    0    0    0    0    0    0    0
    0    0    0    0    0    0    0    0   -1    4   -1    0
   -1    0    0   -1   -1   -1   -1    0   -1    4   -2   -1
   -1    3   -1    0    0   -1    3    1    2    2    3   -4
    8   -4    4   -1    0    0    0    0    0    0    0    0
    0   -2    4   -1   -1    0    0    0  -43   40    6   -4
    3 -210  200   16    0    3    3    2    3    1    0    1
   52   32   19   22   30   47   71  110  200  407 -164    1
   -2   -1   -1    4   -1    0    0    0    0    0    0    0
    0    0    0    0    0    0    0    0    0    0    0    0
    0    0    0    0    0    0    0    0    0    0    0    0
    0    0    0    0    0    0    0    0    0   -1   -1    4
   -2    0   -1    0   -2    4   -2   -1    4   -2    0    0
    0    0    0    0    0    0    0    0    0    0    0    0
    0    0    0    0    0    0    0    0    0    0    0    0
    0    0    0    0    0    0    0    0    0    0    0    0
    0    0    0    0    0    0    0    0    0    0    0    0
    0    0    0    0    0    0    0    0    0    0    0    0
    0    0    0    0    0    0    0    0    0    0    0    0
    0    0    0    0    0    0    0    0    0    0    0    0
    0    0    0    0    0    0    0    0    0    0    0    0
    0    0    0    0    0    0    0    0    0    0    0    0
    0    0    0    0    0    0    0    0    0    0    0 -255
 -255    0    0    0    0    0    0    0    0    0    0    0
    0    0    0    0    0    0    0    0    0    0    0    0
    0    0    0    0    0    0    0    0    0    0    0    0
    0    0    0    0    0    0    0    0    0    0    0    0
    0    0    0    0    0    0    0    0    0    0    0    0
    0   -2   -1    3 -125 -151  -33   61   96  122  139  137
  124   52   57   30   -3   -1    3    0   -3    2   30  140
 -172    2   -2   -1    0    0    0    0    0    0    0    0
    0    0    0    0    0    0    0    0    0   -1    0    0
    0    0    0    0    0    0    0    0    0   -1    0    0
    0   -1    0    0    0    0   -1   -1   -1   -1   -1    0
   -2    0   -1    0    0    0    0    0    0    0    0    0
    0    0   -1    0    0    0    0    0  -16  -21   29    0
    2  -62  -77  108    1   -5   -5    0   -7    1    3  129
  -16  110  122  126  120   69   69  -16 -127 -208   -5    7
   -3    3   -1   -1    0    0    0    0    0    0    0    0
    0    0    0    0    0    0    0    0    0    0    0    0
    0    0    0    0    0    0    0    0    0    0    0    0
    0    0    0    0    0    0    0    0    0    0    0   -1
    0    0    0    0    0   -1    0    0   -1    0    0    0
    0    0    0    0    0    0    0    0    0    0    0    0
    0    0    0    0    0    0    0    0    0    0    0    0
    0    0    0    0    0    0    0    0    0    0    0    0
    0    0    0    0    0    0    0    0    0    0    0    0
    0    0    0    0    0    0    0    0    0    0    0    0
    0    0    0    0    0    0    0    0    0    0    0    0
    0    0    0    0    0    0    0    0    0    0    0    0
    0    0    0    0    0    0    0    0    0    0    0    0
    0    0    0    0    0    0    0    0    0    0    0    0
    0    0    0    0    0    0    0    0    0    0    0 -255
 -255    0    0    0    0    0    0    0    0    0    0    0
    0    0    0    0    0    0    0    0    0    0    0    0
    0    0    0    0    0    0    0    0    0    0    0    0
    0    0    0    0    0    0    0    0    0    0    0    0
    0    0    0    0    0    0    0    0    0    0    0    0
    0    0   -1    2    2  -29  -64 -108 -133 -147 -154 -188
  -72 -108 -181  209    2    4    1    0   -2   -4  111  -62
  -71    2   -1    0    0    0    0    0    0    0    0    0
    0    0    0    0    0    0    0    0    0    0    0    0
    0    0    0    0    0    0    0    0    0    0    0    0
    0    0    0    0    0    0    0    0    0    0    0    0
    0    0    0    0    0    0    0    0    0    0    0    0
    0    0    0    0    0    0    0   -2    3  -34   32    0
    5  -17 -141  133    2    0    3    2    2   -7  145   10
 -175 -108 -120 -108  -72 -117 -137  -84  -38   -1    7   -4
   -1    3   -1    0    0    0    0    0    0    0    0    0
    0    0    0    0    0    0    0    0    0    0    0    0
    0    0    0    0    0    0    0    0    0    0    0    0
    0    0    0    0    0    0    0    0    0    0    0    0
    0    0    0    0    0    0    0    0    0    0    0    0
    0    0    0    0    0    0    0    0    0    0    0    0
    0    0    0    0    0    0    0    0    0    0    0    0
    0    0    0    0    0    0    0    0    0    0    0    0
    0    0    0    0    0    0    0    0    0    0    0    0
    0    0    0    0    0    0    0    0    0    0    0    0
    0    0    0    0    0    0    0    0    0    0    0    0
    0    0    0    0    0    0    0    0    0    0    0    0
    0    0    0    0    0    0    0    0    0    0    0    0
    0    0    0    0    0    0    0    0    0    0    0    0
    0    0    0    0    0    0    0    0    0    0    0 -255
 -255    0    0    0    0    0    0    0    0    0    0    0
    0    0    0    0    0    0    0    0    0    0    0    0
    0    0    0    0    0    0    0    0    0    0    0    0
    0    0    0    0    0    0    0    0    0    0    0    0
    0    0    0    0    0    0    0    0    0    0    0    0
    0    0    0   -2    3   -1   -2   -1   -1    4   -3    2
  -55   32  -15 -156  215    5    1   -2    0    4  147 -135
  -26   -2    0    0    0    0    0    0    0    0    0    0
    0    0    0    0    0    0    0    0    0    0    0    0
    0    0    0    0    0    0    0    0    0    0    0    0
    0    0    0    0    0    0    0    0    0    0    0    0
    0    0    0    0    0    0    0    0    0    0    0    0
    0    0    0    0    0    0    0    0   -4  -35   36    4
   -6   -2 -148  163   15   -1    3   -3   -8  153  104 -171
   14    9  -10  -19  -31  -22    3   -2   -5    7   -4   -1
   -1   -2   -1   -1    0    0    0    0    0    0    0    0
    0    0    0    0    0    0    0    0    0    0    0    0
    0    0    0    0    0    0    0    0    0    0    0    0
    0    0    0    0    0    0    0    0    0    0    0    0
    0    0    0    0    0    0    0    0    0    0    0    0
    0    0    0    0    0    0    0    0    0    0    0    0
    0    0    0    0    0    0    0    0    0    0    0    0
    0    0    0    0    0    0    0    0    0    0    0    0
    0    0    0    0    0    0    0    0    0    0    0    0
    0    0    0    0    0    0    0    0    0    0    0    0
    0    0    0    0    0    0    0    0    0    0    0    0
    0    0    0    0    0    0    0    0    0    0    0    0
    0    0    0    0    0    0    0    0    0    0    0    0
    0    0    0    0    0    0    0    0    0    0    0    0
    0    0    0    0    0    0    0    0    0    0    0 -255
 -255    0    0    0    0    0    0    0    0    0    0    0
    0    0    0    0    0    0    0    0    0    0    0    0
    0    0    0    0    0    0    0    0    0    0    0    0
    0    0    0    0    0    0    0    0    0    0    0    0
    0    0    0    0    0    0    0    0    0    0    0    0
    0    0    0    0   -1    0    0    0    0   -2    3    2
   -2  -49    6  -16 -125  221   36   -1    4   -1  212 -198
    3   -3    0    0    0    0    0    0    0    0    0    0
    0    0    0    0    0    0    0    0    0    0    0    0
    0    0    0    0    0    0    0    0    0    0    0    0
    0    0    0    0    0    0    0    0    0    0    0    0
    0    0    0    0    0    0    0    0    0    0    0    0
    0    0    0    0    0    0    0   -1    3  -27   18   14
    3    4  -99   29   74   -9    0   -7  198  115 -260  -21
  -28  -22  -11  -10   -5    4   -2   -2    8   -5   -1    2
    2    2    1    3   -1    0    0    0    0    0    0    0
    0    0    0    0    0    0    0    0    0    0    0    0
    0    0    0    0    0    0    0    0    0    0    0    0
    0    0    0    0    0    0    0    0    0    0    0    0
    0    0    0    0    0    0    0    0    0    0    0    0
    0    0    0    0    0    0    0    0    0    0    0    0
    0    0    0    0    0    0    0    0    0    0    0    0
    0    0    0    0    0    0    0    0    0    0    0    0
    0    0    0    0    0    0    0    0    0    0    0    0
    0    0    0    0    0    0    0    0    0    0    0    0
    0    0    0    0    0    0    0    0    0    0    0    0
    0    0    0    0    0    0    0    0    0    0    0    0
    0    0    0    0    0    0    0    0    0    0    0    0
    0    0    0    0    0    0    0    0    0    0    0    0
    0    0    0    0    0    0    0    0    0    0    0 -255
 -255    0    0    0    0    0    0    0    0    0    0    0
    0    0    0    0    0    0    0    0    0    0    0    0
    0    0    0    0    0    0    0    0    0    0    0    0
    0    0    0    0    0    0    0    0    0    0    0    0
    0    0    0    0    0    0    0    0    0    0    0    0
    0    0    0    0    0    0    0   -1   -1   -1   -1   -1
   -2    6  -25  -60   24 -241  227  115   -9   73   48 -109
   -5    8   -3    0    0    0    0    0    0    0    0    0
    0    0    0    0    0    0    0    0    0    0    0    0
    0    0    0    0    0    0    0    0    0    0    0    0
    0    0    0    0    0    0    0    0    0    0    0    0
    0    0    0    0    0    0    0    0    0    0    0    0
    0    0    0    0    0    0    0   -1    1   -3  -46   44
   -5    2  -25 -138  160  -11   32  278  -95 -203   -1   -4
   12   -4    2   -1   -2   -2    0   -1   -3    3   -2    3
   -2   -2    3   -2    0    0    0    0    0    0    0    0
    0    0    0    0    0    0    0    0    0    0    0    0
    0    0    0    0    0    0    0    0    0    0    0    0
    0    0    0    0    0    0    0    0    0    0    0    0
    0    0    0    0    0    0    0    0    0    0    0    0
    0    0    0    0    0    0    0    0    0    0    0    0
    0    0    0    0    0    0    0    0    0    0    0    0
    0    0    0    0    0    0    0    0    0    0    0    0
    0    0    0    0    0    0    0    0    0    0    0    0
    0    0    0    0    0    0    0    0    0    0    0    0
    0    0    0    0    0    0    0    0    0    0    0    0
    0    0    0    0    0    0    0    0    0    0    0    0
    0    0    0    0    0    0    0    0    0    0    0    0
    0    0    0    0    0    0    0    0    0    0    0    0
    0    0    0    0    0    0    0    0    0    0    0 -255
 -255    0    0    0    0    0    0    0    0    0    0    0
    0    0    0    0    0    0    0    0    0    0    0    0
    0    0    0    0    0    0    0    0    0    0    0    0
    0    0    0    0    0    0    0    0    0    0    0    0
    0    0    0    0    0    0    0    0    0    0    0    0
    0    0    0    0   -1    0   -1    3    2    3   -1    0
   -3    4    2   -5  -31  -20 -248    8  253  194 -110  -42
    2   -4    4   -1    0    0    0    0    0    0    0    0
    0    0    0    0    0    0    0    0    0    0    0    0
    0    0    0    0    0    0    0    0    0    0    0    0
    0    0    0    0    0    0    0    0    0    0    0    0
    0    0    0    0    0    0    0    0    0    0    0    0
    0    0    0    0    0    0    0   -1    2    2  -45   42
   -2    3   12 -183  198  174  190 -176 -112   -5    4   -1
   -3   -1    3   -3    7    1   -2    4   -3    3   -1   -2
   -2   -1   -1    0    0    0    0    0    0    0    0    0
    0    0    0    0    0    0    0    0    0    0    0    0
    0    0    0    0    0    0    0    0    0    0    0    0
    0    0    0    0    0    0    0    0    0    0    0    0
    0    0    0    0    0    0    0    0    0    0    0    0
    0    0    0    0    0    0    0    0    0    0    0    0
    0    0    0    0    0    0    0    0    0    0    0    0
    0    0    0    0    0    0    0    0    0    0    0    0
    0    0    0    0    0    0    0    0    0    0    0    0
    0    0    0    0    0    0    0    0    0    0    0    0
    0    0    0    0    0    0    0    0    0    0    0    0
    0    0    0    0    0    0    0    0    0    0    0    0
    0    0    0    0    0    0    0    0    0    0    0    0
    0    0    0    0    0    0    0    0    0    0    0    0
    0    0    0    0    0    0    0    0    0    0    0 -255
 -255    0    0    0    0    0    0    0    0    0    0    0
    0    0    0    0    0    0    0    0    0    0    0    0
    0    0    0    0    0    0    0    0    0    0    0    0
    0    0    0    0    0    0    0    0    0    0    0    0
    0    0    0    0    0    0    0    0    0    0    0    0
    0    0    0   -1    4   -2    0   -1   -1   -2   -1   -1
    3    1   -3    4   -4    4    2 -100 -291  372 -191    2
   -3   -1   -1    0    0    0    0    0    0    0    0    0
    0    0    0    0    0    0    0    0    0    0    0    0
    0    0    0    0    0    0    0    0    0    0    0    0
    0    0    0    0    0    0    0    0    0    0    0    0
    0    0    0    0    0    0    0    0    0    0    0    0
    0    0    0    0    0    0    0    0   -1   -2  -27   23
   15   28   63 -207  297  -17 -241  -41   -6    8   -4    0
   -1    0   -1    0   -3    3   -1   -2    4   -2   -1    1
    6    2   -2    0    0    0    0    0    0    0    0    0
    0    0    0    0    0    0    0    0    0    0    0    0
    0    0    0    0    0    0    0    0    0    0    0    0
    0    0    0    0    0    0    0    0    0    0    0    0
    0    0    0    0    0    0    0    0    0    0    0    0
    0    0    0    0    0    0    0    0    0    0    0    0
    0    0    0    0    0    0    0    0    0    0    0    0
    0    0    0    0    0    0    0    0    0    0    0    0
    0    0    0    0    0    0    0    0    0    0    0    0
    0    0    0    0    0    0    0    0    0    0    0    0
    0    0    0    0    0    0    0    0    0    0    0    0
    0    0    0    0    0    0    0    0    0    0    0    0
    0    0    0    0    0    0    0    0    0    0    0    0
    0    0    0    0    0    0    0    0    0    0    0    0
    0    0    0    0    0    0    0    0    0    0    0 -255
 -510 -255 -255 -255 -255 -255 -255 -255 -255 -255 -255 -255
 -255 -255 -255 -255 -255 -255 -255 -255 -255 -255 -255 -255
 -255 -255 -255 -255 -255 -255 -255 -255 -255 -255 -255 -255
 -255 -255 -255 -255 -255 -255 -255 -255 -255 -255 -255 -255
 -255 -255 -255 -255 -255 -255 -255 -255 -255 -255 -255 -255
 -255 -255 -255 -255 -257 -251 -256 -255 -256 -252 -252 -256
 -256 -256 -255 -256 -255 -257 -257 -251 -263 -398 -247 -259
 -252 -252 -256 -255 -255 -255 -255 -255 -255 -255 -255 -255
 -255 -255 -255 -255 -255 -255 -255 -255 -255 -255 -255 -255
 -255 -255 -255 -255 -255 -255 -255 -255 -255 -255 -255 -255
 -255 -255 -255 -255 -255 -255 -255 -255 -255 -255 -255 -255
 -255 -255 -255 -255 -255 -255 -255 -255 -255 -255 -255 -255
 -255 -255 -255 -255 -255 -255 -255 -255 -255 -255 -279 -228
 -192 -284 -297 -260 -384 -338 -252 -258 -251 -259 -251 -257
 -251 -256 -255 -255 -255 -256 -255 -255 -256 -255 -256 -252
 -258 -257 -251 -256 -255 -255 -255 -255 -255 -255 -255 -255
 -255 -255 -255 -255 -255 -255 -255 -255 -255 -255 -255 -255
 -255 -255 -255 -255 -255 -255 -255 -255 -255 -255 -255 -255
 -255 -255 -255 -255 -255 -255 -255 -255 -255 -255 -255 -255
 -255 -255 -255 -255 -255 -255 -255 -255 -255 -255 -255 -255
 -255 -255 -255 -255 -255 -255 -255 -255 -255 -255 -255 -255
 -255 -255 -255 -255 -255 -255 -255 -255 -255 -255 -255 -255
 -255 -255 -255 -255 -255 -255 -255 -255 -255 -255 -255 -255
 -255 -255 -255 -255 -255 -255 -255 -255 -255 -255 -255 -255
 -255 -255 -255 -255 -255 -255 -255 -255 -255 -255 -255 -255
 -255 -255 -255 -255 -255 -255 -255 -255 -255 -255 -255 -255
 -255 -255 -255 -255 -255 -255 -255 -255 -255 -255 -255 -255
 -255 -255 -255 -255 -255 -255 -255 -255 -255 -255 -255 -255
 -255 -255 -255 -255 -255 -255 -255 -255 -255 -255 -255 -255
 -255 -255 -255 -255 -255 -255 -255 -255 -255 -255 -255 -510
