P2
# Written by pgmio::pgmwrite
192 128
255
 92  77  71  66  63  61  57  52  51  50  50  50  50  49  50  50 
 48  47  47  45  36  14   4   9  12  14  20  18  11   6   6  13 
 17  21  24  25  27  28  32  36  39  41  42  45  43  44  42  42 
 40  39  40  40  38  27  21  18  14  13  14  17  22  21  22  21 
 24  28  25  27  29  33  34  37  36  33  36  40  45  46  46  47 
 44  42  44  45  43  42  44  42  41  40  27  20  14  14  12  17 
 21  24  26  23  20  24  26  26  29  27  29  29  26  28  29  27 
 27  32  29  27  26  27  24  23  23  24  21  21  20  17  13  11 
 12  17  19  18  18  25  37  45  47  45  42  38  39  40  41  41 
 38  42  44  45  47  47  48  49  50  50  50  51  52  53  50  52 
 52  52  52  51  48  45  45  42  38  30  19  18  18  17  22  29 
 35  41  46  49  51  50  49  50  51  50  50  50  54  57  58  62 
123 105  94  85  79  74  69  65  63  61  58  59  58  58  57  57 
 56  54  55  52  52  36  11  11  17  15  17  18  14   9  10  13 
 11  18  18  13  13  18  21  26  39  42  45  45  45  46  47  46 
 43  40  40  42  39  26  20  20  18  18  19  24  24  26  24  24 
 29  31  27  26  29  33  37  40  35  39  43  37  37  40  43  47 
 46  44  48  49  48  46  47  47  46  44  40  29  19  18  16  15 
 18  21  23  19  19  19  23  23  26  28  32  31  25  22  22  23 
 26  26  25  29  29  27  23  19  20  20  19  19  19  17  13  15 
 17  28  33  30  31  36  44  45  47  47  45  44  44  46  44  41 
 39  41  45  45  47  48  51  49  51  52  50  52  50  51  52  54 
 52  52  53  50  50  49  49  48  44  41  37  34  25  25  32  34 
 37  45  49  52  54  55  55  56  57  57  58  62  68  72  78  86 
143 125 111 100  94  88  81  77  73  70  68  66  66  63  62  62 
 61  59  59  57  53  51  35  22  27  29  20  13  13  15  10  13 
 12  18  16  16  21  24  29  27  32  43  44  44  46  49  49  47 
 47  47  46  41  35  26  19  15  15  15  24  22  22  32  32  32 
 35  32  32  33  32  35  36  36  39  42  47  47  35  32  36  42 
 47  48  50  51  53  52  51  48  47  48  47  38  32  22  15  19 
 19  19  17  17  21  20  18  20  29  37  38  30  25  21  19  21 
 25  25  23  28  23  23  20  18  20  20  20  19  19  21  20  20 
 24  30  31  36  38  44  48  48  48  48  47  46  42  42  42  37 
 43  42  47  49  49  49  50  50  52  52  52  53  53  52  52  54 
 53  54  52  53  53  52  51  49  48  45  48  46  44  39  36  37 
 40  48  51  55  59  60  60  61  62  63  67  72  80  86  96 106 
157 139 125 115 105  97  92  88  83  78  75  71  70  70  67  65 
 64  62  60  58  56  54  50  42  42  46  39  27  23  31  30  26 
 19  15  15  15  18  21  22  20  24  35  39  42  42  47  50  51 
 52  51  49  44  35  24  17  20  15  17  18  20  26  25  31  34 
 29  29  29  31  32  36  38  36  44  51  51  51  40  32  36  40 
 45  48  48  51  53  55  52  52  52  52  52  48  36  23  16  16 
 14  14  15  17  21  20  17  17  33  35  31  24  28  23  19  22 
 25  24  24  24  24  22  21  21  19  19  19  17  22  22  21  23 
 26  27  33  41  41  45  48  48  50  48  47  47  46  44  44  44 
 44  45  51  52  49  48  47  47  47  50  52  54  54  54  55  55 
 56  55  53  53  54  53  51  50  52  51  50  49  47  46  46  46 
 45  53  57  59  63  63  64  64  68  70  74  79  84  96 105 119 
164 149 138 125 116 107 101  95  90  85  81  79  75  74  73  70 
 69  67  63  62  61  59  57  56  57  54  51  44  30  34  39  39 
 30  29  28  25  21  16  18  20  23  26  34  41  43  46  49  52 
 53  52  52  49  43  31  22  27  33  41  37  28  34  33  29  27 
 27  24  25  27  24  29  35  38  44  51  56  56  48  34  37  38 
 43  47  52  55  55  57  55  47  40  37  37  40  31  23  20  20 
 24  25  20  20  18  20  18  24  28  31  30  31  26  23  23  22 
 23  26  28  26  24  25  25  23  23  23  22  22  24  24  21  18 
 27  29  29  36  37  45  49  49  49  51  46  45  51  52  51  50 
 49  49  51  54  53  51  45  45  45  44  55  56  56  55  57  56 
 57  56  55  54  52  52  51  53  55  55  55  54  52  55  55  51 
 52  55  57  61  64  67  65  63  69  73  78  79  85  97 106 118 
170 159 146 136 125 116 110 102  97  93  89  84  82  79  79  77 
 75  74  69  69  68  67  66  65  65  65  62  59  43  37  42  41 
 36  35  41  31  20  18  19  18  19  27  43  50  50  54  56  56 
 54  53  50  52  49  43  37  37  41  47  44  39  40  39  34  30 
 30  29  29  29  28  30  34  39  44  45  55  55  50  39  46  53 
 49  46  44  41  41  44  30  18  14  18  18  21  25  23  25  23 
 27  25  22  19  22  20  22  25  28  26  27  33  33  27  27  25 
 22  26  27  31  27  27  29  25  26  29  24  27  27  25  26  23 
 27  27  37  37  40  44  47  44  46  49  49  46  49  53  54  54 
 56  51  49  55  53  49  46  51  51  48  54  57  56  58  59  57 
 57  56  52  50  48  51  53  54  57  57  55  57  58  60  60  59 
 58  60  57  64  67  67  66  66  71  75  78  81  91 100 114 130 
178 166 153 143 134 124 116 109 103  98  93  91  87  85  83  82 
 80  79  75  74  73  72  73  72  70  69  67  66  55  47  49  48 
 44  47  57  55  43  31  24  25  28  43  52  54  54  54  58  58 
 57  55  52  49  54  55  51  51  52  49  42  41  41  42  41  39 
 39  42  43  42  43  48  57  49  42  45  54  59  54  57  52  37 
 28  25  25  25  25  20  20  20  21  22  22  23  23  25  25  23 
 23  23  23  23  25  21  25  25  27  30  29  30  31  33  32  27 
 27  25  25  30  32  31  32  31  31  30  24  24  24  29  29  29 
 34  34  36  43  44  39  39  39  39  39  40  40  45  53  57  59 
 60  58  56  56  57  54  53  52  55  55  53  55  58  59  60  60 
 59  55  47  49  51  55  59  60  61  59  58  60  60  60  63  65 
 67  67  64  63  69  69  65  69  75  83  86  95 100 109 122 138 
186 171 161 151 140 131 121 114 106 100  98  94  91  90  86  86 
 84  84  79  79  80  77  76  75  73  72  70  68  67  65  60  58 
 56  57  60  59  58  51  39  30  41  48  50  57  59  56  59  61 
 59  58  54  53  54  58  56  53  56  59  58  56  52  52  47  45 
 48  52  58  58  58  58  61  58  57  55  60  63  61  46  32  24 
 24  26  26  28  28  24  26  24  21  21  24  24  24  28  33  28 
 30  30  26  24  26  27  28  31  30  31  30  30  27  33  36  34 
 31  31  30  31  38  42  40  34  32  35  38  32  30  35  33  37 
 37  40  40  42  42  38  36  36  36  38  38  39  47  53  56  59 
 60  62  62  62  61  61  60  59  59  61  61  55  60  62  64  64 
 62  61  59  59  62  62  64  64  63  63  64  64  62  63  64  67 
 71  73  73  71  77  72  68  70  78  93  99 106 111 119 134 148 
192 178 166 157 145 135 128 121 113 108 104  99  97  93  90  88 
 88  85  83  82  82  79  78  77  77  75  73  72  70  66  65  60 
 59  58  61  62  60  60  55  47  47  47  53  59  60  60  60  63 
 61  60  59  54  56  56  57  59  60  63  64  64  63  64  62  54 
 56  57  62  63  62  63  60  61  62  65  65  51  37  26  30  30 
 26  30  28  26  28  28  28  26  26  25  25  25  27  27  33  30 
 30  30  30  28  26  30  34  34  32  32  32  35  34  36  38  38 
 38  41  34  36  43  43  41  43  41  44  46  40  37  39  37  35 
 35  39  39  36  34  34  34  34  35  34  43  47  50  49  51  56 
 57  57  58  63  65  65  63  64  63  63  64  66  66  65  68  68 
 67  66  67  66  67  67  66  68  66  64  66  65  63  61  57  65 
 74  76  79  80  82  80  74  75  81  99 112 114 122 130 144 158 
195 184 172 161 151 141 133 125 118 112 108 105 100  95  93  91 
 90  88  87  85  83  81  81  80  79  78  76  74  72  67  66  63 
 61  57  60  63  62  60  62  54  50  51  56  59  61  62  61  64 
 65  64  62  58  58  58  59  61  62  65  67  67  68  69  69  67 
 68  69  69  69  69  69  70  69  69  63  43  28  29  32  33  32 
 30  32  31  29  29  28  29  26  26  28  28  31  31  32  33  33 
 33  32  33  32  31  33  33  35  36  35  32  36  39  41  41  43 
 49  47  39  34  37  39  43  43  45  43  42  37  31  33  35  35 
 36  39  41  37  37  37  36  36  32  33  40  42  42  46  49  49 
 47  48  49  53  57  64  69  68  66  66  66  67  67  68  69  69 
 70  71  71  71  70  70  69  69  69  70  71  68  65  59  53  63 
 74  78  79  78  82  83  82  84  91 101 109 119 131 137 147 163 
200 189 177 163 153 141 132 125 121 117 111 106 102  98  95  93 
 90  91  88  87  85  85  83  82  80  80  78  75  73  68  67  67 
 61  63  63  65  63  63  62  62  59  56  57  62  62  63  63  63 
 65  66  66  66  61  60  61  63  66  70  71  71  71  71  72  70 
 71  72  72  72  74  72  67  57  43  30  28  33  31  31  31  28 
 30  33  31  30  30  30  28  28  28  28  28  30  30  35  35  35 
 42  40  35  33  35  35  35  37  35  37  34  37  40  42  43  48 
 51  46  41  41  45  41  41  45  45  47  50  41  40  42  44  40 
 40  41  43  39  41  43  34  37  36  38  40  40  42  44  44  44 
 47  45  45  52  57  60  68  71  70  67  69  69  70  71  71  72 
 73  75  73  76  74  72  72  71  71  72  76  75  75  65  57  68 
 73  77  74  78  83  85  85  91  97 106 110 118 132 148 156 167 
202 193 180 168 157 146 136 127 121 119 111 108 103 101 100  97 
 95  94  92  90  87  86  85  83  82  81  80  78  77  72  67  66 
 66  66  66  67  65  67  66  65  66  61  63  64  64  64  67  64 
 64  65  67  67  62  60  62  67  70  72  73  72  73  73  74  73 
 73  73  73  71  63  43  35  32  30  32  32  32  33  33  33  32 
 32  33  33  33  34  34  30  33  30  33  30  33  34  35  35  35 
 38  43  40  37  37  41  37  35  37  37  35  37  37  44  44  44 
 48  45  44  48  48  47  48  48  47  47  47  47  47  47  47  44 
 40  37  35  38  41  40  37  36  34  33  36  37  36  33  33  37 
 38  41  47  54  57  55  65  70  73  72  71  72  73  74  73  75 
 75  77  76  76  77  76  75  76  75  76  79  81  79  81  79  77 
 78  83  78  81  87  88  89  92 101 113 118 128 141 153 162 169 
202 194 185 172 164 150 140 129 122 120 116 111 107 105 104 104 
101  98  96  93  91  89  87  85  83  83  81  81  78  74  67  61 
 66  65  67  68  66  69  69  68  66  65  63  65  65  68  69  67 
 66  65  66  67  66  65  66  69  73  74  74  74  75  76  75  74 
 77  76  52  35  32  32  34  34  32  32  32  32  34  32  34  35 
 31  35  36  33  31  33  31  31  35  33  33  35  35  35  38  38 
 42  44  44  40  40  39  39  39  39  39  39  39  39  45  46  46 
 48  50  52  52  47  50  56  49  45  49  45  43  42  40  38  37 
 37  40  39  41  44  39  34  34  32  31  31  31  32  35  35  35 
 33  31  37  40  43  53  58  64  67  72  78  74  75  76  76  75 
 77  77  78  80  79  80  79  81  81  81  82  85  87  87  88  87 
 90  83  79  89  90  89  90  91 101 115 125 132 140 156 166 174 
208 197 186 174 165 153 143 135 128 122 117 114 109 109 110 108 
105 102  99  97  94  93  90  88  87  86  83  81  79  75  71  64 
 65  64  63  65  62  60  62  64  67  62  59  59  63  68  67  68 
 67  67  68  67  67  67  71  74  75  75  76  75  76  78  77  77 
 74  54  36  34  33  37  36  34  36  34  34  34  37  37  37  35 
 35  37  37  37  35  33  33  33  33  35  37  38  38  37  40  42 
 46  42  38  40  42  44  40  40  40  42  44  42  44  44  48  52 
 56  58  58  58  54  54  54  52  48  46  46  44  38  35  35  35 
 39  48  46  43  45  47  44  33  34  31  33  34  34  34  37  37 
 37  41  44  37  39  50  55  57  53  57  68  74  80  78  77  79 
 79  80  80  81  81  82  83  86  87  86  86  86  88  91  92  92 
 92  91  91  95  90  94  93  93 100 113 124 132 147 156 170 189 
212 197 188 178 169 158 150 144 135 132 128 119 113 113 113 109 
107 104 101 100  98  95  92  90  90  89  88  83  79  78  76  69 
 69  68  65  63  61  62  60  57  58  57  59  57  60  61  61  62 
 63  63  65  63  69  73  74  77  77  77  77  77  76  77  76  67 
 54  43  38  39  39  36  36  35  36  38  38  39  35  39  37  37 
 39  39  37  39  39  40  37  39  39  39  39  42  48  44  42  47 
 47  44  42  42  42  42  44  40  42  44  44  46  46  48  50  55 
 61  62  58  55  54  52  50  47  48  46  46  45  40  38  38  38 
 48  50  48  48  49  52  47  40  35  36  36  33  38  37  37  39 
 44  53  46  39  43  44  52  55  52  53  52  57  67  77  84  79 
 81  82  82  81  83  84  83  86  87  88  89  89  91  93  95  98 
 98 102 107 108 106 107 107 107 110 118 129 143 155 165 179 196 
208 198 185 176 168 159 149 143 136 131 128 124 119 114 112 110 
108 105 103 102 100  97  95  93  93  92  91  87  83  83  81  79 
 77  77  76  76  67  69  72  63  56  52  52  52  55  56  55  53 
 58  64  69  72  73  78  79  78  79  79  78  77  75  72  62  56 
 51  43  38  40  45  38  38  38  37  38  38  37  39  41  41  39 
 37  41  39  41  42  39  41  39  41  44  44  46  49  51  50  49 
 46  44  44  44  44  44  42  44  44  44  46  46  48  52  50  54 
 62  62  56  52  51  49  50  49  47  44  44  44  37  40  44  42 
 51  52  50  52  57  50  53  49  38  38  38  40  42  42  41  39 
 44  48  48  41  40  45  52  52  49  49  48  48  48  58  79  83 
 83  83  84  83  85  86  87  88  91  90  93  93  95  97  99 100 
104 105 110 112 115 118 121 126 132 134 146 155 162 173 184 195 
198 191 181 170 164 155 146 139 132 128 123 118 113 115 111 109 
109 107 104 102 101  99  97  94  95  94  95  91  87  85  86  84 
 82  81  84  83  77  75  78  75  67  52  47  47  53  53  55  60 
 57  64  67  74  75  77  80  80  78  80  78  76  71  67  64  53 
 47  51  49  45  42  43  42  42  40  40  39  40  43  41  41  41 
 44  43  43  41  41  43  43  41  43  41  44  48  48  48  48  48 
 48  44  43  44  48  48  48  48  48  46  44  46  48  54  53  54 
 58  59  58  53  50  51  49  47  45  43  46  46  42  44  42  44 
 51  56  52  56  61  58  52  50  42  37  40  46  50  49  41  41 
 43  43  47  45  42  45  48  46  48  50  49  51  64  60  63  80 
 85  87  88  85  87  88  89  89  91  92  93  95  96  98 101 103 
106 108 112 115 118 122 125 131 135 142 149 156 166 174 183 192 
196 180 173 163 157 150 146 138 129 122 123 115 108 110 109 109 
107 106 105 103 102  99  97  96  97  95  93  92  90  88  85  84 
 83  80  80  84  82  81  81  82  82  69  66  59  62  59  61  66 
 62  65  71  72  77  79  79  79  79  79  77  71  69  71  70  57 
 51  54  51  47  45  45  44  42  42  42  42  44  42  45  45  45 
 46  45  43  45  46  45  45  45  43  46  46  45  45  46  46  48 
 48  48  46  50  48  48  50  52  50  50  46  48  52  55  54  55 
 55  56  56  55  47  49  53  51  49  51  48  48  48  44  43  46 
 47  53  56  58  63  63  53  49  42  39  41  43  45  49  45  45 
 45  43  43  42  40  41  47  48  48  50  50  52  59  58  54  57 
 66  75  83  90  89  89  90  91  91  93  95  95  97 100 102 104 
107 110 113 117 119 125 128 131 137 143 149 158 164 174 181 191 
195 178 165 157 150 141 134 130 128 124 122 114 107 107 110 109 
106 104 103 102 101  99  98  97  95  95  93  92  91  91  88  84 
 85  82  72  76  81  79  80  83  84  82  81  76  71  66  67  68 
 67  64  70  76  74  71  74  76  74  76  76  71  70  68  70  61 
 48  50  54  47  44  44  44  44  44  44  46  46  46  44  46  46 
 47  43  43  47  45  47  45  45  45  47  50  50  50  47  45  45 
 48  48  50  52  52  48  48  52  52  52  51  51  52  52  55  57 
 54  58  58  56  51  53  57  55  54  50  48  50  50  46  49  49 
 47  52  53  56  60  57  48  48  48  47  48  47  45  47  49  47 
 49  52  52  49  44  42  46  49  46  46  44  44  46  46  47  47 
 51  52  55  75  87  90  92  90  92  92  93  95  98 100 102 104 
108 111 113 117 120 124 128 133 138 144 149 157 163 173 181 190 
192 184 168 155 148 138 131 123 120 122 118 112 102 107 113 108 
105 104  99 100  98  98  96  96  93  88  90  92  91  90  89  87 
 84  81  77  71  74  82  74  79  81  83  85  82  78  70  72  70 
 73  74  70  66  66  69  70  72  69  72  72  66  63  60  59  55 
 50  48  48  45  47  45  44  46  44  44  44  44  46  48  48  48 
 46  48  49  48  46  49  46  47  47  49  49  49  47  47  47  49 
 47  47  49  50  52  53  50  50  50  51  53  53  56  57  57  58 
 53  56  60  60  58  53  50  50  50  47  50  54  54  49  48  51 
 47  51  56  58  59  57  54  50  53  49  52  52  49  51  52  48 
 55  55  51  50  48  50  48  44  47  48  47  43  44  46  46  45 
 49  53  55  56  69  86  89  90  89  91  94  96  99 101 104 106 
109 110 115 118 120 124 128 133 137 142 148 155 162 170 178 187 
187 180 165 152 141 132 127 120 116 116 116 112 108 107 110 103 
100  99  97  95  93  88  86  88  87  81  85  89  91  90  88  87 
 87  83  83  72  69  81  81  78  81  81  83  85  84  80  80  77 
 76  74  70  66  68  71  68  62  67  70  71  67  61  53  49  50 
 47  45  45  45  46  46  45  46  47  46  46  50  48  48  48  50 
 50  51  51  53  50  48  50  50  50  53  53  52  48  48  50  48 
 48  51  51  51  48  53  51  51  48  50  51  53  55  62  62  60 
 59  57  57  58  54  54  50  50  50  50  54  54  59  56  49  48 
 48  50  52  59  63  66  60  57  58  54  49  55  53  50  54  54 
 54  52  46  48  46  49  49  49  47  49  53  49  52  54  50  67 
 75  71  75  84  86  88  92  92  92  93  97 103 104 103 104 106 
109 112 115 118 122 124 128 131 135 140 146 153 158 166 174 183 
187 173 157 145 137 127 120 117 116 117 112 108 102  98 100  98 
 94  89  87  85  80  78  74  79  80  71  73  83  89  91  89  87 
 88  86  81  73  67  76  83  80  80  83  82  81  84  82  82  79 
 78  78  76  73  66  66  68  66  62  62  63  62  58  51  47  48 
 47  47  44  46  47  47  47  51  49  49  51  52  52  51  49  51 
 49  52  53  53  55  52  52  53  53  55  55  50  52  52  50  50 
 49  52  52  52  52  52  53  53  52  52  50  53  56  61  61  60 
 56  59  56  54  56  54  52  51  51  51  51  53  55  53  51  50 
 50  49  50  58  65  70  65  60  61  58  56  59  52  50  51  51 
 54  57  49  47  46  46  51  53  55  51  53  59  58  55  72  86 
 93  91  92  97  98  93  94  96  97  93  85 106 109 102 106 110 
110 114 118 118 121 122 127 130 135 140 145 149 156 166 171 180 
176 164 153 141 129 117 113 107 103 106 108 102  96  91  90  91 
 86  78  76  71  67  64  66  65  64  69  69  72  84  88  87  86 
 86  85  84  79  71  74  78  80  78  77  81  79  77  75  75  76 
 77  77  77  80  77  73  73  73  70  59  53  54  57  53  48  52 
 52  50  50  49  49  50  52  49  49  49  51  49  49  49  51  51 
 50  51  51  54  58  56  54  55  56  55  55  51  51  54  52  54 
 50  50  50  54  55  56  55  56  58  56  58  58  56  58  58  56 
 58  58  53  54  56  54  52  52  49  50  52  55  53  53  51  52 
 52  51  52  55  62  66  66  66  63  63  62  59  53  53  51  53 
 57  60  61  58  48  48  48  50  55  52  52  58  58  58  73  85 
 94  96  97  95  97  94  99  99  98  94  82  93 110 104  86 105 
117 112 117 116 121 122 125 129 132 137 142 148 154 160 166 173 
157 154 146 133 118 113 108 101  96 100  96  92  88  81  82  86 
 84  79  69  66  65  61  60  61  58  60  63  66  73  81  85  87 
 87  87  82  80  72  72  75  76  75  74  72  69  69  64  64  69 
 71  72  76  76  82  87  82  79  76  71  58  54  56  54  51  50 
 47  47  47  49  50  50  50  50  52  51  52  51  54  51  48  51 
 55  55  53  55  58  59  56  55  58  55  55  56  55  56  56  53 
 53  55  53  55  58  58  60  58  56  60  60  58  58  62  62  59 
 59  59  55  55  55  57  57  55  54  54  49  56  58  53  51  54 
 52  52  57  56  55  54  60  67  67  67  69  64  62  55  57  58 
 61  61  61  62  54  50  50  52  59  51  56  61  62  65  80  90 
 94  95  96  94  96  99 100  98 101 106  86  93 105 104  92  87 
113 110 113 115 117 121 122 126 131 136 137 143 147 151 155 160 
148 141 135 124 115 108 103  99  98 101  90  85  82  77  79  84 
 82  78  71  64  65  61  59  59  62  60  55  61  70  83  86  85 
 84  85  80  77  74  74  78  78  73  70  64  59  59  61  59  59 
 66  66  72  76  76  80  83  80  74  76  66  51  52  51  51  48 
 51  51  51  58  62  65  63  60  56  56  58  57  58  60  57  54 
 56  56  57  59  59  56  54  59  57  54  54  57  56  56  56  53 
 54  54  57  57  56  59  61  61  65  64  65  59  59  61  61  57 
 59  57  60  59  56  57  55  53  55  55  55  56  52  55  54  54 
 54  52  51  51  51  53  53  61  71  68  68  68  63  62  60  56 
 58  62  61  66  67  58  55  63  69  72  73  85  90  84  93  96 
 98  98  99 102  97  98  98 101 102 102  87  96 105 103  85  85 
106 106 108 114 117 118 117 122 129 136 137 140 144 148 148 152 
144 139 127 117 111 104  98  98  98  94  84  83  80  77  76  75 
 73  69  65  66  63  60  59  60  61  57  55  55  63  77  87  86 
 82  80  79  75  72  78  78  78  71  64  60  56  53  58  64  66 
 71  71  72  85  80  71  74  72  72  72  60  52  52  52  54  57 
 53  64  68  64  61  65  61  59  61  57  55  57  55  60  62  62 
 62  62  62  62  62  59  59  58  58  58  58  56  58  58  56  56 
 58  58  59  59  61  62  62  65  69  69  70  69  69  66  66  62 
 57  58  58  60  60  60  58  57  58  56  56  59  59  57  58  55 
 56  55  53  56  57  55  55  61  70  72  67  65  66  69  65  64 
 62  62  63  68  71  67  76  91  92  94  94  97 102 102 100  99 
 97  96  97 100  95  94 101 103 103 104  94  96 110 100  81  89 
112 100 105 110 115 114 112 119 126 135 139 141 143 147 148 150 
135 137 133 119 111 100  96  97  91  89  84  80  75  76  78  71 
 67  68  64  62  62  61  63  64  62  61  61  62  62  70  81  84 
 79  77  81  79  76  78  79  79  73  68  62  59  65  69  69  68 
 68  70  78  82  82  79  70  66  67  69  62  54  57  66  69  69 
 62  69  71  59  60  66  59  62  59  59  61  59  59  59  59  61 
 63  61  63  61  61  63  63  62  62  62  62  62  60  64  64  64 
 64  64  64  64  64  64  69  64  68  71  71  71  75  72  71  70 
 63  63  66  63  66  67  67  62  62  62  62  62  62  57  60  59 
 59  57  56  59  60  60  60  65  71  74  73  71  70  73  70  67 
 70  67  69  78  84  90  95  97 100  95  98 100 101 101 100  98 
 97  95  93  97  97  95  95  97 102 104  95  92 100  95  92 102 
112 108 106 108 110 113 116 120 123 129 135 139 144 140 146 154 
139 133 135 127 119 111 112 112 102  94  90  86  82  82  75  70 
 71  69  68  69  66  66  67  69  70  71  69  70  70  71  80  78 
 77  77  76  83  86  83  77  76  77  70  69  74  71  71  71  69 
 70  71  74  74  77  79  74  63  65  70  72  74  74  72  74  75 
 72  74  71  72  72  72  72  71  68  68  67  67  67  67  67  70 
 68  68  70  69  65  70  69  67  70  72  70  69  69  69  69  69 
 69  70  72  69  68  70  72  70  70  76  76  73  76  76  73  70 
 71  67  70  71  71  71  71  69  69  69  66  67  66  61  61  63 
 63  62  62  62  62  66  65  68  72  79  84  81  77  80  78  77 
 81  82  87  94  94  98  99  99 101  99 101 102 102 102  99  97 
 94  94  96  96  96  97  96  96 100 107 103  96  97  99 108 109 
111 115 116 118 116 114 113 118 122 128 133 137 141 145 152 161 
149 132 126 124 126 130 128 125 124 118 108 106  90  82  80  79 
 78  74  76  75  76  74  73  73  73  72  72  73  72  76  79  78 
 77  80  80  82  85  87  81  78  78  77  78  78  80  78  77  80 
 75  70  72  71  71  71  75  71  71  77  79  78  73  68  73  72 
 71  76  73  78  81  78  76  76  76  74  72  72  74  76  79  79 
 76  77  77  77  79  79  79  79  77  77  80  79  79  77  80  80 
 81  75  70  72  75  75  73  73  73  75  77  77  79  79  74  73 
 74  77  76  76  79  77  76  73  73  76  73  70  71  69  66  69 
 68  69  69  67  71  74  71  74  80  83  89  91  91  90  90  88 
 91  94  95  95  97 101 103 104 102 102 102 106 110 108 107 102 
 95  91  89  91  94  97  95  99 109 107 105 106 104 106 105 108 
107 108 107 108 115 120 120 116 118 125 128 135 140 146 151 161 
151 132 121 120 121 120 121 120 118 118 117 114 108  98  91  88 
 86  85  84  82  81  83  83  84  80  79  79  73  72  76  78  79 
 79  79  81  81  81  83  85  89  86  83  86  85  85  86  86  83 
 81  79  81  78  76  76  73  72  76  76  82  79  77  79  76  74 
 76  74  74  80  80  80  82  79  77  77  77  78  83  85  85  84 
 85  85  85  90  93  91  91  91  91  88  85  91  90  95  88  84 
 82  76  74  74  78  78  78  78  81  80  78  80  84  85  87  83 
 83  83  81  84  84  84  85  84  83  84  83  79  77  79  76  76 
 76  75  73  73  71  75  77  77  75  74  80  87  93  94  94  95 
 95  97  97  97  99  99  99  98  98  98  99 104 103 105 105 108 
108 107 102  97 100 102 105 108 104  99 101 101 103 102 102 103 
102 104 107 106 106 108 117 118 112 115 121 126 131 138 146 160 
134 124 120 117 116 117 115 116 113 113 111 109 106 102  99  98 
 95  93  93  89  90  90  90  90  89  85  82  76  74  76  76  76 
 78  76  76  76  82  85  86  93  93  92  92  93  92  92  93  93 
 90  92  92  90  87  86  83  83  83  83  86  84  85  85  86  87 
 85  84  84  87  88  88  88  85  85  87  90  87  88  87  88  90 
 92  94  97 100 101 101  98 100 103 100  99 100 100 100  94  86 
 81  75  75  75  82  85  86  86  89  88  85  86  91  92  91  89 
 86  86  86  88  86  86  84  85  85  88  85  81  78  77  77  73 
 77  77  76  77  78  76  76  73  73  71  71  75  81  82  84  81 
 81  84  87  86  86  88  86  84  84  81  91  98  97  98  98 103 
103 103 105 104  99 102  99  94  93  94  98 103  99 101 100 101 
102 104 103 102 108 107 105 111 114 105 108 115 119 125 132 145 
110 105 106 108 109 110 109 108 107 107 105 103 102 102 103 102 
101  97  95  95  94  95  94  95  95  91  86  82  78  76  77  76 
 79  77  77  74  77  80  84  87  93  97  98  98  97  97  99  99 
 97  99  97  96  94  94  91  90  93  91  95  94  94  94  95  97 
 97  95  94  97 100  97  97  97  94  94  94  94  92  91  95  95 
 95  96  96  99  99  99  99  99  99 102  98  95 100 100  98  98 
 90  82  80  83  86  89  90  89  86  87  90  93  90  85  82  82 
 82  82  82  80  80  79  79  79  82  82  79  78  76  74  74  74 
 75  78  77  77  77  74  77  74  76  76  76  73  78  79  79  77 
 77  75  77  77  79  77  77  76  76  73  79 101 104  98  99 100 
100  97  97  93  90  87  78  79  87  90  94  97 102  98 100 103 
103 100  97  99 103 103  99 103 107  96  89  94  98 104 107 114 
 88  87  88  87  86  85  86  83  83  83  82  82  82  83  83  85 
 85  85  84  83  84  84  85  85  85  86  83  81  76  79  80  79 
 80  80  80  80  81  81  84  85  88  90  93  95  92  92  95  97 
 97  97  95  94  94  91  89  91  91  89  89  89  89  89  91  95 
 96  93  90  91  93  91  90  89  89  89  87  87  87  86  86  86 
 86  88  87  88  89  91  91  92  91  92  91  90  90  91  91  91 
 88  87  86  86  88  88  87  86  84  84  86  86  86  81  78  80 
 78  80  81  81  83  84  82  80  82  80  82  82  79  79  79  81 
 78  78  79  78  78  80  80  80  80  77  77  77  79  76  79  79 
 79  81  81  80  80  78  77  74  74  76  85 100 100  99 101 101 
100  98  96  92  89  81  74  82  86  86  95  96  97  93  92  98 
103  98  94  92  92  96  95  96  95  94  76  76  78  81  83  86 
 62  64  67  65  65  66  68  69  69  69  68  68  69  67  70  71 
 71  72  72  72  73  73  74  74  75  75  75  76  76  76  76  74 
 77  78  78  78  80  82  84  81  82  85  86  86  85  85  85  88 
 91  88  88  89  89  87  86  86  86  85  85  85  85  86  86  86 
 86  86  86  87  86  87  87  86  84  81  84  83  83  83  84  84 
 83  87  87  85  85  87  87  87  87  87  87  88  87  87  85  84 
 82  84  82  82  82  82  84  84  82  81  79  81  81  79  81  82 
 81  81  81  81  81  81  81  81  81  81  81  80  80  82  80  79 
 79  79  79  79  79  79  78  78  78  78  81  81  78  77  79  79 
 79  80  76  78  79  78  77  80  91  98  98 101 102 102 100 101 
 99  97  96  92  89  86  82  89  86  82  78  64  61  79  89  91 
 94  91  87  85  85  86  85  86  88  90  71  64  65  66  65  65 
 47  50  53  53  57  56  60  61  60  61  64  63  65  66  67  67 
 68  69  70  71  72  72  70  73  74  74  75  76  78  79  77  77 
 78  78  78  78  79  79  81  81  83  85  85  83  83  83  82  80 
 83  82  83  83  84  84  84  83  83  83  83  83  81  81  81  83 
 81  84  84  84  84  85  85  81  81  81  81  81  82  82  82  84 
 84  85  85  84  84  85  85  85  85  84  85  85  86  85  82  82 
 82  80  82  83  83  83  83  83  82  82  80  80  80  82  82  80 
 79  82  82  82  82  84  81  81  82  81  81  78  81  78  80  78 
 80  80  80  82  80  79  79  79  79  79  79  79  85  90  96  98 
 95  93  95  93  93  91  91  99 107 105 104 106 104 100  98  99 
100  96  93  90  87  90  90  89  81  77  45  31  39  46  83  85 
 85  82  77  74  70  74  74  70  72  82  61  55  55  53  49  47 
 25  30  36  38  41  43  46  47  48  50  53  54  56  59  63  61 
 63  66  68  69  70  68  69  70  70  70  72  71  75  74  74  74 
 78  78  76  76  79  79  80  79  82  80  80  80  81  80  77  78 
 78  78  77  77  77  79  79  81  79  77  77  77  77  79  81  79 
 81  82  79  82  82  79  78  79  79  79  82  80  82  82  82  85 
 86  86  85  83  83  85  85  85  85  85  86  86  86  85  80  80 
 83  83  80  80  83  83  80  83  80  80  83  83  83  83  83  83 
 83  82  82  82  80  80  82  82  82  82  79  82  81  82  81  79 
 78  81  78  77  78  80  77  80  80  80  85  99 103  98  98 102 
102  96  96 101 104 104 103 106 108 107 105 101  99  98  98  99 
 99  96  94  90  89  93  95  90  78  75  39  34  43  30  67  83 
 78  67  61  60  58  64  65  59  55  67  52  44  43  38  34  30 
  6  13  19  24  30  34  37  39  42  44  47  49  51  53  55  57 
 57  60  60  61  64  63  64  67  68  69  69  70  70  70  72  73 
 73  74  74  74  75  75  75  76  76  76  75  76  77  77  77  77 
 77  77  78  79  78  79  77  78  78  76  78  78  78  76  76  76 
 77  75  75  75  75  75  77  78  79  79  79  79  80  80  80  79 
 80  83  83  83  83  83  83  83  86  84  83  83  83  79  78  79 
 79  81  81  81  81  81  83  84  83  81  83  83  86  84  83  83 
 83  83  83  83  85  83  79  79  80  79  80  80  80  82  82  82 
 82  81  82  81  78  81  81  80  80  83  92  90  89  91  91  89 
 94  94  95  99 105 107 109 109 105 102 102 100  97  97  98  99 
 97  97  92  93  93  91  93  85  70  67  42  28  25  38  68  77 
 77  63  44  41  44  50  54  51  47  59  43  27  28  22  19  11 
 11   2   5   9  16  21  26  31  35  38  41  42  46  49  51  53 
 55  56  59  60  62  63  65  66  67  68  69  70  71  71  72  71 
 69  70  71  73  74  74  76  76  76  75  73  73  70  74  75  75 
 75  75  75  75  77  77  77  77  78  78  77  77  77  76  76  77 
 79  77  79  79  79  77  77  77  79  77  79  79  79  79  79  79 
 79  79  80  80  78  79  80  80  80  79  80  80  80  80  80  80 
 80  81  81  81  82  81  84  81  84  84  84  84  84  84  84  81 
 81  84  80  80  84  80  76  78  79  79  79  79  79  78  78  77 
 78  78  78  78  79  79  81  79  78  81  81  80  88 102 102  99 
100 104 106 107 107 108 106 104 103 102 101 100  96  97  98  99 
 98  95  89  83  90  83  87  80  54  53  59  52  55  74  82  74 
 77  78  58  39  29  33  43  49  50  60  56  25  16  12   5   3 
 26  17   9   3   4   9  15  21  25  29  33  36  39  41  43  47 
 48  52  54  56  59  60  62  63  66  67  67  68  67  68  68  68 
 66  65  66  66  66  67  69  70  72  74  73  73  75  74  74  75 
 75  75  76  76  77  76  76  77  77  76  76  77  78  79  79  79 
 78  79  78  79  79  78  76  78  79  79  80  80  80  81  80  84 
 84  78  80  80  80  80  80  80  80  80  82  80  80  82  80  80 
 80  82  81  81  82  81  81  81  81  81  81  80  81  81  80  80 
 80  82  80  78  77  78  77  78  78  78  78  78  78  76  77  76 
 74  76  75  74  75  76  76  76  77  78  74  70  81 100 104 106 
106 108 109 106 105 105 102 102 100  98  98  96  94  96  94  98 
 97  91  89  78  77  82  81  75  52  43  42  51  57  60  74  82 
 82  84  86  82  66  47  38  41  50  63  66  50   7   0   7  16 
 40  30  24  13   6   1   8  13  18  22  26  27  30  32  37  40 
 41  43  44  45  48  49  51  56  58  62  61  64  65  66  67  68 
 70  72  72  72  73  73  72  74  74  76  75  75  77  78  77  77 
 79  79  79  79  79  79  80  80  79  80  80  80  81  81  81  81 
 80  80  80  81  80  80  80  80  80  80  82  80  80  80  85 102 
107 101  91  80  81  82  81  82  82  82  85  85  82  85  85  82 
 85  87  85  85  85  82  82  85  85  85  85  85  85  81  82  85 
 82  82  85  81  81  82  84  82  82  80  80  80  80  78  78  79 
 81  79  79  79  79  78  78  78  78  78  78  66  78 102 107 109 
108 109 108 108 105 103  98  99  99 100  98  95  92  94  92  97 
 96  91  89  81  74  75  72  69  55  45  43  37  37  54  82  77 
 80  77  73  70  70  71  63  54  50  48  51  47   1  13  18  28 
 51  42  31  22  14   6   0   6  12  17  23  28  32  35  37  39 
 42  45  48  50  52  56  56  59  62  64  67  68  70  71  70  72 
 73  74  73  74  73  76  77  77  76  76  75  75  77  77  79  79 
 79  79  78  79  80  80  78  80  80  80  82  82  82  82  80  85 
 84  80  80  80  80  80  84  84  82  80  82  85  85  82  90 106 
104 107 112 106  82  81  82  81  82  85  85  83  85  85  83  85 
 83  83  81  83  81  81  81  81  83  85  88  86  88  83  83  85 
 83  83  83  81  81  81  81  81  82  82  85  84  84  84  84  84 
 84  81  81  84  81  79  83  83  80  83  82  77  84 109 111 111 
109 109 109 106 105 105 100  99  98  99  97  92  92 100  95  90 
 92  97  96  83  76  71  70  64  54  48  44  41  47  66  67  48 
 42  56  56  50  46  39  36  34  32  32  36  28  12  20  30  40 
 70  59  48  37  26  18  11   2   4  10  15  20  24  29  32  37 
 42  47  50  53  55  57  61  63  67  69  70  69  73  70  71  72 
 75  75  76  77  80  77  77  78  79  82  80  83  79  81  80  80 
 80  80  80  80  80  82  82  81  84  82  84  82  82  85  85  82 
 82  87  82  87  87  85  81  85  87  85  85  85  85  85  92  98 
 98 102 102 108 111  89  85  86  83  83  81  82  82  80  81  82 
 82  79  79  80  79  80  80  81  82  83  83  86  86  83  86  83 
 86  86  83  83  83  85  81  83  83  85  85  81  82  81  85  84 
 84  84  84  82  81  81  81  80  81  81  80  85  96 108 112 112 
110 110 108 107 104 101 101  98  94  92  91  91  84  83  86  82 
 84  89  87  83  77  69  68  60  53  43  39  39  41  52  52  45 
 43  30  25  22  24  28  34  26  14  17  19   6  26  32  42  54 
 82  70  57  48  39  29  23  14   6   2   8  17  20  26  33  36 
 41  44  48  50  55  57  59  60  62  64  66  67  68  70  71  72 
 73  74  76  77  78  78  79  77  76  75  79  81  79  80  80  80 
 80  79  79  81  81  81  79  79  81  81  81  81  85  85  85  85 
 85  83  89 108 111 112 103  81  81  86  86  86  88  88  89  92 
 94  97 101 102 111 114  86  82  81  79  80  81  81  86  86  80 
 82  82  82  83  82  84  83  84  86  86  84  82  82  82  80  82 
 82  83  83  86  86  83  86  86  86  86  85  83  85  85  85  81 
 81  79  80  91  93  93  91  91  87  84  86  90  98 110 116 112 
109 108 106 106 103 102  98  93  88  88  87  93  92  87  85  82 
 79  82  82  80  73  66  67  61  46  42  40  38  36  42  44  43 
 40  38  33  17   5   1   0   4   8   4  18  21  28  42  53  66 
 81  71  59  51  41  33  20  13   6   2  10  16  20  27  34  36 
 40  42  47  50  53  55  58  60  61  64  69  70  72  73  74  76 
 77  78  78  77  80  78  79  79  75  74  75  75  79  80  82  82 
 81  81  81  82  82  83  81  81  83  81  83  83  83  83  81  81 
 81  82 104 105 106 110 122 108  81  81  81  80  80  80  81  88 
 96  98  95 102 102 110 105  80  82  83  80  80  82  92 115 102 
 90  82  87  87  86  82  82  86  84  82  84  81  79  79  79  81 
 81  81  79  82  82  79  79  82  80  80  82  83  86  83  83  83 
 83  97 105 106 104 103 108 105 103 101 100 102 111 115 112 110 
109 106 103 103 101  99  90  87  87  85  85  98  96  93  88  84 
 81  75  74  74  73  62  58  61  54  41  39  37  36  38  37  34 
 24  19  19  17   7   5  14  20  15  12  29  27  31  41  51  63 
 87  74  61  50  40  31  23  16   4   1   7  15  21  26  28  33 
 37  41  43  46  51  56  59  62  64  66  68  67  69  69  72  73 
 73  73  74  74  73  74  76  76  75  74  75  77  77  80  82  82 
 85  82  83  83  85  81  82  85  83  83  86  86  86  86  86  88 
 86  89  98  96 101  96 105 119 102  80  82  82  82  82  77  83 
 98  99  95  95 102  99 107  92  82  86  84  84  84  90  96 107 
116  96  83  86  84  87  83  84  87  87  84  83  83  83  82  81 
 81  81  81  81  79  79  79  78  79  81  81  80  82  80  79  82 
111 118 101  91  92  91  98 100  97 104 109 114 114 112 112 109 
109 109 104  95  94  91  87  86  86  87  86  86  85  83  79  84 
 80  73  72  65  65  62  54  53  55  40  35  36  34  32  27  24 
 19  16   7   1   2   9  14  18  17  23  29  37  44  60  69  78 
 96  84  71  60  49  41  31  23  14   9   4   2   6  11  14  19 
 25  30  34  35  37  42  46  49  52  54  60  58  62  64  67  69 
 69  70  71  71  72  74  74  75  77  77  81  80  80  81  81  81 
 81  81  80  81  82  82  82  83  83  83  83  86  83  83  83  83 
 82  86  89  92  93  92  96 106 121  95  80  82  82  82  73  80 
 89  93  92  90  95  98 103 102  82  79  83  82  81  89  94  97 
100 113  87  82  84  84  83  83  84  84  83  83  81  81  80  81 
 83  81  80  78  80  80  78  78  78  76  78  78  75  75  73  86 
 96  92  91  89  98 102 105  99 105 110 112 117 113 110 109 109 
108 106 101  92  88  88  89  88  87  92  88  86  84  82  78  81 
 77  73  68  62  58  56  52  49  41  43  49  41  32  30  25  22 
 17  13   9   5   3   1   6  10  17  24  36  47  53  63  78  85 
 99  88  75  64  54  44  37  28  23  14   8   2   6  12  17  21 
 27  30  35  35  41  45  45  48  51  53  58  60  59  63  62  63 
 65  66  70  71  73  74  74  76  78  79  80  80  80  82  81  83 
 81  85  83  83  83  83  86  84  84  84  82  82  81  79  78  75 
 79  87  86  90  90  86  90  96 110 109  94  82  82  82  75  78 
 87  92  90  87  92  96 100 102  94  83  82  81  83  87  90  94 
 99 106 111  84  87  84  83  83  83  83  81  80  76  74  74  76 
 83  81  80  79  76  79  79  80  80  80  80  80  81  81  80  84 
 83  81  86  92  95  96 104 104 108 111 112 112 109 109 108 107 
106  97  93  90  85  88  88  88  90  93  93  86  85  84  82  73 
 70  62  60  55  55  54  49  45  40  45  50  47  39  31  23  19 
 17  20  19  10   4   1   7  10  17  24  32  41  54  57  68  84 
104  94  82  72  61  50  42  34  26  18  11   5   2   9  14  18 
 24  32  36  39  44  48  51  54  56  59  61  62  65  67  69  72 
 72  73  74  75  74  77  78  80  79  81  81  82  82  82  83  83 
 83  82  82  80  79  78  75  75  73  75  81  78  79  78  76  79 
 82  83  82  82  84  82  86  96  98 100 108 109 100  83  73  73 
 75  83  87  83  87  93 100 100  96  92  87  81  83  81  83  89 
 94  99 112  96  74  80  79  80  82  80  80  76  79  80  80  82 
 82  83  83  82  82  80  80  80  79  79  79  76  76  78  80  81 
 83  84  87  87  90  96 104 110 111 112 111 109 108 105 104 100 
 96  94  90  92  90  90  88  88  97  92  89  88  87  83  79  71 
 63  57  53  54  50  50  46  46  49  49  43  44  44  36  26  21 
 15  13  13  10   1   4  11  19  25  27  32  38  50  61  71  81 
109  98  87  76  65  55  45  36  27  20  12   5   2   9  14  20 
 25  30  34  39  43  48  51  53  55  58  60  62  66  67  68  71 
 75  77  78  76  80  78  82  82  83  83  84  80  82  81  81  83 
 82  80  82  79  82  86  87  92  92  84  81  80  80  82  76  76 
 81  81  80  78  81  80  81  90  96  96  99  96  93  84  75  72 
 71  75  78  80  82  84  92  94  92  90  90  83  80  79  83  87 
 93 100 108 111  83  83  83  83  83  83  83  83  84  84  83  83 
 83  82  82  82  82  82  83  82  80  82  80  80  80  76  76  79 
 93  93  83  84  97 106 108 110 112 111 108 107 105 102 101  98 
 94  93  93  94  93  88  90  91  89  91  90  86  84  84  74  64 
 58  55  49  47  45  54  55  53  52  45  40  36  32  30  24  13 
  8   7   2   4   8  11  11  12  25  37  45  51  59  73  77  87 
120 107  96  86  74  63  53  44  36  28  20  11   6   2   8  16 
 21  25  31  34  38  43  46  48  51  55  57  60  62  64  68  68 
 68  69  73  75  75  76  77  78  79  81  80  80  81  81  82  82 
 82  82  81  84 105 109 111 113 119 117 100  84  81  80  87  90 
 81  78  76  76  78  80  74  81  90  90  93  87  84  83  80  74 
 71  67  71  74  76  76  84  93  93  89  87  81  76  76  82  87 
 91 101 107 110 101  79  83  82  80  80  81  81  83  82  83  82 
 82  81  81  82  81  81  81  81  79  76  76  79  77  77  77  74 
 95  91  82  93 104 107 111 111 111 110 109 107 106 105 101  99 
 97  94  95  97  91  93  92  91  92  93  89  87  78  73  69  60 
 54  54  52  49  47  51  45  46  39  40  37  36  30  26  25  22 
 16   8   1   6  12  19  29  33  34  38  49  60  68  78  88  98 
127 115 103  90  79  67  58  48  38  31  24  16   9   2   4  10 
 16  21  27  31  36  40  42  47  52  56  63  79  79  83  82  69 
 69  70  70  73  73  75  78  78  79  78  76  77  76  78  77  75 
 75  78  75  92 106 105  99  93  99  99 113 105  91  97 107  91 
 76  80  79  74  71  74  78  74  84  90  87  83  83  80  80  78 
 72  71  71  74  76  80  79  87  93  87  83  79  74  74  79  83 
 90  95  98  99 107  90  81  83  82  82  81  82  82  84  82  81 
 79  79  77  77  81  82  84  82  81  79  81  81  81  79  84  88 
 88  88  93  98 104 107 108 108 109 109 103 106 105  98  96  95 
 94  94  94  95  96  99  93  92  92  93  87  82  75  67  61  57 
 54  50  51  53  52  47  45  44  40  35  31  32  25  18  12   8 
  1   2   6  12  21  24  29  42  48  49  47  57  68  78  89 100 
131 117 105  93  83  70  60  50  42  32  23  17   9   4   4   9 
 14  19  24  32  36  39  44  49  49  52  71  80  69  69  68  67 
 70  72  73  73  76  73  70  75  74  72  73  69  74  74  70  70 
 75  75  76  90  90  90  90  87  83  87  96  83  87  87  87  79 
 74  80  76  72  71  72  79  76  80  87  87  87  89  87  79  72 
 69  74  81  81  80  83  87  87  91  85  80  79  76  73  76  82 
 90  95  93  93  97 103  82  79  81  77  77  79  81  81  82  82 
 81  77  77  77  75  75  77  77  80  81  77  77  84  88  94  88 
 88  94  97 103 107 107 107 107 107 105  99 100 102  94  92  92 
 93  93  91  91  94  93  92  92  89  87  83  75  67  63  58  53 
 51  53  56  56  54  51  49  44  41  34  33  32  29  26  16   8 
  6   4   0  10  21  28  27  28  39  50  61  71  76  90  99 108 
140 126 113 101  90  79  68  58  49  38  28  21  12   6   1   8 
 14  21  25  30  36  40  41  43  51  56  54  51  55  57  58  61 
 61  70  79  74  66  66  65  67  72  69  69  65  65  67  71  70 
 67  67  71  90  87  87  87  85  83  87  85  83  83  76  79  76 
 71  76  76  74  74  76  80  80  81  87  90  90  93  87  83  79 
 79  80  91  94  93  90  93  91  87  83  80  76  79  80  80  82 
 85  90  91  90  88  98  94  65  62  64  62  64  64  65  65  69 
 69  66  65  65  68  68  68  70  65  69  84  92  97  94  86  89 
 97  97 101 106 108 106 103 106 104  97  96  97  97  99  92  94 
 92  88  86  92  90  90  93  89  83  79  76  65  59  60  57  56 
 56  59  59  55  50  46  49  48  45  42  38  35  31  23  22  16 
  8   3   6  12  15  22  33  36  40  47  62  75  89  98 111 122 
143 130 120 107  92  81  71  59  51  43  33  23  15   6   1   6 
 12  19  25  28  36  41  40  40  46  49  50  55  57  57  59  65 
 63  68  71  70  68  69  70  71  72  72  73  76  74  74  75  71 
 75  74  78  89  81  80  82  80  82  79  83  83  80  76  76  76 
 73  76  80  83  90  94  94  95  96  96  96 100  97  96  96  94 
 97 103 110 112 112 107 104 101  94  90  87  82  84  88  83  85 
 88  90  88  85  85  88  98  94  66  70  72  72  70  70  72  69 
 70  73  69  68  71  73  73  66  83 102 104  94  89  86  94  99 
 98 102 107 105 105 104 104 101 100  95  95  98  95  93  90  97 
 95  86  86  89  91  94  90  89  85  73  68  61  68  60  66  68 
 63  66  63  60  55  53  50  47  41  37  38  32  30  22   9   3 
  0   4  16  21  23  26  33  44  55  58  66  78  86  95 104 113 
150 137 123 112  98  85  77  66  58  49  37  24  18  12   6   1 
  5  11  16  19  23  26  33  39  43  46  51  54  58  62  61  65 
 65  67  62  62  66  72  74  78  74  75  77  78  78  77  79  78 
 79  78  83  87  79  76  76  82  82  83  84  82  80  79  80  85 
 85  88  95  99 107 108 106 106 108 107 103 107 107 110 108 107 
110 111 112 114 113 110 108 110 107 110 110 109 107 107 104 106 
104  98  97  94  88  88  90 106  86  77  84  81  83  83  81  83 
 81  80  78  76  71  69  69  86 104  92  89  89  89  95 101 101 
 99 105 110 104 100  96  97 100 100  97  90  94  97  95  97 100 
102  96  92  89  85  85  90  81  96  88  70  80  70  67  82  82 
 92  68  57  57  57  52  50  49  44  36  37  28  24  21  19  10 
  1   5  11  18  23  31  35  49  60  66  76  83  93 100 111 120 
158 146 130 117 107  95  81  67  58  50  39  30  23  14   7   1 
  5  13  19  20  25  30  36  40  44  47  48  51  53  56  58  52 
 53  52  49  51  52  67  85  88  90  86  80  76  81  86  80  79 
 81  80  87  90  79  76  80  80  83  84  88  88  91  95  98  99 
103 104 106 106 109 107 107 111 111 108 110 110 110 112 107 111 
113 112 114 110 108 111 111 108 113 113 117 115 111 111 109 112 
112 109 104 103 100  98  98  97  98  88  88  86  88  94  92  89 
 89  89  89  89  86  85  89  98  91  94  99  98  96  99  98  98 
104 107 105  99  95  96  98  99  99  92  94  94  95  97  95  96 
 96  93 103  98  91  98  98  99 103  88  81  83  64  84 100  88 
 98  93  61  55  54  52  49  44  41  39  36  36  21  16  16  17 
  8   0  12  20  19  21  28  37  52  66  71  85  99 108 113 128 
167 152 139 126 111  99  91  78  66  56  46  34  24  20   9   0 
  4   7  13  21  26  28  33  35  34  36  38  42  44  44  49  49 
 49  47  49  50  51  64 103 106 108 108 102  92 101 105  95  89 
 80  76  89  90  79  76  79  82  84  88  94 106 107 107 104 109 
109 109 111 107 106 107 114 112 107 110 112 110 106 104 104 112 
110 111 110 110 111 113 110 110 111 109 109 109 109 109 110 109 
106 104 106 106 104 103 104  97 106 104  98  91  95  96  95  99 
 89  85  89  85  89  92  86  95  98  89  95  89  95  97  98  98 
 99 101  99 102  99 102 101  98  96  91  92  96  94  94  90  95 
 93  84  94 102  93  85 104 120 116 102 116 103 102 108 100  90 
 90  94  79  62  54  51  49  46  41  37  33  29  23  15   8   7 
  6   2   4  16  26  29  34  38  44  60  77  87  98 110 123 136 
175 160 144 128 122 112  95  84  78  69  60  53  45  37  28  19 
 12   5   3  10  15  16  20  25  29  32  38  41  46  47  46  46 
 44  47  48  50  51  54  81  95  99 104 104 103 102 101  95  86 
 67  63  85  83  76  74  79  84  88  95 101 103 109 110 103 106 
107 112 110 107 110 111 111 109 111 110 108 108 101 103 112 110 
107 111 111 112 110 110 110 108 104 107 106 104 107 109 107 106 
103 103 103 104 101 104 101  98 104 115 112  96  92  99  95  96 
 99  99  99  92  95  91  93  95  96 101 103  97  96  98 101  97 
 96 101  98  98 105 107 103 112 109 101  98 104 102 113 114 109 
109 116 114 111 114 106 117 127 122 117 113 118 120 118 111 103 
 93  82  72  63  58  51  48  45  42  38  35  30  26  21  16  14 
  7   2   6  16  23  28  33  42  58  71  86  96 104 116 126 136 
183 168 153 137 123 115 103  90  79  70  63  53  42  36  28  18 
  9   1   3   9  16  24  26  28  32  34  37  38  41  41  42  43 
 47  50  51  53  53  53  54  62  68  72  77  80  81  79  75  75 
 75  87  87  74  74  79  83  90  95  98 104 106 103 106 101 106 
109 104 104 107 109 104 107 106 106 106 107 107 106 106 107 107 
106 106 108 108 108 108 103 103  98  98 103 103 104 106 101 100 
 98 106 106 103 104 108 109 108 109 109 100  94  86  89  95 101 
102  95  96  95  93  98  97  84  93  99 108 105 106  96  90  90 
 90  90  95  93  99 101 109 112 107 103 109 110 113 117 120 120 
113 110 112 115 118 115 113 119 120 102  97  91  93  98  86  78 
 66  63  58  56  56  53  48  47  44  38  34  32  21  15  14   9 
  7   3  11  20  27  35  44  51  54  65  76  87 101 116 129 140 
183 166 151 137 125 114 105  94  78  66  62  53  42  34  26  16 
  9   1   7  11  12  16  18  21  24  27  34  37  38  42  45  50 
 52  54  53  57  60  60  63  62  62  65  71  69  70  79  90  98 
100  93  76  80  87  88  88  93  97  97 101 103  98  97 101 100 
 95  98 101 100  97  98 101  95  94 104 103 103  98  99  99  98 
101  99  99 101 101 101  97  97  97  94  95  97 100 100  98  98 
104 112 108 100 115 113 112 108 108 102  96  85  82  85  83  82 
 82  81  82  85  89  95  87  86  87  90  90  93  92  87  86  90 
 86  90  90  96  93  86  93 100  96  90  85  82  89  92  94  94 
 88  84  85  87  84  79  79  87  87  77  69  68  72  60  52  52 
 53  56  51  55  53  53  50  44  40  37  37  32  28  21  13   6 
  1   1   9  19  23  33  40  51  59  67  77  89 105 117 129 144 
187 170 155 143 129 116 101  89  80  67  57  51  41  29  18  10 
  6   6   2   2   7  13  17  24  31  36  41  48  49  49  51  54 
 56  58  60  61  63  68  70  71  74  84  80  85  91  99 103  96 
 87  83  83  88  91  90  90  91  94  94  94  94  94  94  93  94 
 93  91  93  93  93  94  91  94  98  99  95  97  93  91  91  88 
 88  91  95  95  94  94  94  94  93  94  97 101 109 106 101 110 
114 114 112 105 104 105  97 107  99  98  86  83  80  83  83  83 
 85  85  84  81  81  82  86  90  90  87  87  86  86  84  86  86 
 86  90  90  90  90  87  86  90  93  90  86  81  82  74  74  80 
 77  73  72  71  71  68  66  62  61  63  62  61  66  63  59  57 
 51  53  50  51  48  45  45  44  36  33  32  28  21  17  12   6 
  4   1   8  21  31  35  44  53  61  70  83  91 104 120 132 145 
189 170 155 144 128 117 108  94  80  69  59  53  41  30  22  14 
  7   0   1  10  18  21  28  32  37  41  44  48  50  53  56  58 
 60  62  67  68  74  83  81  84  98 103 102 104 102 102  98  93 
 87  87  91  88  88  90  90  88  88  88  88  90  90  94  94  90 
 88  85  84  88  88  98 104 110 113 101  98 103  99  98  98  99 
 95  93  90  93  95  98  98  97  97 104  95 101 109  98 101 103 
 94  94  97  94  92  91  84  84  84  84  78  80  82  83  82  82 
 85  84  84  82  82  84  85  85  84  83  81  83  84  84  84  84 
 86  85  83  83  83  90  90  90  90  87  90  92  89  85  91  91 
 85  80  73  74  74  71  68  65  62  61  58  58  57  59  61  60 
 53  48  49  47  44  41  38  35  33  27  25  23  17   8   3   0 
  2   8  13  19  35  44  46  54  65  72  83  96 110 121 136 147 
195 179 161 143 130 118 105  97  83  72  61  51  41  30  20  13 
  8   1   9  11  19  22  30  34  36  40  44  47  48  53  59  62 
 67  73  75  77  80  77  76  77  88  87  87  87  92  93  86  82 
 81  83  83  84  83  84  84  84  84  84  77  86  84  84  84  84 
 81  77  79  77  79  83  88  81  79  83  94  91 101 101 101 107 
101  98  88  87  87  85  85  88  85  88  85  84  84  84  82  82 
 82  81  84  84  84  80  80  83  83  83  83  85  85  85  85  85 
 85  84  84  82  81  79  81  79  79  79  83  83  85  83  83  83 
 85  83  83  86  86  88  86  85  85  83  83  81  79  79  78  81 
 82  80  81  79  76  72  70  65  61  61  59  58  57  59  57  55 
 54  51  49  44  41  38  34  32  30  28  27  22  21  18   8   2 
  3  10  17  27  33  42  51  61  71  82  91 101 115 127 137 150 
206 186 168 150 135 123 108  95  85  71  61  47  39  30  20  12 
  3   0   8  13  18  21  26  31  38  42  48  49  55  56  59  58 
 67  75  71  71  71  71  76  76  75  72  77  74  72  74  73  75 
 76  76  74  76  75  75  75  75  77  75  75  77  77  75  75  77 
 73  75  75  77  73  72  70  72  70  72  68  68  73  76  77  77 
 79  77  79  77  79  77  77  79  82  82  82  83  82  82  84  84 
 84  84  83  84  83  86  85  84  83  84  83  83  85  85  85  84 
 85  87  86  84  84  84  84  84  84  82  82  83  83  83  82  82 
 83  83  84  84  84  84  85  82  82  83  82  79  81  78  78  76 
 74  73  70  70  72  69  71  69  65  64  66  66  65  60  59  55 
 57  56  55  53  48  44  41  39  37  32  28  25  18  13   7   1 
  8  13  18  27  37  44  53  63  74  85  96 108 120 133 147 164 
202 184 168 150 137 122 109  96  80  69  60  49  40  33  24  16 
  7   0   5  13  20  24  30  36  39  46  48  50  53  56  60  63 
 60  62  63  69  69  70  72  70  74  76  75  74  74  75  75  78 
 76  76  74  76  75  73  75  77  75  75  77  75  73  73  73  75 
 73  70  66  68  68  68  68  68  65  70  72  68  68  73  80  83 
 79  80  80  82  82  81  81  81  79  82  83  84  85  84  82  84 
 82  82  84  83  83  78  78  77  77  78  74  78  78  74  73  71 
 72  74  75  78  77  81  79  79  77  77  77  76  73  76  73  76 
 78  79  82  80  80  84  85  84  79  79  77  77  79  79  79  79 
 78  76  72  72  71  69  67  67  69  70  67  68  68  65  66  66 
 66  64  60  54  52  49  45  42  38  34  32  27  19  14   8   1 
  5  13  22  28  37  46  56  65  76  91 101 113 124 141 158 171 
210 188 173 159 141 126 111  98  90  78  67  56  44  32  26  15 
  8   0   7  14  21  25  30  35  41  45  49  52  51  52  57  60 
 63  61  67  65  66  72  73  70  74  76  77  77  77  77  79  79 
 78  79  79  76  79  79  79  77  77  77  77  77  75  75  75  75 
 77  77  72  70  73  77  76  75  73  70  76  79  81  79  77  75 
 76  77  77  79  79  81  81  82  83  83  84  84  84  84  84  84 
 82  81  81  80  84  83  78  76  78  78  78  78  78  78  75  76 
 77  77  78  79  79  77  79  79  77  77  82  84  82  84  82  80 
 84  82  82  85  87  85  85  87  87  87  87  82  82  79  75  72 
 71  74  74  72  69  69  68  67  69  69  69  68  69  70  69  64 
 61  59  57  54  52  49  48  42  38  36  31  24  19  15   9   3 
  4  14  19  30  39  48  57  68  79  87  99 115 130 142 156 170 
225 204 185 166 148 136 122 108  94  82  72  58  50  42  33  23 
 13   2   6  11  16  22  28  32  33  36  38  40  48  51  54  57 
 59  64  65  67  69  68  69  70  67  72  75  80  81  82  82  82 
 83  83  83  84  83  82  82  82  82  80  81  81  82  82  81  81 
 81  77  77  81  77  77  75  75  77  77  76  76  81  84  79  77 
 75  76  76  73  76  75  76  82  85  88  88  85  84  84  84  84 
 84  83  83  81  81  85  86  85  86  83  83  81  81  84  85  84 
 81  83  86  81  83  79  79  82  83  83  84  86  88  88  91  88 
 87  87  87  84  83  84  80  83  87  85  85  84  73  72  71  68 
 65  67  69  72  75  71  71  72  74  73  71  73  69  70  68  64 
 65  63  59  54  54  51  47  41  41  38  31  26  18  12   8   2 
  8  13  23  31  38  47  57  67  78  93 105 118 132 146 158 175 
226 207 188 169 153 139 124 113  97  85  74  63  53  40  31  22 
 12   7   0   9  15  18  24  29  33  33  36  38  41  47  52  56 
 61  63  67  68  69  70  65  63  67  70  72  79  78  81  83  86 
 87  87  88  88  88  88  88  85  85  84  86  84  84  82  84  82 
 84  82  77  73  75  75  72  72  75  79  81  77  76  77  79  79 
 79  79  82  82  81  77  81  76  75  81  79  81  81  81  77  84 
 84  81  83  81  85  85  89  86  89  89  85  84  84  85  85  86 
 87  86  92  90  86  90  90  88  91  91  91  97  97 103 103  95 
 94  92  87  87  89  87  86  80  80  83  78  73  73  70  68  71 
 72  70  69  70  72  72  73  74  76  76  77  74  71  70  68  64 
 64  59  59  54  53  52  47  43  37  35  30  22  15   9   5   2 
  6  14  22  30  39  49  59  68  79  95 107 118 132 149 167 183 
229 208 192 176 160 144 130 119 104  90  77  68  59  46  36  25 
 17   8   1   8  14  20  26  28  33  37  37  41  43  46  47  49 
 55  57  58  57  58  62  62  65  75  79  78  80  85  83  86  89 
 90  93  95  95  93  88  88  88  88  86  88  88  88  84  86  86 
 84  85  85  84  81  81  82  81  81  81  81  81  82  81  81  79 
 81  83  83  83  85  85  83  85  82  84  84  84  82  84  81  84 
 84  84  84  83  88  86  89  86  89  92  92  95  96  95  93  96 
 95  95  99  99  97  97  93  93  98  98 101  98 100 111 108 101 
103 103  95  95  95  89  92  91  86  78  78  75  73  73  71  71 
 74  75  74  73  68  67  68  71  69  68  69  70  71  72  72  67 
 65  61  56  56  53  50  46  40  36  32  29  24  16  10   4   3 
 10  18  26  32  41  53  61  72  85  97 108 123 138 153 169 186 
230 211 192 175 157 144 128 114 102  88  80  69  56  47  40  29 
 23  17  10   4   4  10  15  20  27  29  33  36  39  42  46  51 
 51  52  54  55  57  62  71  75  76  83  83  82  85  86  86  90 
 94  96  97  96  95  93  88  88  88  84  88  88  88  86  88  84 
 82  84  84  85  88  90  93  88  88  91  95  93  88  84  88  88 
 84  83  85  88  88  88  83  85  90  94  95  97  91  91  92  88 
 89  89  91  86  89  91  91  96  95  96  98  97  98  97  99 102 
102 103 102 104  99  98  98  97  97 103 109 114 109 107 111 112 
113 102 102  98  95  97  95  88  87  76  72  72  72  73  75  72 
 72  70  71  73  72  71  73  74  73  71  68  66  64  65  65  63 
 61  58  56  51  48  47  46  40  36  31  26  23  18  13   8   1 
  9  16  27  38  47  57  67  76  87 100 113 126 141 156 172 189 
227 209 191 175 159 146 129 115 103  91  79  68  60  48  42  34 
 26  18  11   3   4   9  18  25  27  31  35  37  40  43  45  49 
 56  60  65  64  69  76  80  83  87  88  86  86  87  91  89  89 
 93  96 103  95  97 100  98  94  91  94  94  94  91  92  90  88 
 88  88  85  88  88  93  94  93  97  97  98  98 100  93  94  95 
 90  90  90  90  93  90  88  88  93  97  94  98  94  95  97  98 
100  98 100  99 100  92  95  99 101  96 109 103 103 101  95  99 
108 111 111 109 107 106 104 101  96 109 100 103 112 103 107 111 
111 113 113 104 104 101  97  97  87  76  72  72  72  72  71  75 
 72  70  73  73  73  74  75  75  76  77  71  70  67  62  61  61 
 56  54  51  48  43  45  43  35  31  27  25  20  14   8   2   1 
 12  20  29  39  49  58  69  78  90 102 115 129 143 158 171 190 
228 212 196 176 160 145 131 117 106  92  80  71  59  51  40  31 
 23  15   7   0   6  12  18  24  29  33  36  39  42  45  46  47 
 51  53  55  57  69  75  82  88  88  90  92  94  97  97  92  92 
 98  99 102  96 104 106 100 103 103 100 100 100 100 101 100  95 
 95  97  95 100  97  98  98 101  98 100 101 104 106 101  99  99 
 98  99  98  98 100  93  95  97  94 100  95  97  97  97 104 101 
105 105 105 107 107 105 111 105 107 106 112 103 100 109 109 103 
106 111 114 116 112 109 107 104 100 100  98 100 102 111 103 114 
113 111 110 108 114 107  88  92  85  74  74  73  73  73  73  72 
 75  77  78  76  77  74  72  74  73  73  71  70  69  69  65  63 
 61  58  54  51  46  43  42  37  31  26  21  19  13   7   1   8 
 14  23  32  39  48  58  69  80  92 104 117 131 145 160 176 192 
231 213 196 177 163 148 134 118 105  92  81  69  60  50  41  32 
 23  16   9   1   6  13  19  24  29  33  37  41  44  46  49  50 
 49  51  53  62  80  84  88  96  90  96  99  96 101 101  99 104 
102  97 103 101 106 109 106 106 106 106 104 104 106 103 101 101 
 97 100 101 101 107 103 106 107 103 101 109 113 109 106 107 101 
101  99 101 100 106 106 106 104 101 103  95  97 103  98 100 105 
102 107 111 107 101 104 101 110 107 106 112 113 106 111 111 108 
110 106 115 122 112 113 106 104 107 107 109 111 111 108 107 104 
111 114 116 105 102  98  86  79  74  74  74  74  73  73  75  73 
 79  79  78  78  77  76  75  74  73  71  69  66  66  65  65  63 
 61  58  56  53  49  46  42  38  32  25  20  17  11   7   0   7 
 15  23  31  40  49  59  70  81  93 106 119 132 147 163 178 195 
230 214 197 180 164 149 133 119 105  93  81  71  60  50  40  32 
 23  15   6   1   5  13  18  23  28  31  35  39  42  47  52  53 
 57  56  58  77  88  87  95 100  98  98  96 100 103 101 101 102 
105 103 108 103 103 106 109 112 103 107 109 108 104 106 104 104 
100 103 104 101 106 104 109 106 101 106 111 114 103 107 109 111 
106 106 103  99 103 106 110 107 110 109 103 109 108 106 111 112 
112 108 104 107 108 105  94 102 116 106 110 116 109 106 112 118 
114 110 116 115 107 106 109 103 101 112 105 103 107 114 111 102 
105 102 101 105 102  86  76  74  74  74  74  76  73  73  75  75 
 74  79  78  78  77  76  76  74  72  72  71  70  66  65  61  61 
 60  58  55  50  49  43  40  37  33  27  21  18  12   6   1  10 
 16  24  32  41  51  61  72  83  95 107 121 134 149 164 180 197 
230 212 195 181 163 150 134 120 106  94  82  71  59  50  41  32 
 24  16   9   0   4  12  18  23  26  32  36  40  42  47  48  51 
 55  56  64  88  91  89  94 101 101 100 102  99 104 109 102 104 
107 106 111 105 101 104 109 110 103 110 106 109 107 109 106 109 
 97 104 109 106 101 106 109 104 104 109 110 109 106 109 104 107 
107 109 106 104 106 104 106 110 106 112 112 114 106 104 112 105 
106 108 107 108 112 110 104  95 113 110 118 116 100  93  95 103 
114 107 107 115 113 113 110 112 103  97 100  98  99 107 107 105 
104 104  98  90  88  81  74  74  74  72  74  74  73  73  75  76 
 77  79  78  78  77  76  75  74  73  72  71  68  66  64  62  60 
 58  56  53  52  47  45  41  35  31  28  21  17  11   5   2   9 
 17  25  33  42  52  62  73  84  96 109 122 136 153 166 182 199 
231 213 198 180 164 149 135 120 108  95  83  70  61  51  42  33 
 25  17   9   2   6  12  16  23  27  32  36  40  43  45  50  52 
 55  54  76  96  94  98 103 104 103 106 104 105 104 104 105 110 
110 110 109 103 104 101 104 110 107 110 106 106 107 110 109 107 
 98 106 104 107 101 104 106  97 104 107 107 106 109 111  98 103 
112 108 101 112 109 101 107 114 114 118 109 110 110 101 109 113 
111 109 109 107 108 110 108 102 110 110 113 109 109 108 106  96 
108 108  98 112 109 118 110 107 104  99 100 101  98  94  92  98 
108 102  95  84  77  74  74  74  74  74  74  74  73  75  76  76 
 79  79  81  78  77  76  75  74  73  70  71  68  66  66  64  60 
 60  55  54  49  46  44  39  36  32  25  22  15  10   4   2  10 
 15  26  34  41  53  64  74  86  98 111 124 138 152 168 184 200 
231 213 196 180 165 149 134 121 108  95  84  72  62  52  41  34 
 25  17   8   1   4  11  17  22  27  32  37  40  43  46  49  54 
 55  63  87  98 100 101 105 105 105 107 105 104 106 100 101 101 
102 107 108 106 105 107 110 108 111 111 109 107 109 104 106 109 
107 109 100 104 101 109 109  99 101 103 103 103 104 110 104 103 
107 103 103 113 101  99 103 114 114 114 110 110 113 101 101 108 
113 112 111 111 102 108 104 107 102 107 113 105 108 106 108 108 
105 110 102 110 112 109 115 106 108 103 100  99  95  92  88  81 
 92  99  98  77  77  74  74  74  74  74  74  74  73  75  76  79 
 79  79  78  77  77  76  73  74  71  70  71  67  67  64  62  62 
 59  55  52  51  48  42  40  34  31  25  20  14   8   3   3  11 
 16  27  35  42  52  65  76  87 100 112 126 140 154 169 186 202 
231 213 196 181 165 149 135 121 108  96  84  73  63  53  43  32 
 24  18   9   2   5  11  16  22  27  31  35  39  43  48  49  54 
 51  75  97  97 100  98 105 102 102 108 101 103 105 109 105 104 
 98 104 109 112 109 111 113 111 114 112 110 107 106 106 104 107 
103 104 103 104  98 107 112 101  99 103 101 101 103 108 104  99 
103  95 104 112  99  98  98 112 103 110 103 106 112  95 101 106 
109 105 105 109  98 108 105 108 102 107 113 110 106 105 103 108 
110 106 100 106 115 112 113 115 116 100 100 101  92  89  86  81 
 81  81  83  81  77  74  74  74  74  74  74  74  75  76  78  79 
 79  79  78  78  77  76  75  74  73  70  69  69  66  64  63  60 
 57  56  52  49  47  42  38  34  29  24  19  13   7   1   5  12 
 19  25  37  46  56  66  77  89 101 114 127 141 156 171 187 204 
231 214 197 180 165 150 136 122 109  95  85  72  63  53  44  33 
 25  17   9   2   4  10  16  23  24  31  35  39  42  46  50  51 
 60  90  96  93  96  99 105 102  96 100 103 104  99 102 104 105 
104 107 110 115 112 112 117 110 111 113 113 108 104 101 106 103 
 99 106 106 101 103 103 106  96  97 104 103 101 107 104  97 101 
104  94 101 105  95  96  99 112 104 110 101 101 104 103 113 104 
 98 108 106 107 100 105 107 105 102 109 114 112 109 109 109 103 
108 113 107  99 109 110 112 112 111 107  89 100  97  89  85  79 
 77  72  72  76  73  74  74  73  76  74  74  76  76  78  79  79 
 79  79  78  77  76  76  75  74  71  71  68  67  67  65  61  59 
 59  54  53  48  47  43  37  35  30  25  20  14   8   2   5  13 
 20  29  38  47  57  68  79  90 103 115 129 143 158 173 189 205 
232 214 197 181 166 149 135 123 110  96  84  73  62  52  44  33 
 25  17  10   3   4  10  17  21  28  30  35  39  42  45  48  49 
 76  95  92  91  91  97 104 101 103  96 100 104  97  97 106 105 
108 110 111 115 109 108 115 108 107 111 110 108  96  99 107 104 
107 103  99 101 101 103  97  93  93  97  97  99 100 102  96  99 
105  94 103 100  95  99 105 111 101 106 103 101  98 104 112 104 
104 104 101 104 107 107 111 108 102 111 110 107 106 106 106 105 
108 111 103 104 106 109 116 115 100  97  89  89  95  89  77  76 
 74  72  74  74  74  74  72  74  74  74  73  75  80  80  79  79 
 79  78  78  77  76  75  75  74  72  69  70  67  67  63  61  61 
 56  56  51  48  44  41  38  34  30  25  19  12   7   1   6  16 
 22  30  39  49  59  69  80  92 104 117 131 145 159 175 191 207 
231 214 198 182 164 151 137 123 110  96  84  73  61  53  45  32 
 26  18  10   3   3  10  17  22  25  28  34  38  42  45  46  58 
 90  93  87  89  98  96  97 100  99 100 100 101 106 106 109 104 
111 114 111 107 106 109 114 106 103 100 108 108  99  96 100 100 
104 100  99  96  94  97  93  89  93  93  90  96  96  96  97  93 
 96  93 102 100  99 102 111 111 107 104  99 104  99  97 103 107 
110 100 101 105 105 109 107 102 102 110 111 106  99  99 101 105 
109 106 103 102 100 104  97 112 106  87  91  85  78  77  76  76 
 74  72  72  72  74  74  72  74  74  73  75  73  80  80  77  79 
 79  78  77  75  74  75  74  72  70  71  70  66  65  65  62  58 
 56  53  52  49  44  40  36  34  29  22  17  13   5   0   9  15 
 25  31  40  50  60  71  82  94 106 119 132 146 161 176 192 209 
232 215 196 182 167 152 138 124 111  97  85  76  63  53  44  35 
 26  18   9   4   3   9  15  20  25  28  34  38  41  45  50  79 
 90  85  86  92  95  97  97 101 103  99  98 107 105 106 104 103 
107 110 107 108 107 107 110 109 111 103 103 100 100  94 100  99 
100  99  94  92  89  93  87  87  83  89  87  93  90  89  92  89 
 93  93 102  97 102  97 108 109 111 113 105  97  97  96  98  99 
106 100 104 108 100 105 107  99 105 107 111 113 102  99 103 106 
112 114 103 100 107 100  97  93 103  98  84  76  75  73  72  73 
 73  72  74  72  74  74  74  73  73  72  75  73  79  79  79  78 
 78  78  77  75  76  73  72  71  72  69  67  66  66  62  62  58 
 57  53  52  47  43  41  37  31  26  23  18  12   6   1   8  16 
 24  32  42  51  61  72  83  95 107 120 134 148 163 178 196 210 
232 215 199 183 167 153 138 123 112  99  87  76  64  54  42  35 
 28  19  11   4   3   7  13  20  23  29  32  36  41  42  58  86 
 84  81  87  89  87  96  98  98  99  98 102 102 101 100 100 103 
101 109 104 105 112 104 107 103 106 100 102  99  94  93  99  94 
 93  93  92  90  84  92  84  82  82  81  82  87  84  84  90  90 
 89  94 103  96  99 102 111 108 105 115 107 100 104  93  94  93 
 94  94  98 107 101 103 106  98 105 111 111 107 101 101 102  98 
110 106 106 102 102 102  98  90  88  97  84  75  75  71  71  72 
 73  72  73  73  72  73  72  73  73  76  78  78  79  79  77  78 
 78  77  75  76  75  73  74  73  70  68  67  66  66  62  60  58 
 57  52  49  46  45  39  35  32  26  21  17   9   5   2   9  17 
 25  34  44  52  63  73  86  97 109 122 136 152 165 180 196 212 
232 216 200 184 168 153 139 125 112 100  88  77  64  54  45  36 
 27  19  12   4   2   6  12  18  24  29  31  37  39  41  69  85 
 82  81  83  85  90  90  95  99  95  96 100  98  98 101  99  99 
101 104 101 105 110  98 104  98 103  96  93  90  89  89  94  90 
 90  89  87  84  82  82  84  78  75  81  79  79  79  82  86  84 
 82  90  96  94  97 103 110 103 100 106 100 102 106  93  96  91 
 85 101  97  95 106 107 106 101  97 109 105 102  95 104 102  95 
106  99  87  97 102  95  93  82  82  76  80  75  71  71  73  72 
 72  73  73  73  73  72  73  73  75  76  79  79  79  79  78  78 
 76  77  76  74  73  72  71  72  69  68  65  65  63  61  61  59 
 55  52  51  46  42  40  36  32  27  22  14  10   4   3  12  20 
 28  36  44  55  64  75  88 100 112 125 137 152 166 182 198 216 
234 217 200 183 169 154 140 124 113 100  87  77  67  55  47  38 
 28  21  12   7   0   8  14  17  22  27  31  35  37  48  78  82 
 81  77  83  82  85  85  93  88  95  91  96  98  95  95 101  97 
 97  96  90  91 105  95  97  96  95  93  89  86  89  86  88  89 
 86  80  79  82  79  82  82  78  77  80  73  73  75  75  77  71 
 70  75  82  78  84  95 103 103  95  94  97 100 100  93  93  90 
 83  93  93  91  99 106 104 100  94 103 100  86  91 100  98  94 
 98  93  85  92 100 105  87  72  74  75  72  72  72  72  73  73 
 73  71  71  73  73  75  73  73  75  79  77  77  77  76  76  77 
 77  76  74  74  73  72  69  70  69  68  66  65  63  61  59  56 
 52  53  50  47  41  39  35  29  26  21  15   9   3   6  13  19 
 29  38  47  57  67  78  89 101 114 125 139 155 168 186 202 216 
235 218 201 185 168 155 140 127 114  99  89  78  67  55  46  37 
 28  22  12   5   1   6  13  18  22  26  31  36  35  56  76  77 
 78  74  81  84  85  86  82  84  85  88  98  93  91  91  90  95 
 99  90  91  92 100  91  94  91  92  91  88  86  82  82  83  81 
 81  80  73  74  80  80  73  74  74  70  70  73  70  70  70  68 
 68  68  66  68  70  75  86  89  92  90  89  96  92  89  90  84 
 80  90  96  93  96  97 103  95  93  97  91  85  88 100  94  83 
 95  91  82  89  95  84  84  75  74  70  72  72  72  72  71  71 
 71  74  72  74  72  74  74  74  77  77  78  76  76  78  77  75 
 75  74  74  73  72  71  69  69  68  67  66  64  62  60  58  56 
 53  51  48  44  43  37  33  30  25  20  14   8   2   5  12  22 
 30  39  48  58  68  79  91 103 116 129 143 157 172 186 204 219 
236 219 201 186 171 156 141 127 114 102  90  78  66  57  46  39 
 30  20  15   8   1   5  13  16  23  26  30  34  37  66  75  75 
 73  76  84  87  81  83  87  87  85  86  87  88  87  88  88  85 
 91  87  87  88  91  87  88  88  87  89  81  78  78  78  77  74 
 77  74  69  71  72  70  69  69  67  69  69  67  72  69  66  67 
 67  66  69  71  70  67  71  73  80  83  80  98  88  88  92  82 
 79  89  93  89  89  87 102  93  80  91  93  79  82  93  80  75 
 86  84  73  77  78  73  82  78  71  71  71  72  70  72  72  72 
 72  74  72  72  72  75  74  74  77  76  76  78  76  75  75  75 
 74  74  73  72  72  71  68  67  66  66  65  63  62  60  56  55 
 53  50  49  44  40  36  32  27  23  17  12   8   1   6  15  21 
 31  40  49  59  70  81  92 104 117 131 145 159 174 188 207 222 
238 222 203 187 171 155 142 128 115 102  90  79  68  58  47  39 
 31  23  15   8   1   5  10  16  21  25  30  33  37  65  72  70 
 70  72  80  82  79  80  82  83  83  84  82  82  81  82  84  83 
 83  79  81  81  80  84  82  81  79  79  74  74  74  74  69  67 
 67  69  69  69  72  69  67  69  69  69  69  67  70  69  67  67 
 67  67  67  69  69  69  67  67  66  80  80  92  85  86  88  80 
 77  82  92  82  81  82  96  80  74  83  83  71  73  76  73  73 
 77  75  72  73  77  73  73  73  71  71  71  70  71  71  71  71 
 70  71  71  71  74  75  76  76  76  76  76  75  75  75  75  74 
 74  73  73  70  69  70  69  66  65  66  63  63  61  59  57  54 
 52  49  44  43  39  35  31  27  22  18  11   7   2   9  14  24 
 32  41  50  60  71  82  94 106 119 132 146 161 177 193 209 226 
241 222 205 188 172 157 143 130 117 104  92  81  69  58  50  40 
 29  23  16   7   2   6  10  15  20  25  29  32  46  68  65  67 
 69  76  77  76  77  76  80  79  77  81  79  79  78  83  81  84 
 82  76  76  76  76  81  78  73  71  71  71  71  71  66  68  70 
 66  69  70  68  68  66  68  68  68  66  68  66  65  66  66  66 
 66  69  69  65  64  67  72  72  67  73  74  79  81  85  85  78 
 77  77  80  77  75  75  82  71  70  73  72  71  69  74  76  69 
 72  70  68  68  72  72  69  70  70  70  71  71  71  69  71  71 
 71  73  71  73  73  74  76  76  75  75  75  75  75  74  76  73 
 73  72  72  71  70  68  69  66  66  63  64  62  60  58  56  54 
 51  48  45  42  38  36  30  28  23  16  10   6   1   8  17  23 
 33  42  52  62  72  83  95 107 121 134 148 163 179 195 212 229 
242 223 206 189 173 158 143 130 117 104  92  81  69  60  49  40 
 32  24  16   9   2   4   9  15  21  24  29  29  53  70  61  66 
 68  74  73  74  77  78  74  77  74  75  78  75  74  72  69  77 
 77  73  71  72  72  72  70  70  70  69  68  66  68  68  69  71 
 69  66  68  68  66  68  68  66  66  68  66  68  68  68  66  66 
 66  64  61  69  80  97 104 101 101  87  64  66  77  79  73  78 
 70  70  74  72  77  70  77  74  70  68  70  67  66  67  69  69 
 67  69  68  68  69  68  70  68  73  77  73  70  70  70  70  70 
 69  70  75  75  73  75  73  75  75  75  74  74  74  74  73  73 
 72  72  71  69  70  67  68  65  64  64  63  59  59  57  55  53 
 50  47  44  41  36  34  29  25  20  15   9   3   4  11  18  26 
 33  43  53  63  74  85  97 109 122 136 150 165 181 198 215 231 
246 226 208 190 175 160 145 131 118 105  93  82  71  61  51  41 
 32  24  17  10   3   3   9  16  19  24  28  34  59  65  64  66 
 65  70  73  74  72  69  70  74  68  68  72  70  70  71  69  72 
 70  70  66  67  66  67  74  67  67  67  68  68  65  67  67  67 
 67  67  67  65  67  65  67  67  67  67  67  65  65  65  67  67 
 64  65  93 109 110 109 106  94 105 100  89  89  73  78  73  71 
 66  66  69  65  70  70  67  67  67  66  66  66  66  66  67  68 
 67  68  67  69  69  69  69  69  68  74  74  68  69  69  70  72 
 68  72  73  73  74  74  72  74  72  74  74  73  73  73  74  70 
 71  71  70  70  67  68  65  64  63  62  60  58  57  55  53  52 
 48  47  42  40  37  33  28  24  19  14   8   4   5  10  17  27 
 36  46  56  64  77  86 100 111 124 138 152 167 183 200 218 236 
248 229 211 191 175 159 145 132 118 106  93  82  71  61  51  41 
 33  23  17   8   4   4  10  15  19  25  24  42  66  60  63  61 
 64  73  69  68  70  67  68  65  66  64  65  64  63  67  68  67 
 69  63  63  66  66  67  66  67  67  64  67  68  67  64  64  67 
 67  67  67  67  64  67  64  67  64  67  64  67  67  67  68  60 
 72 107 116 106 105 105 105  90  93  98  98 109  93  76  68  68 
 64  66  64  65  64  66  68  65  67  65  65  65  66  66  66  67 
 66  68  66  68  68  68  68  68  68  69  69  69  69  67  69  69 
 71  69  71  72  74  72  73  72  73  73  73  73  72  72  71  71 
 69  68  68  69  68  67  64  63  62  62  59  59  56  54  52  51 
 48  46  43  37  36  32  27  23  18  13   7   1   6  13  20  28 
 38  46  55  67  76  88  99 112 125 139 154 169 186 203 220 239 
249 228 212 193 176 161 146 132 119 105  94  83  72  61  52  42 
 33  25  18   9   2   4   9  13  20  22  24  45  64  58  58  58 
 63  60  61  63  64  64  64  60  58  60  63  62  61  62  63  63 
 61  64  67  66  65  63  65  66  65  67  66  64  66  66  66  66 
 66  66  64  64  66  66  64  66  66  66  67  67  66  69  62  77 
112 114 100 101  98  98  98  92  99  96  92  93  90  71  63  63 
 63  65  67  64  64  63  64  66  64  65  65  65  65  66  65  67 
 67  67  66  67  67  67  67  68  68  68  68  70  68  70  68  68 
 68  67  70  73  73  73  73  72  70  72  72  72  71  69  71  68 
 70  67  68  68  65  64  63  62  61  60  58  56  55  53  51  48 
 46  43  41  36  33  31  26  22  17  12   6   0   9  14  23  29 
 38  49  56  68  79  91 101 114 127 141 156 173 188 205 223 242 
250 229 213 194 179 162 149 135 121 109  96  83  74  62  52  43 
 34  26  18   9   5   1   7  12  17  22  25  51  60  54  57  53 
 57  60  60  62  59  62  59  61  60  59  59  60  62  62  60  63 
 66  64  64  64  64  64  64  64  65  66  66  63  65  65  65  65 
 65  65  65  65  65  65  63  65  65  65  66  66  66  61  78 113 
113 105  97  91  96  98  90  91  98  90  92  87  75  66  62  63 
 64  63  64  63  65  65  65  63  65  65  64  65  65  66  64  64 
 66  65  66  66  66  67  67  67  67  67  67  67  67  67  67  66 
 67  69  70  70  70  72  72  70  71  71  69  71  70  70  69  69 
 68  68  66  65  66  63  62  61  60  60  57  57  55  52  49  49 
 46  42  40  37  33  28  23  21  16  10   5   1   8  15  22  30 
 39  50  58  68  80  90 102 117 130 143 159 173 191 207 225 245 
248 232 214 194 180 162 147 132 120 107  97  85  75  64  53  46 
 35  27  20  12   5   1   8  12  17  20  29  56  55  53  56  56 
 55  59  59  54  54  55  55  56  59  58  59  59  60  60  61  61 
 63  63  64  64  63  63  63  65  64  64  65  64  64  64  64  64 
 64  64  65  64  64  62  64  64  62  64  65  65  60  80 110 108 
105 100 101  98  98  96  88  92  96  86  87  76  65  61  62  61 
 63  62  62  64  62  62  64  64  63  64  64  64  65  63  65  65 
 65  65  65  64  65  66  66  66  66  66  66  66  66  65  68  71 
 68  69  69  71  71  69  70  69  68  68  70  68  69  67  67  66 
 66  67  66  64  65  64  61  60  59  59  58  54  52  50  50  48 
 43  42  39  34  30  28  24  20  15   8   4   3   9  16  24  32 
 40  49  61  69  80  93 103 116 130 146 159 175 193 208 228 245 
249 232 214 197 178 164 147 135 120 109  97  86  75  65  53  44 
 38  28  20  12   6   0   6  11  16  19  35  59  54  50  49  56 
 58  56  55  51  55  52  54  55  55  57  60  61  59  59  61  60 
 61  61  61  62  62  62  62  63  63  63  64  64  61  63  63  64 
 64  64  64  64  63  63  63  61  63  63  59  68  92 114 104  97 
101  97  99  96  92  91  86  91  88  80  75  67  60  60  60  61 
 61  62  62  61  63  63  61  63  62  62  63  62  64  62  62  64 
 63  64  64  63  64  65  65  65  65  65  65  65  65  65  68  70 
 68  68  70  68  70  68  69  69  69  67  68  68  66  67  67  67 
 64  65  63  64  62  61  60  59  57  58  54  53  53  49  47  46 
 44  41  36  35  31  27  21  17  13   8   2   4  10  17  25  33 
 41  50  62  70  83  94 105 119 133 145 162 176 194 212 228 249 
252 232 212 198 180 163 148 136 122 109  95  84  73  63  54  45 
 36  27  21  16   8   1   5  10  15  16  38  54  52  45  49  46 
 53  48  48  47  49  53  55  54  57  55  57  60  59  58  59  60 
 61  60  61  61  61  61  61  61  62  63  63  62  62  62  62  65 
 63  65  63  63  63  62  62  63  58  63  85 108 111 106 100  94 
 97 102  94  93  87  87  84  84  81  74  64  59  59  59  61  60 
 60  61  61  60  62  62  62  62  64  62  62  62  63  63  63  63 
 63  63  63  63  63  63  64  64  66  66  64  66  64  66  67  66 
 67  67  67  67  68  68  66  66  68  67  65  67  67  64  64  65 
 63  64  63  61  60  59  58  57  56  55  53  53  51  48  47  45 
 42  38  35  33  28  26  22  17  12   5   1   7  13  18  28  36 
 44  53  61  73  82  95 108 120 134 147 162 179 194 213 232 251 
252 232 212 195 178 163 148 136 120 110  98  84  73  62  53  45 
 37  29  21  15   8   2   3   9  13  22  50  53  51  44  44  48 
 43  45  47  47  49  51  52  53  54  55  56  57  58  58  59  59 
 60  60  59  61  60  60  60  60  60  60  62  62  61  61  62  62 
 62  64  64  62  62  62  61  62  76 101 113 108 105 100  93  96 
 95  98  95  90  84  83  84  73  66  59  58  57  58  58  60  60 
 60  60  60  60  60  61  64  63  61  61  61  63  61  61  62  60 
 62  62  62  62  64  62  64  64  64  65  65  65  65  65  67  66 
 67  66  65  67  65  67  67  66  65  64  66  65  63  65  63  62 
 63  63  60  59  60  58  57  56  54  53  52  50  50  46  46  42 
 41  38  35  32  28  23  20  14  11   4   0   6  13  21  29  35 
 43  53  64  74  85  96 109 122 135 148 164 179 197 215 233 253 
251 232 214 194 178 162 146 132 119 107  96  83  74  64  54  45 
 36  29  22  15   9   3   3   8  10  24  46  48  47  41  46  48 
 44  44  46  48  48  49  51  52  52  54  55  56  56  57  59  58 
 58  60  59  58  58  59  60  59  60  60  60  60  60  60  59  60 
 60  60  60  64  64  57  67  95 110 107 104 101 101  92  85  89 
 85  85  86  82  83  82  69  58  56  58  57  57  58  60  58  59 
 59  57  59  59  61  61  62  59  60  62  62  60  62  62  60  60 
 60  63  63  63  63  63  61  61  63  64  63  63  63  63  64  66 
 66  64  64  64  64  64  63  63  63  65  62  62  64  61  61  62 
 60  59  59  58  57  56  57  54  55  52  50  48  48  45  43  42 
 38  35  32  29  25  23  17  13   8   3   1   7  14  21  28  38 
 46  55  63  75  86  97 108 122 136 150 165 181 198 216 232 252 
251 230 213 194 178 162 146 132 119 107  95  83  74  64  54  45 
 36  29  22  15   9   4   2   8  13  32  45  46  46  40  38  40 
 43  45  45  45  47  48  48  52  52  53  53  54  55  56  58  57 
 57  57  58  58  58  58  58  59  58  59  61  59  59  59  59  59 
 61  61  63  59  59  80 102 106 102 100  98  95  89  80  77  77 
 74  80  76  70  68  67  58  54  55  55  55  57  57  59  59  56 
 57  57  60  58  58  60  60  60  60  60  58  61  62  61  61  61 
 59  61  62  61  62  62  62  63  65  65  63  63  63  65  63  63 
 63  63  62  62  62  62  62  62  63  61  61  61  60  60  59  59 
 58  58  57  56  55  54  53  54  51  50  48  49  45  45  41  39 
 36  33  30  27  24  20  16  13   7   1   3   9  15  22  31  37 
 47  56  66  76  87  97 110 123 137 151 166 182 199 216 235 255 
250 231 213 193 177 162 147 132 119 107  94  83  74  64  55  46 
 38  30  23  18   9   6   1   6  14  38  41  45  39  39  37  39 
 38  44  44  46  47  47  50  51  52  51  52  55  55  54  55  55 
 55  56  58  56  56  57  56  57  57  57  57  58  58  58  59  58 
 59  61  57  61  92 104  93  95  96  92  89  86  76  67  61  68 
 73  73  67  61  58  53  53  53  54  54  54  57  57  58  58  54 
 58  56  58  56  58  56  57  57  59  59  59  60  60  59  60  60 
 61  60  61  60  60  61  61  61  61  61  61  63  63  61  61  61 
 61  61  63  61  61  62  62  60  60  59  59  59  58  60  58  57 
 56  58  57  54  54  53  52  51  49  48  47  45  43  41  39  37 
 35  32  29  26  22  18  14  10   5   0   6  12  18  25  30  38 
 47  57  67  77  88  99 111 124 138 150 167 181 199 217 235 255 
249 230 212 192 176 161 146 131 119 106  95  83  74  64  54  45 
 34  20  12  10  14   7   0   5  15  39  40  44  34  33  38  41 
 40  42  41  44  46  47  47  48  49  50  51  51  52  53  55  53 
 56  54  55  55  55  55  55  56  55  58  58  56  58  58  58  60 
 56  53  76  98  98  84  86  93  89  84  84  74  64  59  58  60 
 64  58  58  55  53  52  52  52  51  52  56  59  59  59  56  56 
 56  54  57  55  55  57  58  57  58  57  59  59  59  59  58  59 
 61  58  59  61  59  60  61  61  61  60  60  60  60  61  59  61 
 61  59  59  59  59  60  58  58  58  58  57  59  57  56  57  55 
 55  53  52  52  52  51  52  50  49  46  45  43  41  40  37  35 
 33  30  27  26  21  17  13  10   4   1   7  14  19  26  33  41 
 49  59  68  78  88 100 112 125 138 152 167 183 198 217 236 255 
244 228 210 191 175 162 148 132 119 107  94  83  73  63  54  47 
 34   9   5   5   8   3   4   0  19  35  35  37  33  32  34  37 
 39  39  39  44  44  46  47  46  49  50  51  50  52  53  51  54 
 54  53  53  55  53  55  55  54  54  54  54  54  54  56  53  50 
 65  92 106  93  89  87  85  87  84  79  81  75  63  58  56  53 
 51  50  50  50  50  50  50  50  50  55  57  55  55  57  59  59 
 58  58  56  55  53  55  55  56  57  59  59  57  56  57  59  61 
 57  59  61  59  61  64  61  60  60  60  60  58  58  58  58  58 
 58  57  57  59  57  57  56  56  58  56  55  55  56  58  54  52 
 53  54  55  54  56  56  55  54  55  50  49  48  43  38  37  33 
 31  30  25  22  19  15  11   6   2   1   5  11  14  21  28  36 
 47  59  68  77  89 100 111 125 138 151 167 183 200 217 235 252 
245 224 209 190 176 161 147 133 118 105  92  83  73  63  54  46 
 41  27   8   6  11  18  14   8  24  30  28  31  31  33  33  33 
 36  38  40  41  43  42  44  45  47  48  49  48  50  49  50  52 
 50  53  53  51  52  54  54  54  54  52  52  54  52  51  65  87 
101  93  87  85  83  81  79  83  77  76  80  73  61  54  51  51 
 49  49  48  48  48  48  50  48  50  55  53  52  53  55  55  56 
 57  56  54  54  54  55  55  55  57  59  59  59  59  59  59  59 
 60  60  59  56  58  62  56  56  58  56  58  56  56  58  56  56 
 56  55  57  55  55  56  54  54  54  55  53  53  51  58  59  54 
 58  57  60  59  57  56  56  55  52  51  48  47  41  36  34  33 
 29  28  24  21  17  14  11   9   5   4   2   6  11  19  26  35 
 43  56  69  79  88  99 113 125 138 151 167 183 199 217 235 254 
241 224 208 188 174 159 145 130 119 109  98  86  76  64  55  47 
 39  34  21   9   3  12  16  25  32  27  26  23  26  32  32  34 
 36  36  38  40  43  42  44  43  44  46  47  48  48  47  48  50 
 50  51  53  49  50  52  52  52  52  52  52  47  58  84  94  92 
 81  73  74  75  73  75  77  74  75  75  72  61  50  49  47  46 
 46  47  46  46  46  46  46  51  55  53  51  51  53  52  54  54 
 52  54  56  54  56  56  56  56  57  57  57  60  57  57  57  57 
 56  53  53  49  53  58  54  54  54  54  54  54  54  54  54  54 
 54  53  53  53  53  53  52  52  52  51  51  51  49  53  56  55 
 59  58  58  57  56  55  54  51  47  44  42  37  34  35  33  29 
 29  28  22  18  19  16  16  14   8   3   2   7  14  22  29  38 
 52  62  71  81  90 102 113 125 138 152 167 183 199 214 234 253 
241 221 204 188 170 158 142 129 115  97  75  70  66  63  59  49 
 40  32  29  15   2   4  10  18  32  22  22  24  24  30  33  30 
 33  35  36  40  39  41  42  45  44  43  45  46  47  47  48  48 
 47  49  49  47  48  48  50  50  50  50  47  63  87  74  60  60 
 63  59  61  66  66  63  63  67  69  69  63  52  45  45  44  44 
 44  44  44  44  45  44  49  53  52  51  53  53  53  53  53  52 
 54  54  54  54  54  55  55  55  55  55  55  55  55  53  55  53 
 49  49  49  49  51  60  52  52  52  52  52  52  52  52  53  52 
 51  53  51  51  51  50  50  50  49  49  49  50  50  51  47  46 
 45  45  48  47  46  45  44  42  41  38  35  35  33  30  29  27 
 25  26  29  23  23  19  15  13   8   1   3  12  20  29  38  45 
 51  61  67  78  89 100 111 125 139 152 167 180 198 215 234 252 
234 216 199 186 168 154 140 131 104  73  64  53  51  42  36  42 
 42  36  26  22   3  14  21  30  26  20  20  20  23  29  28  31 
 33  33  35  38  36  39  40  41  44  41  43  44  44  45  45  46 
 46  47  47  47  47  48  48  48  50  43  59  79  50  41  47  50 
 53  54  50  53  55  50  55  61  64  68  55  45  43  41  41  41 
 41  41  42  42  43  43  53  50  50  51  51  51  54  51  51  52 
 52  54  52  55  52  52  55  53  53  53  51  53  51  53  51  48 
 46  49  47  47  49  61  53  49  50  52  52  50  50  50  49  49 
 49  49  49  50  48  48  48  47  47  47  46  46  45  45  46  44 
 43  42  42  40  39  38  38  37  36  35  34  34  32  32  31  27 
 26  27  24  15  11   8   6   2   2   5  12  20  25  31  35  39 
 46  54  63  74  84  95 106 119 134 151 166 181 194 210 228 242 
231 214 198 181 166 152 139 128 114  85  73  66  54  47  36  26 
 24  23  27  27  12  18  24  25  20  12  16  19  22  24  27  29 
 31  33  33  34  37  37  38  39  40  40  41  42  42  45  43  44 
 44  46  46  43  45  45  45  47  44  56  74  41  40  41  41  41 
 41  51  44  48  52  52  52  54  59  54  45  39  39  39  39  39 
 39  39  39  41  41  48  48  48  48  48  49  49  49  49  52  52 
 53  52  52  50  50  50  50  50  48  47  47  47  47  49  47  44 
 44  46  44  44  46  57  51  47  48  48  47  47  47  47  47  47 
 47  47  46  46  46  46  45  44  43  43  44  43  43  42  42  41 
 41  40  39  38  39  39  35  35  35  36  38  36  36  33  31  32 
 28  22  19  14  10   5   3   1   7   8   6  13  20  23  30  36 
 45  55  63  73  81  93 109 121 133 152 165 180 192 209 226 244 
227 211 195 180 164 150 137 124 115 102  75  65  59  47  39  28 
 22  15  14   8   6   9   4   3   7  11  14  17  21  23  23  28 
 29  31  33  32  34  37  38  39  39  38  39  40  40  41  43  43 
 43  44  42  43  43  43  45  43  46  70  45  37  37  39  37  39 
 41  39  39  39  41  42  45  48  45  38  37  37  37  37  37  37 
 37  37  38  37  43  45  48  50  51  49  46  52  50  47  49  49 
 50  50  50  50  48  53  53  46  46  44  46  46  45  45  45  44 
 42  42  42  42  42  49  47  44  45  45  44  45  47  45  45  44 
 44  43  43  44  42  43  42  41  41  40  41  41  40  40  39  40 
 38  39  38  36  38  42  41  43  42  39  38  36  36  33  33  28 
 22  24  17  14   7   4   1   3   8  10  13  18  21  26  34  41 
 48  56  65  74  84  97 109 125 133 146 164 175 191 207 220 239 
221 206 193 176 163 148 135 123 111 102  89  67  58  50  36  32 
 27  20   8   4   8  10   6   5   1   5   8  14  19  22  24  24 
 28  30  31  32  33  35  36  37  37  38  38  39  38  40  40  41 
 41  41  42  42  42  41  42  39  67  60  41  38  36  35  35  36 
 35  38  36  36  36  36  36  38  38  36  35  34  34  34  34  34 
 34  35  34  39  43  43  45  43  46  49  50  51  47  44  47  45 
 50  50  47  49  51  49  43  42  42  41  41  42  44  42  41  42 
 39  42  39  42  42  43  43  43  43  43  42  41  42  41  41  41 
 41  40  40  38  40  39  37  40  38  38  38  38  37  36  36  37 
 38  38  37  41  36  37  34  33  36  36  35  35  32  29  26  21 
 16  15  11   7   6   2   1   1   7   9  14  15  21  27  33  40 
 47  55  64  73  84  94 111 124 135 145 153 171 183 199 216 234 
220 205 187 173 161 145 132 121 110  98  91  77  55  50  44  34 
 19  18  18  21  19  14   8   4   0   4   7  11  15  20  22  24 
 24  27  29  30  31  33  33  37  35  35  36  36  37  37  38  38 
 38  39  39  39  40  40  40  40  52  39  39  36  34  34  32  32 
 32  32  34  33  33  33  33  35  33  31  33  33  33  33  31  33 
 33  33  35  40  42  43  40  40  40  41  41  41  41  44  44  44 
 46  46  45  43  39  38  38  38  41  41  40  41  41  40  39  39 
 39  37  39  39  39  39  40  40  39  40  40  39  39  39  38  38 
 39  36  37  37  35  36  36  36  35  36  34  34  33  34  33  34 
 38  40  40  34  35  32  31  30  25  24  25  22  19  15  17  15 
 13  11   9   5   0   1   4   0   1   7   4  12  17  23  30  38 
 46  54  62  71  82  93 104 118 131 143 154 176 191 206 223 241 
217 200 186 168 154 142 130 118 108  97  87  82  69  44  33  31 
 29  30  30  22  18  13   9   4   1   4   7   8  12  18  20  20 
 24  22  23  28  29  30  31  32  33  33  33  34  35  35  35  36 
 36  36  36  37  37  37  38  42  42  29  30  31  31  30  30  31 
 31  30  31  31  31  33  30  30  30  30  30  30  30  30  30  30 
 28  30  37  41  37  37  37  40  38  41  38  41  41  39  42  37 
 40  39  33  33  33  35  35  37  37  40  39  37  37  36  36  36 
 34  34  34  34  37  37  37  37  37  37  36  36  36  36  36  35 
 35  33  35  34  34  31  33  33  32  32  32  31  30  31  29  28 
 31  32  35  33  32  31  32  32  30  27  22  18  17  15  11   9 
 10   7   6   6   3   5   1   2   8  12  17  21  23  28  34  42 
 49  54  61  69  78  88  98 110 122 136 152 169 186 205 222 239 
212 198 182 166 152 139 130 116 106  96  88  69  48  39  42  46 
 43  38  31  26  18  16  10   6   1   2   7   8  11  13  17  18 
 22  24  23  24  27  28  29  32  32  31  34  32  32  32  33  33 
 33  34  34  34  34  35  35  35  41  32  31  31  29  29  27  28 
 28  28  28  28  28  28  30  27  27  27  27  27  27  27  29  27 
 27  33  36  34  37  37  38  35  33  33  35  35  29  27  28  30 
 32  30  32  32  32  30  33  33  36  37  36  33  34  31  31  31 
 31  31  31  34  35  34  35  34  35  34  33  33  33  33  33  33 
 30  32  32  29  31  28  30  32  30  29  26  28  27  26  26  26 
 27  28  28  27  29  26  24  20  19  18  16  15  18  17  11  11 
 11  12  12  11   8   5   1   2   6   7  15  23  31  40  42  45 
 45  52  60  67  77  89  98 108 120 134 146 163 182 201 219 234 
207 192 174 161 148 135 114 100  93  84  68  53  52  59  55  49 
 43  37  29  26  19  15  11   6   2   1   4   8  11  10  15  18 
 18  19  22  23  23  23  26  27  30  28  28  29  32  29  30  30 
 33  33  34  34  32  34  35  32  36  33  24  26  26  24  26  26 
 26  25  27  24  25  25  25  24  24  24  24  24  26  24  24  24 
 29  35  33  33  34  29  27  25  27  25  28  28  26  25  26  27 
 27  26  27  29  30  30  28  30  35  33  33  31  30  30  30  28 
 30  31  31  32  32  31  31  31  31  32  31  31  30  30  30  30 
 29  29  29  28  28  27  27  26  31  30  28  25  25  28  31  31 
 31  31  30  31  28  26  25  24  20  19  20  20  18  18  18  17 
 16  14  12  10   7   5   2   1   6  11  19  24  26  31  32  34 
 45  52  59  67  77  86  97 111 119 133 147 165 185 198 214 231 
197 184 170 157 144 132 108  89  78  73  71  72  67  62  55  48 
 40  35  28  24  20  14  14   8   3   1   1   7   9  11  13  13 
 16  19  16  18  20  23  23  24  25  27  29  28  29  29  29  27 
 27  28  28  31  31  31  29  32  30  30  25  23  25  23  23  23 
 21  23  22  22  21  22  24  21  21  23  21  21  20  20  20  27 
 30  24  23  21  23  20  21  24  22  24  22  23  25  23  24  24 
 24  23  24  27  25  27  27  25  30  30  28  25  24  27  28  25 
 27  28  29  28  29  28  28  28  28  28  28  28  27  27  27  27 
 26  26  26  25  25  24  24  21  23  25  32  30  32  32  31  30 
 29  29  28  27  25  23  20  17  16  20  18  18  14  13   9   3 
  6   7   6   3   1   4   7  10  15  16  18  21  22  29  37  40 
 46  52  59  68  77  87 101 113 122 138 154 164 174 189 203 219 
191 177 164 152 142 126 102  83  85  89  85  75  66  59  52  48 
 40  34  30  22  19  15  12   9   5   1   1   3   6   8  11  13 
 12  15  18  15  16  16  17  19  18  22  22  23  25  26  28  28 
 28  27  27  28  28  31  29  30  32  29  29  23  20  22  20  20 
 20  22  19  19  17  19  18  18  18  16  17  17  17  19  22  24 
 19  19  19  17  20  18  20  18  21  21  19  22  20  20  21  21 
 21  21  21  24  24  24  24  24  24  24  24  22  24  25  25  25 
 25  26  26  26  25  25  25  25  25  25  25  25  24  24  24  24 
 23  23  23  22  21  21  20  21  19  21  21  17  20  21  24  24 
 23  21  20  17  14  13  12  14  17  16  15   9   6   4   1   0 
  4   5   5   9   9  11  13   9   9  13  15  20  30  39  43  47 
 53  61  69  76  84  96 106 114 119 126 139 149 163 178 193 211 
184 173 161 142 119 105 102 102  98  87  79  72  67  60  54  46 
 40  35  29  22  20  16  12   9   6   4   1   4   6   8   9   9 
  9  10  12  16  17  16  14  15  14  14  15  16  15  18  20  21 
 21  24  20  20  22  21  21  23  24  24  22  20  19  19  19  17 
 17  16  16  16  16  15  15  15  14  14  14  16  17  18  18  15 
 15  17  16  16  17  16  17  17  15  18  16  16  17  17  17  18 
 18  18  18  21  21  19  21  21  21  21  21  21  22  21  22  21 
 21  21  22  22  23  22  22  22  22  22  22  21  21  21  21  21 
 20  20  19  19  19  18  17  14  16  16  12  14  11  10  12  12 
 11  10   9   8  10  12  11  10   7   6   2   1   2   3   4   5 
  7   5  10  12  10   6   4   8  12  14  17  26  31  35  34  45 
 53  59  67  76  84  91 100 111 117 131 144 152 161 176 190 206 
175 155 137 123 120 119 112 100  92  85  77  70  63  57  51  44 
 39  32  29  24  20  16  14  13   8   5   2   3   3   4   6   6 
  7   6   9  10  12  15  18  15  18  15  14  14  16  15  12  12 
 13  11  13  14  14  13  13  12  14  14  13  14  14  16  14  16 
 16  13  15  13  12  12  12  11  11  11  14  13  17  15  13  12 
 12  12  12  13  12  13  11  11  14  12  13  15  16  14  14  17 
 17  15  17  15  15  18  18  15  18  15  18  18  18  18  18  18 
 18  18  18  18  18  18  18  18  18  19  18  18  18  18  18  17 
 17  14  16  18  15  14  13  13  12  11  12  11  12  11  11  12 
  9   7   8   4   4   3   3   1   0   1   4   4   5   6   5   7 
  7   5   8   9   6   8  10  11  14  17  27  32  31  37  44  48 
 55  61  66  76  82  89  98 108 118 130 142 152 164 176 188 201 
150 142 141 136 129 115 103  96  88  81  75  67  61  55  49  44 
 38  32  29  25  19  17  15  11   7   1   1   2   0   2   1   4 
  6   4   4   8   7   8  10  10  10   9   8   8  17   8   6   7 
  9  10   8   8   9   9  10  12  11  11  11  10  11  11  11  11 
 10  12  10  12   9  11   8  10   9   7   9  10   9   9   9   8 
  8   8   8   8   9   9   9  10  10  11   9  10  12  11  11  11 
 12  12  12  14  14  14  12  14  14  14  14  14  14  14  14  14 
 14  15  15  13  15  15  15  15  15  15  15  15  15  15  15  14 
 14  13  13  13  12  11  10  14  13  12  12  14  13  12  13   8 
  8   7   4   0   2   1   2   3   4   4   5   6   2   3   4   3 
  4   7   6   6  11  17  22  19  24  27  29  31  36  39  41  44 
 49  52  58  68  76  84  91 101 113 119 128 138 151 164 177 189 
158 151 142 129 117 109 102  92  85  78  71  65  59  53  48  43 
 36  32  29  26  21  18  11   5   5   4   5   3   3   0   1   2 
  3   3   4   4   4   4   4   5   4   4   4   5   9   2   5   5 
  6   4   4   5   5   6   5   6   6   8   8   8   8   8   8   8 
  6   7   6   8   8   8   7   6   6   3   5   3   4   4   4   4 
  4   4   4   4   6   5   6   4   7   5   8   6   9   8   8  10 
 11   9   9  11  11  11  11   9  11  11  11  11  11   9   9  11 
 11  11  11  11  12  12  12  12  12  12  12  12  12  12  12  11 
 11  10   9   9  13  14  15  16  15  12  12  11  12  10   7   4 
  4   2   3   3   3   5   6   9   7   5   4   2   3   4   5   6 
  5   7   8  13  18  20  21  21  21  28  27  28  29  29  33  39 
 44  48  53  61  68  76  84  93  99 106 117 130 142 155 169 184 
158 145 131 123 113 104  96  88  81  75  69  61  57  53  48  44 
 39  34  29  22  18  14  15   8  10  10   8   4   2   3   2   0 
  1   1   1   1   1   1   1   1   1   2   2   2   1   1   1   1 
  0   0   1   1   2   3   3   4   4   3   4   5   5   5   5   4 
  4   4   3   3   2   2   1   0   0   2   2   1   0   0   0   0 
  0   0   0   0   2   1   0   2   1   4   4   5   6   4   5   7 
  7   8   8   8   8   8   8   5   5   7   7   5   7   7   7   7 
  5   5   8   6   6   8   6   9   7   7   9   9   9   9   8   8 
  8   7   6   6   7   3   3   6   8   7   6   6   2   1   3   4 
  5   6   9   8   8   4   6   6   4   4   6   5   6   6   7   9 
 13  14  15  20  19  18  21  21  18  21  19  21  24  27  31  35 
 39  44  53  59  69  76  87  95 102 109 119 127 139 154 168 188 
153 138 126 114 105  98  89  82  76  71  66  61  56  51  46  38 
 31  26  22  22  18  18  16  13  13  11   9   7   6   5   4   3 
  3   3   3   3   3   4   4   5   5   5   7   6   7   5   7   5 
  6   4   3   2   2   1   1   1   1   2   2   1   2   2   2   1 
  1   0   0   1   1   2   3   3   4   2   3   3   4   4   4   5 
  4   5   4   4   4   3   2   2   3   0   1   0   1   3   4   4 
  4   2   2   6   4   4   4   4   4   2   1   4   1   4   4   2 
  4   2   4   2   5   3   5   3   5   6   6   6   6   7   5   5 
  4   4   3   2   1   0   1   3   4   4   5   8   7   7   8   9 
 10  10  11  12  12   9   9  11  13  12  13  13  14  16  17  20 
 21  24  23  23  24  25  28  24  27  32  31  29  31  31  35  38 
 45  50  57  64  69  76  81  88  98 110 120 129 143 154 172 191 
141 126 116 108  98  92  85  79  73  68  61  52  46  42  36  31 
 30  26  26  24  22  22  18  16  11  11   9   8   7   6   5   6 
  6   5   5   6   4   7   8  10   9  11   9  10  10  10   9   9 
  9   9   7   6   7   4   3   4   3   1   2   1   1   2   3   2 
  2   3   4   4   6   4   6   9   8   6   7  10   8   9   9   9 
  9   9   9   9   8  10   9   6   5   6   3   2   1   0   1   1 
  1   1   1   1   1   1   1   2   0   0   2   0   2   0   0   0 
  2   0   0   1   1   1   1   2   2   0   2   3   1   0   2   2 
  1   2   0   2   3   4   8   7   7   9  10  10  10   7   7   6 
  6  10   8  11  12  13  19  22  20  24  21  22  22  25  26  26 
 27  27  26  26  26  27  28  26  29  26  27  32  37  38  38  41 
 44  47  50  54  58  64  70  78  88  96 107 118 132 146 161 178 
127 116 104  95  88  81  75  67  62  54  48  44  40  38  38  35 
 34  34  30  27  23  22  18  16  13  11  10   8   7   7   6   6 
  8   7   8   8   9  10  11  12  13  13  14  14  14  14  14  13 
 14  12  13  12  10   9   6   5   6   4   4   5   4   5   4   5 
  6   6   7   8   9   9  10  11  10  13  13  12  13  15  13  14 
 14  14  13  13  13  14  11  12   9  10   6   7   4   3   4   2 
  2   2   4   2   4   3   3   5   4   4   4   6   4   4   4   6 
  4   6   3   3   5   4   2   2   3   3   1   1   0   2   1   1 
  1   2   3   5   8  10  10  11  14  12   9  10   8   7   9  10 
 11  12  13  13  17  21  23  24  27  27  28  28  30  29  26  27 
 24  24  24  22  21  21  23  26  26  24  24  26  30  32  34  35 
 39  41  45  49  53  58  64  70  77  85  94 103 120 135 143 160 
116 109  95  77  74  70  62  59  56  50  42  43  41  41  41  37 
 36  34  34  30  26  19  18  15  14  11  10   9   8   7   7   9 
  8   9  10  11  12  13  14  17  18  19  18  19  19  19  18  18 
 17  18  16  14  13  11  10  10   7   8   6   7   8   7   9   8 
  9   9  10  11  12  13  14  15  16  15  18  17  19  18  18  19 
 18  19  18  17  20  17  16  15  13  12  12   8   6   7   5   4 
  7   5   5   8   6   6   6   9   7  10   8  10   8  10  10   8 
  8  10   9   9   6   8   6   5   5   4   6   4   5   3   3   3 
  4   5   6   8  10  12  14  16  12   9  10  12  12  13  13  14 
 15  15  17  23  26  29  30  28  29  30  30  31  31  28  24  23 
 23  22  22  24  21  24  24  27  29  23  27  29  33  28  27  32 
 32  36  38  44  48  52  57  62  70  76  85 100 110 116 130 151 
104  93  88  80  66  59  60  55  53  47  43  42  42  42  44  41 
 38  36  32  30  26  21  18  16  12  13  12   9   8   9   9   8 
 11  11  14  14  15  16  18  21  21  22  23  24  24  24  23  23 
 24  21  22  19  17  16  12  11  11   8   8  10   9  11  10  11 
 12  14  15  15  16  17  18  19  20  21  22  23  24  23  24  23 
 24  24  23  25  22  24  21  22  18  18  13  13  11  10   9   9 
  7  10  10   9   9  12  12  11  13  12  12  12  12  12  12  14 
 12  14  13  13  12  12   9   9   8   8   7   9   6   6   6   6 
  6   8  11  11  15  18  17  16  15  16  16  16  15  16  20  21 
 22  27  29  30  33  34  33  33  33  30  30  30  28  25  25  25 
 26  26  26  29  31  31  32  31  29  31  33  33  34  30  35  38 
 37  40  39  44  46  50  55  62  68  75  84  86  96 107 121 138 
 82  78  72  70  67  54  50  50  51  45  42  43  44  43  41  41 
 40  39  36  32  26  20  15  14  13  12  12  11   8   9   8  10 
 12  13  15  18  19  21  22  24  25  27  29  30  30  30  28  29 
 27  28  25  25  23  18  17  14  11  11  11  11  12  14  13  15 
 15  17  17  19  21  21  22  24  24  25  26  28  29  30  31  31 
 31  31  31  28  30  27  26  27  25  23  19  13  10  11  11  11 
 12  13  14  14  14  15  16  17  15  18  18  16  18  16  16  18 
 18  18  18  17  16  17  15  14  14  13  10  12   9  10  10   7 
 10  12  12  13  13  15  16  19  23  24  24  25  25  26  29  32 
 33  35  35  37  36  37  38  40  38  32  36  37  35  35  35  35 
 35  37  37  40  39  37  38  36  37  32  25  26  24  25  32  31 
 35  42  46  49  51  56  59  62  65  65  70  70  72  85  94 111 
 61  61  58  56  57  57  48  46  43  41  44  43  44  43  43  43 
 41  41  38  34  27  17  10  11  11  12  13  12   8   7   8   9 
 14  15  17  20  21  24  26  28  30  32  35  35  35  36  34  35 
 33  31  31  30  28  21  19  14  12  12  11  14  16  15  17  16 
 18  21  21  21  24  25  27  28  29  28  30  33  36  36  37  37 
 36  35  36  36  35  34  35  33  31  26  22  17  13  11  11  13 
 16  17  18  17  17  18  18  20  22  20  21  21  20  21  21  22 
 20  23  22  21  20  21  18  17  17  17  16  15  14  13   8  10 
  9  14  16  11  11  20  28  33  35  35  34  32  34  36  35  34 
 34  36  37  37  37  38  40  41  41  44  46  41  42  46  47  46 
 46  47  47  41  39  41  40  35  29  25  20  17  17  18  23  28 
 32  34  41  49  48  48  48  48  49  50  50  52  59  63  67  86 
