P2
# Written by pgmwrite
 360  240
 255
255 255 255 255 255 255 255 255 255 255 255 255 255 255 255 255 255 255 
255 255 255 255 255 255 255 255 255 255 255 255 255 255 255 255 255 255 
255 255 255 255 255 255 255 255 255 255 255 255 255 255 255 255 255 255 
255 255 255 255 255 255 255 255 255 255 255 255 255 255 255 255 255 255 
255 255 255 255 254 255 255 255 255 254 254 255 253 241 227 255 255 255 
255 254 255 255 255 255 255 255 255 255 255 255 255 255 255 255 255 255 
255 255 255 255 255 255 255 255 255 255 255 255 255 255 255 255 255 255 
255 255 255 255 255 255 255 255 255 255 255 255 255 255 255 255 255 255 
255 255 255 255 255 255 255 255 254 254 255 255 255 255 253 255 255 254 
255 255 254 255 255 255 254 255 255 255 255 254 255 254 255 255 255 255 
255 255 255 255 255 255 255 255 255 255 255 255 255 255 255 255 255 255 
255 255 255 255 255 255 255 255 255 255 255 255 255 255 255 255 255 255 
255 255 255 255 255 255 255 255 255 255 255 255 255 255 255 255 255 255 
255 255 255 255 255 255 255 255 255 255 255 255 255 255 255 255 255 255 
255 255 255 255 255 255 255 255 255 255 255 255 255 255 255 255 255 255 
255 255 255 255 255 255 255 255 255 255 255 255 255 255 255 255 255 255 
255 255 255 255 255 255 255 255 255 255 255 255 255 255 255 255 255 255 
255 255 255 255 255 255 255 255 255 255 255 255 255 255 255 255 255 255 
255 255 255 255 255 255 255 255 255 255 255 255 255 255 255 255 255 255 
255 255 255 255 255 255 255 255 255 255 255 255 255 255 255 255 255 255 
255 255 255 255 255 255 255 255 255 255 255 255 255 255 255 255 255 255 
255 255 255 255 255 255 255 255 255 255 255 255 255 255 255 255 255 255 
255 255 255 255 255 255 255 255 255 255 255 255 255 255 255 255 255 255 
255 255 255 255 255 255 255 255 255 255 255 254 255 254 255 254 255 255 
254 254 254 255 255 254 255 254 255 226 255 245 218 215 218 255 254 254 
255 255 254 255 255 255 255 255 255 255 255 255 255 255 255 255 255 255 
255 255 255 255 255 255 255 255 255 255 255 255 255 255 255 255 255 255 
255 255 255 255 255 255 255 255 255 255 255 255 255 255 255 255 255 255 
255 255 255 255 255 255 255 255 255 255 255 255 255 255 255 255 190 255 
254 254 254 255 255 254 255 255 255 254 255 255 254 254 255 255 255 255 
255 255 255 255 255 255 255 255 255 255 255 255 255 255 255 255 255 255 
255 255 255 255 255 255 255 255 255 255 255 255 255 255 255 255 255 255 
255 255 255 255 255 255 255 255 255 255 255 255 255 255 255 255 255 255 
255 255 255 255 255 255 255 255 255 255 255 255 255 255 255 255 255 255 
255 255 255 255 255 255 255 255 255 255 255 255 255 255 255 255 255 255 
255 255 255 255 255 255 255 255 255 255 255 255 255 255 255 255 255 255 
255 255 255 255 255 255 255 255 255 255 255 255 255 255 255 255 255 255 
255 255 255 255 255 255 255 255 255 255 255 255 255 255 255 255 255 255 
255 255 255 255 255 255 255 255 255 255 255 255 255 255 255 255 255 255 
255 255 255 255 255 255 255 255 255 255 255 255 255 255 255 255 255 255 
255 255 255 255 255 255 255 255 255 255 255 255 255 255 255 255 255 255 
255 255 255 255 255 255 255 255 255 255 255 255 255 255 255 255 255 255 
255 255 255 255 255 255 255 255 255 255 255 255 255 255 255 255 255 255 
255 255 255 255 255 255 255 255 255 255 254 255 255 255 255 255 255 255 
255 255 254 254 255 255 255 232 132  64 214 215 217 217 215 250 255 255 
255 255 254 255 255 254 255 255 255 255 255 255 255 255 255 255 255 255 
255 255 255 255 255 255 255 255 255 255 255 255 255 255 255 255 255 255 
255 255 255 255 255 255 255 255 255 255 255 255 255 255 255 255 255 255 
255 255 255 255 255 255 255 255 255 255 254 254 255 255 253 255  76  73 
172 255 254 255 254 254 254 255 255 255 255 254 255 255 255 255 255 255 
255 255 255 255 255 255 255 255 255 255 255 255 255 255 255 255 255 255 
255 255 255 255 255 255 255 255 255 255 255 255 255 255 255 255 255 255 
255 255 255 255 255 255 255 255 255 255 255 255 255 255 255 255 255 255 
255 255 255 255 255 255 255 255 255 255 255 255 255 255 255 255 255 255 
255 255 255 255 255 255 255 255 255 255 255 255 255 255 255 255 255 255 
255 255 255 255 255 255 255 255 255 255 255 255 255 255 255 255 255 255 
255 255 255 255 255 255 255 255 255 255 255 255 255 255 255 255 255 255 
255 255 255 255 255 255 255 255 255 255 255 255 255 255 255 255 255 255 
255 255 255 255 255 255 255 255 255 255 255 255 255 255 255 255 255 255 
255 255 255 255 255 255 255 255 255 255 255 255 255 255 255 255 255 255 
255 255 255 255 255 255 255 255 255 255 255 255 255 255 255 255 255 255 
255 255 255 255 255 255 255 255 255 255 255 255 255 255 255 255 255 255 
255 255 255 255 255 255 255 255 255 255 255 255 255 255 255 255 255 255 
255 255 255 255 255 255 255 255 255 255 255 254 255 255 255 254 255 255 
255 253 255 254 254 254 188  70  79  75 153 219 216 218 217 236 255 255 
255 255 255 255 255 255 255 255 255 255 255 255 255 255 255 255 255 255 
255 255 255 255 255 255 255 255 255 255 255 255 255 255 255 255 255 255 
255 255 255 255 255 255 255 255 255 255 255 255 255 255 255 255 255 255 
255 255 255 255 255 255 255 255 255 255 255 255 254 255 255 251  48  61 
 58  90 240 219 249 254 254 254 253 254 254 254 255 255 255 255 255 255 
255 255 255 255 255 255 255 255 255 255 255 255 255 255 255 255 255 255 
255 255 255 255 255 255 255 255 255 255 255 255 255 255 255 255 255 255 
255 255 255 255 255 255 255 255 255 255 255 255 255 255 255 255 255 255 
255 255 255 255 255 255 255 255 255 255 255 255 255 255 255 255 255 255 
255 255 255 255 255 255 255 255 255 255 255 255 255 255 255 255 255 255 
255 255 255 255 255 255 255 255 255 255 255 255 255 255 255 255 255 255 
255 255 255 255 255 255 255 255 255 255 255 255 255 255 255 255 255 255 
255 255 255 255 255 255 255 255 255 255 255 255 255 255 255 255 255 255 
255 255 255 255 255 255 255 255 255 255 255 255 255 255 255 255 255 255 
255 255 255 255 255 255 255 255 255 255 255 255 255 255 255 255 255 255 
255 255 255 255 255 255 255 255 255 255 255 255 255 255 255 255 255 255 
255 255 255 255 255 255 255 255 255 255 255 255 255 255 255 255 255 255 
255 255 255 255 255 255 255 255 255 255 255 255 255 255 255 255 255 255 
255 255 255 255 255 255 255 255 255 255 255 255 255 255 255 254 255 254 
254 255 254 255 255 127  79  79  80  79  97 222 216 217 216 220 255 254 
255 255 255 255 254 255 255 255 255 255 255 255 255 255 255 255 255 255 
255 255 255 255 255 255 255 255 255 255 255 255 255 255 255 255 255 255 
255 255 255 255 255 255 255 255 255 255 255 255 255 255 255 255 255 255 
255 255 255 255 255 255 255 255 255 255 255 255 255 255 255 178  55  62 
 60  61  70 174 217 231 255 255 254 255 255 253 255 255 255 255 255 255 
255 255 255 255 255 255 255 255 255 255 255 255 255 255 255 255 255 255 
255 255 255 255 255 255 255 255 255 255 255 255 255 255 255 255 255 255 
255 255 255 255 255 255 255 255 255 255 255 255 255 255 255 255 255 255 
255 255 255 255 255 255 255 255 255 255 255 255 255 255 255 255 255 255 
255 255 255 255 255 255 255 255 255 255 255 255 255 255 255 255 255 255 
255 255 255 255 255 255 255 255 255 255 255 255 255 255 255 255 255 255 
255 255 255 255 255 255 255 255 255 255 255 255 255 255 255 255 255 255 
255 255 255 255 255 255 255 255 255 255 255 255 255 255 255 255 255 255 
255 255 255 255 255 255 255 255 255 255 255 255 255 255 255 255 255 255 
255 255 255 255 255 255 255 255 255 255 255 255 255 255 255 255 255 255 
255 255 255 255 255 255 255 255 255 255 255 255 255 255 255 255 255 255 
255 255 255 255 255 255 255 255 255 255 255 255 255 255 255 255 255 255 
255 255 255 255 255 255 255 255 255 255 255 255 255 255 255 255 255 255 
255 255 255 255 255 255 255 255 255 255 255 255 254 254 255 255 251 247 
244 238 238 239 124  77  78  78  80  78  79 205 218 217 216 217 252 254 
255 255 255 255 255 255 255 255 255 255 255 255 255 255 255 255 255 255 
255 255 255 255 255 255 255 255 255 255 255 255 255 255 255 255 255 255 
255 255 255 255 255 255 255 255 255 255 255 255 255 255 255 255 255 255 
255 255 255 255 255 255 255 255 255 254 255 255 254 255 255 102  60  63 
 62  62  63  62 180 217 223 250 254 254 255 254 255 255 255 255 255 255 
255 255 255 255 255 255 255 255 255 255 255 255 255 255 255 255 255 255 
255 255 255 255 255 255 255 255 255 255 255 255 255 255 255 255 255 255 
255 255 255 255 255 255 255 255 255 255 255 255 255 255 255 255 255 255 
255 255 255 255 255 255 255 255 255 255 255 255 255 255 255 255 255 255 
255 255 255 255 255 255 255 255 255 255 255 255 255 255 255 255 255 255 
255 255 255 255 255 255 255 255 255 255 255 255 255 255 255 255 255 255 
255 255 255 255 255 255 255 255 255 255 255 255 255 255 255 255 255 255 
255 255 255 255 255 255 255 255 255 255 255 255 255 255 255 255 255 255 
255 255 255 255 255 255 255 255 255 255 255 255 255 255 255 255 255 255 
255 255 255 255 255 255 255 255 255 255 255 255 255 255 255 255 255 255 
255 255 255 255 255 255 255 255 255 255 255 255 255 255 255 255 255 255 
255 255 255 255 255 255 255 255 255 255 255 255 255 255 255 255 255 255 
255 255 255 255 255 255 255 255 255 255 255 255 255 255 255 255 255 255 
255 255 255 255 255 255 255 255 255 255 254 254 255 255 250 218 217 217 
217 216 218 104  78  78  78  79  79  81  80 180 215 217 217 217 242 255 
254 255 255 255 255 254 255 255 255 255 255 255 255 255 255 255 255 255 
255 255 255 255 255 255 255 255 255 255 255 255 255 255 255 255 255 255 
255 255 255 255 255 255 255 255 255 255 255 255 255 255 255 255 255 255 
255 255 255 255 255 255 255 255 255 254 255 255 254 255 241  75  61  63 
 63  62  62  61  62 183 216 217 252 255 255 255 254 254 255 255 255 255 
255 255 255 255 255 255 255 255 255 255 255 255 255 255 255 255 255 255 
255 255 255 255 255 255 255 255 255 255 255 255 255 255 255 255 255 255 
255 255 255 255 255 255 255 255 255 255 255 255 255 255 255 255 255 255 
255 255 255 255 255 255 255 255 255 255 255 255 255 255 255 255 255 255 
255 255 255 255 255 255 255 255 255 255 255 255 255 255 255 255 255 255 
255 255 255 255 255 255 255 255 255 255 255 255 255 255 255 255 255 255 
255 255 255 255 255 255 255 255 255 255 255 255 255 255 255 255 255 255 
255 255 255 255 255 255 255 255 255 255 255 255 255 255 255 255 255 255 
255 255 255 255 255 255 255 255 255 255 255 255 255 255 255 255 255 255 
255 255 255 255 255 255 255 255 255 255 255 255 255 255 255 255 255 255 
255 255 255 255 255 255 255 255 255 255 255 255 255 255 255 255 255 255 
255 255 255 255 255 255 255 255 255 255 255 255 255 255 255 255 255 255 
255 255 255 255 255 255 255 255 255 255 255 255 255 255 255 255 255 255 
255 255 255 255 255 255 255 255 255 255 255 255 254 221 193 154 138 136 
145 161 144  78  79  78  78  79  79  79  77 131 220 218 217 216 229 255 
254 255 255 255 255 255 255 255 255 255 255 255 255 255 255 255 255 255 
255 255 255 255 255 255 255 255 255 255 255 255 255 255 255 255 255 255 
255 255 255 255 255 255 255 255 255 255 255 255 255 255 255 255 255 255 
255 255 255 255 255 255 255 255 255 255 254 254 255 254 210  60  61  62 
 63  61  63  61  62  81 173 147 142 157 164 183 213 252 255 255 255 255 
255 255 255 255 255 255 255 255 255 255 255 255 255 255 255 255 255 255 
255 255 255 255 255 255 255 255 255 255 255 255 255 255 255 255 255 255 
255 255 255 255 255 255 255 255 255 255 255 255 255 255 255 255 255 255 
255 255 255 255 255 255 255 255 255 255 255 255 255 255 255 255 255 255 
255 255 255 255 255 255 255 255 255 255 255 255 255 255 255 255 255 255 
255 255 255 255 255 255 255 255 255 255 255 255 255 255 255 255 255 255 
255 255 255 255 255 255 255 255 255 255 255 255 255 255 255 255 255 255 
255 255 255 255 255 255 255 255 255 255 255 255 255 255 255 255 255 255 
255 255 255 255 255 255 255 255 255 255 255 255 255 255 255 255 255 255 
255 255 255 255 255 255 255 255 255 255 255 255 255 255 255 255 255 255 
255 255 255 255 255 255 255 255 255 255 255 255 255 255 255 255 255 255 
255 255 255 255 255 255 255 255 255 255 255 255 255 255 255 255 255 255 
255 255 255 255 255 255 255 255 255 255 255 255 255 255 255 255 255 255 
255 255 255 255 255 255 255 255 255 255 221 127  72  74  74  78  80  80 
 78  77  77  78  79  79  79  79  81  79  78  77 219 217 217 216 216 254 
255 255 255 255 255 255 255 255 255 255 255 255 255 255 255 255 255 255 
255 255 255 255 255 254 255 254 255 255 254 255 254 255 255 254 255 255 
254 255 255 255 255 254 254 255 255 254 255 255 255 255 255 255 255 255 
255 255 255 255 255 255 255 255 255 255 254 255 254 254 118  61  61  62 
 61  62  62  61  62  61  57  59  61  61  59  58  55  52  97 188 255 255 
255 255 254 255 255 255 255 255 255 255 255 255 255 255 255 255 255 255 
255 255 255 255 255 255 255 255 255 255 255 255 255 255 255 255 255 255 
255 255 255 255 255 255 255 255 255 255 255 255 255 255 255 255 255 255 
255 255 255 255 255 255 255 255 255 255 255 255 255 255 255 255 255 255 
255 255 255 255 255 255 255 255 255 255 255 255 255 255 255 255 255 255 
255 255 255 255 255 255 255 255 255 255 255 255 255 255 255 255 255 255 
255 255 255 255 255 255 255 255 255 255 255 255 255 255 255 255 255 255 
255 255 255 255 255 255 255 255 255 255 255 255 255 255 255 255 255 255 
255 255 255 255 255 255 255 255 255 255 255 255 255 255 255 255 255 255 
255 255 255 255 255 255 255 255 255 255 255 255 255 255 255 255 255 255 
255 255 255 255 255 255 255 255 255 255 255 255 255 255 255 255 255 255 
255 255 255 255 255 255 255 255 255 255 255 255 255 255 255 255 255 255 
255 255 255 255 255 255 255 255 255 255 255 255 255 255 255 255 255 255 
255 255 255 255 255 255 255 255 255 255 212  78  79  78  81  81  80  78 
 79  79  79  79  79  80  79  78  79  78  78  76 148 219 216 217 216 234 
255 254 255 255 254 255 255 255 255 255 255 255 255 255 255 255 255 255 
255 255 255 255 255 255 255 255 255 254 255 255 255 254 255 254 255 254 
255 254 255 255 254 255 255 255 254 254 255 255 255 255 255 255 255 255 
255 255 255 255 255 255 255 255 254 254 255 253 255 233  54  62  61  62 
 62  63  62  61  61  59  61  61  62  61  62  59  62  60  60 137 251 255 
255 255 253 255 255 255 255 255 255 255 255 255 255 255 255 255 255 255 
255 255 255 255 255 255 255 255 255 255 255 255 255 255 255 255 255 255 
255 255 255 255 255 255 255 255 255 255 255 255 255 255 255 255 255 255 
255 255 255 255 255 255 255 255 255 255 255 255 255 255 255 255 255 255 
255 255 255 255 255 255 255 255 255 255 255 255 255 255 255 255 255 255 
255 255 255 255 255 255 255 255 255 255 255 255 255 255 255 255 255 255 
255 255 255 255 255 255 255 255 255 255 255 255 255 255 255 255 255 255 
255 255 255 255 255 255 255 255 255 255 255 255 255 255 255 255 255 255 
255 255 255 255 255 255 255 255 255 255 255 255 255 255 255 255 255 255 
255 255 255 255 255 255 255 255 255 255 255 255 255 255 255 255 255 255 
255 255 255 255 255 255 255 255 255 255 255 255 255 255 255 255 255 255 
255 255 255 255 255 255 255 255 255 255 255 255 255 255 255 255 255 255 
255 255 255 255 255 255 255 255 255 255 255 255 255 255 255 255 255 255 
255 255 255 255 255 255 255 255 255 255 255 138  75  78  79  78  78  78 
 78  78  78  78  78  80  79  79  78  80  80  79  93 212 217 217 217 220 
252 255 254 255 255 255 255 255 255 255 255 255 255 255 255 255 255 255 
255 255 255 255 254 254 255 254 255 255 254 254 254 255 255 255 254 255 
255 255 255 255 254 255 254 255 253 255 255 255 255 255 255 255 255 255 
255 255 255 255 255 255 255 255 255 255 254 254 255 140  61  61  62  62 
 62  62  62  62  62  62  62  61  61  61  63  63  61  62  67 212 213 217 
230 240 252 254 255 255 255 255 255 255 255 255 255 255 255 255 255 255 
255 255 255 255 255 255 255 255 255 255 255 255 255 255 255 255 255 255 
255 255 255 255 255 255 255 255 255 255 255 255 255 255 255 255 255 255 
255 255 255 255 255 255 255 255 255 255 255 255 255 255 255 255 255 255 
255 255 255 255 255 255 255 255 255 255 255 255 255 255 255 255 255 255 
255 255 255 255 255 255 255 255 255 255 255 255 255 255 255 255 255 255 
255 255 255 255 255 255 255 255 255 255 255 255 255 255 255 255 255 255 
255 255 255 255 255 255 255 255 255 255 255 255 255 255 255 255 255 255 
255 255 255 255 255 255 255 255 255 255 255 255 255 255 255 255 255 255 
255 255 255 255 255 255 255 255 255 255 255 255 255 255 255 255 255 255 
255 255 255 255 255 255 255 255 255 255 255 255 255 255 255 255 255 255 
255 255 255 255 255 255 255 255 255 255 255 255 255 255 255 255 255 255 
255 255 255 255 255 255 255 255 255 255 255 255 255 255 255 255 255 255 
255 255 255 255 255 255 255 255 255 255 254 254  91  78  78  80  80  80 
 79  79  79  79  79  79  79  79  80  79  79  79  77 186 219 216 217 216 
245 255 255 255 255 255 255 255 255 255 255 255 255 255 255 255 255 255 
255 255 255 255 254 254 254 255 255 249 254 255 254 255 254 255 255 254 
255 255 255 255 253 255 254 254 255 254 255 255 255 255 255 255 255 255 
255 255 255 255 255 255 255 255 255 253 254 255 253  77  62  62  62  62 
 62  62  62  62  62  62  62  62  62  62  61  64  61  57 188 218 217 216 
216 215 248 254 255 255 255 255 255 255 255 255 255 255 255 255 255 255 
255 255 255 255 255 255 255 255 255 255 255 255 255 255 255 255 255 255 
255 255 255 255 255 255 255 255 255 255 255 255 255 255 255 255 255 255 
255 255 255 255 255 255 255 255 255 255 255 255 255 255 255 255 255 255 
255 255 255 255 255 255 255 255 255 255 255 255 255 255 255 255 255 255 
255 255 255 255 255 255 255 255 255 255 255 255 255 255 255 255 255 255 
255 255 255 255 255 255 255 255 255 255 255 255 255 255 255 255 255 255 
255 255 255 255 255 255 255 255 255 255 255 255 255 255 255 255 255 255 
255 255 255 255 255 255 255 255 255 255 255 255 255 255 255 255 255 255 
255 255 255 255 255 255 255 255 255 255 255 255 255 255 255 255 255 255 
255 255 255 255 255 255 255 255 255 255 255 255 255 255 255 255 255 255 
255 255 255 255 255 255 255 255 255 255 255 255 255 255 255 255 255 255 
255 255 255 255 255 255 255 255 255 255 255 255 255 255 255 255 255 255 
255 255 255 255 255 255 255 255 255 255 255 254 176  78  79  80  80  80 
 80  79  79  79  79  79  79  79  79  79  80  78  78  93 221 218 218 215 
221 254 255 254 255 255 255 255 255 255 255 255 255 255 255 255 255 255 
255 255 255 255 255 213 212 216 228 219 217 219 228 234 249 255 255 239 
223 216 211 225 246 235 231 234 252 255 255 255 255 255 255 255 255 255 
255 255 255 255 255 255 255 255 255 254 254 254 157  56  62  61  62  62 
 62  62  62  62  61  61  62  63  63  64  61  60  61  92 217 216 217 216 
216 243 254 254 255 255 255 255 255 255 255 255 255 255 255 255 255 255 
255 255 255 255 255 255 255 255 255 255 255 255 255 255 255 255 255 255 
255 255 255 255 255 255 255 255 255 255 255 255 255 255 255 255 255 255 
255 255 255 255 255 255 255 255 255 255 255 255 255 255 255 255 255 255 
255 255 255 255 255 255 255 255 255 255 255 255 255 255 255 255 255 255 
255 255 255 255 255 255 255 255 255 255 255 255 255 255 255 255 255 255 
255 255 255 255 255 255 255 255 255 255 255 255 255 255 255 255 255 255 
255 255 255 255 255 255 255 255 255 255 255 255 255 255 255 255 255 255 
255 255 255 255 255 255 255 255 255 255 255 255 255 255 255 255 255 255 
255 255 255 255 255 255 255 255 255 255 255 255 255 255 255 255 255 255 
255 255 255 255 255 255 255 255 255 255 255 255 255 255 255 255 255 255 
255 255 255 255 255 255 255 255 255 255 255 255 255 255 255 255 255 255 
255 255 255 255 255 255 255 255 255 255 255 255 255 255 255 255 255 255 
255 255 255 255 255 255 255 255 255 255 255 254 255  82  78  81  79  79 
 79  79  79  79  79  79  79  79  80  80  79  79  78  76 165 215 217 217 
216 240 254 255 255 255 255 255 255 255 255 255 255 255 255 255 255 255 
255 255 255 255 255 217 202 202 202 200 203 211 216 216 214 216 200 201 
202 204 202 212 215 216 217 226 255 255 255 255 255 255 255 255 255 255 
255 255 255 255 255 255 255 255 255 254 254 238  56  61  61  62  62  62 
 62  62  62  62  62  63  62  62  63  63  63  61  56 176 217 216 216 216 
224 254 254 255 255 255 255 255 255 255 255 255 255 255 255 255 255 255 
255 255 255 255 255 255 255 255 255 255 255 255 255 255 255 255 255 255 
255 255 255 255 255 255 255 255 255 255 255 255 255 255 255 255 255 255 
255 255 255 255 255 255 255 255 255 255 255 255 255 255 255 255 255 255 
255 255 255 255 255 255 255 255 255 255 255 255 255 255 255 255 255 255 
255 255 255 255 255 255 255 255 255 255 255 255 255 255 255 255 255 255 
255 255 255 255 255 255 255 255 255 255 255 255 255 255 255 255 255 255 
255 255 255 255 255 255 255 255 255 255 255 255 255 255 255 255 255 255 
255 255 255 255 255 255 255 255 255 255 255 255 255 255 255 255 255 255 
255 255 255 255 255 255 255 255 255 255 255 255 255 255 255 255 255 255 
255 255 255 255 255 255 255 255 255 255 255 255 255 255 255 255 255 255 
255 255 255 255 255 255 255 255 255 255 255 255 255 255 255 255 255 255 
255 255 255 255 255 255 255 255 255 255 255 255 255 255 255 255 255 255 
255 255 255 255 255 255 255 255 255 255 254 255 253 195  74  78  81  80 
 78  79  79  79  79  79  79  79  79  79  79  79  78  78  95 221 218 217 
217 222 255 253 255 255 255 255 255 255 255 255 255 255 255 255 255 255 
255 255 255 255 255 226 202 203 202 203 201 202 203 207 202 200 203 201 
202 203 201 217 217 217 216 233 254 255 255 255 255 255 255 255 255 255 
255 255 255 255 255 255 255 255 253 255 255 150  61  62  62  63  62  62 
 62  62  62  62  62  62  62  62  62  62  63  61  96 224 217 217 216 215 
253 255 254 254 255 255 255 255 255 255 255 255 255 255 255 255 255 255 
255 255 255 255 255 255 255 255 255 255 255 255 255 255 255 255 255 255 
255 255 255 255 255 255 255 255 255 255 255 255 255 255 255 255 255 255 
255 255 255 255 255 255 255 255 255 255 255 255 255 255 255 255 255 255 
255 255 255 255 255 255 255 255 255 255 255 255 255 255 255 255 255 255 
255 255 255 255 255 255 255 255 255 255 255 255 255 255 255 255 255 255 
255 255 255 255 255 255 255 255 255 255 255 255 255 255 255 255 255 255 
255 255 255 255 255 255 255 255 255 255 255 255 255 255 255 255 255 255 
255 255 255 255 255 255 255 255 255 255 255 255 255 255 255 255 255 255 
255 255 255 255 255 255 255 255 255 255 255 255 255 255 255 255 255 255 
255 255 255 255 255 255 255 255 255 255 255 255 255 255 255 255 255 255 
255 255 255 255 255 255 255 255 255 255 255 255 255 255 255 255 255 255 
255 255 255 255 255 255 255 255 255 255 255 255 255 255 255 255 255 255 
255 255 255 255 255 255 255 255 255 255 255 255 253 249  94  81  78  80 
 79  79  79  79  79  79  79  79  79  80  79  79  77  79  75 145 221 218 
217 215 236 255 255 254 255 255 255 255 255 255 255 255 255 255 255 255 
255 255 255 255 255 232 202 203 203 203 203 204 203 202 204 203 204 203 
204 203 202 217 217 217 215 241 255 255 255 255 255 255 255 255 255 255 
255 255 255 255 255 255 255 255 254 255 230  56  62  62  61  62  62  62 
 62  62  62  62  62  62  62  62  63  62  62  61 179 217 217 216 216 236 
254 255 255 255 255 255 255 255 255 255 255 255 255 255 255 255 255 255 
255 255 255 255 255 255 255 255 255 255 255 255 255 255 255 255 255 255 
255 255 255 255 255 255 255 255 255 255 255 255 255 255 255 255 255 255 
255 255 255 255 255 255 255 255 255 255 255 255 255 255 255 255 255 255 
255 255 255 255 255 255 255 255 255 255 255 255 255 255 255 255 255 255 
255 255 255 255 255 255 255 255 255 255 255 255 255 255 255 255 255 255 
255 255 255 255 255 255 255 255 255 255 255 255 255 255 255 255 255 255 
255 255 255 255 255 255 255 255 255 255 255 255 255 255 255 255 255 255 
255 255 255 255 255 255 255 255 255 255 255 255 255 255 255 255 255 255 
255 255 255 255 255 255 255 255 255 255 255 255 255 255 255 255 255 255 
255 255 255 255 255 255 255 255 255 255 255 255 255 255 255 255 255 255 
255 255 255 255 255 255 255 255 255 255 255 255 255 255 255 255 255 255 
255 255 255 255 255 255 255 255 255 255 255 255 255 255 255 255 255 255 
255 255 255 255 255 255 255 255 255 255 255 255 254 255 137  77  78  80 
 79  79  79  79  79  79  79  79  79  79  80  79  78  78  79  79 193 217 
216 217 217 247 255 255 255 255 254 255 255 255 255 255 255 255 255 255 
255 255 255 255 254 237 202 202 203 203 203 204 203 203 203 203 203 203 
203 203 203 216 217 217 215 247 255 255 255 255 255 255 255 255 255 255 
255 255 254 255 255 254 254 254 254 252  85  62  62  63  62  62  62  62 
 62  62  62  62  62  62  62  62  62  62  60  72 210 216 217 216 217 252 
253 255 254 255 255 255 255 255 255 255 255 255 255 255 255 255 255 255 
255 255 255 255 255 255 255 255 255 255 255 255 255 255 255 255 255 255 
255 255 255 255 255 255 255 255 255 255 255 255 255 255 255 255 255 255 
255 255 255 255 255 255 255 255 255 255 255 255 255 255 255 255 255 255 
255 255 255 255 255 255 255 255 255 255 255 255 255 255 255 255 255 255 
255 255 255 255 255 255 255 255 255 255 255 255 255 255 255 255 255 255 
255 255 255 255 255 255 255 255 255 255 255 255 255 255 255 255 255 255 
255 255 255 255 255 255 255 255 255 255 255 255 255 255 255 255 255 255 
255 255 255 255 255 255 255 255 255 255 255 255 255 255 255 255 255 255 
255 255 255 255 255 255 255 255 255 255 255 255 255 255 255 255 255 255 
255 255 255 255 255 255 255 255 255 255 255 255 255 255 255 255 255 255 
255 255 255 255 255 255 255 255 255 255 255 255 255 255 255 255 255 255 
255 255 255 255 255 255 255 255 255 255 255 255 255 255 255 255 255 255 
255 255 255 255 255 255 255 255 255 255 254 255 254 254 232  65  78  79 
 79  79  79  79  79  79  79  79  79  79  79  79  78  78  78  78 106 223 
217 217 216 224 255 253 255 255 255 255 255 255 255 255 255 255 255 255 
255 255 255 255 255 239 201 203 204 203 203 203 203 203 203 203 203 203 
203 203 203 216 216 217 214 252 255 255 255 255 255 255 255 255 255 255 
254 255 255 255 254 255 255 254 254 173  61  61  64  62  62  62  62  62 
 62  62  62  62  62  62  62  62  61  62  58 124 221 216 217 214 234 254 
255 255 255 255 255 255 255 255 255 255 255 255 255 255 255 255 255 255 
255 255 255 255 255 255 255 255 255 255 255 255 255 255 255 255 255 255 
255 255 255 255 255 255 255 255 255 255 255 255 255 255 255 255 255 255 
255 255 255 255 255 255 255 255 255 255 255 255 255 255 255 255 255 255 
255 255 255 255 255 255 255 255 255 255 255 255 255 255 255 255 255 255 
255 255 255 255 255 255 255 255 255 255 255 255 255 255 255 255 255 255 
255 255 255 255 255 255 255 255 255 255 255 255 255 255 255 255 255 255 
255 255 255 255 255 255 255 255 255 255 255 255 255 255 255 255 255 255 
255 255 255 255 255 255 255 255 255 255 255 255 255 255 255 255 255 255 
255 255 255 255 255 255 255 255 255 255 255 255 255 255 255 255 255 255 
255 255 255 255 255 255 255 255 255 255 255 255 255 255 255 255 255 255 
255 255 255 255 255 255 255 255 255 255 255 255 255 255 255 255 255 255 
255 255 255 255 255 255 255 255 255 255 255 255 255 255 255 255 255 255 
255 255 255 255 255 255 255 255 255 255 255 255 255 255 255 110  77  80 
 79  79  79  79  79  79  79  79  79  79  79  79  79  79  79  78  74 139 
217 216 216 215 236 254 254 255 255 255 255 254 255 255 255 255 255 255 
255 255 255 255 255 241 201 204 204 203 203 203 203 203 203 203 203 203 
203 203 205 216 217 217 214 255 255 255 255 255 255 255 255 255 255 255 
255 255 255 255 255 255 253 254 221  51  62  62  62  62  64  63  62  62 
 62  62  62  62  62  62  63  62  62  62  55 206 217 217 217 218 255 255 
255 255 255 254 255 255 255 255 255 255 255 255 255 255 255 255 255 255 
255 255 255 255 255 255 255 255 255 255 255 255 255 255 255 255 255 255 
255 255 255 255 255 255 255 255 255 255 255 255 255 255 255 255 255 255 
255 255 255 255 255 255 255 255 255 255 255 255 255 255 255 255 255 255 
255 255 255 255 255 255 255 255 255 255 255 255 255 255 255 255 255 255 
255 255 255 255 255 255 255 255 255 255 255 255 255 255 255 255 255 255 
255 255 255 255 255 255 255 255 255 255 255 255 255 255 255 255 255 255 
255 255 255 255 255 255 255 255 255 255 255 255 255 255 255 255 255 255 
255 255 255 255 255 255 255 255 255 255 255 255 255 255 255 255 255 255 
255 255 255 255 255 255 255 255 255 255 255 255 255 255 255 255 255 255 
255 255 255 255 255 255 255 255 255 255 255 255 255 255 255 255 255 255 
255 255 255 255 255 255 255 255 255 255 255 255 255 255 255 255 255 255 
255 255 255 255 255 255 255 255 255 255 255 255 255 255 255 255 255 255 
255 255 255 255 255 255 255 255 255 255 254 255 254 254 254 186  78  79 
 79  78  79  79  79  79  79  79  79  79  79  79  79  79  79  78  80  79 
192 217 217 218 216 247 255 255 255 255 254 255 255 255 255 255 255 255 
255 255 255 255 254 241 201 203 204 204 203 203 203 203 203 203 203 203 
203 203 205 216 217 216 214 255 253 255 255 255 255 255 255 255 255 255 
254 253 255 255 255 254 254 253  85  62  60  62  62  63  63  62  62  62 
 62  62  62  62  62  62  63  61  63  60  94 220 217 216 216 233 255 253 
255 254 255 255 255 255 255 255 255 255 255 255 255 255 255 255 255 255 
255 255 255 255 255 255 255 255 255 255 255 255 255 255 255 255 255 255 
255 255 255 255 255 255 255 255 255 255 255 255 255 255 255 255 255 255 
255 255 255 255 255 255 255 255 255 255 255 255 255 255 255 255 255 255 
255 255 255 255 255 255 255 255 255 255 255 255 255 255 255 255 255 255 
255 255 255 255 255 255 255 255 255 255 255 255 255 255 255 255 255 255 
255 255 255 255 255 255 255 255 255 255 255 255 255 255 255 255 255 255 
255 255 255 255 255 255 255 255 255 255 255 255 255 255 255 255 255 255 
255 255 255 255 255 255 255 255 255 255 255 255 255 255 255 255 255 255 
255 255 255 255 255 255 255 255 255 255 255 255 255 255 255 255 255 255 
255 255 255 255 255 255 255 255 255 255 255 255 255 255 255 255 255 255 
255 255 255 255 255 255 255 255 255 255 255 255 255 255 255 255 255 255 
255 255 255 255 255 255 255 255 255 255 255 255 255 255 255 255 255 255 
255 255 255 255 255 255 255 255 255 255 255 255 254 255 255 225  84  78 
 78  78  79  79  79  79  79  79  79  79  79  79  79  79  78  78  77  78 
 82 200 217 215 216 217 253 255 255 255 255 255 255 255 255 255 255 255 
255 255 255 255 254 240 201 202 203 203 203 203 203 203 203 203 203 203 
203 203 205 216 217 216 218 255 255 255 255 255 255 255 255 255 255 255 
255 255 254 255 255 254 255 116  57  61  64  62  61  64  61  62  62  62 
 62  62  62  62  62  62  62  63  61  62 140 218 216 217 216 245 255 255 
255 255 255 255 255 255 255 255 255 255 255 255 255 255 255 255 255 255 
255 255 255 255 255 255 255 255 255 255 255 255 255 255 255 255 255 255 
255 255 255 255 255 255 255 255 255 255 255 255 255 255 255 255 255 255 
255 255 255 255 255 255 255 255 255 255 255 255 255 255 255 255 255 255 
255 255 255 255 255 255 255 255 255 255 255 255 255 255 255 255 255 255 
255 255 255 255 255 255 255 255 255 255 255 255 255 255 255 255 255 255 
255 255 255 255 255 255 255 255 255 255 255 255 255 255 255 255 255 255 
255 255 255 255 255 255 255 255 255 255 255 255 255 255 255 255 255 255 
255 255 255 255 255 255 255 255 255 255 255 255 255 255 255 255 255 255 
255 255 255 255 255 255 255 255 255 255 255 255 255 255 255 255 255 255 
255 255 255 255 255 255 255 255 255 255 255 255 255 255 255 255 255 255 
255 255 255 255 255 255 255 255 255 255 255 255 255 255 255 255 255 255 
255 255 255 255 255 255 255 255 255 255 255 255 255 255 255 255 255 255 
255 255 255 255 255 255 255 255 255 255 255 255 254 255 253 249  87  81 
 78  78  79  79  79  79  79  79  79  79  79  79  79  79  79  79  80  78 
 78 100 214 218 217 218 224 255 255 254 254 255 255 255 255 255 255 255 
255 255 255 255 255 238 202 203 203 204 203 203 203 203 203 203 203 203 
203 203 204 216 218 216 219 255 255 255 255 255 255 255 255 255 255 255 
255 254 254 255 252 255 153  61  62  61  62  62  62  63  63  62  62  62 
 62  62  62  62  62  62  63  62  61  59 176 217 217 216 219 255 255 255 
255 255 255 255 255 255 255 255 255 255 255 255 255 255 255 255 255 255 
255 255 255 255 255 255 255 255 255 255 255 255 255 255 255 255 255 255 
255 255 255 255 255 255 255 255 255 255 255 255 255 255 255 255 255 255 
255 255 255 255 255 255 255 255 255 255 255 255 255 255 255 255 255 255 
255 255 255 255 255 255 255 255 255 255 255 255 255 255 255 255 255 255 
255 255 255 255 255 255 255 255 255 255 255 255 255 255 255 255 255 255 
255 255 255 255 255 255 255 255 255 255 255 255 255 255 255 255 255 255 
255 255 255 255 255 255 255 255 255 255 255 255 255 255 255 255 255 255 
255 255 255 255 255 255 255 255 255 255 255 255 255 255 255 255 255 255 
255 255 255 255 255 255 255 255 255 255 255 255 255 255 255 255 255 255 
255 255 255 255 255 255 255 255 255 255 255 255 255 255 255 255 255 255 
255 255 255 255 255 255 255 255 255 255 255 255 255 255 255 255 255 255 
255 255 255 255 255 255 255 255 255 255 255 255 255 255 255 255 255 255 
255 255 255 255 255 255 255 255 255 255 254 254 255 255 255 254 123  76 
 78  78  79  79  79  79  79  79  79  79  79  79  79  79  79  79  79  78 
 79  77 105 217 216 218 215 226 254 254 255 255 254 255 255 255 255 255 
255 255 255 255 254 235 202 202 203 203 203 203 203 203 203 203 203 203 
203 203 203 216 217 217 216 255 255 254 255 255 255 255 255 255 255 255 
255 255 254 255 255 160  58  64  62  63  62  63  62  63  61  62  62  62 
 62  62  62  62  62  62  62  62  61  56 210 218 216 215 239 255 255 255 
255 255 255 255 255 255 255 255 255 255 255 255 255 255 255 255 255 255 
255 255 255 255 255 255 255 255 255 255 255 255 255 255 255 255 255 255 
255 255 255 255 255 255 255 255 255 255 255 255 255 255 255 255 255 255 
255 255 255 255 255 255 255 255 255 255 255 255 255 255 255 255 255 255 
255 255 255 255 255 255 255 255 255 255 255 255 255 255 255 255 255 255 
255 255 255 255 255 255 255 255 255 255 255 255 255 255 255 255 255 255 
255 255 255 255 255 255 255 255 255 255 255 255 255 255 255 255 255 255 
255 255 255 255 255 255 255 255 255 255 255 255 255 255 255 255 255 255 
255 255 255 255 255 255 255 255 255 255 255 255 255 255 255 255 255 255 
255 255 255 255 255 255 255 255 255 255 255 255 255 255 255 255 255 255 
255 255 255 255 255 255 255 255 255 255 255 255 255 255 255 255 255 255 
255 255 255 255 255 255 255 255 255 255 255 255 255 255 255 255 255 255 
255 255 255 255 255 255 255 255 255 255 255 255 255 255 255 255 255 255 
255 255 255 255 255 255 255 255 255 255 255 255 255 255 255 254 189  72 
 78  78  79  79  79  79  79  79  79  79  79  79  79  79  79  79  79  78 
 78  79  79 121 218 218 216 216 232 255 254 255 255 255 255 255 255 255 
255 255 255 255 255 231 202 201 203 203 203 204 203 203 203 203 203 203 
203 203 201 217 217 218 213 255 255 254 255 255 255 255 255 255 255 255 
254 254 255 254 192  59  61  61  62  63  62  63  63  62  63  62  62  62 
 62  62  62  62  62  62  62  61  63  81 225 218 217 217 253 255 255 255 
255 255 255 254 255 255 255 255 255 255 255 255 255 255 255 255 255 255 
255 255 255 255 255 255 255 255 255 255 255 255 255 255 255 255 255 255 
255 255 255 255 255 255 255 255 255 255 255 255 255 255 255 255 255 255 
255 255 255 255 255 255 255 255 255 255 255 255 255 255 255 255 255 255 
255 255 255 255 255 255 255 255 255 255 255 255 255 255 255 255 255 255 
255 255 255 255 255 255 255 255 255 255 255 255 255 255 255 255 255 255 
255 255 255 255 255 255 255 255 255 255 255 255 255 255 255 255 255 255 
255 255 255 255 255 255 255 255 255 255 255 255 255 255 255 255 255 255 
255 255 255 255 255 255 255 255 255 255 255 255 255 255 255 255 255 255 
255 255 255 255 255 255 255 255 255 255 255 255 255 255 255 255 255 255 
255 255 255 255 255 255 255 255 255 255 255 255 255 255 255 255 255 255 
255 255 255 255 255 255 255 255 255 255 255 255 255 255 255 255 255 255 
255 255 255 255 255 255 255 255 255 255 255 255 255 255 255 255 255 255 
255 255 255 255 255 255 255 255 255 255 255 255 255 254 254 255 249  69 
 78  78  79  79  79  79  80  79  79  80  79  80  79  79  80  80  79  78 
 80  78  81  78 110 217 216 217 216 229 255 255 255 255 254 254 255 255 
254 254 254 255 255 225 201 202 203 204 203 203 203 203 203 203 203 203 
203 203 201 214 218 216 215 251 254 255 255 254 255 255 255 255 254 255 
255 254 254 173  58  62  61  62  62  62  63  61  62  61  64  62  63  62 
 62  64  63  62  62  62  63  62  58 136 221 217 216 223 254 255 255 255 
255 255 255 255 255 255 255 255 255 255 255 255 255 255 255 255 255 255 
255 255 255 255 255 255 255 255 255 255 255 255 255 255 255 255 255 255 
255 255 255 255 255 255 255 255 255 255 255 255 255 255 255 255 255 255 
255 255 255 255 255 255 255 255 255 255 255 255 255 255 255 255 255 255 
255 255 255 255 255 255 255 255 255 255 255 255 255 255 255 255 255 255 
255 255 255 255 255 255 255 255 255 255 255 255 255 255 255 255 255 255 
255 255 255 255 255 255 255 255 255 255 255 255 255 255 255 255 255 255 
255 255 255 255 255 255 255 255 255 255 255 255 255 255 255 255 255 255 
255 255 255 255 255 255 255 255 255 255 255 255 255 255 255 255 255 255 
255 255 255 255 255 255 255 255 255 255 255 255 255 255 255 255 255 255 
255 255 255 255 255 255 255 255 255 255 255 255 255 255 255 255 255 255 
255 255 255 255 255 255 255 255 255 255 255 255 255 255 255 255 255 255 
255 255 255 255 255 255 255 255 255 255 255 255 255 255 255 255 255 255 
255 255 255 255 255 255 255 255 255 255 255 254 255 255 255 255 254  89 
 78  78  79  79  79  79  80  79  79  80  80  78  80  80  80  79  79  79 
 79  78  78  79  79 116 214 217 217 216 233 255 255 254 255 255 255 254 
255 255 255 255 255 218 203 202 203 203 204 203 203 203 203 203 203 203 
203 203 201 211 217 218 215 247 255 254 254 255 254 254 254 254 255 253 
254 254 168  62  62  62  62  62  64  62  63  62  62  62  62  63  61  62 
 62  62  62  61  62  62  62  62  55 180 219 217 217 228 255 255 255 255 
255 255 255 255 255 255 255 255 255 255 255 255 255 255 255 255 255 255 
255 255 255 255 255 255 255 255 255 255 255 255 255 255 255 255 255 255 
255 255 255 255 255 255 255 255 255 255 255 255 255 255 255 255 255 255 
255 255 255 255 255 255 255 255 255 255 255 255 255 255 255 255 255 255 
255 255 255 255 255 255 255 255 255 255 255 255 255 255 255 255 255 255 
255 255 255 255 255 255 255 255 255 255 255 255 255 255 255 255 255 255 
255 255 255 255 255 255 255 255 255 255 255 255 255 255 255 255 255 255 
255 255 255 255 255 255 255 255 255 255 255 255 255 255 255 255 255 255 
255 255 255 255 255 255 255 255 255 255 255 255 255 255 255 255 255 255 
255 255 255 255 255 255 255 255 255 255 255 255 255 255 255 255 255 255 
255 255 255 255 255 255 255 255 255 255 255 255 255 255 255 255 255 255 
255 255 255 255 255 255 255 255 255 255 255 255 255 255 255 255 255 255 
255 255 255 255 255 255 255 255 255 255 255 255 255 255 255 255 255 255 
255 255 255 255 255 255 255 255 255 255 254 254 255 255 255 254 255 114 
 79  78  79  79  79  79  79  78  79  79  80  78  78  77  79  80  80  79 
 78  78  78  79  80  79 100 210 217 215 216 227 254 255 255 255 255 255 
255 255 255 254 255 206 202 202 203 203 203 203 203 203 203 203 203 203 
203 203 201 208 217 217 215 241 254 254 254 255 255 255 254 255 253 254 
254 152  57  61  62  62  62  62  60  62  62  63  59  63  62  60  61  61 
 61  61  61  61  62  61  61  62  57 213 215 219 215 243 255 255 255 255 
255 255 255 255 255 255 255 255 255 255 255 255 255 255 255 255 255 255 
255 255 255 255 255 255 255 255 255 255 255 255 255 255 255 255 255 255 
255 255 255 255 255 255 255 255 255 255 255 255 255 255 255 255 255 255 
255 255 255 255 255 255 255 255 255 255 255 255 255 255 255 255 255 255 
255 255 255 255 255 255 255 255 255 255 255 255 255 255 255 255 255 255 
255 255 255 255 255 255 255 255 255 255 255 255 255 255 255 255 255 255 
255 255 255 255 255 255 255 255 255 255 255 255 255 255 255 255 255 255 
255 255 255 255 255 255 255 255 255 255 255 255 255 255 255 255 255 255 
255 255 255 255 255 255 255 255 255 255 255 255 255 255 255 255 255 255 
255 255 255 255 255 255 255 255 255 255 255 255 255 255 255 255 255 255 
255 255 255 255 255 255 255 255 255 255 255 255 255 255 255 255 255 255 
255 255 255 255 255 255 255 255 255 255 255 255 255 255 255 255 255 255 
255 255 255 255 255 255 255 255 255 255 255 255 255 255 255 255 255 255 
255 255 255 255 255 255 255 255 255 255 255 255 255 255 255 254 255 137 
 79  78  79  79  79  79  79  77  80  79  84  76  78  79  79  80  79  78 
 79  81  77  78  78  79  79  90 190 218 217 215 222 253 254 253 255 255 
255 255 254 255 254 202 202 202 203 204 202 203 203 203 203 203 203 203 
203 203 201 203 217 217 215 234 255 255 255 253 255 255 255 255 254 252 
110  57  61  60  60  62  61  63  61  63  60  60  61  60  58  66  60  61 
 62  61  61  61  62  61  63  61  69 214 217 217 214 253 255 255 255 255 
255 255 255 255 255 255 255 255 255 255 255 255 255 255 255 255 255 255 
255 255 255 255 255 255 255 255 255 255 255 255 255 255 255 255 255 255 
255 255 255 255 255 255 255 255 255 255 255 255 255 255 255 255 255 255 
255 255 255 255 255 255 255 255 255 255 255 255 255 255 255 255 255 255 
255 255 255 255 255 255 255 255 255 255 255 255 255 255 255 255 255 255 
255 255 255 255 255 255 255 255 255 255 255 255 255 255 255 255 255 255 
255 255 255 255 255 255 255 255 255 255 255 255 255 255 255 255 255 255 
255 255 255 255 255 255 255 255 255 255 255 255 255 255 255 255 255 255 
255 255 255 255 255 255 255 255 255 255 255 255 255 255 255 255 255 255 
255 255 255 255 255 255 255 255 255 255 255 255 255 255 255 255 255 255 
255 255 255 255 255 255 255 255 255 255 255 255 255 255 255 255 255 255 
255 255 255 255 255 255 255 255 255 255 255 255 255 255 255 255 255 255 
255 255 255 255 255 255 255 255 255 255 255 255 255 255 255 255 255 255 
255 255 255 255 255 255 255 255 255 255 255 255 255 255 255 255 255 155 
 78  78  79  79  79  79  79  78  78  77 148 145  76  79  79  80  79  80 
 79  80  80  80  78  80  79  79  78 168 218 218 217 219 247 254 254 255 
255 255 254 255 237 200 203 203 202 204 203 203 203 203 203 203 203 203 
203 203 202 201 216 217 218 227 253 255 255 255 255 254 254 255 228  90 
 58  60  61  61  62  61  61  61  61  60  61  60  62  56  96 209  51  60 
 61  61  61  62  63  61  60  62  81 213 217 216 219 254 255 255 255 255 
255 255 255 255 255 255 255 255 255 255 255 255 255 255 255 255 255 255 
255 255 255 255 255 255 255 255 255 255 255 255 255 255 255 255 255 255 
255 255 255 255 255 255 255 255 255 255 255 255 255 255 255 255 255 255 
255 255 255 255 255 255 255 255 255 255 255 255 255 255 255 255 255 255 
255 255 255 255 255 255 255 255 255 255 255 255 255 255 255 255 255 255 
255 255 255 255 255 255 255 255 255 255 255 255 255 255 255 255 255 255 
255 255 255 255 255 255 255 255 255 255 255 255 255 255 255 255 255 255 
255 255 255 255 255 255 255 255 255 255 255 255 255 255 255 255 255 255 
255 255 255 255 255 255 255 255 255 255 255 255 255 255 255 255 255 255 
255 255 255 255 255 255 255 255 255 255 255 255 255 255 255 255 255 255 
255 255 255 255 255 255 255 255 255 255 255 255 255 255 255 255 255 255 
255 255 255 255 255 255 255 255 255 255 255 255 255 255 255 255 255 255 
255 255 255 255 255 255 255 255 255 255 255 255 255 255 255 255 255 255 
255 255 255 255 255 255 255 255 255 255 255 255 254 255 255 255 254 170 
 78  78  79  80  79  79  79  78  80  73 167 220 182  79  79  78  79  79 
 79  78  81  79  81  79  81  78  80  78 116 220 217 215 217 237 255 255 
255 255 255 255 214 202 203 204 203 203 204 203 203 203 203 203 203 203 
203 203 202 203 211 216 217 221 255 255 255 254 255 254 255 184  63  60 
 60  60  61  61  61  60  62  63  60  61  61  61  59 129 217 226  51  61 
 62  62  61  61  62  61  61  61  91 215 217 216 229 255 255 255 255 255 
255 255 255 255 255 255 255 255 255 255 255 255 255 255 255 255 255 255 
255 255 255 255 255 255 255 255 255 255 255 255 255 255 255 255 255 255 
255 255 255 255 255 255 255 255 255 255 255 255 255 255 255 255 255 255 
255 255 255 255 255 255 255 255 255 255 255 255 255 255 255 255 255 255 
255 255 255 255 255 255 255 255 255 255 255 255 255 255 255 255 255 255 
255 255 255 255 255 255 255 255 255 255 255 255 255 255 255 255 255 255 
255 255 255 255 255 255 255 255 255 255 255 255 255 255 255 255 255 255 
255 255 255 255 255 255 255 255 255 255 255 255 255 255 255 255 255 255 
255 255 255 255 255 255 255 255 255 255 255 255 255 255 255 255 255 255 
255 255 255 255 255 255 255 255 255 255 255 255 255 255 255 255 255 255 
255 255 255 255 255 255 255 255 255 255 255 255 255 255 255 255 255 255 
255 255 255 255 255 255 255 255 255 255 255 255 255 255 255 255 255 255 
255 255 255 255 255 255 255 255 255 255 255 255 255 255 255 255 255 255 
255 255 255 255 255 255 255 255 255 255 255 255 254 255 255 254 254 183 
 78  78  79  80  79  79  79  77  78  74 190 217 220 204 110  77  81  78 
 79  81  78  80  78  79  79  79  78  80  76  93 170 223 216 216 224 251 
255 254 254 252 205 203 204 203 203 204 204 203 203 203 203 203 203 203 
203 203 203 204 207 218 216 218 253 255 255 255 255 234 116  53  61  61 
 60  61  62  62  62  61  62  60  62  61  61  63 159 220 216 224  72  61 
 61  62  62  61  61  61  61  62  95 216 215 218 236 255 255 255 255 255 
255 255 255 255 255 255 255 255 255 255 255 255 255 255 255 255 255 255 
255 255 255 255 255 255 255 255 255 255 255 255 255 255 255 255 255 255 
255 255 255 255 255 255 255 255 255 255 255 255 255 255 255 255 255 255 
255 255 255 255 255 255 255 255 255 255 255 255 255 255 255 255 255 255 
255 255 255 255 255 255 255 255 255 255 255 255 255 255 255 255 255 255 
255 255 255 255 255 255 255 255 255 255 255 255 255 255 255 255 255 255 
255 255 255 255 255 255 255 255 255 255 255 255 255 255 255 255 255 255 
255 255 255 255 255 255 255 255 255 255 255 255 255 255 255 255 255 255 
255 255 255 255 255 255 255 255 255 255 255 255 255 255 255 255 255 255 
255 255 255 255 255 255 255 255 255 255 255 255 255 255 255 255 255 255 
255 255 255 255 255 255 255 255 255 255 255 255 255 255 255 255 255 255 
255 255 255 255 255 255 255 255 255 255 255 255 255 255 255 255 255 255 
255 255 255 255 255 255 255 255 255 255 255 255 255 255 255 255 255 255 
255 255 255 255 255 255 255 255 255 255 255 255 254 255 255 255 254 191 
 78  78  79  80  79  79  79  78  81  72 217 217 215 239 255 132  80  80 
 79  78  78  79  80  80  79  79  80  78  79  78  77 123 208 218 217 213 
239 253 254 244 203 203 203 203 203 203 203 203 203 203 203 203 203 203 
203 203 204 204 204 216 218 214 243 255 254 248 184  55  61  60  61  61 
 62  62  61  61  61  61  61  62  61  60  78 202 219 216 216 224  96  61 
 61  60  61  62  61  60  61  62  99 214 218 216 243 255 255 255 255 255 
255 255 255 255 255 255 255 255 255 255 255 255 255 255 255 255 255 255 
255 255 255 255 255 255 255 255 255 255 255 255 255 255 255 255 255 255 
255 255 255 255 255 255 255 255 255 255 255 255 255 255 255 255 255 255 
255 255 255 255 255 255 255 255 255 255 255 255 255 255 255 255 255 255 
255 255 255 255 255 255 255 255 255 255 255 255 255 255 255 255 255 255 
255 255 255 255 255 255 255 255 255 255 255 255 255 255 255 255 255 255 
255 255 255 255 255 255 255 255 255 255 255 255 255 255 255 255 255 255 
255 255 255 255 255 255 255 255 255 255 255 255 255 255 255 255 255 255 
255 255 255 255 255 255 255 255 255 255 255 255 255 255 255 255 255 255 
255 255 255 255 255 255 255 255 255 255 255 255 255 255 255 255 255 255 
255 255 255 255 255 255 255 255 255 255 255 255 255 255 255 255 255 255 
255 255 255 255 255 255 255 255 255 255 255 255 255 255 255 255 255 255 
255 255 255 255 255 255 255 255 255 255 255 255 255 254 255 255 254 255 
253 255 255 255 255 255 255 255 255 255 255 255 255 255 255 255 255 191 
 78  78  79  79  79  79  79  78  79  85 219 217 216 249 255 254 213  83 
 78  78  80  78  79  80  79  79  80  78  78  79  79  78  86 140 224 216 
216 222 247 227 201 204 203 204 203 203 203 203 203 202 202 203 204 203 
203 203 203 204 201 212 217 216 224 255 203  87  58  60  60  60  60  62 
 61  62  62  61  60  60  60  61  51 144 214 218 215 216 223 254 133  61 
 61  61  62  61  61  62  62  61 105 216 218 216 247 254 255 255 255 255 
255 255 255 255 255 255 255 255 255 255 255 255 255 255 255 255 255 255 
255 255 255 255 255 255 255 255 255 255 255 255 255 255 255 255 255 255 
255 255 255 255 255 255 255 255 255 255 255 255 255 255 255 255 255 255 
255 255 255 255 255 255 255 255 255 255 255 255 255 255 255 255 255 255 
255 255 255 255 255 255 255 255 255 255 255 255 255 255 255 255 255 255 
255 255 255 255 255 255 255 255 255 255 255 255 255 255 255 255 255 255 
255 255 255 255 255 255 255 255 255 255 255 255 255 255 255 255 255 255 
255 255 255 255 255 255 255 255 255 255 255 255 255 255 255 255 255 255 
255 255 255 255 255 255 255 255 255 255 255 255 255 255 255 255 255 255 
255 255 255 255 255 255 255 255 255 255 255 255 255 255 255 255 255 255 
255 255 255 255 255 255 255 255 255 255 255 255 255 255 255 255 255 255 
255 255 255 255 255 255 255 255 255 255 255 255 255 255 255 255 255 255 
255 255 255 255 255 255 255 255 255 255 255 255 255 255 255 255 254 255 
255 254 255 255 254 255 255 255 255 255 255 255 255 255 255 254 255 191 
 78  78  80  79  79  79  79  78  78 103 218 216 220 253 255 254 254 254 
143  79  79  79  81  78  78  81  80  79  79  79  79  80  79  76  86 166 
211 218 216 202 202 202 204 203 203 203 203 203 202 208 202 203 203 204 
202 204 203 204 203 205 217 220 183 111  50  58  62  61  61  61  61  61 
 62  60  63  60  61  61  56  93 190 222 218 216 219 236 255 254 163  61 
 61  61  62  60  61  62  61  61 106 216 217 218 248 255 255 255 255 255 
255 255 255 255 255 255 255 255 255 255 255 255 255 255 255 255 255 255 
255 255 255 255 255 255 255 255 255 255 255 255 255 255 255 255 255 255 
255 255 255 255 255 255 255 255 255 255 255 255 255 255 255 255 255 255 
255 255 255 255 255 255 255 255 255 255 255 255 255 255 255 255 255 255 
255 255 255 255 255 255 255 255 255 255 255 255 255 255 255 255 255 255 
255 255 255 255 255 255 255 255 255 255 255 255 255 255 255 255 255 255 
255 255 255 255 255 255 255 255 255 255 255 255 255 255 255 255 255 255 
255 255 255 255 255 255 255 255 255 255 255 255 255 255 255 255 255 255 
255 255 255 255 255 255 255 255 255 255 255 255 255 255 255 255 255 255 
255 255 255 255 255 255 255 255 255 255 255 255 255 255 255 255 255 255 
255 255 255 255 255 255 255 255 255 255 255 255 255 255 255 255 255 255 
255 255 255 255 255 255 255 255 255 255 255 255 255 255 255 255 255 255 
255 255 255 255 255 255 255 255 255 255 255 255 255 254 255 254 254 255 
254 254 254 255 255 255 255 255 255 254 255 255 255 254 255 255 254 191 
 77  78  80  79  79  79  79  78  78 120 219 217 222 254 255 255 253 255 
255 235  96  77  78  78  79  78  79  81  80  79  78  81  79  80  80  80 
 83 159 210 202 202 204 203 203 203 204 205 203 207 215 203 203 203 203 
204 204 203 203 202 204 191  83  61  60  60  61  62  60  62  63  60  62 
 62  60  61  60  60  59 165 217 217 217 215 228 255 255 254 255 193  60 
 59  62  62  62  61  61  61  61 104 217 217 219 249 255 255 255 255 255 
255 255 255 255 255 255 255 255 255 255 255 255 255 255 255 255 255 255 
255 255 255 255 255 255 255 255 255 255 255 255 255 255 255 255 255 255 
255 255 255 255 255 255 255 255 255 255 255 255 255 255 255 255 255 255 
255 255 255 255 255 255 255 255 255 255 255 255 255 255 255 255 255 255 
255 255 255 255 255 255 255 255 255 255 255 255 255 255 255 255 255 255 
255 255 255 255 255 255 255 255 255 255 255 255 255 255 255 255 255 255 
255 255 255 255 255 255 255 255 255 255 255 255 255 255 255 255 255 255 
255 255 255 255 255 255 255 255 255 255 255 255 255 255 255 255 255 255 
255 255 255 255 255 255 255 255 255 255 255 255 255 255 255 255 255 255 
255 255 255 255 255 255 255 255 255 255 255 255 255 255 255 255 255 255 
255 255 255 255 255 255 255 255 255 255 255 255 255 255 255 255 255 255 
255 255 255 255 255 255 255 255 255 255 255 255 255 255 255 255 255 255 
255 255 255 255 255 255 255 255 255 255 255 255 255 255 255 254 253 232 
254 255 255 255 255 255 255 255 255 255 255 255 254 254 255 255 255 191 
 76  77  79  79  79  79  79  78  79 141 217 215 230 255 255 255 255 255 
253 253 255 202 110  73  79  80  78  81  78  80  79  78  79  77  79  78 
 79  74  89 129 183 208 203 203 203 201 203 201 215 216 210 201 204 202 
203 202 209 204 139  87  56  59  61  61  61  60  60  61  63  61  61  60 
 60  61  57  67 145 210 220 216 214 229 247 254 254 254 255 255 219  60 
 60  61  61  61  61  61  61  60  99 216 216 218 250 254 255 255 255 255 
255 255 255 255 255 255 255 255 255 255 255 255 255 255 255 255 255 255 
255 255 255 255 255 255 255 255 255 255 255 255 255 255 255 255 255 255 
255 255 255 255 255 255 255 255 255 255 255 255 255 255 255 255 255 255 
255 255 255 255 255 255 255 255 255 255 255 255 255 255 255 255 255 255 
255 255 255 255 255 255 255 255 255 255 255 255 255 255 255 255 255 255 
255 255 255 255 255 255 255 255 255 255 255 255 255 255 255 255 255 255 
255 255 255 255 255 255 255 255 255 255 255 255 255 255 255 255 255 255 
255 255 255 255 255 255 255 255 255 255 255 255 255 255 255 255 255 255 
255 255 255 255 255 255 255 255 255 255 255 255 255 255 255 255 255 255 
255 255 255 255 255 255 255 255 255 255 255 255 255 255 255 255 255 255 
255 255 255 255 255 255 255 255 255 255 255 255 255 255 255 255 255 255 
255 255 255 255 255 255 255 255 255 255 255 255 255 255 255 255 255 255 
255 255 255 255 255 255 255 255 255 255 255 255 255 255 255 255 237 215 
237 255 254 255 255 255 255 254 255 255 255 255 255 254 254 255 255 179 
 77  78  79  79  79  79  79  78  76 171 217 215 246 254 255 253 255 252 
244 236 242 250 254 194  99  79  77  80  80  79  79  77  78  79  77  78 
 79  80  79  77  73 104 172 193 204 203 201 208 215 217 221 209 202 205 
198 183 121  54  58  61  61  61  63  61  59  62  59  63  60  60  62  60 
 58  71 126 219 218 216 217 223 248 255 254 252 254 255 255 255 245  60 
 62  62  61  62  61  62  61  61  93 215 217 218 252 255 255 255 255 255 
255 255 255 255 255 255 255 255 255 255 255 255 255 255 255 255 255 255 
255 255 255 255 255 255 255 255 255 255 255 255 255 255 255 255 255 255 
255 255 255 255 255 255 255 255 255 255 255 255 255 255 255 255 255 255 
255 255 255 255 255 255 255 255 255 255 255 255 255 255 255 255 255 255 
255 255 255 255 255 255 255 255 255 255 255 255 255 255 255 255 255 255 
255 255 255 255 255 255 255 255 255 255 255 255 255 255 255 255 255 255 
255 255 255 255 255 255 255 255 255 255 255 255 255 255 255 255 255 255 
255 255 255 255 255 255 255 255 255 255 255 255 255 255 255 255 255 255 
255 255 255 255 255 255 255 255 255 255 255 255 255 255 255 255 255 255 
255 255 255 255 255 255 255 255 255 255 255 255 255 255 255 255 255 255 
255 255 255 255 255 255 255 255 255 255 255 255 255 255 255 255 255 255 
255 255 255 255 255 255 255 255 255 255 255 255 255 255 255 255 255 255 
255 255 255 255 255 255 255 255 255 255 255 255 254 255 255 241 216 219 
216 253 255 254 255 255 255 255 255 255 255 255 255 255 255 255 254 168 
 78  78  79  79  79  79  79  78  74 200 217 217 255 254 254 255 225 221 
220 216 216 218 227 255 253 230 141  67  76  81  79  80  78  78  79  77 
 78  76  76  79  76  78  75  86 103 161 208 220 217 217 254 250 181 110 
 73  62  60  60  60  61  60  61  61  60  60  61  61  60  60  62  52  83 
177 211 217 217 215 234 251 255 254 247 249 255 255 255 254 255 255  88 
 60  61  63  62  61  61  61  61  87 215 218 218 251 255 255 255 255 255 
255 255 255 255 255 255 255 255 255 255 255 255 255 255 255 255 255 255 
255 255 255 255 255 255 255 255 255 255 255 255 255 255 255 255 255 255 
255 255 255 255 255 255 255 255 255 255 255 255 255 255 255 255 255 255 
255 255 255 255 255 255 255 255 255 255 255 255 255 255 255 255 255 255 
255 255 255 255 255 255 255 255 255 255 255 255 255 255 255 255 255 255 
255 255 255 255 255 255 255 255 255 255 255 255 255 255 255 255 255 255 
255 255 255 255 255 255 255 255 255 255 255 255 255 255 255 255 255 255 
255 255 255 255 255 255 255 255 255 255 255 255 255 255 255 255 255 255 
255 255 255 255 255 255 255 255 255 255 255 255 255 255 255 255 255 255 
255 255 255 255 255 255 255 255 255 255 255 255 255 255 255 255 255 255 
255 255 255 255 255 255 255 255 255 255 255 255 255 255 255 255 255 255 
255 255 255 255 255 255 255 255 255 255 255 255 255 255 255 255 255 255 
255 255 255 255 255 255 255 255 255 255 255 255 254 239 200 223 217 216 
216 221 253 255 255 255 255 255 254 255 255 255 255 255 255 255 255 152 
 78  78  79  79  79  79  79  78  86 225 216 232 255 243 140  67  70  70 
113 184 221 216 216 224 255 255 255 250 181 130  92  70  74  78  80  78 
 77  78  80  77  79  78  78  78  78  73  75 113 160 184 120  76  53  59 
 60  61  61  61  62  61  61  62  60  61  60  57  55  62  93 134 191 226 
217 217 228 239 255 253 249 160  72  47  46  87 197 254 254 254 254 164 
 55  60  61  61  61  61  62  62  77 215 218 219 250 255 255 255 255 255 
255 255 255 255 255 255 255 255 255 255 255 255 255 255 255 255 255 255 
255 255 255 255 255 255 255 255 255 255 255 255 255 255 255 255 255 255 
255 255 255 255 255 255 255 255 255 255 255 255 255 255 255 255 255 255 
255 255 255 255 255 255 255 255 255 255 255 255 255 255 255 255 255 255 
255 255 255 255 255 255 255 255 255 255 255 255 255 255 255 255 255 255 
255 255 255 255 255 255 255 255 255 255 255 255 255 255 255 255 255 255 
255 255 255 255 255 255 255 255 255 255 255 255 255 255 255 255 255 255 
255 255 255 255 255 255 255 255 255 255 255 255 255 255 255 255 255 255 
255 255 255 255 255 255 255 255 255 255 255 255 255 255 255 255 255 255 
255 255 255 255 255 255 255 255 255 255 255 255 255 255 255 255 255 255 
255 255 255 255 255 255 255 255 255 255 255 255 255 255 255 255 255 255 
255 255 255 255 255 255 255 255 255 255 255 255 255 255 255 255 255 255 
255 255 255 255 255 255 255 255 255 255 255 255 255 178 169 202 217 216 
217 217 229 255 255 255 255 255 255 255 254 255 254 255 254 255 255 134 
 78  78  79  79  79  79  78  76 138 221 218 244 249  98  77  80  80  80 
 80  75 168 218 217 216 230 253 255 254 254 255 255 229 159 101  80  80 
 78  77  76  78  78  77  78  79  78  80 102 164 218 232 214 134  68  63 
 62  60  62  61  61  62  61  62  62  63  67 119 175 218 218 217 218 230 
245 255 254 253 254 254  85  59  61  60  61  61  61 175 226 250 255 244 
 53  61  61  61  60  62  62  61  68 213 216 218 249 255 255 255 255 255 
255 255 255 255 255 255 255 255 255 255 255 255 255 255 255 255 255 255 
255 255 255 255 255 255 255 255 255 255 255 255 255 255 255 255 255 255 
255 255 255 255 255 255 255 255 255 255 255 255 255 255 255 255 255 255 
255 255 255 255 255 255 255 255 255 255 255 255 255 255 255 255 255 255 
255 255 255 255 255 255 255 255 255 255 255 255 255 255 255 255 255 255 
255 255 255 255 255 255 255 255 255 255 255 255 255 255 255 255 255 255 
255 255 255 255 255 255 255 255 255 255 255 255 255 255 255 255 255 255 
255 255 255 255 255 255 255 255 255 255 255 255 255 255 255 255 255 255 
255 255 255 255 255 255 255 255 255 255 255 255 255 255 255 255 255 255 
255 255 255 255 255 255 255 255 255 255 255 255 255 255 255 255 255 255 
255 255 255 255 255 255 255 255 255 255 255 255 255 255 255 255 255 255 
255 255 255 255 255 255 255 255 255 255 255 255 255 255 255 255 255 255 
255 255 255 255 254 255 255 255 255 254 255 255 196 165 169 169 212 217 
217 217 214 231 254 254 255 255 255 255 255 254 255 255 255 255 255 116 
 79  77  80  79  80  79  79  77 196 217 217 255 199  78  78  79  78  79 
 79  81  74 175 216 216 216 251 255 254 254 255 254 254 254 255 252 204 
179 174 167 166 166 167 171 178 190 213 222 218 252 254 254 255 255 229 
177 170 164 163 162 162 169 174 183 206 223 219 234 243 246 249 255 255 
255 254 254 254 249  93  57  60  61  62  61  61  61  79 225 218 245 255 
 85  61  60  61  61  62  61  62  56 210 218 218 249 255 255 255 255 255 
255 255 255 255 255 255 255 255 255 255 255 255 255 255 255 255 255 255 
255 255 255 255 255 255 255 255 255 255 255 255 255 255 255 255 255 255 
255 255 255 255 255 255 255 255 255 255 255 255 255 255 255 255 255 255 
255 255 255 255 255 255 255 255 255 255 255 255 255 255 255 255 255 255 
255 255 255 255 255 255 255 255 255 255 255 255 255 255 255 255 255 255 
255 255 255 255 255 255 255 255 255 255 255 255 255 255 255 255 255 255 
255 255 255 255 255 255 255 255 255 255 255 255 255 255 255 255 255 255 
255 255 255 255 255 255 255 255 255 255 255 255 255 255 255 255 255 255 
255 255 255 255 255 255 255 255 255 255 255 255 255 255 255 255 255 255 
255 255 255 255 255 255 255 255 255 255 255 255 255 255 255 255 255 255 
255 255 255 255 255 255 255 255 255 255 255 255 255 255 255 255 255 255 
255 255 255 255 255 255 255 255 255 255 255 255 255 255 255 255 255 255 
255 255 255 255 255 255 255 255 254 255 255 242 169 169 170 169 172 216 
217 216 217 217 238 255 254 255 254 254 254 255 254 255 254 255 254  88 
 78  79  79  79  78  78  81  91 210 217 234 255 121  79  80  79  79  79 
 80  78  79  86 218 217 217 227 255 255 255 254 255 255 255 255 246 202 
201 203 202 202 202 202 202 199 212 217 216 249 255 255 255 254 253 255 
227 202 202 202 202 202 200 203 201 203 216 218 227 255 254 255 255 254 
254 255 254 254 181  59  60  62  62  62  61  60  59  52 192 217 223 254 
127  60  60  61  60  61  63  62  55 175 219 217 249 254 255 255 255 255 
255 255 255 255 255 255 255 255 255 255 255 255 255 255 255 255 255 255 
255 255 255 255 255 255 255 255 255 255 255 255 255 255 255 255 255 255 
255 255 255 255 255 255 255 255 255 255 255 255 255 255 255 255 255 255 
255 255 255 255 255 255 255 255 255 255 255 255 255 255 255 255 255 255 
255 255 255 255 255 255 255 255 255 255 255 255 255 255 255 255 255 255 
255 255 255 255 255 255 255 255 255 255 255 255 255 255 255 255 255 255 
255 255 255 255 255 255 255 255 255 255 255 255 255 255 255 255 255 255 
255 255 255 255 255 255 255 255 255 255 255 255 255 255 255 255 255 255 
255 255 255 255 255 255 255 255 255 255 255 255 255 255 255 255 255 255 
255 255 255 255 255 255 255 255 255 255 255 255 255 255 255 255 255 255 
255 255 255 255 255 255 255 255 255 255 255 255 255 255 255 255 255 255 
255 255 255 255 255 255 255 255 255 255 255 255 255 255 255 255 255 255 
255 255 255 255 255 255 254 254 255 254 254 190 167 167 167 169 168 177 
217 217 217 217 216 232 254 255 254 255 255 255 254 255 255 254 249  70 
 79  78  80  80  79  80  79 114 217 217 254 254  87  79  78  80  77  77 
 77  79  77  74 146 218 216 216 255 254 254 255 254 254 253 255 209 202 
204 204 201 204 204 203 202 210 217 214 241 255 254 255 254 254 255 254 
254 209 201 203 203 203 204 202 202 202 206 218 216 246 254 254 254 255 
255 254 254 255  60  60  60  61  60  61  62  60  60  54 159 218 215 253 
192  55  60  61  61  61  61  61  59 127 222 215 245 255 255 255 255 255 
255 255 255 255 255 255 255 255 255 255 255 255 255 255 255 255 255 255 
255 255 255 255 255 255 255 255 255 255 255 255 255 255 255 255 255 255 
255 255 255 255 255 255 255 255 255 255 255 255 255 255 255 255 255 255 
255 255 255 255 255 255 255 255 255 255 255 255 255 255 255 255 255 255 
255 255 255 255 255 255 255 255 255 255 255 255 255 255 255 255 255 255 
255 255 255 255 255 255 255 255 255 255 255 255 255 255 255 255 255 255 
255 255 255 255 255 255 255 255 255 255 255 255 255 255 255 255 255 255 
255 255 255 255 255 255 255 255 255 255 255 255 255 255 255 255 255 255 
255 255 255 255 255 255 255 255 255 255 255 255 255 255 255 255 255 255 
255 255 255 255 255 255 255 255 255 255 255 255 255 255 255 255 255 255 
255 255 255 255 255 255 255 255 255 255 255 255 255 255 255 255 255 255 
255 255 255 255 255 255 255 255 255 255 255 255 255 255 255 255 255 255 
255 255 255 255 255 254 254 255 255 246 226 164 166 169 168 169 168 168 
181 216 217 216 218 217 230 255 255 254 255 254 255 255 255 254 195  73 
 80  77  79  80  79  79  72 177 217 230 254 255  86  78  80  79  79  78 
 79  78  77  79  94 215 217 216 249 255 255 254 254 254 255 225 201 202 
203 203 203 203 202 201 206 219 215 239 254 230 207 202 211 215 214 222 
240 253 209 202 201 205 202 204 204 203 203 212 216 216 252 255 254 255 
255 254 254 194  55  60  61  61  61  62  61  61  62  56 146 218 218 239 
255  61  62  59  63  62  61  61  59  78 226 216 238 255 255 255 255 255 
255 255 255 255 255 255 255 255 255 255 255 255 255 255 255 255 255 255 
255 255 255 255 255 255 255 255 255 255 255 255 255 255 255 255 255 255 
255 255 255 255 255 255 255 255 255 255 255 255 255 255 255 255 255 255 
255 255 255 255 255 255 255 255 255 255 255 255 255 255 255 255 255 255 
255 255 255 255 255 255 255 255 255 255 255 255 255 255 255 255 255 255 
255 255 255 255 255 255 255 255 255 255 255 255 255 255 255 255 255 255 
255 255 255 255 255 255 255 255 255 255 255 255 255 255 255 255 255 255 
255 255 255 255 255 255 255 255 255 255 255 255 255 255 255 255 255 255 
255 255 255 255 255 255 255 255 255 255 255 255 255 255 255 255 255 255 
255 255 255 255 255 255 255 255 255 255 255 255 255 255 255 255 255 255 
255 255 255 255 255 255 255 255 255 255 255 255 255 255 255 255 255 255 
255 255 255 255 255 255 255 255 255 255 255 255 255 255 255 255 255 255 
255 255 255 254 254 254 255 253 226 216 190 168 167 167 168 168 169 166 
168 174 215 217 216 217 216 225 254 255 254 255 253 255 254 255 134  77 
 79  79  80  80  79  77  88 224 214 246 254 254 102  79  78  78  79  78 
 79  80  76  79  87 206 217 216 249 255 254 255 255 255 243 202 202 202 
202 205 201 202 202 207 217 217 231 255 223 203 203 201 202 202 210 216 
216 241 249 202 201 202 202 203 203 203 202 202 216 217 231 255 255 255 
255 253 254 139  58  60  61  62  61  62  60  61  60  54 170 217 215 241 
255 158  58  61  59  61  61  62  61  57 208 216 232 255 255 255 255 255 
255 255 255 255 255 255 255 255 255 255 255 255 255 255 255 255 255 255 
255 255 255 255 255 255 255 255 255 255 255 255 255 255 255 255 255 255 
255 255 255 255 255 255 255 255 255 255 255 255 255 255 255 255 255 255 
255 255 255 255 255 255 255 255 255 255 255 255 255 255 255 255 255 255 
255 255 255 255 255 255 255 255 255 255 255 255 255 255 255 255 255 255 
255 255 255 255 255 255 255 255 255 255 255 255 255 255 255 255 255 255 
255 255 255 255 255 255 255 255 255 255 255 255 255 255 255 255 255 255 
255 255 255 255 255 255 255 255 255 255 255 255 255 255 255 255 255 255 
255 255 255 255 255 255 255 255 255 255 255 255 255 255 255 255 255 255 
255 255 255 255 255 255 255 255 255 255 255 255 255 255 255 255 255 255 
255 255 255 255 255 255 255 255 255 255 255 255 255 255 255 255 255 255 
255 255 255 255 255 255 255 255 255 255 255 255 255 255 255 255 255 255 
255 255 255 254 253 254 238 218 219 207 177 169 168 169 168 167 168 167 
167 168 175 212 218 218 217 216 219 247 255 254 255 253 253 255  91  78 
 78  78  79  79  79  78 155 218 230 253 255 254 167  76  79  77  77  80 
 78  79  77  80  84 202 217 216 253 254 253 253 255 245 202 203 204 204 
204 202 204 202 205 215 217 238 255 241 200 202 204 204 205 202 202 215 
215 218 250 249 205 202 202 203 204 203 203 204 204 216 217 238 255 255 
255 255 255 116  61  62  61  60  61  61  63  61  58  53 217 217 215 245 
255 236  67  60  60  62  61  61  61  58 181 216 225 255 255 255 255 255 
255 255 255 255 255 255 255 255 255 255 255 255 255 255 255 255 255 255 
255 255 255 255 255 255 255 255 255 255 255 255 255 255 255 255 255 255 
255 255 255 255 255 255 255 255 255 255 255 255 255 255 255 255 255 255 
255 255 255 255 255 255 255 255 255 255 255 255 255 255 255 255 255 255 
255 255 255 255 255 255 255 255 255 255 255 255 255 255 255 255 255 255 
255 255 255 255 255 255 255 255 255 255 255 255 255 255 255 255 255 255 
255 255 255 255 255 255 255 255 255 255 255 255 255 255 255 255 255 255 
255 255 255 255 255 255 255 255 255 255 255 255 255 255 255 255 255 255 
255 255 255 255 255 255 255 255 255 255 255 255 255 255 255 255 255 255 
255 255 255 255 255 255 255 255 255 255 255 255 255 255 255 255 255 255 
255 255 255 255 255 255 255 255 255 255 255 255 255 255 255 255 255 255 
255 255 255 255 255 255 255 255 255 255 255 255 255 255 255 255 255 255 
255 255 255 254 255 241 211 194 171 165 167 168 167 168 167 171 168 169 
167 169 168 171 206 218 217 217 215 213 239 254 254 254 253 232  84  79 
 79  79  77  80  78  81 200 218 252 255 253 255 230  79  77  78  78  78 
 79  79  78  78  85 203 216 218 254 252 255 255 253 208 202 201 204 203 
202 203 201 204 216 218 238 255 254 209 202 201 203 204 202 202 203 208 
217 217 235 253 245 205 204 201 204 202 204 203 201 205 216 217 249 255 
254 255 254 126  59  60  61  61  61  61  61  61  60 108 221 217 216 251 
254 253  99  59  61  62  61  61  61  60 146 216 216 255 255 255 255 255 
255 255 255 255 255 255 255 255 255 255 255 255 255 255 255 255 255 255 
255 255 255 255 255 255 255 255 255 255 255 255 255 255 255 255 255 255 
255 255 255 255 255 255 255 255 255 255 255 255 255 255 255 255 255 255 
255 255 255 255 255 255 255 255 255 255 255 255 255 255 255 255 255 255 
255 255 255 255 255 255 255 255 255 255 255 255 255 255 255 255 255 255 
255 255 255 255 255 255 255 255 255 255 255 255 255 255 255 255 255 255 
255 255 255 255 255 255 255 255 255 255 255 255 255 255 255 255 255 255 
255 255 255 255 255 255 255 255 255 255 255 255 255 255 255 255 255 255 
255 255 255 255 255 255 255 255 255 255 255 255 255 255 255 255 255 255 
255 255 255 255 255 255 255 255 255 255 255 255 255 255 255 255 255 255 
255 255 255 255 255 255 255 255 255 255 255 255 255 255 255 255 255 255 
255 255 255 255 255 255 255 255 255 255 255 255 255 255 255 255 255 255 
255 255 255 254 255 208 169 167 168 168 168 169 168 169 170 168 169 169 
167 168 170 169 170 189 219 215 217 216 216 219 249 255 255 206  79  77 
 80  77  78  80  77 122 219 232 255 254 255 254 255 113  78  79  78  79 
 80  79  76  80  90 211 216 245 254 254 255 253 207 202 203 202 203 201 
202 202 206 218 218 248 255 254 250 205 202 202 203 203 202 203 203 204 
217 216 227 254 255 251 206 202 202 204 203 204 202 203 208 217 218 255 
255 255 254 170  55  61  61  61  61  61  60  61  61 180 218 217 224 255 
255 254 222  48  60  61  61  61  60  62 102 220 216 249 255 255 255 255 
255 255 255 255 255 255 255 255 255 255 255 255 255 255 255 255 255 255 
255 255 255 255 255 255 255 255 255 255 255 255 255 255 255 255 255 255 
255 255 255 255 255 255 255 255 255 255 255 255 255 255 255 255 255 255 
255 255 255 255 255 255 255 255 255 255 255 255 255 255 255 255 255 255 
255 255 255 255 255 255 255 255 255 255 255 255 255 255 255 255 255 255 
255 255 255 255 255 255 255 255 255 255 255 255 255 255 255 255 255 255 
255 255 255 255 255 255 255 255 255 255 255 255 255 255 255 255 255 255 
255 255 255 255 255 255 255 255 255 255 255 255 255 255 255 255 255 255 
255 255 255 255 255 255 255 255 255 255 255 255 255 255 255 255 255 255 
255 255 255 255 255 255 255 255 255 255 255 255 255 255 255 255 255 255 
255 255 255 255 255 255 255 255 255 255 255 255 255 255 255 255 255 255 
255 255 255 255 255 255 255 255 255 255 255 255 255 255 255 255 253 254 
255 254 255 241 185 166 169 168 168 168 168 169 168 168 168 168 168 168 
168 168 168 167 170 167 180 207 218 217 217 216 215 231 254 145  78  80 
 79  79  78  78  82 212 221 255 255 255 255 254 255 245  91  79  76  78 
 79  78  78  74 135 216 231 255 254 255 254 215 202 203 204 203 203 204 
202 208 215 228 254 255 254 254 248 205 203 204 204 203 203 203 203 203 
217 217 224 254 255 255 252 217 199 204 204 203 203 203 202 208 216 223 
254 254 255 248  57  60  60  61  61  61  60  55 129 220 217 215 243 253 
252 254 255 119  61  60  62  61  61  61  59 222 216 237 255 254 255 255 
255 255 255 255 255 255 255 255 255 255 255 255 255 255 255 255 255 255 
255 255 255 255 255 255 255 255 255 255 255 255 255 255 255 255 255 255 
255 255 255 255 255 255 255 255 255 255 255 255 255 255 255 255 255 255 
255 255 255 255 255 255 255 255 255 255 255 255 255 255 255 255 255 255 
255 255 255 255 255 255 255 255 255 255 255 255 255 255 255 255 255 255 
255 255 255 255 255 255 255 255 255 255 255 255 255 255 255 255 255 255 
255 255 255 255 255 255 255 255 255 255 255 255 255 255 255 255 255 255 
255 255 255 255 255 255 255 255 255 255 255 255 255 255 255 255 255 255 
255 255 255 255 255 255 255 255 255 255 255 255 255 255 255 255 255 255 
255 255 255 255 255 255 255 255 255 255 255 255 255 255 255 255 255 255 
255 255 255 255 255 255 255 255 255 255 255 255 255 255 255 255 255 255 
255 255 255 255 255 255 255 255 255 255 255 255 255 255 254 253 255 254 
255 255 245 166 167 169 168 167 170 168 169 168 168 168 168 168 168 168 
168 168 169 170 167 168 166 166 189 214 217 216 216 217 222  77  79  79 
 79  80  78  80 139 218 246 255 255 255 255 253 254 253 229  86  79  77 
 78  78  78  96 230 243 255 255 255 253 214 201 201 203 203 202 202 203 
211 219 243 255 254 254 255 253 248 205 204 203 203 205 204 203 203 205 
218 216 226 254 254 255 254 254 225 201 202 203 204 202 202 201 209 216 
229 254 254 254 187  60  60  62  60  60  61 116 221 216 215 228 255 254 
255 253 255 218  63  60  61  61  60  61  56 159 218 228 255 255 254 255 
255 255 255 254 255 255 255 255 255 255 255 255 255 255 255 255 255 255 
255 255 255 255 255 255 255 255 255 255 255 255 255 255 255 255 255 255 
255 255 255 255 255 255 255 255 255 255 255 255 255 255 255 255 255 255 
255 255 255 255 255 255 255 255 255 255 255 255 255 255 255 255 255 255 
255 255 255 255 255 255 255 255 255 255 255 255 255 255 255 255 255 255 
255 255 255 255 255 255 255 255 255 255 255 255 255 255 255 255 255 255 
255 255 255 255 255 255 255 255 255 255 255 255 255 255 255 255 255 255 
255 255 255 255 255 255 255 255 255 255 255 255 255 255 255 255 255 255 
255 255 255 255 255 255 255 255 255 255 255 255 255 255 255 255 255 255 
255 255 255 255 255 255 255 255 255 255 255 255 255 255 255 255 255 255 
255 255 255 255 255 255 255 255 255 255 255 255 255 255 255 255 255 255 
255 255 255 255 255 255 255 255 255 255 255 255 255 255 255 254 255 255 
255 254 252 225 164 168 167 168 168 169 169 169 168 168 168 168 168 168 
168 168 168 167 168 166 168 167 167 172 191 219 217 218 168  74  78  80 
 78  80  78  78 209 235 255 254 254 254 254 255 254 254 254 244 170  87 
 67  74 150 243 254 254 255 255 254 211 202 203 205 202 202 202 207 213 
236 251 255 255 255 255 254 255 253 206 204 204 203 203 204 202 202 204 
218 216 229 255 255 255 254 253 254 245 209 200 201 204 203 203 200 207 
216 233 255 253 254 200  79  47  48  89 177 218 215 215 227 254 254 255 
255 255 254 255 129  56  61  61  61  59  60  84 219 223 254 255 255 255 
255 255 254 255 255 255 255 255 255 255 255 255 255 255 255 255 255 255 
255 255 255 255 255 255 255 255 255 255 255 255 255 255 255 255 255 255 
255 255 255 255 255 255 255 255 255 255 255 255 255 255 255 255 255 255 
255 255 255 255 255 255 255 255 255 255 255 255 255 255 255 255 255 255 
255 255 255 255 255 255 255 255 255 255 255 255 255 255 255 255 255 255 
255 255 255 255 255 255 255 255 255 255 255 255 255 255 255 255 255 255 
255 255 255 255 255 255 255 255 255 255 255 255 255 255 255 255 255 255 
255 255 255 255 255 255 255 255 255 255 255 255 255 255 255 255 255 255 
255 255 255 255 255 255 255 255 255 255 255 255 255 255 255 255 255 255 
255 255 255 255 255 255 255 255 255 255 255 255 255 255 255 255 255 255 
255 255 255 255 255 255 255 255 255 255 255 255 255 255 255 255 255 255 
255 255 255 255 255 255 255 255 255 255 255 255 255 255 254 255 254 254 
254 255 255 255 247 182 166 167 168 169 168 169 168 168 168 168 168 168 
168 168 170 168 168 168 169 168 167 169 167 166 196 211 111  80  79  79 
 77  78  78 177 228 255 254 254 254 255 254 255 254 255 255 254 255 255 
252 255 254 254 254 254 255 249 210 201 203 203 202 202 203 216 233 253 
255 253 255 255 255 254 255 254 255 215 203 203 203 203 204 201 202 211 
217 216 241 254 255 254 254 255 255 255 254 231 207 201 204 202 204 203 
208 214 232 255 254 255 255 249 232 228 216 216 220 236 255 255 254 254 
255 255 254 255 254  76  62  63  60  61  60  66 201 216 253 255 255 255 
255 255 254 255 255 255 255 255 255 255 255 255 255 255 255 255 255 255 
255 255 255 255 255 255 255 255 255 255 255 255 255 255 255 255 255 255 
255 255 255 255 255 255 255 255 255 255 255 255 255 255 255 255 255 255 
255 255 255 255 255 255 255 255 255 255 255 255 255 255 255 255 255 255 
255 255 255 255 255 255 255 255 255 255 255 255 255 255 255 255 255 255 
255 255 255 255 255 255 255 255 255 255 255 255 255 255 255 255 255 255 
255 255 255 255 255 255 255 255 255 255 255 255 255 255 255 255 255 255 
255 255 255 255 255 255 255 255 255 255 255 255 255 255 255 255 255 255 
255 255 255 255 255 255 255 255 255 255 255 255 255 255 255 255 255 255 
255 255 255 255 255 255 255 255 255 255 255 255 255 255 255 255 255 255 
255 255 255 255 255 255 255 255 255 255 255 255 255 255 255 255 255 255 
255 255 255 255 255 255 255 255 255 255 255 255 255 255 255 255 255 255 
255 255 254 254 255 255 193 168 169 167 169 168 168 168 168 168 168 168 
168 168 168 170 168 168 168 168 169 167 167 169 170 163  84  80  79  80 
 79  77 112 215 219 224 239 255 255 255 255 254 255 255 255 253 255 255 
255 255 255 255 255 255 246 204 203 201 201 203 203 224 247 253 255 255 
254 255 254 255 255 255 255 255 255 249 199 204 203 202 201 203 202 215 
217 220 254 255 255 254 255 255 255 254 255 255 254 232 202 203 201 201 
202 203 217 232 254 255 254 255 254 254 253 252 254 255 254 254 254 254 
254 255 255 253 254 190  56  60  62  62  60  61 156 217 240 255 255 255 
255 255 255 255 255 255 255 255 255 255 255 255 255 255 255 255 255 255 
255 255 255 255 255 255 255 255 255 255 255 255 255 255 255 255 255 255 
255 255 255 255 255 255 255 255 255 255 255 255 255 255 255 255 255 255 
255 255 255 255 255 255 255 255 255 255 255 255 255 255 255 255 255 255 
255 255 255 255 255 255 255 255 255 255 255 255 255 255 255 255 255 255 
255 255 255 255 255 255 255 255 255 255 255 255 255 255 255 255 255 255 
255 255 255 255 255 255 255 255 255 255 255 255 255 255 255 255 255 255 
255 255 255 255 255 255 255 255 255 255 255 255 255 255 255 255 255 255 
255 255 255 255 255 255 255 255 255 255 255 255 255 255 255 255 255 255 
255 255 255 255 255 255 255 255 255 255 255 255 255 255 255 255 255 255 
255 255 255 255 255 255 255 255 255 255 255 255 255 255 255 255 255 255 
255 255 255 255 255 255 255 255 255 255 255 255 255 255 255 255 254 254 
255 255 254 255 254 254 254 205 164 166 169 168 168 168 168 168 168 168 
168 168 169 168 169 168 168 169 169 169 167 167 171 133  79  78  77  78 
 76  90 214 219 216 216 216 214 221 226 229 235 240 242 246 248 251 251 
252 250 248 248 245 233 202 200 199 205 224 241 254 255 255 254 255 254 
254 255 255 255 254 255 254 255 253 255 233 199 201 203 201 202 212 217 
219 251 255 254 255 255 253 254 255 254 255 255 254 255 254 237 223 206 
202 202 203 211 229 255 254 255 255 254 255 255 254 255 254 255 255 254 
255 254 255 255 254 255 143  56  60  60  60  60  74 225 221 255 255 255 
254 255 255 255 255 255 255 255 255 255 255 255 255 255 255 255 255 255 
255 255 255 255 255 255 255 255 255 255 255 255 255 255 255 255 255 255 
255 255 255 255 255 255 255 255 255 255 255 255 255 255 255 255 255 255 
255 255 255 255 255 255 255 255 255 255 255 255 255 255 255 255 255 255 
255 255 255 255 255 255 255 255 255 255 255 255 255 255 255 255 255 255 
255 255 255 255 255 255 255 255 255 255 255 255 255 255 255 255 255 255 
255 255 255 255 255 255 255 255 255 255 255 255 255 255 255 255 255 255 
255 255 255 255 255 255 255 255 255 255 255 255 255 255 255 255 255 255 
255 255 255 255 255 255 255 255 255 255 255 255 255 255 255 255 255 255 
255 255 255 255 255 255 255 255 255 255 255 255 255 255 255 255 255 255 
255 255 255 255 255 255 255 255 255 255 255 255 255 255 255 255 255 255 
255 255 255 255 255 255 255 255 255 255 255 255 255 255 255 255 254 255 
255 255 255 254 255 255 255 255 206 167 169 169 168 168 168 168 168 168 
168 168 168 169 168 169 169 168 169 168 168 169 170  81  79  79  79  78 
 80 152 167 184 198 211 213 214 215 216 217 218 217 215 216 215 215 214 
213 213 213 210 210 206 216 230 250 254 254 255 254 255 254 255 254 255 
255 255 255 255 255 255 254 254 255 255 255 244 211 207 213 220 220 230 
255 255 254 254 255 255 255 255 255 254 255 255 255 254 255 255 254 254 
249 222 211 204 211 223 253 255 254 255 254 254 254 255 255 255 255 255 
255 255 255 253 255 254 251  92  58  60  61  59  55 167 216 249 254 255 
255 255 255 255 255 255 255 255 255 255 255 255 255 255 255 255 255 255 
255 255 255 255 255 255 255 255 255 255 255 255 255 255 255 255 255 255 
255 255 255 255 255 255 255 255 255 255 255 255 255 255 255 255 255 255 
255 255 255 255 255 255 255 255 255 255 255 255 255 255 255 255 255 255 
255 255 255 255 255 255 255 255 255 255 255 255 255 255 255 255 255 255 
255 255 255 255 255 255 255 255 255 255 255 255 255 255 255 255 255 255 
255 255 255 255 255 255 255 255 255 255 255 255 255 255 255 255 255 255 
255 255 255 255 255 255 255 255 255 255 255 255 255 255 255 255 255 255 
255 255 255 255 255 255 255 255 255 255 255 255 255 255 255 255 255 255 
255 255 255 255 255 255 255 255 255 255 255 255 255 255 255 255 255 255 
255 255 255 255 255 255 255 255 255 255 255 255 255 255 255 255 255 255 
255 255 255 255 255 255 255 255 255 255 255 255 255 255 255 255 255 255 
255 255 254 255 255 255 254 255 254 202 165 168 168 168 168 168 168 168 
168 168 169 168 168 169 169 170 169 168 167 169 137  77  77  78  78  74 
138 168 168 168 167 169 168 172 174 175 176 177 178 178 178 177 176 175 
173 174 168 195 238 254 254 255 254 254 255 254 255 254 255 255 255 255 
255 255 254 255 255 254 255 255 254 255 254 255 255 254 254 255 254 255 
255 253 254 255 255 254 255 255 254 255 254 255 254 255 254 255 254 255 
254 255 253 250 244 231 229 253 255 254 255 255 253 254 255 255 255 254 
255 255 255 255 253 255 255 247  76  60  60  61  59  96 217 237 255 255 
255 255 255 255 255 255 255 255 255 255 255 255 255 255 255 255 255 255 
255 255 255 255 255 255 255 255 255 255 255 255 255 255 255 255 255 255 
255 255 255 255 255 255 255 255 255 255 255 255 255 255 255 255 255 255 
255 255 255 255 255 255 255 255 255 255 255 255 255 255 255 255 255 255 
255 255 255 255 255 255 255 255 255 255 255 255 255 255 255 255 255 255 
255 255 255 255 255 255 255 255 255 255 255 255 255 255 255 255 255 255 
255 255 255 255 255 255 255 255 255 255 255 255 255 255 255 255 255 255 
255 255 255 255 255 255 255 255 255 255 255 255 255 255 255 255 255 255 
255 255 255 255 255 255 255 255 255 255 255 255 255 255 255 255 255 255 
255 255 255 255 255 255 255 255 255 255 255 255 255 255 255 255 255 255 
255 255 255 255 255 255 255 255 255 255 255 255 255 255 255 255 255 255 
255 255 255 255 255 255 255 255 255 255 255 255 255 255 255 255 255 255 
255 255 255 255 255 255 253 254 253 255 193 168 167 168 169 168 168 169 
167 169 168 168 167 167 167 168 167 168 167 169 101  78  76  77  77 127 
171 168 169 169 168 169 168 168 168 169 169 168 170 167 169 167 170 169 
166 173 216 252 255 254 255 255 255 255 255 255 255 255 255 255 255 255 
255 255 255 255 255 255 255 255 255 255 255 255 255 255 255 255 255 255 
255 255 255 255 255 255 255 255 255 255 255 255 255 255 255 255 255 255 
255 255 255 255 255 255 255 255 255 255 255 255 255 255 255 255 255 255 
255 255 255 255 255 255 254 255 230  68  59  60  60  61 201 224 255 253 
254 254 255 255 255 255 255 255 255 255 255 255 255 255 255 255 255 255 
255 255 255 255 255 255 255 255 255 255 255 255 255 255 255 255 255 255 
255 255 255 255 255 255 255 255 255 255 255 255 255 255 255 255 255 255 
255 255 255 255 255 255 255 255 255 255 255 255 255 255 255 255 255 255 
255 255 255 255 255 255 255 255 255 255 255 255 255 255 255 255 255 255 
255 255 255 255 255 255 255 255 255 255 255 255 255 255 255 255 255 255 
255 255 255 255 255 255 255 255 255 255 255 255 255 255 255 255 255 255 
255 255 255 255 255 255 255 255 255 255 255 255 255 255 255 255 255 255 
255 255 255 255 255 255 255 255 255 255 255 255 255 255 255 255 255 255 
255 255 255 255 255 255 255 255 255 255 255 255 255 255 255 255 255 255 
255 255 255 255 255 255 255 255 255 255 255 255 255 255 254 255 254 255 
255 255 255 255 255 255 255 255 255 255 255 255 255 255 255 255 255 255 
255 255 255 255 254 255 254 255 252 255 255 176 169 169 168 169 169 167 
169 169 169 168 168 168 169 169 170 167 168 155  75  79  78  76 134 170 
168 167 167 168 168 167 167 169 167 169 168 169 166 168 169 168 168 167 
204 255 253 254 254 255 255 255 255 255 255 255 255 255 255 255 255 255 
255 255 255 255 255 255 255 255 255 255 255 255 255 255 255 255 255 255 
255 255 255 255 255 255 255 255 255 255 255 255 255 255 255 255 255 255 
255 255 255 255 255 255 255 255 255 255 255 255 255 255 255 255 255 255 
255 255 255 255 255 255 255 253 255 238  65  61  61  58 105 220 250 255 
255 255 255 255 255 255 255 255 255 255 255 255 255 255 255 255 255 255 
255 255 255 255 255 255 255 255 255 255 255 255 255 255 255 255 255 255 
255 255 255 255 255 255 255 255 255 255 255 255 255 255 255 255 255 255 
255 255 255 255 255 255 255 255 255 255 255 255 255 255 255 255 255 255 
255 255 255 255 255 255 255 255 255 255 255 255 255 255 255 255 255 255 
255 255 255 255 255 255 255 255 255 255 255 255 255 255 255 255 255 255 
255 255 255 255 255 255 255 255 255 255 255 255 255 255 255 255 255 255 
255 255 255 255 255 255 255 255 255 255 255 255 255 255 255 255 255 255 
255 255 255 255 255 255 255 255 255 255 255 255 255 255 255 255 255 255 
255 255 255 255 255 255 255 255 255 255 255 255 255 255 255 255 255 255 
255 255 255 255 255 255 255 255 255 255 255 255 254 255 255 255 255 255 
255 255 254 255 255 255 255 255 255 255 255 255 255 255 255 255 255 255 
255 255 255 255 254 255 255 255 254 253 255 245 169 169 166 169 168 169 
168 168 168 170 167 170 167 166 167 168 169  92  77  79  72 133 170 168 
168 167 169 167 168 170 167 169 169 167 169 168 168 168 166 165 205 242 
255 253 253 255 252 255 255 255 255 255 255 255 255 255 255 255 255 255 
255 255 255 255 255 255 255 255 255 255 255 255 255 255 255 255 255 255 
255 255 255 255 255 255 255 255 255 255 255 255 255 255 255 255 255 255 
255 255 255 255 255 255 255 255 255 255 255 255 255 255 255 255 255 255 
255 255 255 255 255 255 254 254 254 255 228  81  58  61  55 185 226 254 
255 255 255 254 255 255 255 255 255 255 255 255 255 255 255 255 255 255 
255 255 255 255 255 255 255 255 255 255 255 255 255 255 255 255 255 255 
255 255 255 255 255 255 255 255 255 255 255 255 255 255 255 255 255 255 
255 255 255 255 255 255 255 255 255 255 255 255 255 255 255 255 255 255 
255 255 255 255 255 255 255 255 255 255 255 255 255 255 255 255 255 255 
255 255 255 255 255 255 255 255 255 255 255 255 255 255 255 255 255 255 
255 255 255 255 255 255 255 255 255 255 255 255 255 255 255 255 255 255 
255 255 255 255 255 255 255 255 255 255 255 255 255 255 255 255 255 255 
255 255 255 255 255 255 255 255 255 255 255 255 255 255 255 255 255 255 
255 255 255 255 255 255 255 255 255 255 255 255 255 255 255 255 255 255 
255 255 255 255 255 255 255 255 255 254 253 244 254 255 254 255 254 255 
255 255 255 255 255 255 255 255 255 255 255 255 255 255 255 255 255 255 
255 255 255 255 254 255 255 255 254 254 254 255 222 166 167 168 168 168 
168 168 168 168 169 179 216 196 177 175 148  78  77  83 146 171 168 170 
168 167 168 168 168 167 168 169 167 167 168 166 170 177 211 255 255 253 
255 254 254 255 254 254 255 255 255 255 255 255 255 255 255 255 255 255 
255 255 255 255 255 255 255 255 255 255 255 255 255 255 255 255 255 255 
255 255 255 255 255 255 255 255 255 255 255 255 255 255 255 255 255 255 
255 255 255 255 255 255 255 255 255 255 255 255 255 255 255 255 255 255 
255 255 255 255 255 255 255 254 255 255 255 254 100  58  61 108 219 250 
254 255 255 255 255 255 255 255 255 255 255 255 255 255 255 255 255 255 
255 255 255 255 255 255 255 255 255 255 255 255 255 255 255 255 255 255 
255 255 255 255 255 255 255 255 255 255 255 255 255 255 255 255 255 255 
255 255 255 255 255 255 255 255 255 255 255 255 255 255 255 255 255 255 
255 255 255 255 255 255 255 255 255 255 255 255 255 255 255 255 255 255 
255 255 255 255 255 255 255 255 255 255 255 255 255 255 255 255 255 255 
255 255 255 255 255 255 255 255 255 255 255 255 255 255 255 255 255 255 
255 255 255 255 255 255 255 255 255 255 255 255 255 255 255 255 255 255 
255 255 255 255 255 255 255 255 255 255 255 255 255 255 255 255 255 255 
255 255 255 255 255 255 255 255 255 255 255 255 255 255 255 255 255 255 
255 255 255 255 255 255 255 255 255 255 247 217 226 253 255 255 255 255 
254 255 255 255 255 255 255 255 255 255 255 255 255 255 255 255 255 255 
255 255 255 255 254 254 255 255 255 254 254 253 255 200 168 168 168 167 
170 169 168 166 166 170 215 219 218 254 105  74 117 177 166 165 166 166 
167 168 167 166 165 165 165 164 164 175 199 230 245 253 255 254 254 255 
255 255 254 255 255 255 255 255 255 255 255 255 255 255 255 255 255 255 
255 255 255 255 255 255 255 255 255 255 255 255 255 255 255 255 255 255 
255 255 255 255 255 255 255 255 255 255 255 255 255 255 255 255 255 255 
255 255 255 255 255 255 255 255 255 255 255 255 255 255 255 255 255 255 
255 255 255 255 255 255 254 255 255 255 254 253 254 171  55  56 186 238 
255 254 254 255 255 255 255 255 255 255 255 255 255 255 255 255 255 255 
255 255 255 255 255 255 255 255 255 255 255 255 255 255 255 255 255 255 
255 255 255 255 255 255 255 255 255 255 255 255 255 255 255 255 255 255 
255 255 255 255 255 255 255 255 255 255 255 255 255 255 255 255 255 255 
255 255 255 255 255 255 255 255 255 255 255 255 255 255 255 255 255 255 
255 255 255 255 255 255 255 255 255 255 255 255 255 255 255 255 255 255 
255 255 255 255 255 255 255 255 255 255 255 255 255 255 255 255 255 255 
255 255 255 255 255 255 255 255 255 255 255 255 255 255 255 255 255 255 
255 255 255 255 255 255 255 255 255 255 255 255 255 255 255 255 255 255 
255 255 255 255 255 255 255 255 255 255 255 255 255 255 255 255 255 255 
255 255 255 255 255 255 255 255 255 254 234 216 215 218 239 254 254 255 
255 255 255 255 255 255 255 255 255 255 255 255 255 255 255 255 255 255 
255 255 255 255 255 254 254 254 254 255 255 255 253 246 168 169 168 167 
168 169 169 169 168 166 200 218 218 159  89 183 255 255 254 245 236 228 
219 217 218 217 218 222 229 239 254 255 254 254 253 254 255 254 254 254 
255 254 254 254 254 254 255 255 255 255 255 255 255 255 255 255 255 255 
255 255 255 255 255 255 255 255 255 255 255 255 255 255 255 255 255 255 
255 255 255 255 255 255 255 255 255 255 255 255 255 255 255 255 255 255 
255 255 255 255 255 255 255 255 255 255 255 255 255 255 255 255 255 255 
255 255 255 255 255 255 255 255 255 255 254 254 254 254 209 100  74 214 
254 255 255 255 255 255 255 255 255 255 255 255 255 255 255 255 255 255 
255 255 255 255 255 255 255 255 255 255 255 255 255 255 255 255 255 255 
255 255 255 255 255 255 255 255 255 255 255 255 255 255 255 255 255 255 
255 255 255 255 255 255 255 255 255 255 255 255 255 255 255 255 255 255 
255 255 255 255 255 255 255 255 255 255 255 255 255 255 255 255 255 255 
255 255 255 255 255 255 255 255 255 255 255 255 255 255 255 255 255 255 
255 255 255 255 255 255 255 255 255 255 255 255 255 255 255 255 255 255 
255 255 255 255 255 255 255 255 255 255 255 255 255 255 255 255 255 255 
255 255 255 255 255 255 255 255 255 255 255 255 255 255 255 255 255 255 
255 255 255 255 255 255 255 255 255 255 255 255 255 255 255 255 255 255 
255 255 255 255 255 255 255 255 254 255 220 216 218 217 216 218 246 254 
255 255 255 255 255 255 255 255 255 255 255 255 255 255 255 255 255 255 
255 255 255 255 255 254 252 254 255 255 255 255 255 254 221 166 169 167 
169 168 170 167 170 168 178 218 206 168 250 255 254 253 255 254 247 244 
253 254 255 255 254 254 255 254 255 254 254 254 255 253 255 255 254 255 
254 255 255 255 255 255 255 255 255 255 255 255 255 255 255 255 255 255 
255 255 255 255 255 255 255 255 255 255 255 255 255 255 255 255 255 255 
255 255 255 255 255 255 255 255 255 255 255 255 255 255 255 255 255 255 
255 255 255 255 255 255 255 255 255 255 255 255 255 255 255 255 255 255 
255 255 255 255 255 255 255 255 255 255 255 254 255 254 255 243 197 195 
233 255 255 254 255 255 255 255 255 255 255 255 255 255 255 255 255 255 
255 255 255 255 255 255 255 255 255 255 255 255 255 255 255 255 255 255 
255 255 255 255 255 255 255 255 255 255 255 255 255 255 255 255 255 255 
255 255 255 255 255 255 255 255 255 255 255 255 255 255 255 255 255 255 
255 255 255 255 255 255 255 255 255 255 255 255 255 255 255 255 255 255 
255 255 255 255 255 255 255 255 255 255 255 255 255 255 255 255 255 255 
255 255 255 255 255 255 255 255 255 255 255 255 255 255 255 255 255 255 
255 255 255 255 255 255 255 255 255 255 255 255 255 255 255 255 255 255 
255 255 255 255 255 255 255 255 255 255 255 255 255 255 255 255 255 255 
255 255 255 255 255 255 255 255 255 255 255 255 255 255 255 255 255 255 
255 255 255 255 255 255 255 255 255 254 213 218 216 217 217 216 214 224 
240 255 255 253 255 255 255 255 255 255 255 255 255 255 255 255 255 255 
255 255 255 255 255 254 254 254 255 254 255 255 255 255 254 182 169 167 
168 169 168 168 168 172 162 117  91 227 255 253 255 255 240 220 214 215 
215 220 238 254 254 255 255 255 255 255 255 255 255 255 255 254 255 254 
255 255 255 255 255 254 255 255 255 255 255 255 255 255 255 255 255 255 
255 255 255 255 255 255 255 255 255 255 255 255 255 255 255 255 255 255 
255 255 255 255 255 255 255 255 255 255 255 255 255 255 255 255 255 255 
255 255 255 255 255 255 255 255 255 255 255 255 255 255 255 255 255 255 
255 255 255 255 255 255 255 255 255 255 255 254 255 255 254 254 250 228 
215 255 255 254 255 255 255 255 255 255 255 255 255 255 255 255 255 255 
255 255 255 255 255 255 255 255 255 255 255 255 255 255 255 255 255 255 
255 255 255 255 255 255 255 255 255 255 255 255 255 255 255 255 255 255 
255 255 255 255 255 255 255 255 255 255 255 255 255 255 255 255 255 255 
255 255 255 255 255 255 255 255 255 255 255 255 255 255 255 255 255 255 
255 255 255 255 255 255 255 255 255 255 255 255 255 255 255 255 255 255 
255 255 255 255 255 255 255 255 255 255 255 255 255 255 255 255 255 255 
255 255 255 255 255 255 255 255 255 255 255 255 255 255 255 255 255 255 
255 255 255 255 255 255 255 255 255 255 255 255 255 255 255 255 255 255 
255 255 255 255 255 255 255 255 255 255 255 255 255 255 255 255 255 255 
255 255 255 254 255 255 255 255 186 109 203 219 217 217 218 215 217 217 
217 218 238 249 254 255 255 254 255 255 255 255 255 254 255 255 255 254 
255 255 255 255 255 253 255 255 254 255 255 255 255 255 255 222 165 168 
169 168 168 168 160 118  57  57 194 221 254 255 254 249 208 209 210 217 
217 216 216 234 254 254 255 254 255 255 255 255 255 255 255 255 255 255 
255 255 255 255 255 255 255 255 255 255 255 255 255 255 255 255 255 255 
255 255 255 255 255 255 255 255 255 255 255 255 255 255 255 255 255 255 
255 255 255 255 255 255 255 255 255 255 255 255 255 255 255 255 255 255 
255 255 255 255 255 255 255 255 255 255 255 255 255 255 255 255 255 255 
255 255 255 255 255 255 255 255 255 255 254 254 254 254 254 254 254 254 
242 240 254 254 254 254 254 254 255 255 255 255 255 255 255 255 255 255 
255 255 255 255 255 255 255 255 255 255 255 255 255 255 255 255 255 255 
255 255 255 255 255 255 255 255 255 255 255 255 255 255 255 255 255 255 
255 255 255 255 255 255 255 255 255 255 255 255 255 255 255 255 255 255 
255 255 255 255 255 255 255 255 255 255 255 255 255 255 255 255 255 255 
255 255 255 255 255 255 255 255 255 255 255 255 255 255 255 255 255 255 
255 255 255 255 255 255 255 255 255 255 255 255 255 255 255 255 255 255 
255 255 255 255 255 255 255 255 255 255 255 255 255 255 255 255 255 255 
255 255 255 255 255 255 255 255 255 255 255 255 255 255 255 255 255 255 
255 255 255 255 255 255 255 255 255 255 255 255 255 255 255 255 255 255 
255 255 255 254 255 255 255 254  95  61  67 133 224 217 216 216 217 219 
217 217 217 218 221 237 253 255 254 253 255 255 254 255 255 254 255 254 
255 255 254 255 255 255 255 255 255 255 255 255 254 255 255 250 173 168 
167 170 166 104  67  62  61 133 219 214 255 253 227 170 170 169 169 175 
206 217 218 217 236 255 253 254 255 255 255 255 255 255 255 255 255 255 
255 255 255 255 255 255 255 255 255 255 255 255 255 255 255 255 255 255 
255 255 255 255 255 255 255 255 255 255 255 255 255 255 255 255 255 255 
255 255 255 255 255 255 255 255 255 255 255 255 255 255 255 255 255 255 
255 255 255 255 255 255 255 255 255 255 255 255 255 255 255 255 255 254 
254 254 254 254 254 254 254 254 254 254 254 254 254 254 254 254 254 254 
253 253 254 254 254 254 254 254 254 254 254 254 254 254 254 254 254 254 
254 255 255 255 255 255 255 255 255 255 255 255 255 255 255 255 255 255 
255 255 255 255 255 255 255 255 255 255 255 255 255 255 255 255 255 255 
255 255 255 255 255 255 255 255 255 255 255 255 255 255 255 255 255 255 
255 255 255 255 255 255 255 255 255 255 255 255 255 255 255 255 255 255 
255 255 255 255 255 255 255 255 255 255 255 255 255 255 255 255 255 255 
255 255 255 255 255 255 255 255 255 255 255 255 255 255 255 255 255 255 
255 255 255 255 255 255 255 255 255 255 255 255 255 255 255 255 255 255 
255 255 255 255 255 255 255 255 255 255 255 255 255 255 255 255 255 255 
255 255 255 255 255 255 255 255 255 255 255 255 255 255 255 255 255 255 
255 254 255 254 255 255 255 250  58  64  64  60  77 154 212 219 218 216 
215 218 217 218 216 214 214 222 234 242 244 251 255 255 254 254 255 255 
255 255 255 254 255 255 254 255 255 254 250 242 237 228 219 215 207 173 
144 104  62  60  63  61  70 184 216 214 251 247 166 168 169 168 169 169 
167 194 218 217 217 252 255 253 255 255 255 255 255 255 255 255 255 255 
255 255 255 255 255 255 255 255 255 255 255 255 255 255 255 255 255 255 
255 255 255 255 255 255 255 255 255 255 255 255 255 255 255 255 255 255 
255 255 255 255 255 255 255 255 255 255 255 255 255 255 255 255 255 255 
255 255 255 255 255 255 255 255 255 255 254 254 254 254 254 254 254 254 
254 254 254 254 254 254 254 254 254 254 254 254 254 254 254 254 254 254 
254 254 253 254 254 254 254 254 254 254 254 254 254 254 254 254 254 254 
254 254 254 254 254 254 254 254 255 255 255 255 255 255 255 255 255 255 
255 255 255 255 255 255 255 255 255 255 255 255 255 255 255 255 255 255 
255 255 255 255 255 255 255 255 255 255 255 255 255 255 255 255 255 255 
255 255 255 255 255 255 255 255 255 255 255 255 255 255 255 255 255 255 
255 255 255 255 255 255 255 255 255 255 255 255 255 255 255 255 255 255 
255 255 255 255 255 255 255 255 255 255 255 255 255 255 255 255 255 255 
255 255 255 255 255 255 255 255 255 255 255 255 255 255 255 255 255 255 
255 255 255 255 255 255 255 255 255 255 255 255 255 255 255 255 255 255 
255 255 255 255 255 255 255 255 255 255 255 255 255 255 255 255 255 255 
255 255 255 254 254 255 255 221  61  63  63  63  64  63  62 140 211 216 
218 216 217 216 216 217 217 217 217 217 216 216 215 224 232 238 241 241 
248 248 250 245 243 239 234 225 218 216 216 216 217 218 217 214 163  71 
 60  62  62  62  63  64 161 180 218 214 252 197 168 168 167 167 168 168 
167 167 192 218 215 231 255 255 255 255 255 255 255 255 255 255 255 255 
255 255 255 255 255 255 255 255 255 255 255 255 255 255 255 255 255 255 
255 255 255 255 255 255 255 255 255 255 255 255 255 255 255 255 255 255 
255 255 255 255 255 255 255 255 255 255 255 255 255 255 255 255 255 255 
255 255 255 255 255 254 254 254 254 254 254 254 254 254 254 254 254 254 
254 254 254 254 254 254 254 254 254 254 254 254 254 254 254 254 254 254 
254 254 254 254 254 254 254 254 254 254 254 254 254 254 254 254 254 254 
254 254 254 254 254 254 254 254 254 254 254 254 254 255 255 255 255 255 
255 255 255 255 255 255 255 255 255 255 255 255 255 255 255 255 255 255 
255 255 255 255 255 255 255 255 255 255 255 255 255 255 255 255 255 255 
255 255 255 255 255 255 255 255 255 255 255 255 255 255 255 255 255 255 
255 255 255 255 255 255 255 255 255 255 255 255 255 255 255 255 255 255 
255 255 255 255 255 255 255 255 255 255 255 255 255 255 255 255 255 255 
255 255 255 255 255 255 255 255 255 255 255 255 255 255 255 255 255 255 
255 255 255 255 255 255 255 255 255 255 255 255 255 255 255 255 255 255 
255 255 255 255 255 255 255 255 255 255 255 255 255 255 255 255 255 255 
255 254 255 255 255 254 254 197  62  65  62  64  63  64  63  60  69  99 
154 217 224 218 218 216 217 219 217 216 217 217 217 217 216 216 216 215 
215 215 215 215 215 217 216 216 218 218 219 225 209 149 100  70  58  62 
 63  62  63  64  55 135 168 174 218 216 249 182 168 169 167 168 168 168 
168 169 170 213 215 219 254 255 255 255 255 255 255 255 255 255 255 255 
255 255 255 255 255 255 255 255 255 255 255 255 255 255 255 255 255 255 
255 255 255 255 255 255 255 255 255 255 255 255 255 255 255 255 255 255 
255 255 255 255 255 255 255 255 255 255 255 255 255 255 255 255 255 255 
255 254 254 254 254 254 254 254 254 254 254 254 254 254 254 254 254 254 
254 254 254 254 254 254 254 254 254 254 254 254 254 254 254 254 253 254 
254 254 254 254 254 254 254 254 254 254 254 254 254 254 254 254 254 254 
254 254 254 254 254 254 254 254 254 254 254 254 254 254 254 254 254 255 
255 255 255 255 255 255 255 255 255 255 255 255 255 255 255 255 255 255 
255 255 255 255 255 255 255 255 255 255 255 255 255 255 255 255 255 255 
255 255 255 255 255 255 255 255 255 255 255 255 255 255 255 255 255 255 
255 255 255 255 255 255 255 255 255 255 255 255 255 255 255 255 255 255 
255 255 255 255 255 255 255 255 255 255 255 255 255 255 255 255 255 255 
255 255 255 255 255 255 255 255 255 255 255 255 255 255 255 255 255 255 
255 255 255 255 255 255 255 255 255 255 255 255 255 255 255 255 255 255 
255 255 255 255 255 255 255 255 255 255 255 255 255 255 255 255 255 255 
255 255 255 255 255 254 254 182  63  64  63  63  63  64  64  63  64  63 
 60  57 107 166 193 208 219 220 218 218 217 216 217 217 216 217 215 216 
216 216 216 217 218 218 220 214 200 187 148  92  54  59  64  62  63  63 
 62  62  63  62 125 172 169 166 219 215 247 196 168 167 168 169 168 169 
167 169 168 191 218 220 253 255 255 255 255 255 255 255 255 255 255 255 
255 255 255 255 255 255 255 255 255 255 255 255 255 255 255 255 255 255 
255 255 255 255 255 255 255 255 255 255 255 255 255 255 255 255 255 255 
255 255 255 255 255 255 255 255 255 255 255 255 255 255 255 255 254 254 
254 254 254 254 254 254 254 254 254 254 254 254 254 254 254 254 254 254 
254 254 254 254 254 254 254 254 254 254 254 254 254 254 254 254 254 254 
254 254 254 254 254 254 254 254 254 254 254 254 254 254 254 254 254 254 
254 254 254 254 254 254 254 254 254 254 254 254 254 254 254 254 254 254 
254 254 255 255 255 255 255 255 255 255 255 255 255 255 255 255 255 255 
255 255 255 255 255 255 255 255 255 255 255 255 255 255 255 255 255 255 
255 255 255 255 255 255 255 255 255 255 255 255 255 255 255 255 255 255 
255 255 255 255 255 255 255 255 255 255 255 255 255 255 255 255 255 255 
255 255 255 255 255 255 255 255 255 255 255 255 255 255 255 255 255 255 
255 255 255 255 255 255 255 255 255 255 255 255 255 255 255 255 255 255 
255 255 255 255 255 255 255 255 255 255 255 255 255 255 255 255 255 255 
255 255 255 255 255 255 255 255 255 255 255 255 255 255 255 255 255 255 
255 255 255 255 254 254 254 181  63  63  64  64  64  63  62  63  63  63 
 63  64  63  62  66  71  79 122 156 197 224 222 221 219 220 219 220 220 
222 222 223 206 174 140  95  73  70  65  62  63  63  64  62  61  62  63 
 62  63  56 124 171 169 168 166 214 215 244 231 163 169 167 169 167 170 
167 167 166 172 219 220 255 255 255 255 255 255 255 255 255 255 255 255 
255 255 255 255 255 255 255 255 255 255 255 255 255 255 255 255 255 255 
255 255 255 255 255 255 255 255 255 255 255 255 255 255 255 255 255 255 
255 255 255 255 255 255 255 255 255 255 255 255 255 254 254 254 254 254 
254 254 254 254 254 254 254 254 254 254 254 254 254 254 254 254 254 254 
254 254 254 254 254 254 254 254 254 254 254 254 254 254 254 253 254 254 
254 254 254 254 254 254 254 254 254 254 254 254 254 254 254 254 254 254 
254 254 254 254 254 254 254 254 254 254 254 254 254 254 254 254 254 254 
254 254 254 254 254 255 255 255 255 255 255 255 255 255 255 255 255 255 
255 255 255 255 255 255 255 255 255 255 255 255 255 255 255 255 255 255 
255 255 255 255 255 255 255 255 255 255 255 255 255 255 255 255 255 255 
255 255 255 255 255 255 255 255 255 255 255 255 255 255 255 255 255 255 
255 255 255 255 255 255 255 255 255 255 255 255 255 255 255 255 255 255 
255 255 255 255 255 255 255 255 255 255 255 255 255 255 255 255 255 255 
255 255 255 255 255 255 255 255 255 255 255 255 255 255 255 255 255 255 
255 255 255 255 255 255 255 255 255 255 255 255 255 255 255 255 255 255 
255 255 255 255 255 255 244 158  63  64  63  64  64  64  64  64  64  64 
 64  63  64  64  64  64  62  60  59  55  55  68  77  86  88  97  92  86 
 80  73  58  54  57  59  62  64  63  63  64  64  63  64  62  62  61  61 
 63  59 128 173 169 169 170 167 207 215 245 254 182 168 167 167 168 168 
168 167 168 165 218 245 254 255 255 255 255 255 255 255 255 255 255 255 
255 255 255 255 255 255 255 255 255 255 255 255 255 255 255 255 255 255 
255 255 255 255 255 255 255 255 255 255 255 255 255 255 255 255 255 255 
255 255 255 255 255 255 255 255 255 255 254 254 254 254 254 254 254 254 
254 254 254 254 254 254 254 254 254 254 254 254 254 254 254 254 254 254 
254 254 254 254 254 254 254 254 254 254 254 254 254 254 254 254 254 254 
254 254 254 254 254 254 254 254 254 254 254 254 254 254 254 254 254 254 
254 254 254 254 254 254 254 254 254 254 254 254 254 254 254 254 254 254 
254 254 254 254 254 254 254 254 255 255 255 255 255 255 255 255 255 255 
255 255 255 255 255 255 255 255 255 255 255 255 255 255 255 255 255 255 
255 255 255 255 255 255 255 255 255 255 255 255 255 255 255 255 255 255 
255 255 255 255 255 255 255 255 255 255 255 255 255 255 255 255 255 255 
255 255 255 255 255 255 255 255 255 255 255 255 255 255 255 255 255 255 
255 255 255 255 255 255 255 255 255 255 255 255 255 255 255 255 255 255 
255 255 255 255 255 255 255 255 255 255 255 255 255 255 255 255 255 255 
255 255 255 255 255 255 255 255 255 255 255 255 255 255 255 255 255 255 
255 255 255 254 254 249 217 166  63  63  63  64  64  64  64  64  64  64 
 64  63  63  63  62  62  63  63  63  63  63  63  63  63  63  62  63  63 
 63  63  63  63  62  63  63  64  63  63  63  64  64  61  62  62  63  62 
 69 153 169 167 168 166 168 165 202 215 247 255 232 167 167 169 167 169 
167 169 167 175 238 255 255 254 255 255 255 255 255 255 255 255 255 255 
255 255 255 255 255 255 255 255 255 255 255 255 255 255 255 255 255 255 
255 255 255 255 255 255 255 255 255 255 255 255 255 255 255 255 255 255 
255 255 255 255 255 255 255 254 254 254 254 254 254 254 254 254 254 254 
254 254 254 254 254 254 254 254 254 254 254 254 254 254 254 254 254 254 
254 254 254 254 254 254 254 254 254 254 254 254 254 254 254 254 254 254 
254 254 254 254 254 254 254 254 254 254 254 254 254 254 254 254 254 254 
254 254 254 254 254 254 254 254 254 254 254 254 254 254 254 254 254 254 
254 254 254 254 254 254 254 254 254 254 254 255 255 255 255 255 255 255 
255 255 255 255 255 255 255 255 255 255 255 255 255 255 255 255 255 255 
255 255 255 255 255 255 255 255 255 255 255 255 255 255 255 255 254 255 
255 255 255 255 255 255 255 255 255 255 255 255 255 255 255 255 255 255 
255 255 255 255 255 255 255 255 255 255 255 255 255 255 255 255 255 255 
255 255 255 255 255 255 255 255 255 255 255 255 255 255 255 255 255 255 
255 255 255 255 255 255 255 255 255 255 255 255 255 255 255 255 255 255 
255 255 255 255 255 255 255 255 255 255 255 255 255 255 255 255 255 255 
255 255 255 255 255 220 217 180  63  63  63  64  64  64  64  64  64  64 
 64  64  64  64  64  64  64  64  64  64  64  64  64  64  64  64  64  63 
 64  64  64  64  65  64  63  64  66  63  65  63  64  63  62  63  57 118 
233 169 169 168 168 167 167 166 203 214 249 254 255 234 167 167 169 168 
168 167 166 231 255 252 254 255 255 255 255 255 255 255 255 255 255 255 
255 255 255 255 255 255 255 255 255 255 255 255 255 255 255 255 255 255 
255 255 255 255 255 255 255 255 255 255 255 255 255 255 255 255 255 255 
255 255 255 255 255 254 254 254 254 254 254 254 254 254 254 254 254 254 
254 254 254 254 254 254 254 254 254 254 254 254 254 254 254 254 254 254 
254 254 254 254 254 254 254 254 254 254 254 254 254 254 254 254 254 254 
254 254 254 254 254 254 254 254 254 254 254 254 254 254 254 254 254 254 
254 254 254 254 254 254 254 254 254 254 254 254 254 254 254 254 254 254 
254 254 254 254 254 254 254 254 254 254 254 254 254 255 255 255 255 255 
255 255 255 255 255 255 255 255 255 255 255 255 255 255 255 255 255 255 
255 255 255 255 255 255 255 255 255 255 255 255 255 255 255 255 255 254 
255 255 255 255 255 255 255 255 255 255 255 255 255 255 255 255 255 255 
255 255 255 255 255 255 255 255 255 255 255 255 255 255 255 255 255 255 
255 255 255 255 255 255 255 255 255 255 255 255 255 255 255 255 255 255 
255 255 255 255 255 255 255 255 255 255 255 255 255 255 255 255 255 255 
255 255 255 255 255 255 255 255 255 255 255 255 255 255 255 255 255 255 
255 254 254 255 227 218 173  63  63  64  64  64  64  64  64  64  64  64 
 64  64  64  64  64  64  64  64  64  64  64  64  64  64  64  63  64  65 
 64  63  64  64  64  64  64  64  63  65  64  64  64  62  61  75 164 255 
254 172 169 169 167 167 167 166 202 215 254 254 254 255 243 193 171 165 
165 174 208 255 252 255 255 254 255 255 255 255 255 255 255 255 255 255 
255 255 255 255 255 255 255 255 255 255 255 255 255 255 255 255 255 255 
255 255 255 255 255 255 255 255 255 255 255 255 255 255 255 255 255 255 
255 255 255 254 254 254 254 254 254 254 254 254 254 254 254 254 254 254 
254 254 254 254 254 254 254 254 254 254 254 254 254 254 254 254 254 254 
254 254 254 254 254 254 254 254 254 254 254 254 254 254 254 254 254 254 
254 254 254 254 254 254 254 254 254 254 254 254 254 254 254 254 254 254 
254 254 254 254 254 254 254 254 254 254 254 254 254 254 254 254 254 254 
254 254 254 254 254 254 254 254 254 254 254 254 254 254 254 255 255 255 
255 255 255 255 255 255 255 255 255 255 255 255 255 255 255 255 255 255 
255 255 255 255 255 255 255 255 255 255 255 255 255 255 255 254 255 255 
255 255 255 255 255 255 255 255 255 255 255 255 255 255 255 255 255 255 
255 255 255 255 255 255 255 255 255 255 255 255 255 255 255 255 255 255 
255 255 255 255 255 255 255 255 255 255 255 255 255 255 255 255 255 255 
255 255 255 255 255 255 255 255 255 255 255 255 255 255 255 255 255 255 
255 255 255 255 255 255 255 255 255 255 255 255 255 255 255 255 255 255 
255 254 255 247 220 159  63  63  63  63  64  64  64  64  64  64  64  64 
 64  64  64  64  64  64  64  64  64  64  64  64  64  64  64  64  65  64 
 64  65  64  63  64  64  65  63  64  64  64  64  62  59 122 245 255 255 
254 199 167 168 167 167 168 166 202 217 255 252 254 255 255 255 252 251 
249 253 253 253 255 255 255 255 255 255 255 255 255 255 255 255 255 255 
255 255 255 255 255 255 255 255 255 255 255 255 255 255 255 255 255 255 
255 255 255 255 255 255 255 255 255 255 255 255 255 255 255 255 255 255 
255 254 254 254 254 254 254 254 254 254 254 254 254 254 254 254 254 254 
254 254 254 254 254 254 254 254 254 254 254 254 254 254 254 254 254 254 
254 254 254 254 254 254 254 254 254 254 254 254 254 254 254 254 254 254 
254 254 254 254 254 254 254 254 254 254 254 254 254 254 254 254 254 254 
254 254 254 254 254 254 254 254 254 254 254 254 254 254 254 254 254 254 
254 254 254 254 254 254 254 254 254 254 254 254 254 254 254 254 254 254 
255 255 255 255 255 255 255 255 255 255 255 255 255 255 255 255 255 255 
255 255 255 255 255 255 255 255 255 255 255 255 255 255 255 255 254 255 
254 255 255 255 255 255 255 255 255 255 255 255 255 255 255 255 255 255 
255 255 255 255 255 255 255 255 255 255 255 255 255 255 255 255 255 255 
255 255 255 255 255 255 255 255 255 255 255 255 255 255 255 255 255 255 
255 255 255 255 255 255 255 255 255 255 255 255 255 255 255 255 255 255 
255 255 255 255 255 255 255 255 255 255 255 255 255 255 255 255 255 255 
254 254 254 230 158  56  64  65  64  64  64  64  64  64  64  64  64  64 
 64  64  64  64  64  64  64  64  64  64  64  64  64  64  64  65  64  64 
 64  64  64  64  64  62  63  63  63  63  60  54 121 215 255 255 255 255 
254 224 166 170 167 167 168 166 205 225 254 255 254 255 255 254 255 255 
255 253 254 254 255 254 253 255 255 255 255 255 255 255 255 255 255 255 
255 255 255 255 255 255 255 255 255 255 255 255 255 255 255 255 255 255 
255 255 255 255 255 255 255 255 255 255 255 255 255 255 255 255 255 254 
254 254 254 254 254 254 254 254 254 254 254 254 254 254 254 254 254 254 
254 254 254 254 254 254 254 254 254 254 254 254 254 254 254 254 254 254 
254 254 254 254 254 254 254 254 254 254 254 254 254 254 254 254 254 254 
254 254 254 254 254 254 254 254 254 254 254 254 254 254 254 254 254 254 
254 254 254 254 254 254 254 254 254 254 254 254 254 254 254 254 254 254 
254 254 254 254 254 254 254 254 254 254 254 254 254 254 254 253 254 254 
254 255 255 255 255 255 255 255 255 255 255 255 255 255 255 255 255 255 
255 255 255 255 255 255 255 255 255 255 255 255 255 255 254 255 255 254 
255 255 255 255 255 255 255 255 255 255 255 255 255 255 255 255 255 255 
255 255 255 255 255 255 255 255 255 255 255 255 255 255 255 255 255 255 
255 255 255 255 255 255 255 255 255 255 255 255 255 255 255 255 255 255 
255 255 255 255 255 255 255 255 255 255 255 255 255 255 255 255 255 255 
255 255 255 255 255 255 255 255 255 255 255 255 255 255 255 255 255 255 
255 255 255 233  67  63  64  63  64  64  64  64  64  64  64  64  64  64 
 64  64  64  64  64  64  64  64  64  64  64  64  64  64  64  64  64  65 
 64  63  65  63  64  63  64  63  63  68 109 229 255 254 255 255 254 255 
255 247 164 169 167 168 169 164 210 234 255 255 254 255 255 255 254 253 
255 255 255 255 254 255 255 254 255 255 255 255 255 255 255 255 255 255 
255 255 255 255 255 255 255 255 255 255 255 255 255 255 255 255 255 255 
255 255 255 255 255 255 255 255 255 255 255 255 255 255 255 254 254 254 
254 254 254 254 254 254 254 254 254 254 254 254 254 254 254 254 254 254 
254 254 254 254 254 254 254 254 254 254 254 254 254 254 254 254 254 254 
254 254 254 254 254 254 254 254 254 254 254 254 254 254 254 254 254 254 
254 254 254 254 254 254 254 254 254 254 254 254 254 254 254 254 254 254 
254 254 254 254 254 254 254 254 254 254 254 254 254 254 254 254 254 254 
254 254 254 254 254 254 254 254 254 254 254 254 254 253 254 254 254 254 
254 254 254 255 255 255 255 255 255 255 255 255 255 255 255 255 255 255 
255 255 255 255 255 255 255 255 255 255 255 255 255 255 255 254 255 255 
255 255 255 255 255 255 255 255 255 255 255 255 255 255 255 255 255 255 
255 255 255 255 255 255 255 255 255 255 255 255 255 255 255 255 255 255 
255 255 255 255 255 255 255 255 255 255 255 255 255 255 255 255 255 255 
255 255 255 255 255 255 255 255 255 255 255 255 255 255 255 255 255 255 
255 255 255 255 255 255 255 255 255 255 255 255 255 255 255 255 255 255 
255 253 250  75  63  63  62  65  64  64  64  64  64  64  64  64  64  64 
 64  64  64  64  64  64  64  64  64  64  64  64  64  64  64  64  64  64 
 63  64  64  63  62  61  53  86 182 236 255 255 254 254 255 255 255 254 
253 255 170 169 168 168 167 166 217 246 254 255 255 254 254 254 255 255 
255 254 255 255 255 255 255 255 255 255 255 255 255 255 255 255 255 255 
255 255 255 255 255 255 255 255 255 255 255 255 255 255 255 255 255 255 
255 255 255 255 255 255 255 255 255 255 255 255 255 254 254 254 254 254 
254 254 254 254 254 254 254 254 254 254 254 254 254 254 254 254 254 254 
254 254 254 254 254 254 254 254 254 254 254 254 254 254 254 254 254 254 
254 254 254 254 254 254 254 254 254 254 254 254 254 254 254 254 254 254 
254 254 254 254 254 254 254 254 254 254 254 254 254 254 254 254 254 254 
254 254 254 254 254 254 254 254 254 254 254 254 254 254 254 254 254 254 
254 254 254 254 254 254 254 254 254 254 254 254 254 254 254 254 254 254 
254 254 254 254 254 255 255 255 255 255 255 255 255 255 255 255 255 255 
255 255 255 255 255 255 255 255 255 255 255 255 254 255 255 255 255 255 
255 255 255 255 255 255 255 255 255 255 255 255 255 255 255 255 255 255 
255 255 255 255 255 255 255 255 255 255 255 255 255 255 255 255 255 255 
255 255 255 255 255 255 255 255 255 255 255 255 255 255 255 255 255 255 
255 255 255 255 255 255 255 255 255 255 255 255 255 255 255 255 255 255 
255 255 255 255 255 255 255 255 255 255 255 255 255 255 255 255 255 255 
254 255 151  63  64  63  64  64  64  64  64  64  64  64  64  64  64  64 
 64  64  64  64  64  64  64  64  64  64  64  64  64  64  63  63  65  64 
 63  59  57  70 102 146 220 255 255 255 254 254 255 255 255 255 254 255 
255 255 176 167 169 168 169 170 220 251 255 255 255 255 254 255 255 255 
255 254 255 254 255 255 254 255 255 255 255 255 255 255 255 255 255 255 
255 255 255 255 255 255 255 255 255 255 255 255 255 255 255 255 255 255 
255 255 255 255 255 255 255 255 255 255 255 255 254 254 254 254 254 254 
254 254 254 254 254 254 254 254 254 254 254 254 254 254 254 254 254 254 
254 254 254 254 254 254 254 254 254 254 254 254 254 254 254 254 254 254 
254 254 254 254 254 254 254 254 254 254 254 254 254 254 254 254 254 254 
254 254 254 254 254 254 254 254 254 254 254 254 254 254 254 254 254 254 
254 254 254 254 254 254 254 254 254 254 254 254 254 254 254 254 254 254 
254 254 254 254 254 254 254 254 254 254 254 254 253 254 253 248 254 254 
254 254 254 254 254 254 255 255 255 255 255 255 255 255 255 255 255 255 
255 255 255 255 255 255 255 255 255 255 255 255 255 255 242 255 255 255 
255 255 255 255 255 255 255 255 255 255 255 255 255 255 255 255 255 255 
255 255 255 255 255 255 255 255 255 255 255 255 255 255 255 255 255 255 
255 255 255 255 255 255 255 255 255 255 255 255 255 255 255 255 255 255 
255 255 255 255 255 255 255 255 255 255 255 255 255 255 255 255 255 255 
255 255 255 255 255 255 255 255 255 255 255 255 255 255 255 255 255 255 
255 252  61  64  63  63  64  64  64  65  64  64  64  63  64  64  64  63 
 64  64  64  64  64  64  64  64  64  63  64  63  63  63  64  62  62  61 
 79 143 218 254 253 255 252 240 234 237 249 255 255 254 255 254 255 254 
255 255 183 168 168 167 168 177 222 254 255 255 255 255 255 255 255 255 
255 255 255 255 255 255 255 255 255 255 255 255 255 255 255 255 255 255 
255 255 255 255 255 255 255 255 255 255 255 254 254 244 201 172 140 118 
117 117 119 120 143 167 202 246 255 255 254 254 253 254 254 254 253 254 
254 254 254 254 254 254 254 254 254 254 254 254 254 254 254 254 254 254 
254 254 254 254 254 254 254 254 254 254 253 254 252 254 254 229 195 173 
173 174 173 172 197 217 251 254 254 254 254 254 254 254 254 254 254 254 
254 254 254 254 254 254 254 254 254 254 254 254 254 254 254 254 254 254 
254 254 254 254 254 254 254 254 254 254 254 254 254 254 254 254 254 254 
254 253 254 254 254 254 254 254 254 254 254 252 254 213  20 227 254 254 
254 254 254 254 254 254 254 254 255 255 255 255 255 255 255 254 255 254 
255 255 254 255 255 255 255 255 255 255 254 255 244  48 167 255 255 255 
254 255 255 255 255 255 255 255 255 255 255 255 255 255 255 255 255 255 
255 255 255 255 255 255 255 255 255 255 255 255 255 255 255 255 255 255 
255 255 255 255 255 255 255 255 255 255 255 255 255 255 255 255 255 255 
255 255 255 255 255 255 255 255 255 255 255 255 255 255 255 255 255 255 
255 255 255 255 255 255 255 255 255 255 255 255 255 255 255 255 255 255 
254 210 132  91  53  57  62  63  63  62  62  64  64  64  64  63  64  64 
 64  63  63  65  63  64  64  64  64  66  79  95 112 131 171 197 220 245 
255 255 254 255 252 224 214 214 216 215 215 219 232 254 255 254 254 255 
254 254 189 169 167 167 169 188 237 255 255 255 255 255 255 255 255 255 
255 255 255 255 255 255 255 255 255 254 255 255 255 255 255 255 255 255 
255 255 254 255 254 255 254 254 191 134  94  65  35  21  22  24  26  25 
 27  26  26  27  26  24  22  19  36  62  91 127 179 239 253 253 254 254 
254 254 254 253 254 254 254 254 254 254 254 254 254 254 254 254 254 254 
254 254 253 254 254 253 254 253 244 184 131  93  66  41  21  20  24  24 
 25  23  23  24  23  21  21  38  60  88 124 175 236 253 254 253 254 254 
254 254 254 254 254 254 253 254 254 253 254 254 254 254 254 254 254 254 
254 254 254 254 254 254 254 254 254 254 254 254 254 254 254 254 254 254 
254 254 253 254 253 254 254 254 254 253 254 237  88   1   7 227 254 254 
254 254 254 254 254 254 254 254 254 255 255 255 255 255 254 255 254 255 
254 255 255 255 255 254 255 255 255 254 255 124  12   0 167 255 255 255 
255 254 255 255 255 255 255 255 255 255 255 255 255 255 255 255 255 255 
255 255 255 255 255 255 255 255 255 255 255 255 255 255 255 255 255 255 
255 255 255 255 255 255 255 255 255 255 255 255 255 255 255 255 255 255 
255 255 255 255 255 255 255 255 255 255 255 255 255 255 255 255 255 255 
255 255 255 255 255 255 255 255 255 255 255 255 255 255 255 255 255 255 
254 255 255 254 252 174  94  74  61  63  64  62  63  65  64  64  64  64 
 64  64  65  63  65  64  64  63  64  61 176 225 220 219 226 253 255 255 
254 255 255 254 218 216 219 217 218 218 216 217 216 219 250 254 255 255 
253 255 191 169 167 168 168 198 254 255 255 255 255 255 255 255 255 255 
255 255 255 255 255 255 255 255 254 255 255 255 255 255 254 255 255 255 
255 254 254 255 240 195  94  18  24  29  31  31  31  29  31  31  30  30 
 31  31  30  30  29  29  30  30  31  30  31  30  25  21  71 170 231 251 
254 254 254 254 254 254 254 253 254 254 254 254 254 254 254 254 254 253 
254 253 254 254 250 233 173  70  20  25  30  31  31  30  32  31  30  30 
 30  31  31  31  30  32  30  30  31  31  30  25  18  55 161 231 248 254 
254 253 254 254 253 254 254 253 254 254 254 254 254 254 254 254 254 254 
254 254 254 254 254 254 254 254 254 254 254 254 254 254 254 254 254 254 
254 254 254 254 254 253 254 253 254 246 154   0   6   5   6 227 254 254 
254 254 254 254 254 254 254 254 254 254 254 255 255 255 255 254 255 255 
255 255 254 255 255 255 254 255 254 196  12   2   6   1 168 255 255 255 
254 255 255 255 255 255 255 255 255 255 255 255 255 255 255 255 255 255 
255 255 255 255 255 255 255 255 255 255 255 255 255 255 255 255 255 255 
255 255 255 255 255 255 255 255 255 255 255 255 255 255 255 255 255 255 
255 255 255 255 255 255 255 255 255 255 255 255 255 255 255 255 255 255 
255 255 255 255 255 255 255 255 255 255 255 255 255 255 255 255 255 255 
255 255 254 254 255 254 255 238 201  85  56  62  64  64  64  64  64  65 
 64  64  63  65  64  64  64  64  64  63  63 175 217 215 216 243 255 255 
254 255 254 238 220 206 165 156 174 217 224 217 216 217 218 249 254 255 
255 255 194 167 167 167 167 222 255 254 255 255 255 255 255 255 255 255 
255 255 255 255 255 255 255 255 255 255 255 255 254 255 255 255 255 255 
255 255 226  88  44  28  29  31  30  31  32  31  31  32  32  31  30  31 
 31  31  31  32  31  31  31  31  30  32  30  31  29  31  30  28  37  64 
172 254 254 253 253 254 254 254 253 254 254 254 253 254 254 254 254 254 
253 254 254 162  59  37  27  30  31  30  31  31  32  31  31  31  31  31 
 31  31  31  31  32  31  31  31  31  30  31  31  31  30  27  34  59 150 
253 254 252 254 254 254 254 254 254 254 253 254 254 254 254 254 254 254 
254 254 254 254 254 254 254 254 254 254 254 254 254 254 254 254 254 254 
254 254 254 253 254 254 253 253 194  31   4   7   5   6   7 227 254 254 
254 254 254 254 254 254 254 254 254 254 254 254 255 255 255 254 255 255 
255 255 255 255 255 254 255 240  52   6   4   5   6   0 168 255 255 254 
255 255 255 255 255 255 255 255 255 255 255 255 255 255 255 255 255 255 
255 255 255 255 255 255 255 255 255 255 255 255 255 255 255 255 255 255 
255 255 255 255 255 255 255 255 255 255 255 255 255 255 255 255 255 255 
255 255 255 255 255 255 255 255 255 255 255 255 255 255 255 255 255 255 
255 255 255 255 255 255 255 255 255 255 255 255 255 255 255 255 255 255 
254 254 255 255 254 255 254 253 255 255 209 123  65  61  63  64  65  63 
 63  64  64  64  64  64  63  64  63  64  63  71 205 220 216 216 252 254 
255 253 255 207 102  52  55  57  55  54  99 172 220 217 216 224 254 253 
255 255 192 168 168 168 169 248 252 255 255 255 255 255 255 255 255 255 
255 255 255 255 255 255 255 255 255 255 255 254 255 254 255 253 255 255 
204  92  18  29  31  30  31  29  32  30  31  31  32  30  31  31  31  31 
 31  31  31  31  31  31  31  31  31  31  32  30  31  31  29  31  30  29 
 23  53 164 250 254 252 254 253 254 254 254 254 254 254 254 254 252 254 
226 145  39  21  31  30  31  30  30  31  31  31  31  30  32  31  31  31 
 32  31  31  30  32  32  31  31  31  31  29  32  30  31  31  31  31  23 
 32 141 230 253 254 254 254 253 254 252 254 254 254 254 254 254 254 254 
254 254 254 254 254 254 254 254 254 254 254 254 254 254 254 254 254 254 
254 254 254 254 254 254 224  92   0   4   7   5   6   6   6 228 254 254 
254 254 254 254 254 254 254 254 254 254 254 254 254 255 255 255 255 255 
255 255 255 254 255 248 131   0   5   4   7   6   5   0 169 255 255 255 
254 255 255 255 255 255 255 255 255 255 255 255 255 255 255 255 255 255 
255 255 255 255 255 255 255 255 255 255 255 255 255 255 255 255 255 255 
255 255 255 255 255 255 255 255 255 255 255 255 255 255 255 255 255 255 
255 255 255 255 255 255 255 255 255 255 255 255 255 255 255 255 255 255 
255 255 255 255 255 255 255 255 255 255 255 255 255 255 255 255 255 255 
255 254 253 255 255 254 255 255 255 254 254 255 241 109  61  63  64  63 
 63  64  63  64  63  64  65  64  64  63  64  63  77 213 218 217 232 255 
255 255 238  62  63  65  64  64  62  63  63  62 101 219 218 215 243 254 
254 254 192 170 167 165 205 254 255 254 255 255 255 255 255 255 255 255 
255 255 255 255 255 255 255 255 255 255 255 255 254 255 254 253 244  82 
 28  31  31  30  31  31  31  31  30  31  31  30  31  31  31  31  31  30 
 31  31  31  31  32  32  31  30  32  31  31  31  32  31  31  31  31  32 
 31  30  29  34 201 253 254 254 253 254 254 254 254 254 253 254 253 134 
 32  30  31  31  31  31  31  31  31  31  32  31  31  31  30  31  31  32 
 31  31  31  31  31  30  31  32  31  30  31  31  31  31  30  31  32  32 
 30  30  25 121 248 254 254 254 254 254 253 254 254 254 254 254 254 254 
254 254 254 254 254 254 254 254 254 254 254 254 254 254 254 254 254 254 
254 254 253 254 251 135   0   5   6   6   6   6   6   6   7 227 254 254 
254 254 254 254 254 254 254 254 254 254 254 254 254 254 255 255 255 255 
255 254 255 255 191   4   6   5   6   6   5   7   6   0 167 255 255 255 
255 255 255 255 255 255 255 255 255 255 255 255 255 255 255 255 255 255 
255 255 255 255 255 255 255 255 255 255 255 255 255 255 255 255 255 255 
255 255 255 255 255 255 255 255 255 255 255 255 255 255 255 255 255 255 
255 255 255 255 255 255 255 255 255 255 255 255 255 255 255 255 255 255 
255 255 255 255 255 255 255 255 255 255 255 255 255 255 255 255 255 255 
254 254 255 254 255 255 253 255 255 255 253 255 254 254 215 107  57  63 
 62  63  64  65  64  64  64  63  64  64  64  62  63 128 224 217 215 248 
253 255  91  63  63  64  64  65  61  63  63  63  59  98 221 216 232 255 
255 255 192 167 168 172 251 254 255 255 255 255 255 255 255 255 255 255 
255 255 255 255 255 255 255 255 255 255 254 255 255 254 254 141  38  29 
 31  31  30  31  31  31  31  31  31  30  31  31  30  31  32  30  31  31 
 32  31  31  31  31  32  32  32  31  31  31  31  32  31  31  31  30  31 
 31  30  30  32  23  87 237 253 254 254 254 254 254 252 254 155  49  25 
 30  30  31  31  30  32  30  31  31  31  31  31  31  31  30  31  31  31 
 31  32  31  31  31  31  31  30  31  32  32  30  31  31  31  31  30  31 
 31  32  31  28  48 150 254 253 254 253 254 254 254 254 254 254 254 254 
254 254 254 254 254 254 254 254 254 254 254 254 254 254 254 254 254 254 
254 253 254 175  42   0   5   5   5   6   7   4   6   6   6 228 254 254 
254 254 254 254 254 254 254 254 254 254 254 254 254 254 254 253 255 255 
255 255 219  67   0   5   5   6   6   6   6   6   6   0 168 255 255 255 
255 254 255 255 255 255 255 255 255 255 255 255 255 255 255 255 255 255 
255 255 255 255 255 255 255 255 255 255 255 255 255 255 255 255 255 255 
255 255 255 255 255 255 255 255 255 255 255 255 255 255 255 255 255 255 
255 255 255 255 255 255 255 255 255 255 255 255 255 255 255 255 255 255 
255 255 255 255 255 255 255 255 255 255 255 255 255 255 255 255 255 255 
255 255 255 255 255 254 255 255 255 254 254 255 254 255 254 255 167  70 
 63  63  63  63  64  64  64  65  64  64  64  63  64  55 172 217 216 221 
255 241  72  64  63  65  64  64  63  62  62  62  62  57 131 221 228 255 
255 255 191 169 168 196 254 254 255 255 255 255 255 255 255 255 255 255 
255 255 255 255 255 255 255 255 255 255 255 254 255 241  92  26  31  30 
 32  31  31  31  31  31  31  31  31  31  31  31  31  31  31  31  31  31 
 30  31  31  31  31  31  31  31  31  31  31  31  31  31  31  31  31  31 
 31  31  30  31  26 119 254 254 254 254 254 253 254 231  74  24  31  31 
 31  31  31  30  31  31  31  31  31  31  31  31  31  31  31  31  31  31 
 32  31  32  30  31  31  31  31  31  31  31  31  30  31  32  30  32  30 
 31  29  32  31  31  25  76 231 254 253 254 254 254 254 254 254 254 254 
254 254 254 254 254 254 254 254 254 254 254 254 254 254 254 254 254 254 
254 226  76   0   5   5   6   6   6   6   5   8   6   6   8 227 254 254 
254 254 254 254 254 254 254 254 254 254 254 254 254 254 253 254 252 255 
239 127   0   5   6   6   6   6   6   6   6   6   5   0 168 255 254 255 
255 255 255 255 255 255 255 255 255 255 255 255 255 255 255 255 255 255 
255 255 255 255 255 255 255 255 255 255 255 255 255 255 255 255 255 255 
255 255 255 255 255 255 255 255 255 255 255 255 255 255 255 255 255 255 
255 255 255 255 255 255 255 255 255 255 255 255 255 255 255 255 255 255 
255 255 255 255 255 255 255 255 255 255 255 255 255 255 255 255 255 255 
255 255 255 255 255 255 255 255 255 255 255 255 255 255 255 255 254 239 
100  58  64  65  64  64  64  64  64  64  64  63  63  62  76 213 217 218 
245 241  72  63  63  64  64  63  63  63  63  63  62  62  64 196 239 255 
255 254 188 166 164 244 255 255 255 255 255 255 255 255 255 255 255 255 
255 254 255 254 255 255 255 255 255 255 254 255 232  49  29  31  31  31 
 31  31  31  31  31  31  31  31  31  31  31  31  31  31  31  31  31  31 
 31  31  31  31  31  31  31  31  31  31  31  31  31  30  31  31  31  32 
 31  32  31  29 144 253 253 254 254 254 253 254 168  38  29  31  30  31 
 31  31  31  31  31  31  31  31  31  31  31  31  31  31  31  31  31  31 
 31  31  31  31  31  31  31  31  31  31  31  31  31  31  31  31  31  31 
 31  31  31  31  31  30  30  35 160 253 253 254 254 254 254 253 254 254 
254 254 254 254 254 254 254 254 254 254 254 254 254 254 254 254 254 254 
109  12   4   5   6   5   7   6   6   6   6   6   6   6   7 227 254 253 
254 254 254 254 254 254 254 254 254 254 254 254 254 254 254 253 254 167 
 18   4   5   6   6   6   6   6   6   6   6   6   6   0 168 255 255 255 
255 255 255 255 255 255 255 255 255 255 255 255 255 255 255 255 255 255 
255 255 255 255 255 255 255 255 255 255 255 255 255 255 255 255 255 255 
255 255 255 255 255 255 255 255 255 255 255 255 255 255 255 255 255 255 
255 255 255 255 255 255 255 255 255 255 255 255 255 255 255 255 255 255 
255 255 255 255 255 255 255 255 255 255 255 255 255 255 255 255 255 255 
255 255 255 255 255 255 255 255 255 255 255 255 255 255 255 255 255 255 
255 161  58  63  62  64  64  63  64  64  64  63  64  64  60 115 222 216 
223 255  85  63  62  64  64  63  63  63  65  63  63  63  62 182 255 255 
255 255 184 168 207 255 254 254 255 255 255 255 255 255 255 255 255 255 
255 255 255 255 255 255 255 255 255 254 255 214  35  28  31  30  31  31 
 31  31  31  31  31  31  31  31  31  31  31  31  31  31  31  31  31  31 
 31  31  31  32  31  31  31  31  31  31  31  31  31  31  32  30  31  30 
 30  31  27 121 253 252 254 254 253 254 253 112  19  31  31  30  31  31 
 31  31  31  31  31  31  31  31  31  31  31  31  31  31  31  31  31  31 
 31  31  31  31  31  31  31  31  31  31  31  31  31  31  31  31  31  31 
 31  31  31  31  32  30  31  31  23 117 253 254 254 254 253 254 254 253 
254 254 254 254 254 254 253 254 254 254 254 254 254 254 254 254 174  37 
  0   7   6   6   6   6   6   6   6   6   6   6   6   6   7 227 253 254 
253 253 254 254 254 254 254 254 254 254 254 254 254 254 254 206  71   0 
  5   5   5   6   6   6   6   6   6   6   6   6   6   0 168 255 255 255 
255 255 255 255 255 255 255 255 255 255 255 255 255 255 255 255 255 255 
255 255 255 255 255 255 255 255 255 255 255 255 255 255 255 255 255 255 
255 255 255 255 255 255 255 255 255 255 255 255 255 255 255 255 255 255 
255 255 255 255 255 255 255 255 255 255 255 255 255 255 255 255 255 255 
255 255 255 255 255 255 255 255 255 255 255 255 255 255 255 255 255 255 
255 255 255 255 255 255 255 255 255 255 255 255 255 255 255 255 254 255 
253 255 222  71  64  63  63  64  65  63  65  63  65  64  64  62 171 217 
215 246 199  57  63  63  64  63  63  64  61  63  62  62  63 196 254 254 
255 255 178 176 249 255 254 254 255 255 255 255 255 255 255 255 255 255 
255 255 254 254 255 254 255 255 255 255 234  37  31  30  31  31  31  31 
 31  31  31  31  31  31  31  31  31  31  31  31  31  31  31  31  31  31 
 31  31  31  31  31  31  31  31  31  31  31  31  32  31  30  32  31  30 
 31  29 102 253 252 254 254 252 253 249  54  29  29  31  32  31  31  30 
 31  31  31  31  31  31  31  31  31  31  31  31  31  31  31  31  31  31 
 31  31  31  31  31  31  31  31  31  31  31  31  31  31  31  31  31  31 
 31  31  31  31  31  31  32  31  30  30  64 243 254 254 254 254 254 254 
254 254 254 254 254 254 254 254 254 254 253 253 254 253 235  46   2   6 
  5   6   6   5   6   6   6   6   6   6   6   6   6   6   7 227 254 253 
254 254 253 253 254 254 254 254 254 254 254 253 254 247 101   0   5   7 
  6   6   7   6   6   6   6   6   6   6   6   6   6   0 168 255 255 255 
255 255 255 255 255 255 255 255 255 255 255 255 255 255 255 255 255 255 
255 255 255 255 255 255 255 255 255 255 255 255 255 255 255 255 255 255 
255 255 255 255 255 255 255 255 255 255 255 255 255 255 255 255 255 255 
255 255 255 255 255 255 255 255 255 255 255 255 255 255 255 255 255 255 
255 255 255 255 255 255 255 255 255 255 255 255 255 255 255 255 255 255 
255 255 255 255 255 255 255 255 255 255 255 255 255 255 255 255 255 255 
255 254 255 234  90  63  63  63  63  64  64  64  64  64  64  64  86 224 
215 224 255 136  60  64  64  62  62  62  62  61  62  62  62 222 255 255 
254 253 168 235 255 254 255 254 255 255 255 255 255 255 255 255 255 255 
255 255 255 255 253 255 255 255 254 235  42  29  31  30  31  31  31  31 
 31  31  31  31  31  31  31  31  31  31  31  31  31  31  31  31  31  31 
 31  31  31  31  31  31  31  31  31  31  31  31  31  31  32  30  30  32 
 27  99 254 254 254 254 254 254 233  55  29  30  30  31  31  30  32  31 
 31  31  31  31  31  31  31  31  31  31  31  31  31  31  31  31  31  31 
 31  31  31  31  31  31  31  31  31  31  31  31  31  31  31  31  31  31 
 31  31  31  31  31  31  30  30  32  31  28  56 229 253 254 254 254 254 
254 254 253 254 254 254 254 254 254 254 254 253 254 105  13   5   5   5 
  6   5   6   6   7   6   6   5   6   6   6   6   6   6   7 227 254 253 
254 254 254 254 253 254 254 254 254 254 254 254 147  30   1   5   4   6 
  6   6   6   6   6   6   6   6   6   6   6   6   6   0 168 255 255 255 
255 255 255 255 255 255 255 255 255 255 255 255 255 255 255 255 255 255 
255 255 255 255 255 255 255 255 255 255 255 255 255 255 255 255 255 255 
255 255 255 255 255 255 255 255 255 255 255 255 255 255 255 255 255 255 
255 255 255 255 255 255 255 255 255 255 255 255 255 255 255 255 255 255 
255 255 255 255 255 255 255 255 255 255 255 255 255 255 255 255 255 255 
255 255 255 255 255 255 255 255 255 255 255 255 255 255 255 255 254 255 
255 254 255 255 245  96  61  63  65  63  64  63  64  63  63  63  57 149 
221 216 250 254 123  62  61  63  63  61  63  63  63  58 121 254 253 254 
252 220 208 255 255 255 254 255 255 255 255 255 255 255 255 255 255 255 
255 255 255 255 255 255 255 255 255  90  30  32  28  29  30  31  31  31 
 31  31  31  31  31  31  31  31  31  31  31  31  31  31  31  31  31  31 
 31  31  31  31  31  31  31  31  31  31  31  31  31  31  30  31  31  28 
 64 249 253 254 254 253 254 222  30  30  31  30  31  31  31  32  30  31 
 31  31  31  31  31  31  31  31  31  31  31  31  31  31  31  31  31  31 
 31  31  31  31  31  31  31  31  31  31  31  31  31  31  31  31  31  31 
 31  31  31  31  31  31  32  31  29  30  30  31  54 236 253 254 254 253 
254 254 254 254 254 254 254 254 253 254 253 184  12   3   6   6   5   6 
  5   6   6   6   5   6   6   6   6   6   6   6   6   6   7 227 253 254 
253 254 253 254 254 254 254 254 254 254 210  49   0   6   5   5   6   6 
  5   6   6   6   6   6   6   6   6   6   6   6   6   0 168 255 255 255 
255 255 255 255 255 255 255 255 255 255 255 255 255 255 255 255 255 255 
255 255 255 255 255 255 255 255 255 255 255 255 255 255 255 255 255 255 
255 255 255 255 255 255 255 255 255 255 255 255 255 255 255 255 255 255 
255 255 255 255 255 255 255 255 255 255 255 255 255 255 255 255 255 255 
255 255 255 255 255 255 255 255 255 255 255 255 255 255 255 255 255 255 
255 255 255 255 255 255 255 255 255 255 255 255 255 255 255 255 255 255 
255 255 255 254 255 251 106  62  63  65  63  64  63  65  64  65  62  70 
204 217 233 255 255 211  77  57  62  63  64  61  55 140 250 255 255 254 
225 167 238 255 255 255 254 255 254 255 255 255 255 255 255 255 255 255 
255 255 255 254 255 255 255 255 147  23  33  31  31  31  31  31  31  31 
 31  31  31  31  31  31  31  31  31  31  31  31  31  31  31  31  31  31 
 31  31  31  31  31  31  31  31  31  31  31  31  31  31  32  31  31  43 
253 254 254 254 254 253 244  42  31  31  31  31  31  31  31  31  31  31 
 31  31  31  31  31  31  31  31  31  31  31  31  31  31  31  31  31  31 
 31  31  31  31  31  31  31  31  31  31  31  31  31  31  31  31  31  31 
 31  31  31  31  30  31  30  31  31  30  31  31  31  41 231 253 253 254 
253 254 254 254 254 254 253 252 254 231  37   5   5   6   6   6   7   5 
  6   6   5   6   7   5   7   6   6   6   6   6   6   6   7 227 254 254 
254 254 254 254 253 254 254 253 254  78   8   5   5   6   6   6   6   6 
  7   6   6   6   6   6   6   6   6   6   6   6   6   0 168 255 255 255 
255 255 255 255 255 255 255 255 255 255 255 255 255 255 255 255 255 255 
255 255 255 255 255 255 255 255 255 255 255 255 255 255 255 255 255 255 
255 255 255 255 255 255 255 255 255 255 255 255 255 255 255 255 255 255 
255 255 255 255 255 255 255 255 255 255 255 255 255 255 255 255 255 255 
255 255 255 255 255 255 255 255 255 255 255 255 255 255 255 255 255 255 
255 255 255 255 255 255 255 255 255 255 255 255 255 255 255 255 255 255 
254 255 254 255 255 253 250 109  60  63  62  65  64  63  64  64  63  63 
152 218 216 255 254 254 255 211 166 145 147 170 224 255 254 254 253 226 
189 145 247 254 254 255 255 255 255 254 255 255 255 255 255 255 255 255 
255 255 255 255 254 255 254 236  35  31  31  30  31  30  32  31  31  31 
 31  31  31  31  31  31  31  31  31  31  31  30  30  30  30  30  31  30 
 30  31  31  31  30  30  30  31  31  31  31  31  31  30  31  32  25 206 
254 253 253 253 253 245  53  30  29  32  31  31  30  32  31  31  31  31 
 31  31  31  31  31  31  31  31  31  31  31  31  31  31  31  31  31  31 
 31  31  31  31  31  31  31  31  31  31  31  31  31  31  31  31  31  31 
 31  31  31  31  32  31  31  31  31  31  30  32  30  31  66 248 254 254 
254 253 254 254 253 253 254 247 116   0   5   5   5   6   7   7   5   7 
  6   6   6   6   6   7   5   7   6   6   6   6   6   6   7 227 254 254 
254 253 254 254 254 254 254 153  19   1   5   5   6   6   6   6   6   6 
  6   7   5   6   6   6   6   6   6   6   6   6   6   0 168 255 255 255 
255 255 255 255 255 255 255 255 255 255 255 255 255 255 255 255 255 255 
255 255 255 255 255 255 255 255 255 255 255 255 255 255 255 255 255 255 
255 255 255 255 255 255 255 255 255 255 255 255 255 255 255 255 255 255 
255 255 255 255 255 255 255 255 255 255 255 255 255 255 255 255 255 255 
255 255 255 255 255 255 255 255 255 255 255 255 255 255 255 255 255 255 
255 255 255 255 255 255 255 255 255 255 255 255 255 255 255 255 254 255 
255 255 255 254 254 255 254 250  90  62  63  63  64  65  64  64  63  63 
 64 223 216 242 254 255 254 255 255 254 255 255 255 254 254 254 225 204 
137 165 254 255 253 255 255 255 255 255 255 255 255 255 255 255 255 255 
255 255 255 255 255 254 255 138  29  31  31  31  31  31  31  31  31  31 
 31  31  31  31  31  31  31  31  31  31  30  30  30  30  32  35  38  40 
 41  40  38  35  30  30  30  30  31  31  31  31  31  31  30  26 136 254 
254 254 254 253 254  77  28  31  31  31  31  31  31  31  31  31  32  31 
 31  31  31  31  31  31  31  31  31  31  31  31  31  31  31  31  31  31 
 31  31  31  31  31  31  31  31  31  31  31  31  31  31  31  31  31  31 
 31  31  31  31  31  30  31  31  31  31  31  31  29  31  29  69 250 254 
254 254 253 253 254 250 180   0   5   5   6   6   6   6   5   5   6   6 
  6   6   6   6   6   6   6   6   6   6   6   6   6   6   7 227 254 254 
254 254 254 254 252 218  26   2   6   6   6   6   6   6   6   6   6   6 
  6   6   6   6   6   6   6   6   6   6   6   6   6   0 168 255 255 255 
255 255 255 255 255 255 255 255 255 255 255 255 255 255 255 255 255 255 
255 255 255 255 255 255 255 255 255 255 255 255 255 255 255 255 255 255 
255 255 255 255 255 255 255 255 255 255 255 255 255 255 255 255 255 255 
255 255 255 255 255 255 255 255 255 255 255 255 255 255 255 255 255 255 
255 255 255 255 255 255 255 255 255 255 255 255 255 255 255 255 255 255 
255 255 255 255 255 255 255 255 255 255 255 255 255 255 255 255 255 255 
255 255 255 255 255 255 255 255 244  79  64  62  64  64  64  64  64  63 
 58 142 218 232 255 255 255 255 255 255 254 255 255 255 254 224 211 145 
140 197 255 255 255 255 255 255 255 255 255 255 255 255 255 255 255 255 
255 254 255 255 255 255 246  24  30  31  31  31  31  31  31  31  31  31 
 30  32  31  31  31  31  31  30  31  30  27  20  90 167 208 222 232 239 
245 244 234 220 199 143  62  17  25  29  30  31  31  31  30  70 254 253 
254 254 253 254 124  27  31  30  31  31  31  31  31  31  31  31  31  31 
 31  31  31  32  30  32  31  31  31  30  30  30  31  31  31  30  31  29 
 27  26  26  28  32  31  31  30  31  31  30  31  31  31  31  32  31  32 
 30  32  30  31  31  30  31  31  31  31  31  31  31  30  31  29 120 253 
253 254 254 254 254  53   2   5   6   5   6   6   6   6   6   6   6   6 
  6   6   6   6   6   6   6   6   6   6   6   6   6   6   7 227 254 254 
253 254 254 254 115   6   4   6   5   6   6   6   6   6   6   6   6   6 
  6   6   6   6   6   6   6   6   6   6   6   6   6   0 168 255 255 255 
255 255 255 255 255 255 255 255 255 255 255 255 255 255 255 255 255 255 
255 255 255 255 255 255 255 255 255 255 255 255 255 255 255 255 255 255 
255 255 255 255 255 255 255 255 255 255 255 255 255 255 255 255 255 255 
255 255 255 255 255 255 255 255 255 255 255 255 255 255 255 255 255 255 
255 255 255 255 255 255 255 255 255 255 255 255 255 255 255 255 255 255 
255 255 255 255 255 255 255 255 255 255 255 255 255 255 255 255 255 255 
255 255 255 255 255 255 255 255 253 222  65  63  63  64  64  65  64  63 
 64  85 215 223 254 254 255 255 254 255 255 254 254 250 220 211 147 140 
138 245 255 255 255 255 255 255 255 255 255 255 255 255 255 255 255 255 
254 255 254 255 255 254 141  27  30  31  31  31  31  31  31  31  31  31 
 31  30  32  32  31  31  31  32  27  47 134 244 255 254 253 254 253 254 
254 254 254 253 254 254 254 234 145  75  34  27  30  31  23 206 253 254 
254 254 254 203  24  31  29  31  31  32  31  31  31  31  31  31  31  31 
 31  31  31  32  32  30  31  31  30  31  32  30  28  23  40  67  84 112 
134 135 136 122  89  74  52  29  26  30  32  30  31  31  31  31  31  30 
 32  31  31  30  30  32  29  32  30  31  31  31  29  31  30  31  17 172 
253 254 254 254 253   9   6   6   5   6   6   6   6   6   6   6   6   6 
  6   6   6   6   6   6   6   6   6   6   6   6   6   6   7 227 254 253 
254 254 253 254  77   3   4   6   5   6   6   6   6   6   6   6   6   6 
  6   6   6   6   6   6   6   6   6   6   6   6   6   0 168 255 255 255 
255 255 255 255 255 255 255 255 255 255 255 255 255 255 255 255 255 255 
255 255 255 255 255 255 255 255 255 255 255 255 255 255 255 255 255 255 
255 255 255 255 255 255 255 255 255 255 255 255 255 255 255 255 255 255 
255 255 255 255 255 255 255 255 255 255 255 255 255 255 255 255 255 255 
255 255 255 255 255 255 255 255 255 255 255 255 255 255 255 255 255 255 
255 255 255 255 255 255 255 255 255 255 255 255 255 255 255 255 255 255 
255 255 255 255 255 255 255 253 254 255 202  56  62  65  63  64  64  64 
 63  61 200 216 255 255 253 255 254 255 253 255 245 216 217 152 141 142 
155 254 255 255 255 255 255 255 255 255 255 255 255 255 255 255 255 255 
255 254 255 255 255 252  77  31  30  31  31  31  31  31  31  31  31  31 
 31  31  31  31  31  30  31  31  97 252 253 255 253 254 254 254 254 254 
254 254 254 254 254 254 254 254 254 250 239 136  28  27 134 252 254 254 
254 253 237  33  31  31  31  31  31  31  31  31  31  31  31  31  31  31 
 31  31  31  30  31  31  32  31  30  31  31  25  96 211 246 250 253 254 
253 254 254 254 254 251 249 241 147  36  25  31  32  31  31  31  31  31 
 31  30  30  32  32  30  31  31  31  31  31  31  31  30  30  28  79 251 
253 254 254 254 254   8   6   6   7   5   6   6   6   6   6   6   6   6 
  6   6   6   6   6   6   6   6   6   6   6   6   6   6   7 227 254 253 
254 254 254 254  77   3   5   6   6   6   6   6   6   6   6   6   6   6 
  6   6   6   6   6   6   6   6   6   6   6   6   6   0 168 255 255 255 
255 255 255 255 255 255 255 255 255 255 255 255 255 255 255 255 255 255 
255 255 255 255 255 255 255 255 255 255 255 255 255 255 255 255 255 255 
255 255 255 255 255 255 255 255 255 255 255 255 255 255 255 255 255 255 
255 255 255 255 255 255 255 255 255 255 255 255 255 255 255 255 255 255 
255 255 255 255 255 255 255 255 255 255 255 255 255 255 255 255 255 255 
255 255 255 255 255 255 255 255 255 255 255 255 255 255 255 255 255 255 
255 255 255 255 255 255 255 255 254 253 254 138  62  64  64  64  65  63 
 65  60 121 222 242 255 255 255 254 255 254 236 216 213 155 142 142 143 
179 254 255 255 255 255 255 255 255 255 255 255 255 255 255 255 255 255 
255 255 255 255 255 248  44  31  30  31  31  31  31  31  31  31  31  31 
 31  32  31  32  31  30  25 128 255 254 255 253 254 254 254 254 254 254 
254 254 254 254 254 254 253 254 254 254 254 253 242 164 246 253 253 254 
253 254 120  30  30  31  30  31  30  31  31  31  31  31  31  31  31  31 
 31  31  32  30  31  30  30  32  22  50 155 237 253 254 252 254 253 254 
254 254 254 254 254 254 254 254 254 254 193  98  22  31  31  31  30  31 
 31  31  32  30  31  31  31  30  32  31  31  30  31  31  25 149 253 253 
253 254 254 253 253  10   6   6   6   7   6   6   6   6   6   6   6   6 
  6   6   6   6   6   6   6   6   6   6   6   6   6   6   7 227 254 254 
254 253 254 254  77   3   5   6   6   6   6   6   6   6   6   6   6   6 
  6   6   6   6   6   6   6   6   6   6   6   6   6   0 168 255 255 255 
255 255 255 255 255 255 255 255 255 255 255 255 255 255 255 255 255 255 
255 255 255 255 255 255 255 255 255 255 255 255 255 255 255 255 255 255 
255 255 255 255 255 255 255 255 255 255 255 255 255 255 255 255 255 255 
255 255 255 255 255 255 255 255 255 255 255 255 255 255 255 255 255 255 
255 255 255 255 255 255 255 255 255 255 255 255 255 255 255 255 255 255 
255 255 255 255 255 255 255 255 255 255 255 255 255 255 255 255 255 255 
255 255 255 255 255 255 255 254 254 255 255 255  77  63  65  63  64  65 
 64  62  57 217 231 255 254 253 255 253 225 215 213 151 142 143 143 136 
225 254 255 255 255 255 255 255 255 255 255 255 255 255 255 255 255 255 
254 255 255 255 254 232  21  31  30  31  31  31  31  31  31  31  31  31 
 31  31  31  31  29  31  77 255 253 255 254 254 254 254 254 254 254 254 
254 254 254 254 254 254 254 254 254 254 253 254 253 254 254 254 254 254 
254 214  17  31  30  31  31  31  31  30  31  31  31  31  31  31  31  31 
 31  32  30  31  32  30  29  37 140 253 254 254 254 253 254 253 254 252 
254 254 253 254 254 254 254 254 253 254 254 254 205  46  29  31  31  30 
 31  32  30  32  31  31  31  32  31  31  30  31  27  42 210 254 253 254 
253 254 254 253 254  10   4   7   5   6   6   6   6   6   6   6   6   6 
  6   6   6   6   6   6   6   6   6   6   6   6   6   6   7 227 254 253 
253 254 254 254  77   3   5   6   6   6   6   6   6   6   6   6   6   6 
  6   6   6   6   6   6   6   6   6   6   6   6   6   0 168 255 255 255 
255 255 255 255 255 255 255 255 255 255 255 255 255 255 255 255 255 255 
255 255 255 255 255 255 255 255 255 255 255 255 255 255 255 255 255 255 
255 255 255 255 255 255 255 255 255 255 255 255 255 255 255 255 255 255 
255 255 255 255 255 255 255 255 255 255 255 255 255 255 255 255 255 255 
255 255 255 255 255 255 255 255 255 255 255 255 255 255 255 255 255 255 
255 255 255 255 255 255 255 255 255 255 255 255 255 255 255 255 255 255 
255 255 255 255 255 255 255 253 255 255 254 255 229  67  63  63  65  63 
 63  63  61 174 220 255 255 255 239 219 217 208 149 139 143 143 143 157 
255 254 255 255 255 255 255 255 255 255 255 255 255 255 255 255 255 255 
255 254 255 254 255 175  25  32  30  31  31  31  31  31  31  31  31  31 
 31  31  31  30  31  23 194 255 255 255 255 254 254 254 253 254 254 253 
254 254 254 254 254 254 254 254 254 254 254 253 254 254 254 253 254 253 
250  64  31  32  31  31  31  31  31  31  31  31  31  31  31  31  31  31 
 31  31  31  32  30  27  81 227 253 254 253 254 254 254 254 254 253 254 
254 254 254 254 254 254 254 254 254 254 253 253 254 248 136  19  31  31 
 31  30  32  31  31  31  30  30  31  31  31  25  94 239 254 252 254 253 
254 254 254 254 252   8   8   6   6   6   6   6   6   6   6   6   6   6 
  6   6   6   6   6   6   6   6   6   6   6   6   6   6   7 227 254 254 
254 253 254 254  77   3   5   6   6   6   6   6   6   6   6   6   6   6 
  6   6   6   6   6   6   6   6   6   6   6   6   6   0 168 255 255 255 
255 255 255 255 255 255 255 255 255 255 255 255 255 255 255 255 255 255 
255 255 255 255 255 255 255 255 255 255 255 255 255 255 255 255 255 255 
255 255 255 255 255 255 255 255 255 255 255 255 255 255 255 255 255 255 
255 255 255 255 255 255 255 255 255 255 255 255 255 255 255 255 255 255 
255 255 255 255 255 255 255 255 255 255 255 255 255 255 255 255 255 255 
255 255 255 255 255 255 255 255 255 255 255 255 255 255 255 255 255 255 
255 255 255 255 255 255 255 255 254 255 255 255 254 138  59  64  64  63 
 63  64  63 134 217 255 248 227 214 218 197 141 142 143 141 142 139 224 
255 255 255 255 255 255 255 255 255 255 255 255 255 255 255 255 255 255 
255 255 255 255 255 137  26  29  30  31  31  31  31  31  31  31  30  31 
 30  31  30  31  30  27 255 255 255 255 254 253 254 254 254 254 254 254 
254 254 254 254 254 254 254 254 254 253 253 254 254 254 254 254 254 254 
205  32  30  30  30  31  31  30  31  31  31  31  31  31  31  31  31  31 
 31  31  31  30  30 124 254 253 254 253 254 254 254 254 253 254 254 254 
254 254 254 254 254 254 254 254 254 254 254 254 254 252 253 172  30  31 
 31  30  31  31  31  31  31  31  31  31  31 144 254 252 254 254 254 254 
253 254 254 254 253   9   5   6   6   6   6   6   6   6   6   6   6   6 
  6   6   6   6   6   6   6   6   6   6   6   6   6   6   7 227 253 254 
253 254 254 254  77   2   5   6   6   6   6   6   6   6   6   6   6   6 
  6   6   6   6   6   6   6   6   6   6   6   6   6   0 168 255 255 255 
255 255 255 255 255 255 255 255 255 255 255 255 255 255 255 255 255 255 
255 255 255 255 255 255 255 255 255 255 255 255 255 255 255 255 255 255 
255 255 255 255 255 255 255 255 255 255 255 255 255 255 255 255 255 255 
255 255 255 255 255 255 255 255 255 255 255 255 255 255 255 255 255 255 
255 255 255 255 255 255 255 255 255 255 255 255 255 255 255 255 255 255 
255 255 255 255 255 255 255 255 255 255 255 255 255 255 255 255 255 255 
255 255 255 255 255 255 255 254 255 255 255 253 254 255  79  63  64  65 
 65  63  64 101 221 227 216 215 218 181 139 142 142 143 141 141 156 252 
254 254 255 255 255 255 255 255 255 255 255 255 255 255 255 255 255 255 
255 255 255 255 255 106  27  30  30  31  31  31  31  31  31  31  31  31 
 31  31  31  32  30  65 254 254 255 255 254 254 254 254 254 254 254 254 
254 254 254 254 253 254 254 254 254 254 254 254 253 254 254 254 252 253 
 57  29  30  31  31  31  30  31  31  31  31  31  31  31  31  31  31  31 
 31  30  32  22 159 253 254 254 254 254 254 254 254 254 254 254 254 254 
254 254 254 254 254 254 254 254 254 254 254 253 254 254 254 254 214  33 
 31  30  31  31  30  31  31  29  32  37 226 254 252 254 253 254 254 254 
254 254 254 254 253   9   6   6   6   5   6   6   6   6   6   6   6   6 
  6   6   6   6   6   6   6   6   6   6   6   6   6   6   7 227 254 254 
254 254 254 254  76   3   5   6   6   6   6   6   6   6   6   6   6   6 
  6   6   6   6   6   6   6   6   6   6   6   6   6   0 168 255 255 255 
255 255 255 255 255 255 255 255 255 255 255 255 255 255 255 255 255 255 
255 255 255 255 255 255 255 255 255 255 255 255 255 255 255 255 255 255 
255 255 255 255 255 255 255 255 255 255 255 255 255 255 255 255 255 255 
255 255 255 255 255 255 255 255 255 255 255 255 255 255 255 255 255 255 
255 255 255 255 255 255 255 255 255 255 255 255 255 255 255 255 255 255 
255 255 255 255 255 255 255 255 254 255 255 255 255 255 255 255 255 255 
255 255 255 255 255 255 255 255 255 255 255 255 254 255 202  64  64  64 
 64  63  63  73 222 216 218 212 162 141 141 142 142 143 141 135 229 255 
254 255 255 255 255 255 255 255 255 255 255 255 255 255 255 255 255 255 
255 255 255 255 255 105  28  31  31  31  31  31  31  31  31  31  31  31 
 31  31  31  30  30  31 254 255 255 254 254 254 254 254 254 254 254 254 
254 254 254 254 254 254 254 254 254 254 254 254 254 254 254 254 254 189 
 22  30  31  31  31  31  31  31  31  31  31  31  31  31  30  32  30  30 
 30  31  26 179 254 253 253 254 254 254 254 254 254 254 254 254 254 254 
254 254 254 254 254 254 254 254 254 254 254 254 254 254 254 253 253 193 
 20  29  30  30  29  30  31  21 106 243 254 253 254 254 254 254 254 254 
254 254 254 254 253   9   6   6   6   6   6   6   6   6   6   5   6   6 
  6   6   6   6   6   6   6   6   6   6   6   6   6   6   7 227 254 254 
254 254 254 254  77   3   5   7   6   6   6   7   5   6   6   6   6   6 
  6   6   6   5   6   6   6   6   6   6   6   6   6   0 168 255 255 255 
255 255 255 255 255 255 255 255 255 255 255 255 255 255 255 255 255 255 
255 255 255 255 255 255 255 255 255 255 255 255 255 255 255 255 255 255 
255 255 255 255 255 255 255 255 255 255 255 255 255 255 255 255 255 255 
255 255 255 255 255 255 255 255 255 255 255 255 255 255 255 255 255 255 
255 255 255 255 255 255 255 255 255 255 255 255 255 255 255 255 255 255 
255 255 255 255 255 255 255 255 255 255 254 255 255 254 255 254 255 255 
255 254 254 255 255 255 255 255 255 255 253 255 255 255 255  88  63  63 
 64  62  64  52 211 217 199 141 142 144 143 142 142 143 141 185 254 254 
254 255 255 255 255 255 255 255 255 255 255 255 255 255 255 255 255 255 
255 255 255 255 254 123  26  31  31  31  31  31  31  31  31  31  31  30 
 32  31  30  32  30  23 193 255 255 254 253 254 254 254 254 254 254 254 
254 253 254 254 254 254 254 254 254 254 254 254 254 254 254 254 253  97 
 31  30  31  31  31  31  31  31  31  31  31  31  30  31  32  30  31  31 
 31  26 147 254 253 254 254 254 254 254 254 254 254 254 254 254 254 254 
254 254 254 254 254 254 254 254 254 254 254 254 254 254 254 254 253 254 
177  30  30  30  30  30  36 151 254 253 254 254 254 254 254 254 254 254 
254 254 254 254 253   9   6   6   6   6   7   6   6   7   6   6   6   6 
  6   6   6   6   6   6   6   6   6   6   6   6   6   6   7 227 254 254 
254 254 254 254  77   3   5   6   6   5   6   6   7   6   6   6   6   6 
  6   6   5   6   6   6   6   6   6   6   6   6   6   0 168 255 255 255 
255 255 255 255 255 255 255 255 255 255 255 255 255 255 255 255 255 255 
255 255 255 255 255 255 255 255 255 255 255 255 255 255 255 255 255 255 
255 255 255 255 255 255 255 255 255 255 255 255 255 255 255 255 255 255 
255 255 255 255 255 255 255 255 255 255 255 255 255 255 255 255 255 255 
255 255 255 255 255 255 255 255 255 255 255 255 255 255 255 255 255 255 
255 255 255 255 255 255 255 255 255 255 255 255 254 255 254 255 255 255 
255 255 255 255 255 255 255 254 254 255 255 255 255 255 255 223  54  62 
 64  64  62  57 168 162 140 141 142 142 141 143 143 143 144 249 254 255 
254 254 255 255 255 255 255 255 255 255 255 255 255 255 255 255 255 255 
254 255 255 255 255 144  26  31  31  31  31  31  31  31  31  31  31  30 
 31  32  31  31  31  30  46 243 253 254 254 254 254 254 254 254 254 254 
253 254 254 254 254 253 254 254 254 254 254 254 254 254 254 252 254  36 
 31  30  31  31  31  31  31  31  31  31  31  31  31  30  31  30  32  30 
 30 118 254 253 254 254 254 254 254 254 254 254 254 254 254 254 254 254 
254 254 254 254 254 254 254 254 254 254 254 254 254 254 254 254 254 252 
254  98  25  31  30  46 220 253 254 253 254 254 254 254 254 254 254 254 
254 254 254 254 253   9   6   6   6   6   7   6   6   5   6   6   6   6 
  6   6   6   6   6   6   6   6   6   6   6   6   6   6   7 227 254 254 
254 254 254 254  77   3   5   5   6   7   6   6   5   6   6   6   6   6 
  6   6   6   6   6   6   6   6   6   6   6   6   6   0 168 255 255 255 
255 255 255 255 255 255 255 255 255 255 255 255 255 255 255 255 255 255 
255 255 255 255 255 255 255 255 255 255 255 255 255 255 255 255 255 255 
255 255 255 255 255 255 255 255 255 255 255 255 255 255 255 255 255 255 
255 255 255 255 255 255 255 255 255 255 255 255 255 255 255 255 255 255 
255 255 255 255 255 255 255 255 255 255 255 255 255 255 255 255 255 255 
255 255 255 255 255 255 255 255 255 254 255 255 255 239 246 251 255 254 
255 255 255 254 255 255 254 254 255 255 249 246 242 232 220 217 112  64 
 63  63  64  59  99 143 142 143 142 141 143 142 142 142 233 255 253 255 
255 255 255 255 255 255 255 255 255 255 255 255 255 255 255 255 255 255 
255 255 255 255 255 179  24  31  31  31  31  31  31  31  31  31  31  31 
 31  31  31  30  30  31  30  31 163 240 254 253 254 254 254 254 254 254 
254 253 254 254 253 254 253 254 254 254 254 254 254 254 254 254 172  22 
 30  31  31  31  31  31  31  31  31  31  30  31  31  30  31  31  31  29 
 47 249 252 254 253 254 254 254 254 254 254 254 254 254 254 254 254 254 
254 254 254 254 254 254 254 254 254 254 254 254 254 254 254 253 254 253 
253 254  58  25 101 251 254 254 254 254 254 253 254 254 254 254 254 254 
254 254 254 254 253   9   6   6   6   6   6   7   6   6   6   5   6   6 
  6   6   6   6   6   6   6   6   6   6   6   6   6   6   7 227 254 254 
254 254 254 254  77   3   5   6   6   5   6   6   6   6   6   7   5   6 
  7   6   6   6   6   6   6   6   6   6   6   6   6   0 168 255 255 255 
255 255 255 255 255 255 255 255 255 255 255 255 255 255 255 255 255 255 
255 255 255 255 255 255 255 255 255 255 255 255 255 255 255 255 255 255 
255 255 255 255 255 255 255 255 255 255 255 255 255 255 255 255 255 255 
255 255 255 255 255 255 255 255 255 255 255 255 255 255 255 255 255 255 
255 255 255 255 255 255 255 255 255 255 255 255 255 255 255 255 255 255 
255 255 255 255 255 255 255 255 255 255 255 255 254 217 216 216 215 222 
229 233 236 240 239 234 232 230 221 215 218 216 216 217 218 215 178  61 
 63  63  64  60  89 145 142 143 142 143 143 142 140 203 254 254 255 255 
255 255 255 255 255 255 255 255 255 255 255 255 255 255 255 255 255 255 
255 255 255 255 254 230  22  32  31  31  31  31  31  31  31  31  31  31 
 31  31  31  32  31  30  32  32  30  31 107 218 251 252 252 254 254 253 
254 253 254 253 254 254 254 254 253 254 254 254 254 254 254 254  53  29 
 31  32  31  31  31  31  31  31  31  31  31  31  31  31  31  30  30  30 
227 254 254 253 254 254 254 254 254 254 254 254 254 254 254 254 254 254 
254 254 254 254 254 254 254 254 254 254 254 254 254 254 254 254 254 254 
254 252 193 168 253 253 254 254 254 254 254 254 254 254 254 254 254 254 
254 254 254 254 253   9   6   6   6   6   5   6   5   5   5   6   6   6 
  6   6   6   6   6   6   6   6   6   6   6   6   6   6   7 227 254 254 
254 254 254 254  77   3   6   5   6   6   7   5   6   5   5   6   6   5 
  6   6   6   6   6   6   6   6   6   6   6   6   6   0 168 255 255 255 
255 255 255 255 255 255 255 255 255 255 255 255 255 255 255 255 255 255 
255 255 255 255 255 255 255 255 255 255 255 255 255 255 255 255 255 255 
255 255 255 255 255 255 255 255 255 255 255 255 255 255 255 255 255 255 
255 255 255 255 255 255 255 255 255 255 255 255 255 255 255 255 255 255 
255 255 255 255 255 255 255 255 255 255 255 255 255 255 255 255 255 255 
255 255 255 255 255 255 255 255 255 255 255 255 255 225 216 218 217 216 
215 216 216 215 215 216 217 218 217 216 216 217 217 216 218 222 208  76 
 61  63  64  63  81 143 143 142 144 141 142 139 197 255 255 253 255 254 
254 255 255 255 255 255 255 255 255 255 255 255 255 255 255 255 255 255 
255 255 255 255 255 248  41  31  31  31  31  31  31  31  31  31  31  30 
 31  31  30  30  32  31  31  31  30  30  27  21  44  77 109 153 191 232 
253 254 253 254 254 254 254 254 254 254 253 254 254 253 254 231  27  31 
 30  31  31  31  31  31  31  31  31  31  31  31  31  31  30  31  29  91 
253 253 254 254 253 254 254 253 254 254 254 254 254 254 254 254 254 254 
254 254 254 254 254 254 254 254 254 254 254 254 254 254 253 254 254 254 
254 254 254 254 253 254 254 254 254 253 254 254 254 254 254 254 254 254 
254 254 254 254 253   9   6   6   6   6   6   5   5   0  35   9   7   6 
  6   6   6   6   6   6   6   6   6   6   6   6   6   6   7 227 254 254 
254 254 254 254  77   3   5   7   5   4   5   6   0  13  19   5   7   6 
  5   6   6   6   6   6   6   6   6   6   6   6   6   0 168 255 255 255 
255 255 255 255 255 255 255 255 255 255 255 255 255 255 255 255 255 255 
255 255 255 255 255 255 255 255 255 255 255 255 255 255 255 255 255 255 
255 255 255 255 255 255 255 255 255 255 255 255 255 255 255 255 255 255 
255 255 255 255 255 255 255 255 255 255 255 255 255 255 255 255 255 255 
255 255 255 255 255 255 255 255 255 255 255 255 255 255 255 255 255 255 
255 255 255 255 255 255 255 255 255 255 255 255 255 233 216 217 217 217 
217 217 217 217 217 217 217 216 216 217 218 217 215 209 191 150 138 129 
 63  62  63  63  77 145 141 143 143 142 140 177 254 254 253 255 255 254 
255 254 255 255 255 255 255 255 255 255 255 255 255 255 255 255 255 255 
255 255 254 255 255 251  70  31  31  31  31  31  31  31  31  31  31  31 
 31  31  31  31  31  31  32  31  31  31  31  31  30  31  31  27  23  19 
 19  54  94 134 174 209 223 231 243 252 254 254 253 254 253 188  31  30 
 31  31  31  31  31  31  31  31  31  31  31  31  32  31  31  30  20 225 
254 254 254 254 254 254 254 254 254 254 254 254 254 254 254 254 254 254 
254 254 254 254 254 254 254 254 254 254 254 254 254 254 254 254 254 254 
254 254 253 254 254 254 254 254 253 254 254 254 254 254 254 254 254 254 
254 254 254 254 253   9   6   6   6   6   6   3  13 125 240  12   6   6 
  6   6   6   6   6   6   6   6   6   6   6   6   6   6   7 227 254 254 
254 254 254 254  77   3   5   6   6   7   3   3  78 253  41   7   6   6 
  6   6   6   6   6   6   6   6   6   6   6   6   6   0 168 255 255 255 
255 255 255 255 255 255 255 255 255 255 255 255 255 255 255 255 255 255 
255 255 255 255 255 255 255 255 255 255 255 255 255 255 255 255 255 255 
255 255 255 255 255 255 255 255 255 255 255 255 255 255 255 255 255 255 
255 255 255 255 255 255 255 255 255 255 255 255 255 255 255 255 255 255 
255 255 255 255 255 255 255 255 255 255 255 255 255 255 255 255 255 255 
255 255 255 255 255 255 255 255 255 255 255 255 254 250 217 218 217 217 
217 217 217 217 217 217 218 218 220 214 190 163 148 143 140 141 142 139 
 74  64  63  62  76 143 142 143 142 141 190 255 253 254 254 255 255 255 
255 255 255 255 255 255 255 255 255 255 255 255 255 255 255 255 255 255 
254 254 255 255 255 255 121  28  31  31  31  31  31  31  31  31  31  31 
 31  32  31  31  31  31  31  31  32  30  30  31  31  30  30  31  30  31 
 29  31  29  29  27  28  33  41  46  53  80 133 190 253 254 145  31  29 
 30  31  31  31  31  31  31  31  31  31  31  31  31  32  31  30 104 254 
253 254 254 254 254 254 254 254 254 254 254 254 254 254 254 254 254 254 
254 254 254 254 254 254 254 254 254 254 254 254 254 254 254 254 254 254 
254 254 254 254 254 253 254 254 254 253 254 254 254 254 254 254 254 254 
254 254 254 254 253   9   6   6   6   6   2  42 231 254 223  12   6   6 
  6   6   6   6   6   6   6   6   6   6   6   6   6   6   7 227 254 254 
254 254 254 254  77   3   5   6   6   4  13 202 252 247  39   6   6   6 
  6   6   6   6   6   6   6   6   6   6   6   6   6   0 168 255 255 255 
255 255 255 255 255 255 255 255 255 255 255 255 255 255 255 255 255 255 
255 255 255 255 255 255 255 255 255 255 255 255 255 255 255 255 255 255 
255 255 255 255 255 255 255 255 255 255 255 255 255 255 255 255 255 255 
255 255 255 255 255 255 255 255 255 255 255 255 255 255 255 255 255 255 
255 255 255 255 255 255 255 255 255 255 255 255 255 255 255 255 255 255 
255 255 255 255 255 255 255 255 255 255 255 255 227 141 157 168 178 183 
186 189 189 185 183 177 170 159 147 139 140 142 143 142 143 141 144 140 
 97  63  63  61  78 143 142 142 139 191 254 255 253 251 252 253 255 254 
254 255 255 255 255 255 255 255 255 255 255 255 255 255 255 255 255 255 
255 255 255 255 255 255 221  17  31  31  30  31  31  31  31  30  31  31 
 31  31  31  31  31  31  31  31  31  31  31  31  31  31  30  30  30  30 
 30  30  31  31  31  31  30  30  30  31  29  25  21  18  57  53  31  30 
 31  32  31  31  31  31  31  31  31  31  31  31  31  31  29  32 203 254 
254 254 254 254 254 254 254 254 254 254 254 254 254 254 254 254 254 254 
254 254 254 254 254 254 254 254 254 254 254 254 254 254 254 254 254 254 
254 254 254 254 254 254 254 254 254 254 254 254 254 254 254 254 254 254 
254 254 254 254 254   9   6   5   5   6 126 254 254 253 223  11   6   6 
  6   6   6   6   6   6   6   6   6   6   6   6   6   6   7 227 254 254 
254 253 254 254  77   3   5   5   0  84 240 254 253 247  39   6   6   6 
  6   6   6   6   6   6   6   6   6   6   6   6   6   0 168 255 255 255 
255 255 255 255 255 255 255 255 255 255 255 255 255 255 255 255 255 255 
255 255 255 255 255 255 255 255 255 255 255 255 255 255 255 255 255 255 
255 255 255 255 255 255 255 255 255 255 255 255 255 255 255 255 255 255 
255 255 255 255 255 255 255 255 255 255 255 255 255 255 255 255 255 255 
255 255 255 255 255 255 255 255 255 255 255 255 255 255 255 255 255 255 
255 255 255 255 255 255 255 255 255 255 255 254 238 143 142 142 143 141 
141 140 140 142 142 141 141 140 142 141 141 143 143 143 143 143 143 142 
137  58  62  61  86 144 141 140 204 255 244 224 216 215 217 216 234 254 
255 255 255 255 255 255 255 255 255 255 255 255 255 255 255 255 255 255 
255 255 255 255 255 254 255  91  30  29  31  31  31  31  30  31  31  31 
 31  31  31  31  31  31  31  31  31  31  31  31  31  31  31  31  31  31 
 31  31  31  31  31  31  31  31  31  31  31  30  31  30  31  30  31  30 
 31  31  31  31  31  31  31  31  31  31  31  31  30  31  29  40 239 254 
254 254 254 254 254 254 254 254 254 254 254 254 254 254 254 254 254 254 
254 254 254 254 254 254 254 254 254 254 254 254 254 254 254 254 254 254 
254 254 254 254 254 254 254 254 254 254 254 254 254 254 254 254 254 254 
254 254 254 254 254   9   5   6  24 228 254 254 254 253 224  13   6   6 
  6   6   6   6   6   6   6   6   6   6   6   6   6   6   7 227 254 254 
254 253 254 254  76   3   4   6 185 254 253 254 253 247  39   6   6   6 
  6   6   6   6   6   6   6   6   6   6   6   6   6   0 168 255 255 255 
255 255 255 255 255 255 255 255 255 255 255 255 255 255 255 255 255 255 
255 255 255 255 255 255 255 255 255 255 255 255 255 255 255 255 255 255 
255 255 255 255 255 255 255 255 255 255 255 255 255 255 255 255 255 255 
255 255 255 255 255 255 255 255 255 255 255 255 255 255 255 255 255 255 
255 255 255 255 255 255 255 255 255 255 255 255 255 255 255 255 255 255 
255 255 255 255 255 255 255 255 255 255 254 255 253 139 142 142 142 141 
143 142 142 144 142 141 141 142 142 142 142 142 143 143 143 143 142 143 
145  84  64  60  99 142 145 228 254 226 215 216 216 216 218 216 217 220 
242 255 255 255 255 255 255 255 255 255 255 255 255 255 255 255 255 255 
254 255 255 255 255 255 255 216  33  31  31  29  31  32  30  31  31  31 
 31  31  31  31  31  31  31  31  31  31  31  31  31  31  31  31  31  31 
 31  31  31  31  31  31  31  31  31  31  31  30  31  31  30  30  31  32 
 31  32  31  31  31  31  31  31  31  31  32  31  31  32  27  77 254 254 
254 254 254 254 254 254 254 254 254 254 254 254 254 254 254 254 254 254 
254 254 254 254 254 254 254 254 254 254 254 254 254 254 254 254 254 254 
254 254 254 254 254 254 254 254 254 254 254 254 254 254 254 254 254 254 
254 254 254 254 252   8   0 136 252 254 253 254 253 254 222  12   6   6 
  6   6   6   6   6   6   6   6   6   6   6   6   6   6   7 227 254 254 
254 254 254 253  78   0  92 234 254 254 254 254 254 247  39   6   6   6 
  6   6   6   6   6   6   6   6   6   6   6   6   6   0 168 255 255 255 
255 255 255 255 255 255 255 255 255 255 255 255 255 255 255 255 255 255 
255 255 255 255 255 255 255 255 255 255 255 255 255 255 255 255 255 255 
255 255 255 255 255 255 255 255 255 255 255 255 255 255 255 255 255 255 
255 255 255 255 255 255 255 255 255 255 255 255 255 255 255 255 255 255 
255 255 255 255 255 255 255 255 255 255 255 255 255 255 255 255 255 255 
255 255 255 255 255 255 255 255 255 255 255 255 255 163 142 141 143 143 
144 143 143 143 143 143 143 143 143 143 143 143 143 142 143 143 143 142 
141 119  62  60 112 166 251 255 234 217 217 218 209 208 207 212 218 217 
216 250 255 255 255 255 255 255 255 255 255 255 255 255 255 255 255 255 
255 255 255 255 255 255 255 255  91  27  32  30  31  30  32  31  31  31 
 31  31  31  31  31  31  31  31  31  31  31  31  31  31  31  31  31  31 
 31  31  31  31  32  31  31  31  31  31  31  31  31  30  31  32  30  31 
 31  31  31  31  31  31  31  31  31  31  31  31  31  31  24 158 254 254 
254 254 254 254 254 254 254 254 254 254 254 254 254 254 254 254 254 254 
254 254 254 254 254 254 254 254 254 254 254 254 254 254 254 254 254 254 
254 254 254 254 254 254 254 254 254 254 254 254 254 254 254 254 254 254 
254 254 253 254 252  41 213 254 253 254 254 253 254 253 224  12   6   6 
  6   6   6   6   6   6   6   6   6   6   6   6   6   6   7 227 254 254 
254 254 253 254  92 153 254 254 254 253 253 254 254 246  39   6   6   6 
  6   6   6   6   6   6   6   6   6   6   6   6   6   0 168 255 255 255 
255 255 255 255 255 255 255 255 255 255 255 255 255 255 255 255 255 255 
255 255 255 255 255 255 255 255 255 255 255 255 255 255 255 255 255 255 
255 255 255 255 255 255 255 255 255 255 255 255 255 255 255 255 255 255 
255 255 255 255 255 255 255 255 255 255 255 255 255 255 255 255 255 255 
255 255 255 255 255 255 255 255 255 255 255 255 255 255 255 255 255 255 
255 255 255 255 255 255 255 255 255 255 255 255 255 214 137 143 142 144 
143 143 142 143 143 143 143 143 143 142 142 142 143 143 144 142 142 142 
142 134  66  54 209 255 254 255 218 218 189 148 144 144 144 147 158 209 
216 224 255 255 255 255 255 255 255 255 255 255 255 255 255 255 255 255 
255 255 255 255 255 255 255 255 254  54  32  29  31  32  31  31  31  31 
 31  31  31  31  31  31  31  31  31  31  31  31  31  31  31  31  31  31 
 31  31  31  31  31  31  31  31  31  31  31  31  30  32  30  31  31  30 
 31  31  31  31  31  31  31  31  31  31  31  31  31  31  20 220 254 254 
254 254 254 254 254 254 254 254 254 254 254 254 254 254 254 254 254 254 
254 254 254 254 254 254 254 254 254 254 254 254 254 254 254 254 254 254 
254 254 254 254 254 254 254 254 254 254 254 254 254 254 254 254 254 254 
254 254 254 254 253 248 254 253 254 254 253 254 254 254 223  12   7   5 
  6   6   6   6   6   6   6   6   6   6   6   6   6   6   7 227 254 253 
254 253 254 253 248 254 254 253 254 254 254 254 254 247  39   6   6   6 
  6   6   6   6   6   6   6   6   6   6   6   6   6   0 168 255 255 255 
255 255 255 255 255 255 255 255 255 255 255 255 255 255 255 255 255 255 
255 255 255 255 255 255 255 255 255 255 255 255 255 255 255 255 255 255 
255 255 255 255 255 255 255 255 255 255 255 255 255 255 255 255 255 255 
255 255 255 255 255 255 255 255 255 255 255 255 255 255 255 255 255 255 
255 255 255 255 255 255 255 255 255 255 255 255 255 255 255 255 255 255 
255 255 255 255 255 255 255 255 255 254 255 255 253 253 145 142 144 143 
143 142 142 143 143 143 143 143 142 143 143 144 143 142 142 143 142 142 
140 142  79  73 255 254 255 254 212 161 138 141 143 145 143 143 141 137 
184 215 255 255 255 255 255 255 255 255 255 255 255 255 255 255 255 255 
255 255 255 255 255 254 255 255 254 218  28  30  32  31  31  31  31  31 
 31  31  31  31  31  31  31  31  31  31  31  31  31  31  31  31  31  31 
 31  31  31  31  31  31  31  31  31  31  31  31  31  31  31  31  31  31 
 31  31  31  31  31  31  31  31  31  31  31  31  31  31  22 254 253 254 
254 254 254 254 254 254 254 254 254 254 254 254 254 254 254 254 254 254 
254 254 254 254 254 254 254 254 254 254 254 254 254 254 254 254 254 254 
254 254 254 254 254 254 254 254 254 254 254 254 254 254 254 254 254 254 
254 254 254 253 254 254 254 254 254 254 254 254 253 254 224  12   6   6 
  6   6   6   6   6   6   6   6   6   6   6   6   6   6   7 227 254 254 
254 254 254 254 254 253 254 254 254 253 254 254 253 247  39   6   6   6 
  6   6   6   6   6   6   6   6   6   6   6   6   6   0 168 255 255 255 
255 255 255 255 255 255 255 255 255 255 255 255 255 255 255 255 255 255 
255 255 255 255 255 255 255 255 255 255 255 255 255 255 255 255 255 255 
255 255 255 255 255 255 255 255 255 255 255 255 255 255 255 255 255 255 
255 255 255 255 255 255 255 255 255 255 255 255 255 255 255 255 255 255 
255 255 255 255 255 255 255 255 255 255 255 255 255 255 255 255 255 255 
255 255 255 255 255 255 255 255 254 255 255 255 255 251 165 142 143 143 
142 143 143 143 143 143 143 143 143 143 142 143 142 142 142 142 144 142 
144 217 167 109 254 254 255 254 180 141 141 142 143 141 142 141 142 141 
138 208 255 255 255 255 255 255 255 255 255 255 255 255 255 255 255 255 
255 255 255 255 255 255 255 255 255 254 223  34  30  31  30  31  31  31 
 31  31  31  31  31  31  31  31  31  31  31  31  31  31  31  31  31  31 
 31  31  31  31  31  31  31  31  31  31  31  31  31  32  31  31  32  31 
 31  31  31  31  31  31  31  31  31  31  32  31  31  32  43 254 254 253 
254 254 254 254 254 254 254 254 254 254 254 254 254 254 254 254 254 254 
254 254 254 254 254 254 254 254 254 254 254 254 254 254 254 254 254 254 
254 254 254 254 254 254 254 254 254 254 254 254 254 254 254 254 254 254 
254 254 254 254 254 254 253 254 254 253 254 254 254 254 223  13   5   6 
  6   6   6   6   6   6   6   6   6   6   6   6   6   6   7 227 254 254 
253 254 254 254 254 254 254 254 254 253 254 254 254 247  39   6   6   6 
  6   6   6   6   6   6   6   6   6   6   6   6   6   0 168 255 255 255 
255 255 255 255 255 255 255 255 255 255 255 255 255 255 255 255 255 255 
255 255 255 255 255 255 255 255 255 255 255 255 255 255 255 255 255 255 
255 255 255 255 255 255 255 255 255 255 255 255 255 255 255 255 255 255 
255 255 255 255 255 255 255 255 255 255 255 255 255 255 255 255 255 255 
255 255 255 255 255 255 255 255 255 255 255 255 255 255 255 255 255 255 
255 255 255 255 255 255 255 255 254 255 255 253 255 229 208 140 142 143 
143 144 143 143 143 143 143 143 143 144 143 143 143 143 143 141 150 192 
215 217 213 147 255 254 255 255 143 141 143 142 143 142 143 143 141 143 
142 158 255 255 255 255 255 255 255 255 255 255 255 255 255 255 255 255 
255 255 255 255 254 255 254 255 255 254 254 222  45  29  31  30  31  31 
 31  31  31  31  31  31  31  31  31  31  31  31  31  31  31  31  31  31 
 31  31  31  31  31  31  31  31  31  30  30  31  31  31  31  31  31  32 
 30  31  31  31  31  31  31  31  31  31  30  31  31  31  48 254 253 254 
254 254 254 254 254 254 254 254 254 254 254 254 254 254 254 254 254 254 
254 254 254 254 254 254 254 254 254 254 254 254 254 254 254 254 254 254 
254 254 254 254 254 254 254 254 254 254 254 254 254 254 254 254 254 254 
254 254 254 254 254 254 254 254 254 254 254 254 254 254 223  12   6   6 
  6   6   6   6   6   6   6   6   6   6   6   6   6   6   7 227 254 253 
254 254 254 254 254 254 254 254 254 254 254 254 254 247  39   6   6   6 
  6   6   6   6   6   6   6   6   6   6   6   6   6   0 168 255 255 255 
255 255 255 255 255 255 255 255 255 255 255 255 255 255 255 255 255 255 
255 255 255 255 255 255 255 255 255 255 255 255 255 255 255 255 255 255 
255 255 255 255 255 255 255 255 255 255 255 255 255 255 255 255 255 255 
255 255 255 255 255 255 255 255 255 255 255 255 255 255 255 255 255 255 
255 255 255 255 255 255 255 255 255 255 255 255 255 255 255 255 255 255 
255 255 255 255 255 255 255 255 255 255 255 255 253 215 213 141 141 141 
143 143 143 143 142 143 144 142 142 142 143 143 143 142 142 141 169 205 
217 217 219 176 243 255 254 255 134 143 143 143 142 142 143 143 144 143 
143 140 255 255 255 255 255 255 255 255 255 255 255 255 255 255 255 255 
255 255 255 255 255 255 255 255 255 255 254 255 251  92  28  30  31  31 
 31  31  30  32  30  31  31  31  31  31  32  31  31  31  31  31  30  31 
 31  31  31  31  32  31  31  31  31  31  31  31  31  31  31  31  31  31 
 31  31  31  31  31  31  31  31  31  31  32  31  31  32  48 254 254 254 
254 254 254 254 254 254 254 254 254 254 254 254 254 254 254 254 254 254 
254 254 254 254 254 254 254 254 254 254 254 254 254 254 254 254 254 254 
254 254 254 254 254 254 254 254 254 254 254 254 254 254 254 254 254 254 
254 254 254 254 254 254 254 254 254 254 254 254 254 254 223  12   6   6 
  6   6   6   6   6   6   6   6   6   6   6   6   6   6   7 227 254 254 
254 254 254 254 254 254 254 254 254 254 254 254 254 247  39   6   6   6 
  6   6   6   6   6   6   6   6   6   6   6   6   6   0 168 255 255 255 
255 255 255 255 255 255 255 255 255 255 255 255 255 255 255 255 255 255 
255 255 255 255 255 255 255 255 255 255 255 255 255 255 255 255 255 255 
255 255 255 255 255 255 255 255 255 255 255 255 255 255 255 255 255 255 
255 255 255 255 255 255 255 255 255 255 255 255 255 255 255 255 255 255 
255 255 255 255 255 255 255 255 255 255 255 255 255 255 255 255 255 255 
255 255 255 255 255 255 255 255 255 255 255 255 247 216 167 141 141 142 
143 143 142 143 143 143 142 143 143 143 142 143 143 143 142 142 141 143 
166 218 176 114 218 229 255 255 154 144 143 143 141 142 143 142 144 142 
140 169 255 255 255 255 255 255 255 255 255 255 255 255 255 255 255 255 
255 255 255 255 255 255 255 255 255 254 255 254 255 252 203  35  30  31 
 31  30  31  30  32  31  31  32  30  31  32  30  32  31  31  31  31  31 
 30  31  31  31  31  31  31  31  31  31  31  31  31  31  31  31  31  31 
 31  31  31  31  31  31  31  31  31  31  31  31  31  31  49 254 254 254 
254 254 254 254 254 254 254 254 254 254 254 254 254 254 254 254 254 254 
254 254 254 254 254 254 254 254 254 254 254 254 254 254 254 254 254 254 
254 254 254 254 254 254 254 254 254 254 254 254 254 254 254 254 254 254 
254 254 254 254 254 254 254 254 254 254 254 254 254 254 223  12   6   6 
  6   6   6   6   6   6   6   6   6   6   6   6   6   6   7 227 254 254 
254 254 254 254 254 254 254 254 254 254 254 254 254 247  39   6   6   6 
  6   6   6   6   6   6   6   6   6   6   6   6   6   0 168 255 255 255 
255 255 255 255 255 255 255 255 255 255 255 255 255 255 255 255 255 255 
255 255 255 255 255 255 255 255 255 255 255 255 255 255 255 255 255 255 
255 255 255 255 255 255 255 255 255 255 255 255 255 255 255 255 255 255 
255 255 255 255 255 255 255 255 255 255 255 255 255 255 255 255 255 255 
255 255 255 255 255 255 255 255 255 255 255 255 255 255 255 255 255 255 
255 255 255 255 255 255 255 255 255 255 255 253 242 214 144 142 142 143 
144 142 142 143 143 143 142 142 142 144 143 143 143 142 143 143 143 142 
140 148  99  81 220 215 226 253 211 137 141 142 143 143 144 142 140 143 
142 243 255 255 255 255 255 255 255 255 255 255 255 255 255 255 255 255 
255 255 255 255 255 255 255 255 255 255 255 255 254 254 255 254 162  67 
 21  29  31  30  30  30  31  30  32  32  30  31  31  31  31  31  31  32 
 31  31  30  31  31  31  31  31  31  31  31  31  31  31  31  31  31  31 
 31  31  31  31  31  31  31  31  31  31  31  31  32  30  27 253 254 254 
254 254 254 254 254 254 254 254 254 254 254 254 254 254 254 254 254 254 
254 254 254 254 254 254 254 254 254 254 254 254 254 254 254 254 254 254 
254 254 254 254 254 254 254 254 254 254 254 254 254 254 254 254 254 254 
254 254 254 254 254 254 254 254 254 254 254 254 254 254 223  12   6   6 
  6   6   6   6   6   6   6   6   6   6   6   6   6   6   7 227 254 254 
254 254 254 254 254 254 254 254 254 254 254 254 254 247  39   6   6   6 
  6   6   6   6   6   6   6   6   6   6   6   6   6   0 168 255 255 255 
255 255 255 255 255 255 255 255 255 255 255 255 255 255 255 255 255 255 
255 255 255 255 255 255 255 255 255 255 255 255 255 255 255 255 255 255 
255 255 255 255 255 255 255 255 255 255 255 255 255 255 255 255 255 255 
255 255 255 255 255 255 255 255 255 255 255 255 255 255 255 255 255 255 
255 255 255 255 255 255 255 255 255 255 255 255 255 255 255 255 255 255 
255 255 255 255 255 255 255 255 255 255 254 255 238 192 139 143 143 143 
143 143 144 143 143 143 143 142 143 142 143 144 144 143 143 143 142 140 
142 138  67  56 211 217 217 216 254 206 143 141 141 141 142 142 142 145 
222 254 255 255 255 255 255 255 255 255 255 255 255 255 255 255 255 255 
255 255 255 255 255 255 255 255 255 255 255 255 255 254 255 254 255 255 
205  79  40  30  31  30  30  31  29  31  31  32  29  30  29  30  30  31 
 31  31  30  31  31  31  30  31  30  31  31  31  31  31  31  31  31  31 
 31  31  31  31  31  31  31  31  31  31  31  32  31  31  17 242 253 254 
254 254 254 254 254 254 254 254 254 254 254 254 254 254 254 254 254 254 
254 254 254 254 254 254 254 254 254 254 254 254 254 254 254 254 254 254 
254 254 254 254 254 254 254 254 254 254 254 254 254 254 254 254 254 254 
254 254 254 254 254 254 254 254 254 254 254 254 254 254 223  12   6   6 
  6   6   6   6   6   6   6   6   6   6   6   6   6   6   7 227 254 254 
254 254 254 254 254 254 254 254 254 254 254 254 254 247  39   6   6   6 
  6   6   6   6   6   6   6   6   6   6   6   6   6   0 168 255 255 255 
255 255 255 255 255 255 255 255 255 255 255 255 255 255 255 255 255 255 
255 255 255 255 255 255 255 255 255 255 255 255 255 255 255 255 255 255 
255 255 255 255 255 255 255 255 255 255 255 255 255 255 255 255 255 255 
255 255 255 255 255 255 255 255 255 255 255 255 255 255 255 255 255 255 
255 255 255 255 255 255 255 255 255 255 255 255 255 255 255 255 255 255 
255 255 255 255 255 255 255 255 255 254 255 255 255 157 141 144 142 143 
142 143 143 142 142 142 142 143 143 142 142 142 143 143 142 143 143 142 
141 128  63  59 125 178 220 217 217 253 242 209 169 151 156 173 217 248 
254 253 255 255 255 255 255 255 255 255 255 255 255 255 255 255 255 255 
255 255 255 255 255 255 255 255 255 255 255 255 255 255 255 254 255 254 
255 255 236 204 129  47  16  24  30  30  31  30  31  30  31  32  30  30 
 31  31  30  32  31  31  31  31  31  31  31  31  31  31  31  31  31  31 
 31  31  31  31  31  31  31  31  31  31  31  31  31  31  22 179 254 253 
254 254 254 254 254 254 254 254 254 254 254 254 254 254 254 254 254 254 
254 254 254 254 254 254 254 254 254 254 254 254 254 254 254 254 254 254 
254 254 254 254 254 254 254 254 254 254 254 254 254 254 254 254 254 254 
254 254 254 254 254 254 254 254 254 254 254 254 254 254 223  12   6   6 
  6   6   6   6   6   6   6   6   6   6   6   6   6   6   7 227 254 254 
254 254 254 254 254 254 254 254 254 254 254 254 254 247  39   6   6   6 
  6   6   6   6   6   6   6   6   6   6   6   6   6   0 168 255 255 255 
255 255 255 255 255 255 255 255 255 255 255 255 255 255 255 255 255 255 
255 255 255 255 255 255 255 255 255 255 255 255 255 255 255 255 255 255 
255 255 255 255 255 255 255 255 255 255 255 255 255 255 255 255 255 255 
255 255 255 255 255 255 255 255 255 255 255 255 255 255 255 255 255 255 
255 255 255 255 255 255 255 255 255 255 255 255 255 255 255 255 255 255 
255 255 255 255 255 255 255 255 255 254 254 254 251 139 143 141 142 143 
143 143 143 143 143 143 144 143 143 142 143 143 143 142 144 143 142 141 
143 102  62  60 104 139 161 212 218 215 250 254 255 255 255 255 255 254 
254 255 255 255 255 255 255 255 255 255 255 255 255 255 255 255 255 255 
255 255 255 255 255 255 255 255 254 255 255 255 255 255 254 255 255 255 
255 255 255 255 255 254 234 172 114  84  58  38  22  24  26  29  31  32 
 31  31  32  31  31  31  32  31  30  31  31  31  31  31  31  31  31  31 
 31  31  31  31  31  31  31  31  31  31  31  31  31  31  27 101 253 254 
254 254 254 254 254 254 254 254 254 254 254 254 254 254 254 254 254 254 
254 254 254 254 254 254 254 254 254 254 254 254 254 254 254 254 254 254 
254 254 254 254 254 254 254 254 254 254 254 254 254 254 254 254 254 254 
254 254 254 254 254 254 254 254 254 254 254 254 254 254 223  12   6   6 
  6   6   6   6   6   6   6   6   6   6   6   6   6   6   7 227 254 254 
254 254 254 254 254 254 254 254 254 254 254 254 254 247  39   6   6   6 
  6   6   6   6   6   6   6   6   6   6   6   6   6   0 168 255 255 255 
255 255 255 255 255 255 255 255 255 255 255 255 255 255 255 255 255 255 
255 255 255 255 255 255 255 255 255 255 255 255 255 255 255 255 255 255 
255 255 255 255 255 255 255 255 255 255 255 255 255 255 255 255 255 255 
255 255 255 255 255 255 255 255 255 255 255 255 255 255 255 255 255 255 
255 255 255 255 255 255 255 255 255 255 255 255 255 255 255 255 255 255 
255 255 255 255 255 255 255 255 255 254 255 255 234 140 141 142 142 143 
143 143 142 143 142 143 143 142 143 142 142 143 142 142 143 141 144 142 
147  63  63  61  90 143 141 141 204 216 218 251 255 255 255 253 255 254 
255 255 255 255 255 255 255 255 255 255 255 255 255 255 255 255 255 255 
255 255 255 255 255 255 255 255 255 255 255 255 255 255 255 254 255 255 
255 255 255 255 254 254 255 254 254 252 251 248 238 184 136  83  36  27 
 29  28  29  31  30  29  30  29  31  30  30  31  31  31  31  31  31  31 
 31  31  31  31  31  31  31  31  31  31  31  31  31  30  31  45 249 254 
254 254 254 254 254 254 254 254 254 254 254 254 254 254 254 254 254 254 
254 254 254 254 254 254 254 254 254 254 254 254 254 254 254 254 254 254 
254 254 254 254 254 254 254 254 254 254 254 254 254 254 254 254 254 254 
254 254 254 254 254 254 254 254 254 254 254 254 254 254 223  12   6   6 
  6   6   6   6   6   6   6   6   6   6   6   6   6   6   7 227 254 254 
254 254 254 254 254 254 254 254 254 254 254 254 254 247  39   6   6   6 
  6   6   6   6   6   6   6   6   6   6   6   6   6   0 168 255 255 255 
255 255 255 255 255 255 255 255 255 255 255 255 255 255 255 255 255 255 
255 255 255 255 255 255 255 255 255 255 255 255 255 255 255 255 255 255 
255 255 255 255 255 255 255 255 255 255 255 255 255 255 255 255 255 255 
255 255 255 255 255 255 255 255 255 255 255 255 255 255 255 255 255 255 
255 255 255 255 255 255 255 255 255 255 255 255 255 255 255 255 255 255 
255 255 255 255 255 255 255 255 254 254 255 255 222 134 142 159 170 181 
188 188 188 188 178 171 158 142 134 138 141 141 141 142 142 143 143 142 
115  62  63  62  82 143 142 142 144 193 219 222 255 254 254 255 255 255 
255 255 255 255 255 255 255 255 255 255 255 255 255 255 255 255 255 255 
255 255 255 255 255 255 255 255 255 255 255 255 255 255 255 255 254 255 
255 255 254 255 255 255 255 254 254 253 253 253 254 254 254 254 254 247 
225 203 178 151 119  83  43  18  22  29  31  32  31  31  31  31  31  31 
 31  31  31  31  31  31  31  31  31  31  31  31  31  32  30  35 218 253 
254 254 254 254 254 254 254 254 254 254 254 254 254 254 254 254 254 254 
254 254 254 254 254 254 254 254 254 254 254 254 254 254 254 254 254 254 
254 254 254 254 254 254 254 254 254 254 254 254 254 254 254 254 254 254 
254 254 254 254 254 254 254 254 254 254 254 254 254 254 223  12   6   6 
  6   6   6   6   6   6   6   6   6   6   6   6   6   6   7 227 254 254 
254 254 254 254 254 254 254 254 254 254 254 254 254 247  39   6   6   6 
  6   6   6   6   6   6   6   6   6   6   6   6   6   0 168 255 255 255 
255 255 255 255 255 255 255 255 255 255 255 255 255 255 255 255 255 255 
255 255 255 255 255 255 255 255 255 255 255 255 255 255 255 255 255 255 
255 255 255 255 255 255 255 255 255 255 255 255 255 255 255 255 255 255 
255 255 255 255 255 255 255 255 255 255 255 255 255 255 255 255 255 255 
255 255 255 255 255 255 255 255 255 255 255 255 255 255 255 255 255 255 
255 255 255 255 255 255 255 255 254 255 255 255 242 241 254 255 255 255 
255 255 255 255 255 255 255 254 246 216 178 153 147 139 141 143 143 141 
 80  64  63  61  76 144 141 142 142 140 191 217 226 255 254 255 255 254 
255 255 255 255 255 255 255 255 255 255 255 255 255 255 255 255 255 255 
255 255 255 255 255 255 255 255 255 255 255 255 255 255 255 255 255 255 
255 255 255 255 254 255 255 254 254 254 254 254 254 254 254 254 254 254 
254 254 254 254 254 254 254 241 170  90  47  34  28  30  31  30  30  30 
 31  31  31  31  31  31  31  31  31  31  31  31  31  31  32  29 146 254 
253 254 253 254 254 254 254 254 254 254 254 254 254 254 254 254 254 254 
254 254 254 254 254 254 254 254 254 254 254 254 254 254 254 254 254 254 
254 253 254 254 253 254 254 254 254 254 254 254 254 254 254 254 254 254 
254 254 254 254 254 254 254 254 254 254 254 254 254 254 223  12   6   6 
  6   6   6   6   6   6   6   6   6   6   6   6   6   6   7 227 254 254 
254 254 254 254 254 254 254 254 254 254 254 254 254 247  39   6   6   6 
  6   6   6   6   6   6   6   6   6   6   6   6   6   0 168 255 255 255 
255 255 255 255 255 255 255 255 255 255 255 255 255 255 255 255 255 255 
255 255 255 255 255 255 255 255 255 255 255 255 255 255 255 255 255 255 
255 255 255 255 255 255 255 255 255 255 255 255 255 255 255 255 255 255 
255 255 255 255 255 255 255 255 255 255 255 255 255 255 255 255 255 255 
255 255 255 255 255 255 255 255 255 255 255 255 255 255 255 255 255 255 
255 255 255 255 255 255 255 255 255 255 254 255 254 254 255 255 255 255 
255 255 255 255 255 255 255 254 254 254 255 254 242 227 175 139 141 137 
 66  62  62  63  77 143 141 142 142 143 140 183 217 236 255 254 255 255 
253 255 255 255 255 255 255 255 255 255 255 255 255 255 255 255 255 255 
255 255 255 255 255 255 255 255 255 255 255 255 255 255 255 255 255 255 
255 255 255 255 255 255 255 255 254 254 254 254 254 254 254 254 254 254 
254 254 254 254 254 254 253 254 254 254 245 224 134  17  28  31  30  31 
 30  31  31  31  31  31  31  31  31  31  31  31  31  32  30  30  27 252 
254 254 254 254 254 253 254 254 254 254 254 254 254 254 254 254 254 254 
254 254 254 254 254 254 254 254 254 254 254 254 254 254 254 254 254 254 
254 254 254 254 254 254 254 254 254 254 254 253 254 254 254 254 254 254 
254 254 254 254 254 254 254 254 254 254 254 254 254 254 223  12   6   6 
  6   6   6   6   6   6   6   6   6   6   6   6   6   6   7 227 254 254 
254 254 254 254 254 254 254 254 254 254 254 254 254 247  39   6   6   6 
  6   6   6   6   6   6   6   6   6   6   6   6   6   0 168 255 255 255 
255 255 255 255 255 255 255 255 255 255 255 255 255 255 255 255 255 255 
255 255 255 255 255 255 255 255 255 255 255 255 255 255 255 255 255 255 
255 255 255 255 255 255 255 255 255 255 255 255 255 255 255 255 255 255 
255 255 255 255 255 255 255 255 255 255 255 255 255 255 255 255 255 255 
255 255 255 255 255 255 255 255 255 255 255 255 255 255 255 255 255 255 
255 255 255 255 255 255 255 255 255 255 255 255 255 255 254 255 255 255 
255 255 255 255 255 255 255 254 255 254 255 255 254 255 255 220 187 101 
 61  65  62  61  77 144 143 142 142 140 142 141 196 219 249 254 254 255 
255 255 255 255 255 255 255 255 255 255 255 255 255 255 255 255 255 255 
255 255 255 255 255 255 255 255 255 255 255 255 254 255 255 255 255 255 
255 254 255 255 255 255 255 255 254 254 254 254 254 254 254 254 254 254 
254 254 254 254 254 254 254 254 254 254 254 254 253 240  93  22  31  30 
 32  31  31  31  31  31  31  31  31  31  31  30  31  31  31  31  26 133 
254 253 254 254 253 254 254 254 254 254 254 254 254 254 254 254 254 254 
254 254 254 254 254 254 254 254 254 254 254 254 254 254 253 254 253 254 
254 254 254 254 254 253 254 254 254 253 254 254 254 254 254 254 254 254 
254 254 254 254 254 254 254 254 254 254 254 254 254 254 223  12   6   6 
  6   6   6   6   6   6   6   6   6   6   6   6   6   6   7 227 254 254 
254 254 254 254 254 254 254 254 254 254 254 254 254 247  39   6   6   6 
  6   6   6   6   6   6   6   6   6   6   6   6   6   0 168 255 255 255 
255 255 255 255 255 255 255 255 255 255 255 255 255 255 255 255 255 255 
255 255 255 255 255 255 255 255 255 255 255 255 255 255 255 255 255 255 
255 255 255 255 255 255 255 255 255 255 255 255 255 255 255 255 255 255 
255 255 255 255 255 255 255 255 255 255 255 255 255 255 255 255 255 255 
255 255 255 255 255 255 255 255 255 255 255 255 255 255 255 255 255 255 
255 255 255 255 255 255 255 255 255 255 255 255 255 255 255 254 255 255 
255 255 255 255 255 255 255 255 255 254 255 255 254 255 241 217 206  59 
 63  62  64  61  86 143 140 144 143 141 141 142 139 200 222 254 255 255 
255 254 255 255 255 255 255 255 255 255 255 255 255 255 255 255 255 255 
255 255 255 255 255 255 255 255 254 255 255 254 255 255 254 255 254 255 
255 255 255 254 255 255 255 255 254 254 254 254 254 254 254 254 254 254 
254 254 254 254 253 253 254 253 254 254 254 254 253 254 254 111  31  30 
 31  31  31  31  31  31  31  31  31  31  31  31  31  31  30  32  31  46 
243 254 254 254 254 254 254 254 254 254 254 254 254 254 254 254 254 254 
254 254 254 254 254 254 254 254 254 254 254 254 254 254 254 254 254 254 
254 254 254 254 253 254 254 254 254 254 254 253 254 254 254 254 254 254 
254 254 254 254 254 254 254 254 254 254 254 254 254 254 223  12   6   6 
  6   6   6   6   6   6   6   6   6   6   6   6   6   6   7 227 254 254 
254 254 254 254 254 254 254 254 254 254 254 254 254 247  39   6   6   6 
  6   6   6   6   6   6   6   6   6   6   6   6   6   0 168 255 255 255 
255 255 255 255 255 255 255 255 255 255 255 255 255 255 255 255 255 255 
255 255 255 255 255 255 255 255 255 255 255 255 255 255 255 255 255 255 
255 255 255 255 255 255 255 255 255 255 255 255 255 255 255 255 255 255 
255 255 255 255 255 255 255 255 255 255 255 255 255 255 255 255 255 255 
255 255 255 255 255 255 255 255 255 255 255 255 255 255 255 255 255 255 
255 255 255 255 255 255 255 255 254 255 255 255 254 253 255 255 255 255 
255 255 255 255 255 255 254 254 255 255 254 255 255 253 218 217 140  63 
 63  64  63  63  94 143 143 143 141 143 143 142 142 148 213 241 255 255 
255 255 255 255 255 255 255 255 255 255 255 255 255 255 255 255 255 255 
255 255 255 255 255 255 255 255 255 254 255 254 255 254 250  96 229 254 
255 254 255 255 255 254 255 255 254 254 254 254 254 254 254 254 254 254 
254 254 254 254 254 254 254 254 254 254 254 254 253 254 253 223  28  31 
 30  31  31  31  31  31  31  31  31  31  30  32  31  31  31  31  30  27 
 96 254 254 254 254 254 254 254 254 254 254 254 254 254 254 254 254 254 
254 254 254 254 254 254 254 254 254 254 254 254 254 254 254 254 254 253 
254 253 220  84 237 254 252 254 254 253 254 254 254 254 254 254 254 254 
254 254 254 254 254 254 254 254 254 254 254 254 254 254 223  12   6   6 
  6   6   6   6   6   6   6   6   6   6   6   6   6   6   7 227 254 254 
254 254 254 254 254 254 254 254 254 254 254 254 254 247  39   6   6   6 
  6   6   6   6   6   6   6   6   6   6   6   6   6   0 168 255 255 255 
255 255 255 255 255 255 255 255 255 255 255 255 255 255 255 255 255 255 
255 255 255 255 255 255 255 255 255 255 255 255 255 255 255 255 255 255 
255 255 255 255 255 255 255 255 255 255 255 255 255 255 255 255 255 255 
255 255 255 255 255 255 255 255 255 255 255 255 255 255 255 255 255 255 
255 255 255 255 255 255 255 255 255 255 255 255 255 255 255 255 255 255 
255 255 255 255 255 255 255 255 255 255 255 253 255 255 255 255 255 255 
255 255 255 255 255 255 255 255 254 255 255 255 255 227 216 218  75  63 
 64  64  63  56 153 154 141 142 143 143 143 142 141 141 155 222 254 255 
255 255 255 255 255 255 255 255 255 255 255 255 255 255 255 255 255 255 
255 255 255 255 255 255 255 255 254 255 255 254 255 244  77  29  56 248 
255 255 255 255 254 255 255 255 255 254 254 254 254 254 254 254 254 254 
254 254 254 254 254 254 253 254 254 254 254 254 254 254 254 254  30  30 
 32  31  31  31  31  31  31  31  31  31  31  31  31  31  32  29  31  31 
 24 169 253 254 254 254 254 254 254 254 254 254 254 254 254 254 254 254 
254 254 254 254 254 254 254 254 254 254 254 254 254 254 254 254 253 254 
254 253  79  29  25 199 254 254 254 254 254 254 254 254 254 254 254 254 
254 254 254 254 254 254 254 254 254 254 254 254 254 254 223  12   6   6 
  6   6   6   6   6   6   6   6   6   6   6   6   6   6   7 227 254 254 
254 254 254 254 254 254 254 254 254 254 254 254 254 247  39   6   6   6 
  6   6   6   6   6   6   6   6   6   6   6   6   6   0 168 255 255 255 
255 255 255 255 255 255 255 255 255 255 255 255 255 255 255 255 255 255 
255 255 255 255 255 255 255 255 255 255 255 255 255 255 255 255 255 255 
255 255 255 255 255 255 255 255 255 255 255 255 255 255 255 255 255 255 
255 255 255 255 255 255 255 255 255 255 255 255 255 255 255 255 255 255 
255 255 255 255 255 255 255 255 255 255 255 255 255 255 255 255 255 255 
255 255 255 255 255 255 255 255 255 254 255 254 255 255 255 255 255 255 
255 255 255 255 255 255 254 255 255 255 255 254 244 217 219 123  61  62 
 65  64  65  52 226 253 194 140 141 141 141 142 143 142 140 185 236 255 
255 255 255 255 255 255 255 255 255 255 255 255 255 255 255 255 255 255 
255 255 255 255 255 255 255 255 255 254 253 255 239  51  30  30  30  56 
249 254 254 254 255 255 255 255 255 254 254 254 254 254 254 254 254 254 
254 254 254 254 253 254 254 254 253 254 254 254 254 254 254 254  30  32 
 30  31  31  31  31  31  31  31  31  31  31  33  30  31  31  31  30  31 
 32  31 227 254 254 254 254 254 254 254 254 254 254 254 254 254 254 254 
254 254 254 254 254 254 254 254 254 254 254 254 254 254 254 254 254 252 
254 101  27  31  30  30 102 254 252 254 254 254 254 254 254 254 254 254 
254 254 254 254 254 254 254 254 254 254 254 254 254 254 223  12   6   6 
  6   6   6   6   6   6   6   6   6   6   6   6   6   6   7 227 254 254 
254 254 254 254 254 254 254 254 254 254 254 254 254 247  39   6   6   6 
  6   6   6   6   6   6   6   6   6   6   6   6   6   0 168 255 255 255 
255 255 255 255 255 255 255 255 255 255 255 255 255 255 255 255 255 255 
255 255 255 255 255 255 255 255 255 255 255 255 255 255 255 255 255 255 
255 255 255 255 255 255 255 255 255 255 255 255 255 255 255 255 255 255 
255 255 255 255 255 255 255 255 255 255 255 255 255 255 255 255 255 255 
255 255 255 255 255 255 255 255 255 255 255 255 255 255 255 255 255 255 
255 255 255 255 255 255 255 255 255 255 255 255 255 255 254 255 255 255 
255 255 255 255 255 255 255 255 255 255 254 250 216 217 200  64  64  63 
 64  64  63  62 254 254 255 223 154 140 141 141 142 142 143 141 218 255 
254 255 255 255 255 255 255 255 255 255 255 255 255 255 255 255 255 255 
255 255 255 255 255 255 255 255 254 253 255 209  37  29  30  31  30  29 
 58 224 255 255 254 255 255 255 255 254 254 254 254 254 254 254 254 254 
254 254 254 254 254 254 254 254 254 254 254 254 254 254 254 243  29  31 
 31  31  31  31  31  31  31  31  31  31  31  31  31  31  31  31  30  31 
 31  29  38 230 253 253 254 254 254 254 254 254 254 254 254 254 254 254 
254 254 254 254 254 254 254 254 254 254 254 254 254 254 254 254 252 254 
153  27  32  30  30  31  27  62 210 254 254 254 254 254 254 254 254 254 
254 254 254 254 254 254 254 254 254 254 254 254 254 254 223  12   6   6 
  6   6   6   6   6   6   6   6   6   6   6   6   6   6   7 227 254 254 
254 254 254 254 254 254 254 254 254 254 254 254 254 247  39   6   6   6 
  6   6   6   6   6   6   6   6   6   6   6   6   6   0 168 255 255 255 
255 255 255 255 255 255 255 255 255 255 255 255 255 255 255 255 255 255 
255 255 255 255 255 255 255 255 255 255 255 255 255 255 255 255 255 255 
255 255 255 255 255 255 255 255 255 255 255 255 255 255 255 255 255 255 
255 255 255 255 255 255 255 255 255 255 255 255 255 255 255 255 255 255 
255 255 255 255 255 255 255 255 255 255 255 255 255 255 255 255 255 255 
255 255 255 255 255 255 255 255 255 255 255 255 255 255 255 255 254 255 
255 255 255 255 255 255 255 255 255 255 254 225 217 222 122  63  65  63 
 63  64  63  96 255 255 255 254 253 161 141 142 141 143 142 141 160 249 
255 254 255 255 255 255 255 255 255 255 255 255 255 255 255 255 255 255 
255 255 255 255 255 255 255 255 254 254 210  33  30  30  31  31  31  31 
 31  35 223 255 255 255 255 255 255 255 254 254 254 254 254 254 254 254 
254 254 254 254 254 253 254 253 254 254 254 254 254 254 254 197  30  32 
 31  31  31  31  31  31  31  31  31  31  31  31  31  31  31  31  31  31 
 31  30  30  40 245 254 253 254 254 254 254 254 254 254 254 254 254 254 
254 254 254 254 253 254 254 254 254 254 254 254 254 254 254 254 254 142 
 25  31  30  31  31  31  31  31  30 163 254 254 253 254 254 254 254 254 
254 254 254 254 254 254 254 254 254 254 254 254 254 254 223  12   6   6 
  6   6   6   6   6   6   6   6   6   6   6   6   6   6   7 227 254 254 
254 254 254 254 254 254 254 254 254 254 254 254 254 247  39   6   6   6 
  6   6   6   6   6   6   6   6   6   6   6   6   6   0 168 255 255 255 
255 255 255 255 255 255 255 255 255 255 255 255 255 255 255 255 255 255 
255 255 255 255 255 255 255 255 255 255 255 255 255 255 255 255 255 255 
255 255 255 255 255 255 255 255 255 255 255 255 255 255 255 255 255 255 
255 255 255 255 255 255 255 255 255 255 255 255 255 255 255 255 255 255 
255 255 255 255 255 255 255 255 255 255 255 255 255 255 255 255 255 255 
255 255 255 255 255 255 255 255 255 255 255 255 255 255 255 255 255 255 
255 255 255 255 255 255 254 255 255 255 229 215 217 171  56  64  63  64 
 64  63  63 132 255 255 254 255 254 255 197 133 143 141 143 143 144 226 
254 255 255 255 255 255 255 255 255 255 255 255 255 255 255 255 255 255 
255 255 255 255 255 254 255 253 255 166  29  30  30  31  31  30  30  29 
 31  30  27 134 255 255 254 255 254 255 254 253 254 254 254 254 254 254 
254 254 254 254 253 254 253 254 254 254 254 254 254 253 252  90  30  31 
 30  31  31  31  31  31  31  31  31  31  31  31  31  31  31  31  31  31 
 31  32  30  29  43 209 254 253 254 254 254 253 254 254 254 254 254 253 
254 253 254 253 254 254 254 254 254 254 254 254 254 253 253 254 129  28 
 32  30  32  31  30  30  30  31  29  24  86 245 254 254 254 253 254 254 
254 254 254 254 254 254 254 254 254 254 254 254 254 254 223  12   6   6 
  6   6   6   6   6   6   6   6   6   6   6   6   6   6   7 227 254 254 
254 254 254 254 254 254 254 254 254 254 254 254 254 247  39   6   6   6 
  6   6   6   6   6   6   6   6   6   6   6   6   6   0 168 255 255 255 
255 255 255 255 255 255 255 255 255 255 255 255 255 255 255 255 255 255 
255 255 255 255 255 255 255 255 255 255 255 255 255 255 255 255 255 255 
255 255 255 255 255 255 255 255 255 255 255 255 255 255 255 255 255 255 
255 255 255 255 255 255 255 255 255 255 255 255 255 255 255 255 255 255 
255 255 255 255 255 255 255 255 255 255 255 255 255 255 255 255 255 255 
255 255 255 255 255 255 255 255 255 255 255 255 255 255 255 255 255 255 
255 255 255 255 255 255 254 255 254 239 215 217 214  79  64  63  64  64 
 64  64  62 180 255 255 255 254 254 255 254 214 143 140 143 143 143 166 
255 255 255 255 255 255 255 255 255 255 255 255 255 255 255 255 255 255 
255 255 255 255 255 254 253 255 151  17  30  30  31  31  31  31  32  29 
 30  31  31  25  65 218 254 255 254 255 255 254 254 254 254 254 254 254 
254 253 253 254 254 254 254 254 253 254 253 253 253 253 137  20  32  29 
 32  30  31  31  31  31  31  31  31  31  31  31  31  31  31  31  31  31 
 32  31  32  31  30  18 163 253 253 254 253 254 254 254 254 254 253 254 
253 254 253 254 254 254 254 254 253 254 254 254 253 254 235  94  27  31 
 31  30  30  31  31  31  31  31  32  31  30  26 197 254 254 254 253 254 
254 254 254 254 254 254 254 254 254 254 254 254 254 254 223  12   6   6 
  6   6   6   6   6   6   6   6   6   6   6   6   6   6   7 227 254 254 
254 254 254 254 254 254 254 254 254 254 254 254 254 247  39   6   6   6 
  6   6   6   6   6   6   6   6   6   6   6   6   6   0 168 255 255 255 
255 255 255 255 255 255 255 255 255 255 255 255 255 255 255 255 255 255 
255 255 255 255 255 255 255 255 255 255 255 255 255 255 255 255 255 255 
255 255 255 255 255 255 255 255 255 255 255 255 255 255 255 255 255 255 
255 255 255 255 255 255 255 255 255 255 255 255 255 255 255 255 255 255 
255 255 255 255 255 255 255 255 255 255 255 255 255 255 255 255 255 255 
255 255 255 255 255 255 255 255 255 255 255 255 255 255 255 255 255 255 
255 255 255 255 255 255 254 255 242 216 216 224 128  61  63  62  65  64 
 64  65  57 232 255 255 255 255 255 254 255 255 233 140 143 141 141 136 
237 255 255 255 255 255 255 255 255 255 255 255 255 255 255 255 255 255 
255 255 255 255 254 255 254 113  29  32  30  32  30  31  32  31  30  30 
 32  29  31  31  30  36 100 253 255 254 255 254 254 254 254 254 254 254 
254 254 254 254 254 254 254 254 254 254 254 254 253 109  29  31  31  30 
 31  31  31  31  31  31  31  31  31  31  31  31  31  31  31  31  31  31 
 31  31  31  31  31  31  31  63 234 253 253 254 253 254 254 254 254 254 
254 254 254 254 254 254 253 254 254 254 254 254 254 180  42  30  30  32 
 30  31  31  30  31  31  31  31  31  31  31  30  30 103 254 253 254 254 
253 254 254 254 254 254 254 254 254 254 254 254 254 254 223  12   6   6 
  6   6   6   6   6   6   6   6   6   6   6   6   6   6   7 227 254 254 
254 254 254 254 254 254 254 254 254 254 254 254 254 247  39   6   6   6 
  6   6   6   6   6   6   6   6   6   6   6   6   6   0 168 255 255 255 
255 255 255 255 255 255 255 255 255 255 255 255 255 255 255 255 255 255 
255 255 255 255 255 255 255 255 255 255 255 255 255 255 255 255 255 255 
255 255 255 255 255 255 255 255 255 255 255 255 255 255 255 255 255 255 
255 255 255 255 255 255 255 255 255 255 255 255 255 255 255 255 255 255 
255 255 255 255 255 255 255 255 255 255 255 255 255 255 255 255 255 255 
255 255 255 255 255 255 255 255 255 255 255 255 255 255 255 255 255 255 
255 255 255 255 254 255 255 245 217 217 216 171  55  64  62  64  64  65 
 63  63  94 255 255 255 255 254 255 254 255 253 255 227 142 141 141 142 
195 254 255 255 255 255 255 255 255 255 255 255 255 255 255 255 255 255 
255 255 254 255 255 254  92  22  32  30  31  30  31  31  31  31  31  31 
 31  30  32  30  31  31  27  28 126 212 254 254 254 254 254 254 254 254 
254 254 254 253 254 253 254 254 254 254 254 176  61  24  32  29  30  32 
 31  31  31  31  31  31  31  31  31  31  31  31  31  31  31  31  31  31 
 32  31  30  31  30  31  31  31  24 124 218 253 254 253 254 254 254 254 
254 254 254 253 254 253 254 254 253 254 253 185  79  19  31  30  30  30 
 31  31  31  31  32  30  31  31  31  31  31  31  31  26  70 212 254 252 
254 254 254 254 254 254 254 254 254 254 254 254 254 254 223  12   6   6 
  6   6   6   6   6   6   6   6   6   6   6   6   6   6   7 227 254 254 
254 254 254 254 254 254 254 254 254 254 254 254 254 247  39   6   6   6 
  6   6   6   6   6   6   6   6   6   6   6   6   6   0 168 255 255 255 
255 255 255 255 255 255 255 255 255 255 255 255 255 255 255 255 255 255 
255 255 255 255 255 255 255 255 255 255 255 255 255 255 255 255 255 255 
255 255 255 255 255 255 255 255 255 255 255 255 255 255 255 255 255 255 
255 255 255 255 255 255 255 255 255 255 255 255 255 255 255 255 255 255 
255 255 255 255 255 255 255 255 255 255 255 255 255 255 255 255 255 255 
255 255 255 255 255 255 255 255 255 255 255 255 255 255 255 255 255 255 
255 255 254 254 255 254 245 214 218 216 214  72  64  64  64  63  62  64 
 65  59 198 255 255 254 255 255 255 255 254 255 254 254 240 142 142 142 
166 253 255 255 255 255 255 255 255 255 255 255 255 255 255 255 255 255 
255 255 254 255 248  51  31  32  31  31  31  31  31  31  31  31  32  30 
 32  31  30  32  31  31  31  30  30  26  59 172 244 250 252 254 254 254 
254 254 254 254 254 254 252 248 236 140  33  29  31  30  30  30  32  30 
 31  31  31  31  31  31  31  31  31  31  31  31  31  31  31  31  31  31 
 31  31  31  30  32  31  32  30  31  31  25  80 213 247 252 254 254 254 
254 253 254 254 253 254 254 250 245 159  40  30  30  30  31  31  29  32 
 30  31  31  32  31  31  31  31  31  31  31  31  31  32  31  29 178 254 
254 254 254 254 254 254 254 254 254 254 254 254 254 254 223  12   6   6 
  6   6   6   6   6   6   6   6   6   6   6   6   6   6   7 227 254 254 
254 254 254 254 254 254 254 254 254 254 254 254 254 247  39   6   6   6 
  6   6   6   6   6   6   6   6   6   6   6   6   6   0 168 255 255 255 
255 255 255 255 255 255 255 255 255 255 255 255 255 255 255 255 255 255 
255 255 255 255 255 255 255 255 255 255 255 255 255 255 255 255 255 255 
255 255 255 255 255 255 255 255 255 255 255 255 255 255 255 255 255 255 
255 255 255 255 255 255 255 255 255 255 255 255 255 255 255 255 255 255 
255 255 255 255 255 255 255 255 255 255 255 255 255 255 255 255 255 255 
255 255 255 255 255 255 255 255 255 255 255 255 255 255 255 255 255 255 
255 255 255 255 253 242 217 217 217 213  85  62  63  63  63  64  64  63 
 64  77 248 254 255 255 255 249 246 246 255 255 254 252 255 228 137 140 
143 254 255 255 255 255 255 255 255 255 255 255 255 255 255 255 255 255 
255 254 255 235  56  29  31  31  30  31  31  31  31  31  31  32  30  32 
 30  30  32  31  31  31  30  31  30  30  29  26  33  60  84 120 156 179 
195 196 180 160 136  96  76  53  28  27  30  31  30  30  31  31  30  32 
 31  30  31  31  31  31  31  31  31  31  31  31  31  31  31  31  31  31 
 31  31  31  32  30  31  29  31  31  29  30  30  25  49  76 121 170 205 
224 245 227 219 186 145  95  65  34  26  30  30  32  31  30  30  31  31 
 31  31  31  30  31  32  31  32  31  32  30  31  31  30  31  31  21 145 
253 254 254 254 254 254 254 254 254 254 254 254 254 254 223  12   6   6 
  6   6   6   6   6   6   6   6   6   6   6   6   6   6   7 227 254 254 
254 254 254 254 254 254 254 254 254 254 254 254 254 247  39   6   6   6 
  6   6   6   6   6   6   6   6   6   6   6   6   6   0 168 255 255 255 
255 255 255 255 255 255 255 255 255 255 255 255 255 255 255 255 255 255 
255 255 255 255 255 255 255 255 255 255 255 255 255 255 255 255 255 255 
255 255 255 255 255 255 255 255 255 255 255 255 255 255 255 255 255 255 
255 255 255 255 255 255 255 255 255 255 255 255 255 255 255 255 255 255 
255 255 255 255 255 255 255 255 255 255 255 255 255 255 255 255 255 255 
255 255 255 255 255 255 255 255 255 255 255 255 255 255 255 255 255 255 
255 255 254 254 241 214 217 216 219 129  63  64  63  64  64  64  64  63 
 62 123 254 255 248 232 216 214 216 215 214 227 250 255 254 255 224 142 
136 226 255 255 255 255 255 255 255 255 255 255 255 255 255 255 255 255 
255 255 214  34  31  31  30  31  31  31  31  31  31  31  31  31  31  31 
 31  31  31  31  31  31  31  31  31  30  31  30  31  31  31  28  25  22 
 21  20  24  24  26  30  31  31  31  32  31  31  31  31  31  31  31  31 
 31  32  31  31  31  31  31  31  31  31  31  31  31  31  31  31  31  31 
 31  31  31  31  30  32  31  31  31  31  31  30  31  31  31  29  24  21 
 18  18  18  20  23  26  30  31  31  30  32  30  31  31  31  30  31  31 
 31  31  30  31  31  31  31  31  31  31  32  31  31  31  31  29  61 254 
254 254 254 254 254 254 254 254 254 254 254 254 254 254 223  12   6   6 
  6   6   6   6   6   6   6   6   6   6   6   6   6   6   7 227 254 254 
254 254 254 254 254 254 254 254 254 254 254 254 254 247  39   6   6   6 
  6   6   6   6   6   6   6   6   6   6   6   6   6   0 168 255 255 255 
255 255 255 255 255 255 255 255 255 255 255 255 255 255 255 255 255 255 
255 255 255 255 255 255 255 255 255 255 255 255 255 255 255 255 255 255 
255 255 255 255 255 255 255 255 255 255 255 255 255 255 255 255 255 255 
255 255 255 255 255 255 255 255 255 255 255 255 255 255 255 255 255 255 
255 255 255 255 255 255 255 255 255 255 255 255 255 255 255 255 255 255 
255 255 255 255 255 255 255 255 255 255 255 255 255 255 255 254 255 255 
254 254 254 231 217 216 216 218 129  62  64  63  63  64  64  63  63  64 
 51 231 254 235 217 216 216 217 218 216 216 216 216 246 254 253 254 202 
134 192 254 255 255 254 255 255 255 254 255 255 255 255 255 255 255 255 
255 254 193  29  31  31  29  30  31  31  31  31  31  31  30  31  31  31 
 31  31  31  31  31  31  31  31  31  31  31  31  31  31  30  30  30  30 
 30  30  30  30  31  31  31  31  31  31  31  31  31  31  31  31  31  31 
 31  31  31  31  32  30  31  31  31  31  31  31  32  31  32  31  31  31 
 31  31  31  31  31  31  31  31  31  31  30  30  30  30  31  31  31  30 
 30  31  31  30  30  31  31  31  31  31  31  31  31  31  31  31  31  31 
 31  31  31  31  31  31  31  32  30  32  31  31  30  31  31  40 233 254 
253 254 254 254 254 254 254 254 254 254 254 254 254 254 223  12   6   6 
  6   6   6   6   6   6   6   6   6   6   6   6   6   6   7 227 254 254 
254 254 254 254 254 254 254 254 254 254 254 254 254 247  39   6   6   6 
  6   6   6   6   6   6   6   6   6   6   6   6   6   0 168 255 255 255 
255 255 255 255 255 255 255 255 255 255 255 255 255 255 255 255 255 255 
255 255 255 255 255 255 255 255 255 255 255 255 255 255 255 255 255 255 
255 255 255 255 255 255 255 255 255 255 255 255 255 255 255 255 255 255 
255 255 255 255 255 255 255 255 255 255 255 255 255 255 255 255 255 255 
255 255 255 255 255 255 255 255 255 255 255 255 255 255 255 255 255 255 
255 255 255 255 255 255 255 255 255 255 255 255 255 254 255 254 255 254 
255 251 227 217 217 216 224 153  63  64  63  64  65  64  64  65  62  64 
128 254 228 216 216 216 218 226 208 195 190 210 224 226 255 255 255 254 
185 163 255 254 255 255 254 255 255 255 255 255 255 255 255 255 255 255 
255 254 255 164  26  31  30  30  31  31  30  32  30  31  31  31  31  31 
 31  31  31  31  31  31  31  31  31  31  31  31  31  31  31  31  31  31 
 31  31  31  31  31  31  31  31  31  31  31  31  31  31  31  31  31  31 
 31  31  31  31  31  32  31  31  31  31  31  31  31  31  30  31  31  31 
 31  31  31  31  31  31  31  31  31  31  31  31  31  31  31  31  31  31 
 31  31  31  31  31  31  31  31  31  31  31  31  31  31  31  31  31  31 
 31  31  31  31  31  31  30  31  31  31  32  31  31  30  29 205 252 254 
254 253 254 254 254 254 254 254 254 254 254 254 254 254 223  12   6   6 
  6   6   6   6   6   6   6   6   6   6   6   6   6   6   7 227 254 254 
254 254 254 254 254 254 254 254 254 254 254 254 254 247  39   6   6   6 
  6   6   6   6   6   6   6   6   6   6   6   6   6   0 168 255 255 255 
255 255 255 255 255 255 255 255 255 255 255 255 255 255 255 255 255 255 
255 255 255 255 255 255 255 255 255 255 255 255 255 255 255 255 255 255 
255 255 255 255 255 255 255 255 255 255 255 255 255 255 255 255 255 255 
255 255 255 255 255 255 255 255 255 255 255 255 255 255 255 255 255 255 
255 255 255 255 255 255 255 255 255 255 255 255 255 255 255 255 255 255 
255 255 255 255 255 255 255 255 255 255 255 255 255 255 255 255 254 255 
248 217 219 215 216 217 155  57  63  64  64  64  64  64  64  64  64  66 
224 243 217 216 216 213 173  80  56  58  57  57  97 197 255 255 254 254 
246 157 244 255 253 255 255 255 254 254 255 255 255 255 255 255 255 255 
255 255 253 255 155  31  31  31  31  30  31  30  31  31  30  31  31  31 
 31  31  31  31  31  31  31  31  31  31  31  31  31  31  31  31  31  31 
 31  31  31  31  31  31  31  31  31  31  31  31  31  31  31  31  31  31 
 31  31  31  32  31  30  31  31  31  31  31  31  31  30  31  32  32  31 
 31  31  31  31  31  31  31  31  31  31  31  31  31  31  31  31  31  31 
 31  31  31  31  31  31  31  31  31  31  31  31  31  31  31  31  31  31 
 31  31  31  31  31  30  32  31  31  31  31  31  30  32 188 253 254 253 
254 254 254 254 254 254 254 254 254 254 254 254 254 254 223  12   6   6 
  6   6   6   6   6   6   6   6   6   6   6   6   6   6   7 227 254 254 
254 254 254 254 254 254 254 254 254 254 254 254 254 247  39   6   6   6 
  6   6   6   6   6   6   6   6   6   6   6   6   6   0 168 255 255 255 
255 255 255 255 255 255 255 255 255 255 255 255 255 255 255 255 255 255 
255 255 255 255 255 255 255 255 255 255 255 255 255 255 255 255 255 255 
255 255 255 255 255 255 255 255 255 255 255 255 255 255 255 255 255 255 
255 255 255 255 255 255 255 255 255 255 255 255 255 255 255 255 255 255 
255 255 255 255 255 255 255 255 255 255 255 255 255 255 255 255 255 255 
255 255 255 255 255 255 255 255 255 255 255 255 254 255 255 255 254 228 
215 216 215 216 222 142  62  62  64  63  64  63  64  64  64  65  60 107 
255 218 217 220 190  82  57  62  62  62  62  64  62  62 202 255 255 255 
248 210 207 255 254 255 255 254 255 255 255 255 255 255 255 255 255 255 
255 255 255 253 255 186  26  31  31  31  30  32  31  31  31  31  31  31 
 31  31  31  31  31  31  31  31  31  31  31  31  31  31  31  31  31  31 
 31  31  31  31  31  31  31  31  31  31  31  31  31  31  31  31  31  31 
 31  31  32  30  31  31  32  30  31  31  31  32  31  31  31  32  30  32 
 31  31  31  31  31  31  31  31  31  31  31  32  32  31  31  31  31  31 
 31  31  31  31  31  31  31  31  31  31  31  31  31  31  31  31  31  31 
 31  31  31  31  31  32  30  31  31  31  30  31  23 183 254 253 254 254 
254 253 254 254 254 254 254 254 254 254 254 254 254 254 223  12   6   6 
  6   6   6   6   6   6   6   6   6   6   6   6   6   6   7 227 254 254 
254 254 254 254 254 254 254 254 254 254 254 254 254 247  39   6   6   6 
  6   6   6   6   6   6   6   6   6   6   6   6   6   0 168 255 255 255 
255 255 255 255 255 255 255 255 255 255 255 255 255 255 255 255 255 255 
255 255 255 255 255 255 255 255 255 255 255 255 255 255 255 255 255 255 
255 255 255 255 255 255 255 255 255 255 255 255 255 255 255 255 255 255 
255 255 255 255 255 255 255 255 255 255 255 255 255 255 255 255 255 255 
255 255 255 255 255 255 255 255 255 255 255 255 255 255 255 255 255 255 
255 255 255 255 255 255 255 255 255 255 255 255 255 254 255 242 217 215 
217 218 217 220 143  60  65  63  64  65  64  64  64  63  63  64  64 246 
249 216 216 178  54  62  65  62  63  63  63  64  63  63  60 243 255 255 
250 216 169 232 255 254 255 255 255 255 255 255 255 255 255 255 255 255 
255 255 255 254 254 255 177  35  30  30  30  29  31  30  31  31  31  31 
 31  31  31  31  31  31  31  31  31  31  31  31  31  31  31  31  31  31 
 31  31  31  31  31  31  31  31  31  31  31  31  31  31  31  31  31  31 
 31  31  30  31  30  31  31  31  30  30  31  30  30  30  29  31  31  30 
 31  31  31  31  31  31  31  31  31  31  31  31  31  31  31  31  31  31 
 31  31  31  31  31  31  31  31  31  31  31  31  31  31  31  31  31  31 
 31  31  31  31  31  31  31  31  30  30  30  28 169 254 253 254 254 254 
254 254 254 254 254 254 254 254 254 254 254 254 254 254 223  12   6   6 
  6   6   6   6   6   6   6   6   6   6   6   6   6   6   7 227 254 254 
254 254 254 254 254 254 254 254 254 254 254 254 254 247  39   6   6   6 
  6   6   6   6   6   6   6   6   6   6   6   6   6   0 168 255 255 255 
255 255 255 255 255 255 255 255 255 255 255 255 255 255 255 255 255 255 
255 255 255 255 255 255 255 255 255 255 255 255 255 255 255 255 255 255 
255 255 255 255 255 255 255 255 255 255 255 255 255 255 255 255 255 255 
255 255 255 255 255 255 255 255 255 255 255 255 255 255 255 255 255 255 
255 255 255 255 255 255 255 255 255 255 255 255 255 255 255 255 255 255 
255 255 255 255 255 255 255 255 255 255 255 254 255 249 219 217 215 216 
218 216 216 106  61  62  63  63  64  63  64  64  63  64  64  63 156 255 
246 215 216  66  62  65  64  61  64  63  64  62  63  62  62 204 254 255 
248 216 171 179 252 254 255 255 255 255 255 255 255 255 255 255 255 255 
255 254 255 255 255 254 255 227  35  30  31  31  31  30  31  31  31  31 
 31  31  31  31  31  31  31  31  31  31  31  31  31  31  31  31  31  31 
 31  31  31  31  31  31  31  31  31  31  31  31  31  31  31  31  31  31 
 31  31  31  31  31  30  31  32  31  52  25  32  31  31  32  30  31  31 
 31  31  31  31  31  31  31  31  31  31  31  31  31  31  31  31  31  31 
 31  31  31  31  31  31  31  31  31  31  31  31  31  31  31  31  31  31 
 31  31  31  31  31  32  31  30  31  30  34 207 254 253 254 254 253 254 
253 254 254 254 254 254 254 254 254 254 254 254 254 254 223  12   6   6 
  6   6   6   6   6   6   6   6   6   6   6   6   6   6   7 227 254 254 
254 254 254 254 254 254 254 254 254 254 254 254 254 247  39   6   6   6 
  6   6   6   6   6   6   6   6   6   6   6   6   6   0 168 255 255 255 
255 255 255 255 255 255 255 255 255 255 255 255 255 255 255 255 255 255 
255 255 255 255 255 255 255 255 255 255 255 255 255 255 255 255 255 255 
255 255 255 255 255 255 255 255 255 255 255 255 255 255 255 255 255 255 
255 255 255 255 255 255 255 255 255 255 255 255 255 255 255 255 255 255 
255 255 255 255 255 255 255 255 255 255 255 255 255 255 255 255 255 255 
255 255 255 255 255 255 255 255 255 255 255 242 224 215 217 217 217 215 
218 199  95  60  64  63  64  64  63  64  65  63  65  64  63  73 251 254 
255 219 110  62  63  63  64  63  63  63  63  63  64  61  63 197 254 255 
251 217 173 168 230 254 255 255 254 255 255 255 255 255 255 255 255 255 
255 255 255 255 254 255 254 255 243  96  22  32  31  32  30  31  31  31 
 31  31  31  31  31  31  31  31  31  31  31  31  31  31  31  31  31  31 
 31  31  31  31  31  31  31  31  31  31  31  31  31  31  31  31  31  31 
 31  31  31  30  31  32  29  25  73 240 211  45  29  31  31  31  31  31 
 31  31  31  31  31  31  31  31  31  31  31  31  31  31  31  31  31  31 
 31  31  31  31  31  31  31  31  31  31  31  31  31  31  31  31  31  31 
 31  31  31  31  31  31  30  31  29  55 215 254 253 254 253 254 254 254 
254 254 254 254 254 254 254 254 254 254 254 254 254 254 223  12   6   6 
  6   6   6   6   6   6   6   6   6   6   6   6   6   6   7 227 254 254 
254 254 254 254 254 254 254 254 254 254 254 254 254 247  39   6   6   6 
  6   6   6   6   6   6   6   6   6   6   6   6   6   0 168 255 255 255 
255 255 255 255 255 255 255 255 255 255 255 255 255 255 255 255 255 255 
255 255 255 255 255 255 255 255 255 255 255 255 255 255 255 255 255 255 
255 255 255 255 255 255 255 255 255 255 255 255 255 255 255 255 255 255 
255 255 255 255 255 255 255 255 255 255 255 255 255 255 255 255 255 255 
255 255 255 255 255 255 255 255 255 255 255 255 255 255 255 255 255 255 
255 255 255 255 255 255 255 255 252 242 219 216 217 217 217 217 217 217 
182  66  64  64  63  64  64  64  65  64  64  63  64  63  61 224 254 255 
255 230  71  64  63  64  63  62  63  63  61  63  63  64  63 218 254 254 
249 217 176 168 170 254 255 255 255 254 255 255 255 255 255 255 255 255 
255 255 255 255 255 255 255 255 254 255 146  34  31  31  31  31  31  31 
 31  31  31  31  31  31  31  31  31  31  31  31  31  31  31  31  31  31 
 31  31  31  31  31  31  31  31  31  31  31  31  31  31  31  31  31  31 
 31  31  31  31  31  30  29  91 254 253 254 253  75  29  31  31  31  31 
 31  31  31  31  31  31  31  31  31  31  31  31  31  31  31  31  31  31 
 31  31  31  31  31  31  31  31  31  31  31  31  31  31  31  31  31  31 
 31  31  31  31  31  30  31  29  69 249 252 254 254 254 254 254 254 253 
254 253 254 254 254 254 254 254 254 254 254 254 254 254 223  12   6   6 
  6   6   6   6   6   6   6   6   6   6   6   6   6   6   7 227 254 254 
254 254 254 254 254 254 254 254 254 254 254 254 254 247  39   6   6   6 
  6   6   6   6   6   6   6   6   6   6   6   6   6   0 168 255 255 255 
255 255 255 255 255 255 255 255 255 255 255 255 255 255 255 255 255 255 
255 255 255 255 255 255 255 255 255 255 255 255 255 255 255 255 255 255 
255 255 255 255 255 255 255 255 255 255 255 255 255 255 255 255 255 255 
255 255 255 255 255 255 255 255 255 255 255 255 255 255 255 255 255 255 
255 255 255 255 255 255 255 255 255 255 255 255 255 255 255 255 255 255 
255 255 254 255 255 255 242 226 219 217 216 217 216 217 215 218 219 107 
 62  63  63  62  63  64  64  64  64  63  64  63  64  61 130 255 253 255 
254 240  72  62  62  64  64  64  64  63  64  63  62  62  81 255 255 254 
248 217 179 169 167 213 255 255 255 255 255 255 255 255 255 255 255 255 
255 255 255 255 255 255 255 255 255 253 255 230  81  25  31  30  31  31 
 32  31  31  31  31  31  31  31  31  32  31  30  31  31  31  30  31  31 
 31  31  31  31  31  31  31  32  31  31  31  31  31  31  31  30  32  31 
 31  30  30  30  31  24 172 253 253 253 253 253 253 177  23  31  31  30 
 31  32  31  31  31  31  31  30  31  31  31  31  31  31  31  31  31  31 
 31  31  31  31  31  31  31  31  31  31  31  31  31  31  30  31  31  31 
 31  31  30  31  31  31  17 168 253 254 253 253 254 254 254 254 254 254 
254 254 254 254 254 254 254 254 254 254 254 253 254 254 223  12   6   6 
  6   6   6   6   6   6   6   6   7   6   6   6   6   6   7 227 254 254 
254 254 254 254 254 254 254 254 254 254 254 254 254 247  39   6   6   6 
  6   6   6   6   6   6   6   6   6   6   6   6   6   0 167 255 255 255 
255 255 255 255 255 255 255 255 255 255 255 255 255 255 255 255 255 255 
255 255 255 255 255 255 255 255 255 255 255 255 255 255 255 255 255 255 
255 255 255 255 255 255 255 255 255 255 255 255 255 255 255 255 255 255 
255 255 255 255 255 255 255 255 255 255 255 255 255 255 255 255 255 255 
255 255 255 255 255 255 255 255 255 255 255 255 255 255 255 255 255 255 
253 249 245 236 227 216 215 216 216 218 218 217 217 219 218 165  68  60 
 65  64  62  64  64  64  64  65  64  63  62  63  62  86 255 254 254 254 
254 251  76  64  63  63  64  63  61  62  62  62  63  65 231 255 254 255 
247 217 179 169 168 180 253 253 255 255 255 255 255 255 255 255 255 255 
255 255 255 255 255 255 255 255 255 255 254 254 255 162  53  25  29  32 
 29  32  30  31  31  31  31  32  31  30  31  32  31  31  30  32  31  31 
 31  31  31  31  31  31  31  32  31  31  30  31  31  31  31  30  31  31 
 30  30  29  25  74 215 254 253 254 253 254 254 254 253 223  87  27  30 
 31  31  31  31  31  32  31  31  31  30  31  31  31  30  31  31  31  31 
 31  31  32  31  31  30  31  31  31  31  31  31  31  31  31  31  29  30 
 31  31  31  30  24  86 229 254 253 254 254 254 254 254 254 254 254 254 
254 254 254 254 254 254 254 254 254 254 254 254 254 254 224  11   6   6 
  6   6   6   6   6   6   6   6   6   6   5   6   6   6   6 227 254 254 
254 254 254 254 254 254 254 254 254 254 254 254 254 247  38   6   6   5 
  6   6   6   6   6   6   6   6   6   6   6   6   6   0 167 255 254 254 
255 255 255 255 255 255 255 255 255 255 255 255 255 255 255 255 255 255 
255 255 255 255 255 255 255 255 255 255 255 255 255 255 255 255 255 255 
255 255 255 255 255 255 255 255 255 255 255 255 255 255 255 255 255 255 
255 255 255 255 255 255 255 255 255 255 255 255 255 255 255 255 255 255 
255 255 255 255 255 255 255 255 255 255 255 255 255 255 255 255 255 255 
222 217 217 217 215 216 217 216 217 218 218 216 219 193  79  64  63  64 
 63  64  63  63  64  65  65  63  65  63  64  63  68 225 255 255 254 254 
255 255 169  58  64  63  64  63  64  62  63  62  57 201 254 254 254 253 
246 217 179 170 167 165 242 255 254 253 255 255 255 255 255 255 255 255 
255 255 255 255 255 255 255 255 255 254 255 255 254 255 254 153  32  31 
 32  30  32  30  32  30  31  31  30  31  32  30  31  31  32  30  31  31 
 31  30  32  31  31  31  30  31  31  31  32  30  31  31  31  31  31  29 
 30  30  34 185 254 253 253 254 253 254 253 254 253 254 254 254 200  40 
 29  31  30  30  31  31  31  30  31  31  31  31  32  31  31  30  31  31 
 31  31  30  32  30  31  31  31  31  31  31  31  31  31  31  32  31  31 
 31  30  30  37 199 254 254 253 254 253 254 254 254 254 254 254 254 254 
254 254 254 254 254 254 254 254 254 254 254 254 254 254 223  13   6   5 
  6   6   6   6   6   6   6   6   6   6   6   5   6   6   8 228 254 254 
254 254 254 254 254 254 254 254 254 254 254 254 254 247  39   5   6   6 
  7   6   5   6   6   6   6   6   6   6   6   6   6   0 168 255 255 255 
255 255 255 255 255 255 255 255 255 255 255 255 255 255 255 255 255 255 
255 255 255 255 255 255 255 255 255 255 255 255 255 255 255 255 255 255 
255 255 255 255 255 255 255 255 255 255 255 255 255 255 255 255 255 255 
255 255 255 255 255 255 255 255 255 255 255 255 255 255 255 255 255 255 
255 255 255 255 255 255 255 255 255 255 255 255 255 255 255 255 255 255 
241 216 217 217 219 216 217 217 218 218 223 174 104  58  62  63  64  64 
 62  65  64  64  64  63  64  65  63  63  64  55 163 235 238 247 255 255 
255 254 255 149  52  61  64  64  62  58  49 116 228 255 253 255 255 255 
243 217 179 167 167 166 192 254 253 254 255 255 255 255 255 255 255 255 
255 255 255 255 255 255 255 255 255 255 255 255 255 255 253 255 240 160 
 51  21  29  32  31  31  32  30  32  31  31  31  31  31  31  31  31  31 
 31  32  30  31  30  31  32  30  31  31  31  31  31  32  30  32  29  22 
 47 160 243 254 252 254 254 254 254 254 254 254 254 254 254 253 254 252 
178  63  21  30  29  32  31  31  32  31  31  31  31  31  31  31  31  30 
 31  31  32  30  31  31  31  31  30  31  31  31  31  31  32  30  33  30 
 20  56 169 250 253 253 253 254 254 254 253 254 254 254 254 254 254 254 
254 254 254 254 254 254 254 254 254 254 254 254 254 254 223  12   6   6 
  6   6   6   6   6   6   6   6   7   6   6   5   7   6   7 227 254 254 
254 254 254 254 254 254 253 254 254 254 254 254 254 247  40   5   6   6 
  6   6   6   6   6   6   6   6   6   6   6   6   6   1 168 255 255 255 
255 255 255 255 255 255 255 255 255 255 255 255 255 255 255 255 255 255 
255 255 255 255 255 255 255 255 255 255 255 255 255 255 255 255 255 255 
255 255 255 255 255 255 255 255 255 255 255 255 255 255 255 255 255 255 
255 255 255 255 255 255 255 255 255 255 255 255 255 255 255 255 255 255 
255 255 255 255 255 255 255 255 255 255 255 255 255 255 255 255 255 255 
252 220 216 216 215 218 219 218 205 175  84  58  64  63  64  63  63  64 
 64  63  62  64  64  65  64  64  65  64  61 128 221 217 216 216 215 229 
242 252 253 254 229 123  89  87  91 138 232 255 255 255 255 255 255 254 
239 218 179 168 167 168 165 252 255 255 255 255 255 255 255 255 255 255 
255 255 255 255 255 255 255 255 254 255 255 255 254 255 255 255 255 255 
254 182  68  40  27  29  31  31  30  30  31  31  31  30  31  31  31  31 
 31  31  31  32  31  31  30  32  31  29  31  30  31  30  28  36  61 174 
254 254 253 254 254 254 254 254 254 254 254 253 254 254 254 254 254 253 
254 254 189  71  39  26  30  31  31  31  30  31  31  30  30  31  31  31 
 30  30  31  32  30  31  31  31  30  31  31  31  31  31  30  26  35  64 
180 253 254 254 254 254 254 253 254 253 254 254 254 254 254 254 254 254 
254 254 254 254 254 254 254 254 254 254 254 254 254 254 226  40  33  35 
 34  34  34  34  34  34  34  34  34  34  34  34  34  34  36 229 254 254 
254 254 254 254 254 254 254 254 254 254 254 254 255 248  63  34  34  35 
 34  33  35  33  34  34  34  34  34  34  34  34  34  28 179 255 255 255 
255 255 255 255 255 255 255 255 255 255 255 255 255 255 255 255 255 255 
255 255 255 255 255 255 255 255 255 255 255 255 255 255 255 255 255 255 
255 255 255 255 255 255 255 255 255 255 255 255 255 255 255 255 255 255 
255 255 255 255 255 255 255 255 255 255 255 255 255 255 255 255 255 255 
255 255 255 255 255 255 255 255 255 255 255 255 255 255 255 255 255 255 
254 248 214 218 220 221 177 103  73  62  63  63  63  63  62  64  64  63 
 64  64  64  64  64  63  64  64  63  60  96 219 217 218 217 215 217 216 
216 218 221 232 254 255 253 252 253 255 255 254 255 255 254 255 254 255 
235 217 177 168 167 166 168 233 253 255 255 255 255 255 255 255 255 255 
255 255 255 255 255 255 255 255 255 254 255 254 255 255 255 255 255 255 
253 255 254 237 189  84  18  24  31  31  31  32  33  30  31  31  31  31 
 31  30  32  31  30  31  32  31  30  32  31  25  18  64 172 233 253 254 
254 254 254 254 254 254 254 254 253 254 254 254 254 253 254 254 253 254 
254 254 254 254 231 170  62  18  26  31  31  30  31  30  31  31  31  31 
 31  31  31  31  32  30  31  31  31  31  31  32  27  21  49 161 231 252 
254 254 254 254 254 254 254 254 254 254 253 254 254 254 254 254 254 254 
254 254 254 254 254 254 254 254 254 254 254 254 254 253 253 248 248 249 
248 248 248 248 248 248 248 248 248 248 248 248 248 249 247 254 254 254 
254 254 254 254 254 254 254 254 254 254 255 255 255 253 249 249 249 247 
250 249 248 249 249 249 249 249 249 249 249 249 249 250 251 255 255 255 
255 255 255 255 255 255 255 255 255 255 255 255 255 255 255 255 255 255 
255 255 255 255 255 255 255 255 255 255 255 255 255 255 255 255 255 255 
255 255 255 255 255 255 255 255 255 255 255 255 255 255 255 255 255 255 
255 255 255 255 255 255 255 255 255 255 255 255 255 255 255 255 255 255 
255 255 255 255 255 255 255 255 255 255 255 255 255 255 255 255 255 255 
255 234 191 154 115  70  58  62  62  64  62  65  63  65  64  64  64  64 
 64  64  65  63  63  64  63  64  64  64 149 162 173 184 201 217 224 221 
219 215 218 216 216 226 243 253 255 252 255 255 254 255 255 254 254 255 
228 216 177 167 167 167 168 215 254 255 255 255 255 255 255 255 255 255 
255 255 255 255 255 255 255 255 255 255 255 255 255 255 255 254 255 255 
255 255 255 255 255 255 252 186 128  91  60  32  19  23  24  25  26  28 
 28  28  25  26  25  22  21  29  54  85 122 176 238 254 254 253 254 254 
254 254 254 254 254 254 254 254 254 254 254 253 254 254 254 253 254 254 
254 254 254 253 254 254 254 231 164 109  75  40  21  23  24  27  28  29 
 29  31  31  28  30  27  25  23  19  34  67 103 156 222 253 254 253 254 
253 254 254 254 254 254 254 254 254 254 254 254 254 254 254 254 254 254 
254 254 254 254 254 254 254 254 254 254 254 254 254 254 254 254 254 254 
254 254 254 254 254 254 254 254 254 254 254 253 254 254 254 253 254 254 
254 254 254 254 254 254 254 254 254 255 255 255 255 255 255 255 255 255 
255 254 255 255 255 255 255 255 255 255 255 255 255 254 255 255 255 254 
255 255 255 255 255 255 255 255 255 255 255 255 255 255 255 255 255 255 
255 255 255 255 255 255 255 255 255 255 255 255 255 255 255 255 255 255 
255 255 255 255 255 255 255 255 255 255 255 255 255 255 255 255 255 255 
255 255 255 255 255 255 255 255 255 255 255 255 255 255 255 255 255 255 
255 255 255 255 255 255 255 255 255 255 255 255 255 255 255 255 255 255 
254 195  55  63  64  62  63  63  64  63  63  64  64  64  64  64  64  64 
 64  65  64  64  64  63  64  63  64  62  64  63  63  62  62  61  84 129 
178 216 215 215 216 217 215 216 237 254 252 255 254 255 255 255 255 254 
221 217 174 168 167 168 168 196 255 255 255 255 255 255 255 255 255 255 
255 255 255 255 255 255 255 255 255 255 255 255 255 255 255 255 255 255 
255 255 255 255 255 255 255 255 255 255 255 255 238 190 157 123 111  89 
 88  89 112 123 152 186 229 255 255 255 254 254 254 253 254 254 254 254 
253 254 254 254 254 254 254 254 254 254 254 254 254 254 254 254 254 254 
254 253 254 254 254 254 254 254 253 254 253 254 242 190 142 106  79  62 
 41  32  32  63  72 101 135 179 232 254 254 254 253 254 254 254 254 253 
254 253 254 254 254 254 254 254 254 254 254 254 254 254 254 254 254 254 
254 254 254 254 254 254 254 254 254 254 254 254 254 254 254 253 254 254 
254 254 254 254 254 254 254 254 254 254 254 254 254 254 253 254 254 254 
254 254 254 254 254 254 254 254 255 255 255 255 255 255 255 255 255 255 
255 255 255 255 255 255 255 255 255 255 255 255 255 255 255 254 254 255 
255 255 255 255 255 255 255 255 255 255 255 255 255 255 255 255 255 255 
255 255 255 255 255 255 255 255 255 255 255 255 255 255 255 255 255 255 
255 255 255 255 255 255 255 255 255 255 255 255 255 255 255 255 255 255 
255 255 255 255 255 255 255 255 255 255 255 255 255 255 255 255 255 255 
255 255 255 255 255 255 255 255 255 255 255 255 255 255 255 255 255 255 
254 254 107  64  62  63  64  64  64  64  64  64  64  64  64  64  64  64 
 64  64  64  64  64  64  64  64  64  64  64  64  64  64  63  64  61  60 
 57  62  85 110 154 209 225 218 217 220 235 254 255 254 255 255 254 254 
215 218 171 168 168 168 168 183 255 255 255 254 254 255 254 255 255 255 
254 255 255 255 255 255 255 255 255 255 255 255 255 255 255 255 255 255 
255 255 255 255 255 255 255 255 255 255 255 255 255 255 255 255 255 255 
255 255 255 255 255 255 255 255 255 255 255 255 254 254 254 254 254 254 
254 254 254 254 254 254 254 254 254 254 254 254 254 254 254 254 254 254 
254 254 254 254 254 254 254 254 254 254 254 254 254 254 254 254 254 254 
254 254 254 254 254 254 254 254 254 254 254 254 254 254 254 254 254 254 
254 254 254 254 254 254 254 254 254 254 254 254 254 254 254 254 254 254 
254 254 254 254 254 254 254 254 254 254 254 254 254 254 254 254 254 254 
254 254 254 254 254 254 254 254 254 254 254 254 254 254 254 254 254 254 
254 254 254 254 254 254 255 255 255 255 255 255 255 255 255 255 255 255 
255 255 255 255 255 255 255 255 255 255 255 255 255 255 255 255 255 255 
255 255 255 255 255 255 255 255 255 255 255 255 255 255 255 255 255 255 
255 255 255 255 255 255 255 255 255 255 255 255 255 255 255 255 255 255 
255 255 255 255 255 255 255 255 255 255 255 255 255 255 255 255 255 255 
255 255 255 255 255 255 255 255 255 255 255 255 255 255 255 255 255 255 
255 255 255 255 255 255 255 255 255 255 255 255 255 255 255 255 255 255 
255 254 213  60  65  63  64  64  64  64  64  64  64  64  64  64  64  64 
 64  64  64  64  64  64  64  64  64  64  64  64  64  64  64  65  63  63 
 64  63  63  63  60  52  94 171 203 221 215 222 246 254 255 255 254 244 
215 217 165 169 167 167 168 169 255 255 255 255 254 255 255 254 254 255 
254 255 255 255 255 254 255 255 255 255 255 255 255 255 255 255 255 255 
255 255 255 255 255 255 255 255 255 255 255 255 255 255 255 255 255 255 
255 255 255 255 255 255 255 255 255 255 255 255 255 254 254 254 254 254 
254 254 254 254 254 254 254 254 254 254 254 254 254 254 254 254 254 254 
254 254 254 254 254 254 254 254 254 254 254 254 254 254 254 254 254 254 
254 254 254 254 254 254 254 254 254 254 254 254 254 254 254 254 254 254 
254 254 254 254 254 254 254 254 254 254 254 254 254 254 254 254 254 254 
254 254 254 254 254 254 254 254 254 254 254 254 254 254 254 254 254 254 
254 254 254 254 254 254 254 254 254 254 254 254 254 254 254 254 254 254 
254 254 254 254 254 255 255 255 255 255 255 255 255 255 255 255 255 255 
255 255 255 255 255 255 255 255 255 255 255 255 255 255 255 255 255 255 
255 255 255 255 255 255 255 255 255 255 255 255 255 255 255 255 255 255 
255 255 255 255 255 255 255 255 255 255 255 255 255 255 255 255 255 255 
255 255 255 255 255 255 255 255 255 255 255 255 255 255 255 255 255 255 
255 255 255 255 255 255 255 255 255 255 255 255 255 255 255 255 255 255 
255 255 255 255 255 255 255 255 255 255 255 255 255 255 255 255 255 255 
255 255 254 172  57  62  65  63  64  64  64  64  64  64  64  64  64  64 
 64  64  64  64  64  64  64  64  64  64  64  64  64  64  63  63  63  63 
 63  62  62  62  63  63  63  63  68  96 195 220 218 225 254 255 255 230 
217 208 166 166 167 167 167 163 255 255 254 255 254 255 255 254 255 254 
255 254 255 254 255 254 255 255 255 255 255 255 255 255 255 255 255 255 
255 255 255 255 255 255 255 255 255 255 255 255 255 255 255 255 255 255 
255 255 255 255 255 255 255 255 255 255 255 255 255 255 255 254 254 254 
254 254 254 254 254 254 254 254 254 254 254 254 254 254 254 254 254 254 
254 254 254 254 254 254 254 254 254 254 254 254 254 254 254 254 254 254 
254 254 254 254 254 254 254 254 254 254 254 254 254 254 254 254 254 254 
254 254 254 254 254 254 254 254 254 254 254 254 254 254 254 254 254 254 
254 254 254 254 254 254 254 254 254 254 254 254 254 254 254 254 254 254 
254 254 254 254 254 254 254 254 254 254 254 254 254 254 254 254 254 254 
254 254 254 255 255 255 255 255 255 255 255 255 255 255 255 255 255 255 
255 255 255 255 255 255 255 255 255 255 255 255 255 255 255 255 255 255 
255 255 255 255 255 255 255 255 255 255 255 255 255 255 255 255 255 255 
255 255 255 255 255 255 255 255 255 255 255 255 255 255 255 255 255 255 
255 255 255 255 255 255 255 255 255 255 255 255 255 255 255 255 255 255 
255 255 255 255 255 255 255 255 255 255 255 255 255 255 255 255 255 255 
255 255 255 255 255 255 255 255 255 255 255 255 255 255 255 255 255 255 
254 255 254 255 114  61  63  63  64  64  64  64  64  64  64  64  64  64 
 64  64  64  64  64  64  64  64  64  64  64  64  64  64  65  64  63  64 
 64  64  64  66  64  64  64  62  64  61  54 102 170 220 220 245 254 221 
218 196 166 168 167 167 169 163 245 255 255 255 250 234 221 213 213 221 
241 255 255 253 255 255 255 254 255 255 255 255 255 255 255 255 255 255 
255 255 255 255 255 255 255 255 255 255 255 255 255 255 255 255 255 255 
255 255 255 255 255 255 255 255 255 255 255 255 255 255 255 255 255 254 
254 254 254 254 254 254 254 254 254 254 254 254 254 254 254 254 254 254 
254 254 254 254 254 254 254 254 254 254 254 254 254 254 254 254 254 254 
254 254 254 254 254 254 254 254 254 254 254 254 254 254 254 254 254 254 
254 254 254 254 254 254 254 254 254 254 254 254 254 254 254 254 254 254 
254 254 254 254 254 254 254 254 254 254 254 254 254 254 254 254 254 254 
254 254 254 254 254 254 254 254 254 254 254 254 254 254 254 254 254 254 
254 255 255 255 255 255 255 255 255 255 255 255 255 255 255 255 255 255 
255 255 255 255 255 255 255 255 255 255 255 255 255 255 255 255 255 255 
255 255 255 255 255 255 255 255 255 255 255 255 255 255 255 255 255 255 
255 255 255 255 255 255 255 255 255 255 255 255 255 255 255 255 255 255 
255 255 255 255 255 255 255 255 255 255 255 255 255 255 255 255 255 255 
255 255 255 255 255 255 255 255 255 255 255 255 255 255 255 255 255 255 
255 255 255 255 255 255 255 255 255 255 255 255 255 255 255 255 255 255 
255 253 255 255 254  94  62  64  64  64  64  64  64  64  64  64  64  64 
 64  64  64  64  64  64  64  64  64  64  64  64  64  64  64  64  64  64 
 64  65  64  64  64  64  62  64  63  63  62  64  61  83 202 215 234 218 
218 183 166 170 166 167 169 163 240 255 253 249 215 216 216 219 215 215 
217 242 255 254 255 255 253 255 255 255 255 255 255 255 255 255 255 255 
255 255 255 255 255 255 255 255 255 255 255 255 255 255 255 255 255 255 
255 255 255 255 255 255 255 255 255 255 255 255 255 255 255 255 255 255 
255 254 254 254 254 254 254 254 254 254 254 254 254 254 254 254 254 254 
254 254 254 254 254 254 254 254 254 254 254 254 254 254 254 254 254 254 
254 254 254 254 254 254 254 254 254 254 254 254 254 254 254 254 254 254 
254 254 254 254 254 254 254 254 254 254 254 254 254 254 254 254 254 254 
254 254 254 254 254 254 254 254 254 254 254 254 254 254 254 254 254 254 
254 254 254 254 254 254 254 254 254 254 254 254 254 254 254 254 254 255 
255 255 255 255 255 255 255 255 255 255 255 255 255 255 255 255 255 255 
255 255 255 255 255 255 255 255 255 255 255 255 255 255 255 255 255 255 
255 255 255 255 255 255 255 255 255 255 255 255 255 255 255 255 255 255 
255 255 255 255 255 255 255 255 255 255 255 255 255 255 255 255 255 255 
255 255 255 255 255 255 255 255 255 255 255 255 255 255 255 255 255 255 
255 255 255 255 255 255 255 255 255 255 255 255 255 255 255 255 255 255 
255 255 255 255 255 255 255 255 255 255 255 255 255 255 255 255 255 255 
255 255 255 253 255 241  98  57  64  64  64  64  64  64  64  64  64  64 
 64  64  64  64  64  64  64  64  64  64  64  64  64  64  64  64  64  65 
 64  64  64  64  64  64  64  64  65  63  64  64  62  61  59 113 213 218 
217 169 167 168 168 167 168 163 239 255 246 215 217 217 217 189 175 172 
172 179 233 255 254 255 255 255 255 255 255 255 255 255 255 255 255 255 
255 255 255 255 255 255 255 255 255 255 255 255 255 255 255 255 255 255 
255 255 255 255 255 255 255 255 255 255 255 255 255 255 255 255 255 255 
255 255 255 254 254 254 254 254 254 254 254 254 254 254 254 254 254 254 
254 254 254 254 254 254 254 254 254 254 254 254 254 254 254 254 254 254 
254 254 254 254 254 254 254 254 254 254 254 254 254 254 254 254 254 254 
254 254 254 254 254 254 254 254 254 254 254 254 254 254 254 254 254 254 
254 254 254 254 254 254 254 254 254 254 254 254 254 254 254 254 254 254 
254 254 254 254 254 254 254 254 254 254 254 254 254 254 254 255 255 255 
255 255 255 255 255 255 255 255 255 255 255 255 255 255 255 255 255 255 
255 255 255 255 255 255 255 255 255 255 255 255 255 255 255 255 255 255 
255 255 255 255 255 255 255 255 255 255 255 255 255 255 255 255 255 255 
255 255 255 255 255 255 255 255 255 255 255 255 255 255 255 255 255 255 
255 255 255 255 255 255 255 255 255 255 255 255 255 255 255 255 255 255 
255 255 255 255 255 255 255 255 255 255 255 255 255 255 255 255 255 255 
255 255 255 255 255 255 255 255 255 255 255 255 255 255 255 255 255 255 
255 255 255 255 255 246 227 126  63  63  63  64  64  64  64  64  64  64 
 64  64  64  64  64  64  64  64  64  64  64  64  64  64  63  64  64  64 
 64  64  64  64  65  63  64  65  63  65  63  64  64  65  62  60  64 176 
213 168 168 169 169 166 169 162 239 255 220 216 217 208 171 168 169 168 
169 167 170 244 255 255 253 255 255 255 255 255 255 255 255 255 255 255 
255 255 255 255 255 255 255 255 255 255 255 255 255 255 255 255 255 255 
255 255 255 255 255 255 255 255 255 255 255 255 255 255 255 255 255 255 
255 255 255 255 255 254 254 254 254 254 254 254 254 254 254 254 254 254 
254 254 254 254 254 254 254 254 254 254 254 254 254 254 254 254 254 254 
254 254 254 254 254 254 254 254 254 254 254 254 254 254 254 254 254 254 
254 254 254 254 254 254 254 254 254 254 254 254 254 254 254 254 254 254 
254 254 254 254 254 254 254 254 254 254 254 254 254 254 254 254 254 254 
254 254 254 254 254 254 254 254 254 254 254 254 254 255 255 255 255 255 
255 255 255 255 255 255 255 255 255 255 255 255 255 255 255 255 255 255 
255 255 255 255 255 255 255 255 255 255 255 255 255 255 255 255 255 255 
255 255 255 255 255 255 255 255 255 255 255 255 255 255 255 255 255 255 
255 255 255 255 255 255 255 255 255 255 255 255 255 255 255 255 255 255 
255 255 255 255 255 255 255 255 255 255 255 255 255 255 255 255 255 255 
255 255 255 255 255 255 255 255 255 255 255 255 255 255 255 255 255 255 
255 255 255 255 255 255 255 255 255 255 255 255 255 255 255 255 255 255 
255 255 255 255 255 247 217 172  63  63  63  63  64  64  64  64  64  64 
 64  64  64  64  64  64  64  64  64  64  64  64  64  64  64  64  64  64 
 64  64  64  64  64  64  64  64  64  64  64  63  63  62  61  62  62  64 
108 171 168 168 168 167 169 165 239 238 215 217 208 168 167 167 168 167 
166 167 166 200 255 254 255 255 255 255 255 255 255 255 255 255 255 255 
255 255 255 255 255 255 255 255 255 255 255 255 255 255 255 255 255 255 
255 255 255 255 255 255 255 255 255 255 255 255 255 255 255 255 255 255 
255 255 255 255 255 255 255 254 254 254 254 254 254 254 254 254 254 254 
254 254 254 254 254 254 254 254 254 254 254 254 254 254 254 254 254 254 
254 254 254 254 254 254 254 254 254 254 254 254 254 254 254 254 254 254 
254 254 254 254 254 254 254 254 254 254 254 254 254 254 254 254 254 254 
254 254 254 254 254 254 254 254 254 254 254 254 254 254 254 254 254 254 
254 254 254 254 254 254 254 254 254 254 254 255 255 255 255 255 255 255 
255 255 255 255 255 255 255 255 255 255 255 255 255 255 255 255 255 255 
255 255 255 255 255 255 255 255 255 255 255 255 255 255 255 255 255 255 
255 255 255 255 255 255 255 255 255 255 255 255 255 255 255 255 255 255 
255 255 255 255 255 255 255 255 255 255 255 255 255 255 255 255 255 255 
255 255 255 255 255 255 255 255 255 255 255 255 255 255 255 255 255 255 
255 255 255 255 255 255 255 255 255 255 255 255 255 255 255 255 255 255 
255 255 255 255 255 255 255 255 255 255 255 255 255 255 255 255 255 255 
255 254 255 255 255 249 217 159  63  63  64  64  64  63  65  64  64  62 
 63  62  63  63  63  63  63  62  63  61  60  58  56  54  53  53  54  54 
 56  57  58  61  63  64  63  63  63  63  62  63  63  62  64  63  63  62 
 60  87 161 169 167 167 168 163 248 224 216 218 177 167 167 167 168 168 
168 167 167 175 255 255 254 254 255 255 255 255 255 255 255 255 255 255 
255 255 255 255 255 255 255 255 255 255 255 255 255 255 255 255 255 255 
255 255 255 255 255 255 255 255 255 255 255 255 255 255 255 255 255 255 
255 255 255 255 255 255 255 255 255 255 254 254 254 254 254 254 254 254 
254 254 254 254 254 254 254 254 254 254 254 254 254 254 254 254 254 254 
254 254 254 254 254 254 254 254 254 254 254 254 254 254 254 254 254 254 
254 254 254 254 254 254 254 254 254 254 254 254 254 254 254 254 254 254 
254 254 254 254 254 254 253 254 254 254 254 254 254 254 254 254 254 254 
254 254 254 254 254 254 254 254 255 255 255 255 255 255 255 255 255 255 
255 255 255 255 255 255 255 255 255 255 255 255 255 255 255 255 255 255 
255 255 255 255 255 255 254 255 255 255 255 255 255 255 255 255 255 255 
255 255 255 255 255 255 255 255 255 255 255 255 255 255 255 255 255 255 
255 255 255 255 255 255 255 255 255 255 255 255 255 255 255 255 255 255 
255 255 255 255 255 255 254 255 255 255 255 255 255 255 255 255 255 255 
255 255 255 255 255 255 255 255 255 255 255 255 255 255 255 255 255 255 
255 255 255 255 255 255 255 255 255 255 255 255 255 255 255 255 255 255 
254 255 255 255 254 251 218 158  62  64  64  64  64  63  64  65  63  65 
 64  63  64  63  63  63  67  72  73 100 137 163 193 209 216 218 216 215 
196 171 149 114  79  73  68  65  61  63  64  65  64  64  62  63  60  62 
 61  63  75 164 168 169 169 162 255 222 217 203 166 169 168 168 168 170 
168 169 168 181 254 255 254 255 255 255 255 255 255 255 255 255 255 255 
255 255 255 255 255 255 255 255 255 255 255 255 255 255 255 255 255 255 
255 255 255 255 255 255 255 255 255 255 255 255 255 255 255 255 255 255 
255 255 255 255 255 255 255 255 255 255 255 255 255 254 254 254 254 254 
254 254 254 254 254 254 254 254 254 254 254 254 254 254 254 254 254 254 
254 254 254 254 254 254 254 254 254 254 254 254 254 254 254 254 254 254 
254 254 254 254 254 254 254 254 254 254 254 254 254 253 254 254 254 254 
254 253 254 253 254 253 254 254 254 254 254 254 254 254 254 254 254 254 
254 254 254 254 254 254 255 255 255 255 255 255 255 255 255 255 255 255 
255 255 255 255 255 255 255 255 255 255 255 254 255 254 255 255 254 255 
254 255 255 255 255 255 255 255 255 255 255 255 255 255 255 255 255 254 
255 255 255 255 255 255 255 255 255 255 255 255 255 255 255 255 255 255 
255 255 254 255 255 255 254 255 255 255 255 255 255 255 255 254 255 255 
255 255 255 255 255 255 255 254 255 255 255 255 255 255 255 255 255 255 
255 255 254 255 255 255 254 255 255 255 255 255 255 255 255 255 255 255 
255 255 255 255 255 255 255 255 255 255 255 255 255 255 255 255 255 255 
255 255 254 255 255 254 219 157  63  64  63  64  64  64  64  64  65  64 
 63  61  53  82 149 207 227 241 254 255 255 255 255 255 255 255 255 253 
254 255 254 255 255 247 234 218 184 125  65  53  61  64  61  63  63  63 
 62  62  61  70 161 167 169 172 255 224 217 181 168 169 167 169 168 169 
167 168 167 211 255 255 255 255 255 255 255 255 255 255 255 255 255 255 
255 255 255 255 255 255 255 255 255 255 255 255 255 255 255 255 255 255 
255 255 255 255 255 255 255 255 255 255 255 255 255 255 255 255 255 255 
255 255 255 255 255 255 255 255 255 255 255 255 255 255 255 255 254 254 
254 254 254 254 254 254 254 254 254 254 254 254 254 254 254 254 254 254 
254 254 254 254 254 254 254 254 254 254 254 254 254 254 254 254 254 254 
254 254 254 254 254 254 254 254 254 254 254 254 253 254 254 254 254 254 
254 254 254 254 254 254 254 254 254 254 254 254 254 254 254 254 254 254 
254 254 255 255 255 255 255 255 255 255 255 255 255 255 255 255 255 255 
255 255 255 255 255 255 255 255 255 254 255 255 254 255 255 254 255 255 
254 255 255 255 255 255 254 255 255 255 254 255 255 254 255 255 255 255 
254 255 255 255 255 255 255 255 255 255 255 255 255 255 255 255 255 255 
255 254 255 255 255 255 255 255 255 255 255 254 255 255 255 255 255 255 
254 255 255 255 254 255 255 255 255 254 255 255 255 255 255 255 255 255 
255 255 255 255 255 255 255 255 253 255 255 255 255 255 255 255 255 255 
255 255 255 255 255 255 255 255 255 255 255 255 255 255 255 255 255 255 
255 254 255 255 255 254 232 173  62  63  64  65  62  63  63  64  60  66 
102 157 233 254 254 255 254 254 254 254 255 255 255 254 255 255 254 255 
255 254 255 255 255 255 255 255 255 255 254 216 145  96  65  58  61  63 
 63  63  63  61  74 162 169 182 255 243 216 169 168 168 166 169 168 169 
167 168 170 248 255 254 254 255 255 255 255 255 255 255 255 255 255 255 
255 255 255 255 255 255 255 255 255 255 255 255 255 255 255 255 255 255 
255 255 255 255 255 255 255 255 255 255 255 255 255 255 255 255 255 255 
255 255 255 255 255 255 255 255 255 255 255 255 255 255 255 255 255 255 
255 254 254 254 254 254 254 254 254 254 254 254 254 254 254 254 254 254 
254 254 254 254 254 254 254 254 254 254 254 254 254 254 254 254 254 254 
254 254 254 254 254 254 254 254 254 254 254 254 254 254 254 254 253 254 
254 254 254 254 254 254 254 254 254 254 254 254 254 254 254 254 254 255 
255 255 255 255 255 255 255 255 255 255 255 255 255 255 255 255 255 255 
255 255 255 255 255 255 255 255 255 255 255 254 255 255 255 255 255 255 
255 254 255 255 254 255 254 255 254 255 255 255 254 255 254 255 254 255 
255 255 255 255 255 255 255 255 255 255 255 255 255 255 255 255 255 255 
255 254 255 255 255 255 254 255 255 255 254 255 255 255 255 255 255 254 
255 255 254 254 255 255 255 255 255 255 255 255 255 254 255 255 255 255 
255 255 255 255 255 255 255 255 255 254 255 254 255 255 255 255 255 255 
255 255 255 255 255 255 255 255 255 255 255 255 255 255 255 255 255 255 
255 254 255 255 254 255 254 209  62  63  62  64  65  63  63  63 156 248 
252 253 254 255 254 255 255 255 255 255 255 255 255 255 255 255 255 255 
255 255 255 255 255 254 254 254 255 255 254 255 254 236 213 149  70  59 
 64  62  61  63  62  83 168 196 255 255 243 176 167 169 168 169 168 168 
168 167 206 255 254 254 255 255 255 255 255 255 255 255 255 255 255 255 
255 255 255 255 255 255 255 255 255 255 255 255 255 255 255 255 255 255 
255 255 255 255 255 255 255 255 255 255 255 255 255 255 255 255 255 255 
255 255 255 255 255 255 255 255 255 255 255 255 255 255 255 255 255 255 
255 255 255 255 255 255 254 254 254 254 254 254 254 254 254 254 254 254 
254 254 254 254 254 254 254 254 254 254 254 254 254 254 254 254 254 254 
254 254 254 254 254 254 254 254 254 254 254 254 254 254 254 252 254 253 
253 254 254 254 253 253 254 254 254 254 254 254 254 255 255 255 255 255 
255 255 255 255 255 255 255 255 255 255 255 255 255 255 255 255 255 255 
255 255 255 255 255 255 255 255 255 255 255 255 255 255 255 255 254 255 
255 255 255 254 255 255 255 254 255 254 255 255 255 254 255 255 255 255 
254 255 255 255 255 255 255 255 255 255 255 255 255 255 255 255 255 255 
255 255 255 255 255 255 255 254 255 255 255 255 254 255 255 255 255 255 
255 255 255 255 255 255 255 255 255 255 255 255 255 255 255 253 255 254 
255 254 255 255 255 255 255 254 255 255 255 255 255 255 255 255 255 255 
255 255 255 255 255 255 255 255 255 255 255 255 255 255 255 255 255 255 
255 254 254 255 255 255 255 235  59  63  64  63  54  97 184 251 255 255 
255 254 254 255 255 255 255 255 255 255 255 255 255 255 255 255 254 255 
255 254 255 254 255 255 255 255 255 254 255 254 254 219 217 221 207 142 
104  59  60  62  63  61 101 213 254 254 254 229 163 169 166 168 167 168 
165 204 255 255 254 254 254 253 255 255 255 255 255 255 255 255 255 255 
255 255 255 255 255 255 255 255 255 255 255 255 255 255 255 255 255 255 
255 255 255 255 255 255 255 255 255 255 255 255 255 255 255 255 255 255 
255 255 255 255 255 255 255 255 255 255 255 255 255 255 255 255 255 255 
255 255 255 255 255 255 255 255 255 255 255 254 254 254 254 254 254 254 
254 254 254 254 254 254 254 254 254 254 254 254 254 254 254 254 254 254 
254 254 254 254 254 254 254 254 254 254 254 254 253 254 247 167 110  79 
 66  68  80 109 162 246 254 252 255 255 255 255 255 255 255 255 255 255 
255 255 255 255 255 255 255 255 255 255 255 255 255 255 255 255 255 255 
255 255 255 255 255 255 255 255 254 255 255 255 213 145  84 229 255 255 
255 255 251 195 134  89 245 255 255 255 253 146 128 126 210 255 255 254 
255 255 255 255 255 255 255 255 255 255 255 255 255 255 255 255 255 255 
255 255 254 255 255 255 228 125 129 127 207 254 255 255 255 255 255 254 
254 255 255 255 255 255 255 255 255 134 130 129 159 255 123 131 129 130 
130 130 130 168 255 254 255 255 255 255 255 255 255 255 255 255 255 255 
255 255 255 255 255 255 255 255 255 255 255 255 255 255 255 255 255 255 
255 254 255 254 255 255 255 254  68  63  61  75 186 255 255 254 255 255 
253 255 255 254 254 255 255 255 255 255 255 255 254 255 255 255 255 255 
255 255 255 255 254 254 253 255 255 255 254 254 227 216 216 218 174 168 
168 172 106  68  63  63  62 187 254 253 254 255 202 170 168 167 169 173 
217 254 253 254 255 253 254 255 255 255 255 255 255 255 255 255 255 255 
255 255 255 255 255 255 255 255 255 255 255 255 255 255 255 255 255 255 
255 255 255 255 255 255 255 255 255 255 255 255 255 255 255 255 255 255 
255 255 255 255 255 255 255 255 255 255 255 255 255 255 255 255 255 255 
255 255 255 255 255 255 255 255 255 255 255 255 255 255 255 255 255 254 
254 254 254 254 254 254 254 254 254 254 254 254 254 254 254 254 254 254 
254 254 254 254 254 254 254 254 254 254 254 254 254 187  31  27  30  32 
 31  31  30  31  27  19 157 248 255 255 255 255 255 255 255 255 255 255 
255 255 255 255 255 255 255 255 255 255 255 255 255 255 255 255 255 255 
255 255 255 255 255 255 255 255 255 255 255 253  40  28  18 227 254 255 
255 255 214  28  29  37 243 254 255 254 252  62  30  26 175 255 255 255 
255 255 255 255 255 255 255 255 255 255 255 255 255 255 255 255 255 255 
255 255 255 255 255 254 250  42  31  30 105 255 255 255 254 255 254 255 
230 252 255 255 254 255 255 254 200  20  30  25 159 255  16  31  32  31 
 31  30  32  21 255 255 255 255 255 255 255 255 255 255 255 255 255 255 
255 255 255 255 255 255 255 255 255 255 255 255 255 255 255 255 255 255 
255 254 255 255 255 254 255 255 147  48 167 246 255 254 254 255 254 255 
255 255 255 255 255 255 255 255 255 255 255 255 255 255 255 255 255 255 
255 255 255 255 255 254 255 254 255 255 254 247 217 216 217 198 167 167 
167 167 171 162 127  64  60  77 255 255 255 253 255 239 223 222 239 250 
255 254 255 255 255 254 255 255 255 255 255 255 255 255 255 255 255 255 
255 255 255 255 255 255 255 255 255 255 255 255 255 255 255 255 255 255 
255 255 255 255 255 255 255 255 255 255 255 255 255 255 255 255 255 255 
255 255 255 255 255 255 255 255 255 255 255 255 255 255 255 255 255 255 
255 255 255 255 255 255 255 255 255 255 255 255 255 255 255 255 255 255 
255 255 255 255 255 255 255 255 255 255 254 254 254 254 254 254 254 254 
254 254 254 254 254 254 254 254 255 255 255 255 136  28  30  29  27  21 
 19  20  25  30  31  31  28  66 237 255 255 255 255 255 255 255 255 255 
255 255 255 255 255 255 255 255 255 255 255 255 255 255 255 255 255 255 
255 255 255 255 255 255 255 255 255 255 255 254  45  31  18 224 255 254 
255 255 214  35  29  36 243 255 254 255 252  62  31  25 177 255 255 255 
255 255 255 255 255 255 255 255 255 255 255 255 255 255 255 255 255 255 
255 255 255 255 255 255 253  97  29  31  37 254 254 255 255 255 254 255 
 61 232 254 255 255 255 255 255  64  29  31  28 255 255  17  32  32  32 
 33  31  32  26 133 255 255 255 255 255 255 255 255 255 255 255 255 255 
255 255 255 255 255 255 255 255 255 255 255 255 255 255 255 255 255 255 
255 255 255 255 255 255 255 255 237 220 254 254 255 255 255 254 255 255 
255 255 255 255 255 255 255 255 255 255 255 255 255 255 255 255 255 255 
255 255 255 255 255 255 255 254 254 255 254 219 216 217 216 177 168 167 
167 167 169 168 169 168 110  71 135 252 255 253 251 249 248 248 246 245 
247 248 251 253 255 254 254 254 255 254 255 254 254 255 254 254 255 254 
255 255 255 255 254 255 255 255 255 255 255 255 255 255 255 255 255 255 
255 255 255 255 255 255 255 255 255 255 255 255 255 255 255 255 255 255 
255 255 255 255 255 255 255 255 255 255 255 255 255 255 255 255 255 255 
255 255 255 255 255 255 255 255 255 255 255 255 255 255 255 255 255 255 
255 255 255 255 255 255 255 255 255 255 255 255 255 255 254 255 255 254 
254 255 255 255 255 255 255 255 255 255 255 208  17  31  31  39 138 211 
241 230 179  96  30  30  26  82 239 255 255 255 255 254 255 255 255 255 
255 255 255 255 254 255 255 255 255 255 255 255 255 255 254 255 255 255 
255 255 255 254 255 255 255 255 254 255 255 255  46  31  18 228 255 255 
255 255 217  36  30  37 246 255 255 254 252  62  30  26 176 255 255 255 
255 255 255 255 255 253 254 255 255 255 255 254 255 255 255 255 255 255 
255 255 255 255 255 255 255 198  19  31  23 165 255 255 255 255 255 196 
 18 140 255 255 255 254 255 224  32  31  28 146 255 255  87  96  96  90 
 33  32  32  32  57 249 253 255 255 255 255 255 255 255 255 255 255 255 
255 255 255 255 255 255 255 255 255 255 255 255 255 255 255 255 255 255 
255 255 255 255 255 255 255 255 254 254 255 255 254 255 255 255 255 255 
255 255 255 255 255 255 255 255 255 255 255 255 255 255 255 255 255 255 
255 255 255 255 254 255 255 255 254 253 226 216 217 217 201 164 168 168 
168 166 167 167 166 167 190 245 130 204 221 218 216 218 216 217 218 218 
218 217 217 218 219 224 237 249 254 255 254 255 255 254 255 255 254 255 
255 253 255 253 255 255 255 255 255 255 255 255 255 255 255 255 255 255 
255 255 255 255 255 255 255 255 255 255 255 255 255 255 255 255 255 255 
255 255 255 255 255 255 255 255 255 255 255 255 255 255 255 255 255 255 
255 255 255 255 255 255 255 255 255 255 255 255 255 255 255 255 255 255 
255 255 255 255 255 255 254 255 254 255 253 255 255 254 254 255 255 255 
254 254 255 255 255 255 255 255 255 255 254  70  30  31  18 221 255 255 
255 255 254 253 210  31 113 254 255 254 255 254 255 255 254 254 202 122 
 90  91 145 237 255 253 254 255 255 255 255 255 255 254 255 224 130  89 
 90 135 235 255 243 227 229 235 255 254 236 232  44  30  20 203 228 239 
254 229 194  34  31  37 218 228 248 255 252  61  31  27 177 255 255 255 
255 255 255 255 255 193 116  87  94 159 247 255 254 255 255 255 255 255 
255 255 255 255 255 255 255 255  54  30  31  43 254 255 255 255 254 100 
 31  21 254 255 255 255 255 165  31  31  37 224 255 254 254 255 254 199 
 33  33  32  32  28 211 255 254 255 255 255 255 255 255 255 255 255 255 
255 255 255 255 255 255 255 255 255 255 255 255 255 255 255 255 255 255 
255 255 255 255 255 255 255 255 255 255 255 255 255 255 255 255 255 255 
255 255 255 255 255 255 255 255 255 255 255 255 255 255 255 255 255 255 
255 255 255 255 255 255 254 255 255 237 216 216 216 213 168 169 168 167 
167 169 168 167 168 166 203 215 220 131 140 217 219 217 219 219 217 210 
208 205 204 204 206 208 214 217 222 230 241 254 255 255 255 254 254 255 
255 255 255 254 255 255 255 255 255 255 255 255 255 255 255 255 255 255 
255 255 255 255 255 255 255 255 255 255 255 255 255 255 255 255 255 255 
255 255 255 255 255 255 255 255 255 255 255 255 255 255 255 255 255 255 
255 255 255 255 255 255 255 255 255 255 255 255 255 255 255 255 255 255 
255 255 255 255 255 255 255 255 255 255 255 255 253 255 255 189 102 233 
254 255 255 253 255 255 255 255 254 255 252  50  30  32  54 254 254 254 
255 255 255 254 255 223 254 254 254 255 255 255 254 254 155  54  21  26 
 27  28  24  28  93 234 255 255 255 255 255 254 255 208  74  23  26  28 
 29  25  26 107 136  15  21  78 255 255  92  20  31  30  32  23  21 105 
247  40  22  30  31  31  21  15 203 254 252  62  31  26 176 255 255 255 
255 254 254 135  43  22  26  28  26  24  31 109 250 255 255 255 255 255 
254 255 255 255 254 255 255 255 180  31  30  30 212 253 254 255 251  34 
 31  27 146 255 254 254 255  61  31  30  67 255 254 255 255 255 255  84 
 31  34  26  31  31  68 254 255 255 255 255 255 255 255 255 255 255 255 
255 255 255 255 255 255 255 255 255 255 255 255 255 255 255 255 255 255 
255 255 255 255 255 255 255 255 255 255 255 255 255 255 255 255 255 255 
255 255 255 255 255 255 255 255 255 255 255 255 255 255 255 255 255 255 
255 255 255 255 254 255 253 255 241 216 219 216 218 186 166 167 167 167 
170 167 169 168 169 167 216 217 217 214  75  78 174 189 177 168 165 165 
165 166 166 165 165 165 166 165 175 188 199 209 233 252 255 254 254 254 
253 254 254 255 254 255 255 255 255 255 255 255 255 255 255 255 255 255 
255 255 255 255 255 255 255 255 255 255 255 255 255 255 255 255 255 255 
255 255 255 255 255 255 255 255 255 255 255 255 255 255 255 255 255 255 
255 255 255 255 255 255 255 255 255 255 255 255 255 255 255 255 255 255 
255 255 255 255 255 255 255 255 254 255 255 254 255 237 107  48 153 255 
255 255 255 254 255 255 255 254 255 255 253  53  31  29  22 210 255 255 
254 255 255 254 254 255 254 255 254 255 255 255 254  99  24  30  29  30 
 37  33  30  29  30  31 221 255 255 254 255 254 194  21  31  30  30  28 
 27  28  31  30  42  31  31  87 254 255  96  30  30  31  31  29  29 110 
249  46  30  32  31  30  29  24 204 255 252  63  31  25 176 255 255 255 
255 250  68  27  32  30  31  36  32  30  31  30  34 233 255 255 254 255 
255 254 255 255 255 254 255 254 235  40  32  31 138 255 254 255 137  27 
 30  31  67 254 254 255 211  16  30  21 192 255 255 254 255 255 217  18 
 30  24 167  28  32  24 209 254 254 255 255 255 255 255 255 255 255 255 
255 255 255 255 255 255 255 255 255 255 255 255 255 255 255 255 255 255 
255 255 255 255 255 255 255 255 254 255 254 255 255 255 255 255 255 255 
255 255 255 255 255 255 255 255 255 255 255 255 255 255 255 255 255 255 
255 255 255 255 254 253 255 247 216 217 217 217 202 167 168 168 167 169 
168 169 168 169 169 180 218 207 189 175 129  78  78 105 169 168 168 169 
169 167 168 168 168 167 167 169 167 169 169 169 173 186 221 255 255 254 
255 255 255 254 255 255 255 255 255 255 255 255 255 255 255 255 255 255 
255 255 255 255 255 255 255 255 255 255 255 255 255 255 255 255 255 255 
255 255 255 255 255 255 255 255 255 255 255 255 255 255 255 255 255 255 
255 255 255 255 255 255 255 255 255 255 255 255 255 255 255 255 255 255 
255 255 255 255 255 255 255 255 254 254 254 254 183  66  59  85 255 254 
255 254 254 254 254 254 255 255 255 255 254 110  27  31  30  34  67 134 
184 228 255 255 255 255 254 254 255 255 255 255 132  28  31  28  96 224 
231 227 138  21  32  31  48 245 253 255 254 228  36  30  30  19  97 206 
218 159  38  31  31  30  30  86 255 255 142  95  37  31  27  84  92 152 
249 106  81  32  32  31  90  91 220 255 253  62  31  27 175 255 255 255 
255 111  31  31  27 119 227 230 223 116  27  31  31  61 255 254 255 255 
255 255 255 255 255 255 255 255 255  88  29  31  35 254 254 244  34  31 
 31  31  24 213 255 255  91  30  30  62 254 255 255 255 254 254  94  30 
 32  84 254  54  32  31 118 255 255 255 254 255 255 255 255 255 255 255 
255 255 255 255 255 255 255 255 255 255 255 255 255 255 255 255 255 255 
255 255 255 255 255 255 255 255 255 254 255 255 255 255 255 255 255 255 
255 255 255 255 255 255 255 255 255 255 255 255 255 255 255 255 255 255 
255 255 255 255 254 255 248 216 217 216 217 212 171 168 167 169 168 168 
168 168 169 169 170 174 171 165 166 169 162  82  78  77  97 160 169 167 
168 167 168 169 169 167 167 168 168 168 166 169 167 167 165 178 224 252 
255 254 253 255 255 254 255 255 255 255 255 255 255 255 255 255 255 255 
255 255 255 255 255 255 255 255 255 255 255 255 255 255 255 255 255 255 
255 255 255 255 255 255 255 255 255 255 255 255 255 255 255 255 255 255 
255 255 255 255 255 255 255 255 255 255 255 255 255 255 255 255 255 255 
255 255 255 255 255 255 255 255 255 254 254 159  56  61  59 177 253 253 
255 255 254 255 255 255 254 255 255 255 255 248  44  30  31  30  31  24 
 22  18  16  54 102 170 239 255 254 255 254 218  17  30  27 132 255 254 
255 255 255 185  24  32  27 122 255 254 255  80  29  30  28 189 255 255 
255 255 249  84  29  30  30  86 255 254 255 254  48  31  18 235 255 254 
255 254 224  34  31  37 253 254 254 255 252  62  31  26 176 255 255 254 
205  15  29  23 151 254 254 254 255 255 157  21  32  22 139 255 255 255 
255 255 254 255 255 255 255 255 254 222  19  32  22 175 255 177  31  30 
 35  29  28  68 253 243  49  30  32 148 255 255 254 255 253 243  40  33 
 29 166 255 115  31  32  42 253 255 255 255 255 255 255 255 255 255 255 
255 255 255 255 255 255 255 255 255 255 255 255 255 255 255 255 255 255 
255 255 255 255 255 255 255 255 255 255 255 255 255 255 255 255 255 255 
255 255 255 255 255 255 255 255 255 255 255 255 255 255 255 255 255 255 
255 255 255 255 255 246 214 216 218 216 218 176 168 169 167 168 169 168 
169 169 168 169 167 169 168 167 168 167 170 128  75  79  79  84 164 169 
167 167 168 169 169 168 168 169 169 168 169 168 168 168 169 167 167 171 
237 255 255 254 255 255 255 255 255 255 255 255 255 255 255 255 255 255 
255 255 255 255 255 255 255 255 255 255 255 255 255 255 255 255 255 255 
255 255 255 255 255 255 255 255 255 255 255 255 255 255 255 255 255 255 
255 255 255 255 255 255 255 255 255 255 255 255 255 255 255 255 255 255 
255 255 255 255 255 255 255 253 255 255 125  60  60  60  62 255 255 255 
254 255 254 255 255 255 255 255 255 254 254 254 231  48  30  31  30  31 
 30  31  31  30  30  31  28 202 255 254 255 124  31  31  61 250 254 254 
253 255 253 255 118  27  32  21 243 255 210  20  29  24 170 255 255 255 
254 255 253 242  50  30  30  85 255 255 255 253  46  32  18 225 255 255 
255 255 216  35  30  36 245 255 255 255 251  62  31  26 176 255 255 255 
 72  30  30  88 255 255 254 255 254 254 255 101  31  30  42 244 255 254 
255 255 255 254 255 255 255 255 254 255  77  29  31  68 255  82  31  21 
152  45  30  29 212 203  27  30  27 225 255 254 255 255 255 147  29  29 
 23 249 255 225  20  31  26 150 255 255 254 255 255 255 255 255 255 255 
255 255 255 255 255 255 255 255 255 255 255 255 255 255 255 255 255 255 
255 255 255 255 255 255 255 255 255 255 255 255 255 255 255 255 255 255 
255 255 255 255 255 255 255 255 255 255 255 255 255 255 255 255 255 255 
255 255 255 255 240 217 217 217 216 218 186 167 169 169 167 168 169 169 
168 169 168 168 168 167 168 167 170 168 169 170  86  79  79  78  82 154 
169 167 168 167 167 167 168 167 167 168 169 167 168 169 167 168 168 169 
165 192 254 255 254 254 255 255 255 255 255 255 255 255 255 255 255 255 
255 255 255 255 255 255 255 255 255 255 255 255 255 255 255 255 255 255 
255 255 255 255 255 255 255 255 255 255 255 255 255 255 255 255 255 255 
255 255 255 255 255 255 255 255 255 255 255 255 255 255 255 255 255 255 
255 255 255 255 255 255 253 255 248 111  54  61  59  55 197 255 255 254 
254 255 255 254 255 255 254 254 255 255 255 255 255 255 204 150  95  53 
 17  18  23  28  31  29  31  32 226 255 255  78  29  31  48  96  96  95 
 97  94  96  97  85  28  31  26 181 255 137  29  30  55 253 255 255 255 
255 254 255 255 116  28  29  87 254 254 255 255  45  30  18 226 255 255 
255 255 215  35  29  36 243 255 255 254 252  62  31  26 176 255 255 243 
 48  30  31  64  96  96  96  95  95  97  97  72  31  31  36 220 255 255 
255 255 255 255 255 254 255 255 255 255 163  29  31  38 196  19  32  45 
254  81  30  32 142  77  29  29  92 254 255 255 255 255 250  30  31  28 
134 254 255 254  89  31  31  42 247 255 255 255 255 255 255 255 255 255 
255 255 255 255 255 255 255 255 255 255 255 255 255 255 255 255 255 255 
255 255 255 255 255 255 255 255 255 255 255 255 255 255 255 255 255 255 
255 255 255 255 255 255 255 255 255 255 255 255 255 255 255 254 255 255 
254 255 255 235 215 218 216 217 217 194 166 169 167 167 168 168 168 168 
168 168 169 169 168 167 169 167 168 168 167 169 122  79  77  78  79  89 
165 168 169 168 167 167 166 168 172 175 177 178 178 176 178 177 177 175 
172 171 167 225 244 250 254 255 253 255 255 255 254 254 254 255 254 255 
254 255 255 255 254 255 254 254 255 255 255 255 255 255 255 254 255 255 
255 255 255 254 254 255 255 255 255 255 255 255 255 255 254 253 255 254 
253 252 254 255 254 254 254 255 255 255 255 255 255 255 255 255 255 255 
254 255 254 255 255 254 254 245 124  62  60  61  60  83 249 252 255 255 
255 255 255 255 255 255 255 255 255 255 255 255 255 255 254 254 255 255 
255 228 174  97  41  30  30  29 126 255 255  58  32  31  31  32  30  30 
 31  31  31  31  30  31  31  28 150 254 102  32  30  87 254 255 254 255 
255 255 255 255 186  19  31  85 255 255 255 255  44  31  18 224 255 255 
255 255 215  34  30  36 243 255 255 255 252  62  31  26 176 255 255 235 
 42  30  31  30  31  31  30  31  30  30  29  30  29  31  31 207 254 255 
255 254 255 255 255 254 255 255 255 255 233  28  31  30  35  30  31 148 
255 203  19  30  37  28  32  29 226 255 255 254 254 255 160  27  31  34 
248 254 255 255 204  31  34  30 194 255 255 255 255 255 255 255 255 255 
255 255 255 255 255 255 255 255 255 255 255 255 255 255 255 255 255 255 
255 255 255 255 255 255 255 255 255 255 255 255 255 255 255 255 255 255 
255 255 255 255 255 255 255 255 255 255 255 255 255 255 255 255 254 252 
254 251 222 216 217 217 216 217 194 167 168 168 167 167 168 168 168 168 
168 168 168 169 168 168 169 169 169 168 167 168 160  75  77  78  79  78 
 88 165 164 176 199 222 240 246 248 250 249 252 251 252 250 251 251 250 
248 246 244 205 209 209 215 233 254 255 254 255 255 255 255 255 255 255 
255 255 254 254 255 254 254 254 253 226 220 224 222 215 229 255 254 254 
254 255 255 253 255 255 255 255 255 254 255 255 254 255 255 254 255 254 
254 246 233 223 236 255 255 255 254 255 254 255 254 255 255 255 254 255 
254 255 255 255 255 255 239 130  57  60  60  60  57 153 254 254 255 255 
255 255 255 255 255 255 255 255 255 254 254 255 255 255 255 255 255 254 
255 255 255 255 213  31  31  30  64 255 255  61  30  32  27  19  19  19 
 20  20  18  19  20  19  20  17 141 255 105  30  30  82 255 255 254 255 
254 255 255 255 166  23  32  87 255 255 254 255  45  30  17 226 255 254 
255 255 214  35  29  37 245 254 255 255 251  62  31  26 176 255 255 237 
 43  32  29  25  20  20  20  20  19  20  19  18  19  19  18 198 255 255 
255 255 255 255 255 254 255 255 255 255 255 103  29  30  31  31  29 220 
254 255  65  30  30  32  33  71 253 254 255 255 254 254  74  32  31  46 
106 107 108 108 101  36  32  32  93 255 254 255 255 255 255 255 255 255 
255 255 255 255 255 255 255 255 255 255 255 255 255 255 255 255 255 255 
255 255 255 255 255 255 255 255 255 255 255 255 255 255 255 255 255 255 
255 255 255 255 255 255 255 255 255 255 255 255 255 255 255 255 254 255 
236 215 216 217 217 216 218 191 167 168 169 167 167 168 168 168 168 168 
168 168 169 170 168 169 169 168 170 168 168 168 174 110  78  78  77  77 
 78 127 254 255 255 254 254 255 254 254 252 254 254 255 255 254 254 255 
255 254 255 251 222 207 201 203 204 219 235 250 254 255 255 254 255 255 
255 254 255 255 254 254 254 245 215 216 212 201 201 203 202 207 250 255 
255 255 254 255 255 254 255 255 254 255 255 255 255 255 254 244 231 217 
202 199 201 233 255 255 254 254 255 255 254 254 255 255 254 255 255 255 
255 255 255 254 255 239 180  60  62  59  60  60  55 248 255 254 254 255 
255 255 255 255 255 255 254 255 255 255 255 253 245 204 255 254 254 255 
255 255 255 254 254  34  31  29  64 254 255  89  31  31  83 252 251 252 
251 252 251 250 251 254 252 253 252 255 145  27  31  39 253 255 254 255 
255 255 255 255  95  28  30  85 255 255 255 255  46  30  19 222 255 255 
254 255 215  33  29  37 242 255 255 254 251  63  30  25 177 255 255 247 
 52  30  30 137 254 252 251 252 252 251 251 255 254 251 251 253 255 255 
255 255 255 255 255 255 255 255 255 255 255 230  27  31  31  28  75 255 
255 255 165  30  31  32  28 149 254 255 255 255 255 212  20  30  32  31 
 29  29  27  28  28  32  31  32  17 227 255 255 255 255 255 255 255 255 
255 255 255 255 255 255 255 255 255 255 255 255 255 255 255 255 255 255 
255 255 255 255 255 255 255 255 255 255 255 255 255 255 255 255 255 255 
255 255 255 255 255 255 255 255 255 255 255 255 255 255 254 254 255 254 
223 216 216 216 218 217 191 170 168 166 169 168 168 168 168 168 168 168 
168 168 169 168 168 168 168 169 169 169 166 168 169 160  80  79  78  78 
 78  74 177 254 255 255 255 254 255 253 255 254 255 255 254 253 254 254 
255 255 255 254 254 221 211 202 203 202 202 201 222 252 254 255 254 255 
254 254 255 255 255 255 253 218 217 216 202 203 203 203 203 204 205 255 
253 255 255 255 255 255 254 255 255 255 254 254 245 225 202 201 203 200 
202 204 250 254 255 254 255 255 254 255 254 255 254 255 255 254 254 255 
255 255 255 255 243 207  57  60  59  62  60  58 141 254 255 254 255 255 
255 255 255 255 255 255 255 255 255 254 255 254  79  29 182 255 254 255 
254 255 255 255 206  32  32  30 101 255 255 145  29  30  39 241 255 254 
255 255 253 255 245 199 253 255 255 255 221  19  32  27 106 255 255 254 
255 254 255 228  36  31  31  87 255 254 255 255  49  29  23 178 255 254 
255 255 216  35  31  36 227 255 255 255 252  73  30  28 152 255 254 255 
 97  28  31  41 254 254 255 255 255 255 255 218 214 254 254 255 255 255 
255 255 255 255 254 255 255 255 255 255 255 253  74  30  31  21 220 255 
255 255 228  34  31  31  22 253 255 255 255 255 255  61  31  32  31  33 
 31  31  31  31  30  31  32  31  31  98 255 255 255 255 255 255 255 255 
255 255 255 255 255 255 255 255 255 255 255 255 255 255 255 255 255 255 
255 255 255 255 255 255 255 255 255 255 255 255 255 255 255 255 255 255 
255 255 255 255 255 255 255 255 255 255 255 255 255 255 254 255 254 255 
254 231 215 217 217 180 167 168 169 167 168 169 168 168 168 168 168 168 
168 168 169 168 169 169 168 167 169 167 167 161 186 203 100  79  79  79 
 80  78  87 245 253 255 254 255 255 255 253 254 254 235 223 220 221 229 
254 255 255 255 255 254 223 213 202 202 202 202 201 203 218 251 255 254 
255 254 255 255 255 255 236 216 218 204 202 204 203 205 204 202 202 237 
255 254 255 255 255 254 255 255 255 250 229 214 204 201 203 202 203 202 
209 252 254 253 255 254 255 254 255 253 254 255 254 255 255 254 255 255 
254 255 254 246 218 109  59  60  61  60  61  61 219 255 255 255 255 255 
255 255 255 255 255 254 255 254 255 255 229  60  26  31  27  80 173 253 
255 255 230 134  44  31  31  31 202 255 254 244  23  32  28  56 225 254 
255 254 255 214  49  22  69 194 255 254 254  95  30  32  28 117 255 255 
254 255 196  45  29  31  30  86 255 255 255 255  85  31  30  64 253 254 
254 255 235  37  31  31 110 253 255 255 254  94  29  30  55 239 254 255 
239  23  30  29  69 245 255 255 255 255 188  42  24  77 206 255 255 255 
249 226 226 230 253 255 254 255 255 255 255 255 151  26  30  72 255 254 
255 254 255  89  29  31 132 254 253 255 255 254 217  34  32  30 110 146 
145 144 146 144 145 147  74  33  31  46 243 255 255 255 255 255 255 255 
255 255 255 255 255 255 255 255 255 255 255 255 255 255 255 255 255 255 
255 255 255 255 255 255 255 255 255 255 255 255 255 255 255 255 255 255 
255 255 255 255 255 255 255 255 255 255 255 255 255 255 255 254 255 255 
255 254 240 206 169 167 169 167 167 168 167 169 168 168 168 168 168 168 
168 168 169 168 167 167 168 168 167 172 193 244 237 219 141  77  79  78 
 78  78  75 123 254 254 255 255 255 253 255 251 220 216 216 219 199 163 
146 173 225 255 252 255 253 220 214 203 202 202 203 204 203 201 233 253 
255 255 254 255 255 254 218 217 215 203 203 203 201 203 203 204 203 220 
255 255 254 255 254 254 254 252 230 212 207 203 202 203 202 203 199 213 
255 254 255 255 255 241 188 132 141 200 248 255 254 254 255 255 254 254 
254 255 252 222 178  52  61  62  60  62  59  75 249 254 255 255 255 255 
255 255 255 255 255 255 254 255 255 254 239  70  25  30  30  32  23  15 
 34  20  20  27  31  29  24  93 254 255 255 255 194  28  32  31  22 119 
178 173 104  21  32  30  34 211 255 255 254 234  40  30  30  27  30 115 
129  76  22  29  29  30  31  87 255 255 255 254 174  24  30  29  26 171 
255 255 255 102  25  31  27  53 202 255 254 200  24  31  32  19 152 254 
255 161  28  31  30  26 130 181 171  93  24  31  31  44 229 255 255 255 
203  13  20  42 245 255 255 254 254 255 255 255 249  24  27 147 255 254 
255 255 255 225  23  36 227 255 255 255 254 255 133  31  32  38 227 255 
255 255 254 255 255 255 185  30  33  27 175 255 255 255 255 255 255 255 
255 255 255 255 255 255 255 255 255 255 255 255 255 255 255 255 255 255 
255 255 255 255 255 255 255 255 255 255 255 255 255 255 255 255 255 255 
255 255 255 255 255 255 255 255 255 255 255 255 255 255 255 255 255 254 
255 255 221 165 169 170 168 167 168 170 168 169 168 168 168 168 168 168 
168 168 169 168 169 167 167 167 186 245 254 254 241 217 207  68  78  79 
 80  81  79  75 193 255 254 255 255 255 255 220 216 217 220 134  81  77 
 78  78  80 169 255 252 254 254 220 217 203 202 202 203 202 203 202 208 
250 254 255 255 253 253 216 216 214 204 202 204 203 204 203 203 203 213 
255 255 255 255 253 254 233 216 211 202 203 203 205 204 202 201 220 254 
255 255 255 243 214  74  59  59  61  58  68 216 254 255 254 254 255 253 
255 252 225 208  64  62  60  62  61  61  56 139 255 255 255 255 255 255 
255 255 255 255 255 255 255 255 255 255 255 252 140  24  30  30  30  32 
 31  30  31  30  30  25 122 252 255 254 255 254 255 170  17  31  30  31 
 29  29  30  31  29  37 224 255 254 255 254 255 220  31  32  30  31  32 
 30  31  30  31  77  26  32  86 255 254 255 254 254 158  24  31  31  84 
255 255 254 255  98  28  31  26 142 254 255 254 189  28  31  31  51 254 
255 255 152  21  31  31  30  28  32  29  30  30  41 236 255 255 255 255 
206  25  31  52 246 255 255 255 255 255 255 254 255 125  17 248 254 255 
255 255 254 255  74  58 254 255 255 254 255 254  23  31  30  68 255 255 
255 255 255 255 255 255 255  29  31  31  37 255 255 255 255 255 255 255 
255 255 255 255 255 255 255 255 255 255 255 255 255 255 255 255 255 255 
255 255 255 255 255 255 255 255 255 255 255 255 255 255 255 255 255 255 
255 255 255 255 255 255 255 255 255 255 255 255 255 255 255 255 255 255 
254 254 255 223 168 168 167 168 168 167 169 168 169 168 168 168 168 168 
168 168 168 169 169 166 176 226 255 255 255 254 253 215 225 107  78  80 
 79  79  78  79 108 255 255 254 255 254 227 217 216 223 132  74  78  78 
 77  78  77  68 206 255 255 254 248 217 214 202 202 202 202 201 203 202 
205 236 254 255 255 251 217 217 214 202 203 203 203 204 203 204 203 209 
255 254 254 255 247 223 215 209 201 202 202 202 201 202 201 217 254 254 
255 250 223 221  86  60  60  60  60  60  60  64 216 255 254 254 255 255 
254 242 219 146  61  60  62  61  60  60  50 234 255 255 255 255 255 255 
255 255 255 255 255 255 255 255 255 255 255 254 255 217 122  53  19  21 
 22  22  19  39 103 195 255 255 255 255 255 255 253 255 218 103  35  19 
 23  22  19  50 138 246 255 255 255 255 255 254 255 231 116  36  20  23 
 23  19  69 184 156  41  48  99 255 255 255 255 255 255 199  81  17 199 
255 255 254 254 255 166  51  41 247 255 254 254 255 212  92  19 180 255 
254 254 255 202  95  28  20  24  21  20  60 148 254 255 255 255 255 254 
206  27  31  52 246 255 255 255 255 255 255 254 255 220 132 255 255 255 
255 255 255 254 137 178 255 254 254 255 255 141  45  49  39 208 254 255 
255 255 255 255 255 255 255 152  44  49  43 187 255 255 255 255 255 255 
255 255 255 255 255 255 255 255 255 255 255 255 255 255 255 255 255 255 
255 255 255 255 255 255 255 255 255 255 255 255 255 255 255 255 255 255 
255 255 255 255 255 255 255 255 255 255 255 255 255 255 255 255 255 255 
255 254 254 254 252 183 170 167 168 168 169 168 168 168 168 168 169 169 
169 169 168 168 167 192 254 254 255 255 254 254 255 217 218 159  79  79 
 79  80  77  78  71 198 255 254 255 246 216 215 218 152  73  77  77  79 
 78  79  77  79  98 255 255 254 255 248 217 213 203 201 202 203 203 203 
201 202 233 254 255 254 216 215 216 202 204 203 204 203 203 203 202 216 
255 255 255 240 216 216 204 203 203 203 203 202 203 202 213 255 254 255 
255 227 217 176  54  60  59  61  61  61  62  60  62 244 255 255 255 255 
252 216 221  61  61  61  62  61  60  61  89 255 253 254 255 255 255 255 
255 255 255 255 255 255 255 255 255 255 255 255 255 255 255 255 245 194 
182 188 229 255 255 255 255 255 255 255 255 255 255 255 254 255 255 216 
183 185 229 255 255 254 255 255 255 255 255 255 255 253 255 255 215 181 
186 242 255 254 255 255 255 255 255 255 255 255 255 254 254 255 212 255 
255 255 255 254 255 255 255 215 255 255 255 255 255 254 255 222 252 255 
255 255 255 254 255 255 210 182 187 238 255 255 254 255 255 255 255 255 
206  25  32  86 249 255 255 255 255 255 255 255 255 251 254 254 255 255 
255 255 255 255 242 255 255 255 255 255 254 254 255 255 255 255 254 255 
255 255 255 255 255 255 254 255 255 255 255 255 255 255 255 255 255 255 
255 255 255 255 255 255 255 255 255 255 255 255 255 255 255 255 255 255 
255 255 255 255 255 255 255 255 255 255 255 255 255 255 255 255 255 255 
255 255 255 255 255 255 255 255 255 255 255 255 255 255 255 255 255 255 
255 254 254 254 254 254 235 188 165 167 167 166 168 169 169 167 167 167 
168 167 168 165 226 254 254 254 252 254 255 255 255 229 216 192  79  79 
 78  78  79  80  78  91 248 255 255 233 217 216 208  85  79  79  78  77 
 79  78  79  79  89 241 255 255 254 254 236 215 214 202 203 201 203 203 
202 203 201 224 255 255 222 216 215 203 204 202 203 203 204 203 203 227 
253 254 230 217 214 203 203 201 201 202 203 204 201 208 253 255 255 255 
250 214 217 127  59  59  61  61  62  60  62  60  60 161 254 253 253 255 
231 218 125  57  61  61  60  60  61  60 143 255 253 255 255 255 255 255 
255 255 255 255 255 255 255 255 255 255 255 255 255 255 255 255 254 255 
255 255 254 255 254 255 255 254 255 255 255 255 255 255 255 255 255 255 
255 255 255 254 255 255 255 255 255 255 255 255 255 255 254 254 255 255 
255 255 254 255 254 255 255 255 255 255 255 254 255 255 255 254 255 254 
254 255 254 255 255 255 253 255 253 255 254 255 255 255 254 255 254 255 
255 255 255 255 254 254 255 255 254 255 254 255 255 255 255 255 255 255 
204  23 185 254 255 255 254 255 255 255 255 255 255 254 255 255 255 254 
255 255 254 255 255 254 255 255 255 255 255 255 254 255 255 255 255 255 
255 255 255 255 254 255 255 255 255 255 255 255 255 255 255 255 255 255 
254 255 255 255 255 255 255 255 255 255 255 255 255 255 254 255 255 255 
255 255 255 255 255 255 255 255 255 255 255 255 255 255 255 255 255 255 
255 255 255 255 255 255 255 255 255 255 255 255 255 255 255 255 255 255 
255 255 255 255 255 254 255 255 214 193 170 168 167 167 169 170 169 169 
168 168 176 236 255 255 255 254 255 255 255 255 255 240 217 209  86  80 
 78  79  77  77  79  79 207 255 255 224 216 219 171  76  76  77  77  78 
 79  78  78  79  85 236 255 255 254 254 254 228 216 211 201 202 204 202 
203 204 203 200 227 253 248 216 217 209 201 202 203 204 202 203 201 246 
254 226 216 216 203 205 203 203 201 203 203 202 206 253 254 255 254 254 
235 216 217 102  62  62  61  63  60  63  61  59  61  71 255 254 255 252 
215 210  72  61  61  61  61  61  60  58 193 255 255 253 255 255 255 255 
255 255 255 255 255 255 255 254 255 255 254 255 255 254 255 254 255 255 
254 255 255 255 255 255 255 255 255 255 255 255 255 255 254 255 255 255 
255 255 255 255 255 255 255 255 255 255 254 255 255 255 255 255 255 255 
255 255 255 254 255 254 254 255 255 255 255 255 255 255 255 255 255 255 
255 255 255 255 255 255 255 254 255 255 255 255 255 254 255 255 255 254 
255 254 255 255 255 254 255 254 255 255 255 255 255 255 255 255 255 255 
229 244 255 255 255 255 255 255 255 254 255 254 255 255 255 253 255 255 
255 254 255 254 255 254 255 255 255 255 255 255 255 255 255 255 255 255 
255 255 255 255 255 255 255 254 255 255 255 255 255 255 255 255 254 255 
255 255 255 255 255 255 255 255 255 254 254 255 255 255 255 255 255 255 
255 255 255 255 255 255 255 255 255 255 255 255 255 255 255 255 255 255 
255 255 255 255 255 255 255 255 255 255 255 255 255 255 255 255 255 255 
255 255 255 255 255 255 255 254 239 216 183 168 167 169 170 167 167 169 
168 174 246 255 254 255 255 254 254 255 255 255 255 249 215 221 103  80 
 80  78  81  79  79  78 125 255 254 219 217 222 115  77  79  79  79  78 
 78  78  77  77  86 236 255 255 255 255 254 252 217 217 208 203 204 203 
203 204 203 201 201 226 254 227 217 217 205 202 202 203 203 202 223 254 
222 215 215 203 202 204 203 203 203 203 201 199 246 253 254 255 254 255 
230 217 216 115  59  62  62  61  62  62  61  60  59  52 218 255 255 223 
217 175  58  59  61  62  62  60  60  57 230 255 255 255 255 255 255 255 
255 255 255 255 255 255 254 255 255 255 255 254 255 254 255 255 255 255 
255 255 255 255 255 255 254 255 254 255 255 255 255 254 255 255 255 255 
255 255 254 255 255 255 255 255 254 255 254 255 255 255 255 255 255 255 
254 255 255 255 255 255 255 255 255 255 255 255 255 255 255 255 255 255 
254 255 255 255 254 255 255 255 255 254 255 254 255 255 255 255 255 255 
255 255 255 255 255 255 255 255 255 255 254 255 255 255 255 255 255 254 
254 255 254 255 255 255 255 254 255 254 255 255 255 255 255 255 255 255 
255 255 255 255 254 255 254 255 255 255 255 254 255 255 255 255 254 255 
255 255 255 254 255 254 255 255 254 255 255 255 255 255 255 255 255 255 
255 254 255 255 255 254 254 255 255 255 255 255 255 255 255 255 255 255 
255 255 255 255 255 255 255 255 255 255 255 255 255 255 255 255 255 255 
255 255 255 255 255 255 255 255 255 255 255 255 255 255 255 255 255 255 
255 255 255 255 255 255 255 254 253 218 201 166 168 166 168 169 169 168 
182 253 255 254 255 255 255 254 255 255 254 255 254 252 218 220 151  76 
 78  79  80  79  80  80  71 240 254 216 217 225  89  76  79  81  78  79 
 79  78  77  79  93 246 255 255 255 254 255 254 245 214 217 205 202 203 
202 204 201 202 202 201 233 254 233 220 213 210 202 199 203 227 255 224 
217 217 205 203 203 204 203 204 204 202 202 236 255 254 255 255 254 254 
228 216 217 146  58  61  61  62  61  62  60  59  61  54 180 254 249 216 
225  86  60  62  62  62  61  61  62  64 255 255 254 255 255 255 255 255 
255 255 255 255 255 255 255 255 255 255 255 255 254 255 254 255 255 253 
255 255 255 254 255 255 255 254 255 255 255 255 255 255 255 255 255 255 
255 255 255 255 254 255 255 255 255 254 255 255 255 255 255 255 254 255 
254 255 255 255 254 255 255 255 255 255 255 254 255 255 255 255 255 254 
255 254 254 255 255 255 255 255 255 255 254 255 255 255 255 255 255 255 
255 255 255 254 255 254 255 255 254 255 255 255 255 254 255 255 255 255 
255 254 255 255 254 255 254 255 255 255 255 255 255 255 255 255 255 255 
254 255 254 255 255 255 255 255 255 254 255 255 255 255 255 255 255 255 
255 255 255 255 254 255 255 254 255 255 255 255 255 255 255 255 255 255 
255 254 255 255 255 255 255 255 255 255 255 254 255 255 255 254 255 255 
255 255 255 255 255 255 255 255 255 255 255 255 255 255 255 255 255 255 
255 255 255 255 255 255 255 255 255 255 255 255 255 255 255 255 255 255 
255 255 255 255 255 255 255 255 255 246 220 172 168 170 167 168 168 176 
253 255 255 255 254 255 255 254 255 254 255 255 253 252 219 219 198  72 
 79  80  79  80  80  78  77 149 254 224 217 225  86  79  81  78  80  77 
 79  78  78  75 120 255 254 253 255 255 255 254 254 229 216 216 201 202 
204 204 203 203 203 202 202 242 255 254 254 255 253 247 255 254 225 216 
216 206 201 201 202 204 203 204 203 201 215 255 255 255 255 255 255 255 
238 214 217 199  54  60  61  60  61  61  61  62  62  55 168 255 232 218 
194  54  60  60  61  61  61  62  58 121 254 254 254 255 255 255 255 255 
255 255 255 255 255 255 255 255 255 255 255 253 255 248 233 216 232 249 
255 255 255 255 255 254 255 255 255 255 255 255 254 255 255 255 255 255 
255 255 255 255 255 255 254 255 255 255 255 255 255 254 255 255 255 254 
255 255 255 255 255 255 255 255 254 255 255 249 236 255 255 245 226 253 
254 255 255 254 255 255 255 255 255 255 255 255 254 255 255 255 253 255 
255 255 255 255 255 255 255 255 255 255 255 254 255 255 255 255 255 255 
255 255 255 255 255 255 255 255 255 255 255 255 255 255 255 255 255 255 
255 255 255 255 255 255 255 255 255 254 255 255 255 255 255 255 255 255 
255 255 255 255 255 255 255 255 255 252 220 250 255 250 242 251 255 255 
223 252 255 255 255 255 255 255 255 255 255 255 255 254 255 254 255 255 
255 255 255 255 255 255 255 255 255 255 255 255 255 255 255 255 255 255 
255 255 255 255 255 255 255 255 255 255 255 255 255 255 255 255 255 255 
255 255 255 255 254 255 255 255 255 253 231 210 168 168 167 169 173 249 
255 255 255 254 254 255 254 255 254 255 255 255 254 251 221 218 219  79 
 79  78  80  80  80  79  80 104 252 237 215 224  97  79  78  77  79  80 
 78  78  77  68 236 254 255 255 254 255 255 255 255 251 214 217 212 201 
204 203 203 204 204 202 202 204 253 255 255 255 255 254 255 234 216 217 
211 204 200 203 202 202 204 203 204 208 253 254 254 255 254 254 255 255 
250 214 217 223 110  61  61  62  62  59  63  61  61  52 201 253 216 216 
132  60  61  59  61  61  61  62  54 181 255 255 255 254 255 255 255 255 
255 255 255 255 255 255 254 255 255 255 254 255 191 152 142 140 141 149 
180 255 254 255 255 255 255 255 255 255 255 255 255 254 255 255 254 255 
255 254 255 255 254 255 255 255 254 255 255 255 255 255 254 255 255 254 
255 254 255 255 255 255 255 255 255 255 255 155 161 255 254 192 138 227 
255 254 255 255 255 255 255 255 255 254 255 255 255 255 254 255 255 255 
255 255 255 255 254 255 255 254 254 255 255 255 255 255 255 255 255 255 
255 255 255 254 255 254 255 255 255 255 255 255 255 255 255 255 255 255 
255 255 255 255 255 255 254 255 254 255 255 255 255 255 255 255 254 255 
255 254 255 255 255 255 254 255 255 233 139 195 255 197 143 241 255 232 
135 187 255 255 255 255 255 254 255 255 255 255 254 255 255 255 255 255 
255 255 255 255 255 255 255 255 255 255 255 255 255 255 255 255 255 255 
255 255 255 255 255 255 255 255 255 255 255 255 255 255 255 255 255 255 
255 255 255 255 255 254 255 255 254 255 253 254 180 168 169 169 241 255 
255 255 254 255 254 254 255 255 254 255 255 255 254 254 222 216 221  99 
 78  77  79  79  79  78  79  84 239 252 221 221 146  77  80  79  78  77 
 80  81  79 147 255 254 255 254 255 255 255 252 249 247 229 217 220 209 
206 202 197 196 197 198 202 205 216 255 255 254 254 255 239 214 218 217 
206 206 200 195 195 196 202 208 205 244 255 254 254 254 253 255 255 253 
255 226 216 216 199  63  60  61  60  62  61  61  60  56 254 234 215 216 
 95  61  61  61  60  63  61  60  55 230 255 254 255 255 255 255 255 255 
255 255 255 255 255 255 255 255 255 254 255 182 138 149 188 213 192 155 
142 201 255 255 255 241 233 237 255 255 255 255 243 245 255 235 235 254 
255 255 254 243 249 250 234 236 255 253 255 254 255 255 237 233 243 255 
253 254 255 255 255 238 235 241 255 255 251 149 161 247 253 237 195 252 
254 245 247 254 235 236 254 254 254 254 255 251 235 234 251 250 242 255 
255 255 255 255 254 255 254 239 233 238 255 255 254 255 255 243 232 236 
252 255 254 255 254 254 235 235 254 255 245 234 243 255 254 255 255 254 
234 235 253 255 243 234 243 255 255 254 243 245 255 255 255 247 243 254 
255 243 246 251 234 235 255 254 255 247 192 242 251 189 146 233 249 255 
193 240 255 254 255 248 234 234 250 255 254 254 255 252 233 234 246 255 
255 255 255 255 255 255 255 255 255 255 255 255 255 255 255 255 255 255 
255 255 255 255 255 255 255 255 255 255 255 255 255 255 255 255 255 255 
255 255 255 255 255 255 255 255 254 254 254 255 248 165 169 225 254 254 
255 255 255 255 255 255 255 255 255 255 255 255 255 254 222 218 218 118 
 79  77  79  79  79  78  79  76 188 255 253 222 200  84  79  78  78  79 
 79  79  93 253 255 255 254 254 248 234 222 217 218 217 218 191 149 115 
 85  79  80  80  80  80  80  86 111 168 231 255 250 238 218 212 167 118 
 81  64  62  62  63  63  61  67  91 147 202 253 255 255 255 255 255 255 
255 243 216 216 218 173  56  61  61  61  62  61  61 152 255 221 216 218 
 62  61  62  61  62  61  61  61  65 249 255 254 255 255 255 255 255 255 
255 255 255 255 255 254 255 254 255 255 235 146 150 249 255 255 255 242 
188 255 255 255 170 146 146 146 151 235 255 255 141 163 168 146 146 152 
245 254 255 139 169 155 145 147 174 255 254 255 243 156 146 146 146 191 
255 255 255 244 153 146 146 145 171 255 180 145 147 148 238 204 144 231 
251 156 160 153 146 146 161 255 254 255 233 151 145 146 152 188 137 255 
255 255 255 255 255 252 161 147 146 147 161 252 255 255 176 145 146 146 
150 229 255 255 255 162 146 145 162 215 142 147 144 201 255 253 255 162 
146 147 168 218 144 146 144 209 255 255 141 162 255 255 255 181 138 250 
255 137 174 156 147 145 173 255 253 236 146 212 212 143 146 146 198 241 
138 200 254 255 208 147 146 146 149 229 255 255 241 145 147 146 147 198 
255 255 255 255 255 255 255 255 255 255 255 255 255 255 255 255 255 255 
255 255 255 255 255 255 255 255 255 255 255 255 255 255 255 255 255 255 
255 255 255 255 255 255 255 255 255 255 255 254 255 223 195 255 254 255 
254 255 255 255 255 255 255 255 255 255 255 255 254 254 224 216 217 131 
 79  78  79  79  79  78  79  77 113 255 255 254 253 197  74  75  78  76 
 68 143 251 254 254 238 227 219 215 221 217 171 130 104  79  72  74  77 
 78  76  77  77  77  78  80  77  78  75  69  79 135 170  81  52  53  58 
 59  60  61  59  60  60  62  59  59  56  54  55  84 124 172 238 254 255 
254 255 235 215 216 221 177  72  53  59  58  50 116 249 248 217 219 171 
 55  61  61  61  61  62  60  61  76 251 255 255 255 255 255 255 255 255 
255 255 255 255 255 255 254 255 254 254 192 144 201 255 254 255 254 255 
255 254 251 164 141 184 216 198 146 148 246 255 140 144 162 208 178 144 
175 254 255 137 145 178 208 165 140 195 255 245 148 152 211 222 181 141 
186 253 239 147 144 196 217 180 139 197 219 147 152 195 246 203 144 231 
252 154 143 174 210 177 142 175 255 234 142 145 201 214 168 143 138 254 
255 254 255 255 249 154 145 190 216 191 142 168 255 176 142 176 215 204 
149 145 233 255 186 140 183 198 142 143 165 206 153 149 245 255 185 139 
184 197 143 144 169 205 150 151 252 255 140 161 255 255 255 181 137 253 
254 140 143 178 209 168 140 190 255 237 145 210 230 165 145 188 222 240 
139 198 255 213 143 173 221 213 155 143 226 251 160 156 223 228 190 196 
255 255 255 255 255 255 255 255 255 255 255 255 255 255 255 255 255 255 
255 255 255 255 255 255 255 255 255 255 255 255 255 255 255 255 255 255 
255 255 255 255 255 255 255 255 255 255 255 254 255 255 255 254 255 255 
254 255 255 255 255 255 255 255 255 255 254 255 255 254 224 217 218 145 
 78  78  79  79  80  79  81  79  70 253 255 255 253 255 243 152 121 148 
233 255 249 230 213 218 218 214 198 136  74  74  77  78  81  78  79  77 
 79  78  80  79  78  79  76  79  83  91 144 239 233 220 223 165  92  69 
 61  59  60  60  60  60  62  62  62  61  62  61  60  60  58  52 106 206 
244 255 255 234 216 218 217 222 158 114 123 201 255 255 237 216 223 107 
 59  62  60  62  62  61  61  61  89 251 255 255 255 255 255 255 255 255 
255 255 255 255 255 255 255 255 255 255 172 141 224 255 255 254 255 255 
255 255 231 143 184 254 254 255 215 139 181 255 140 143 255 255 255 157 
137 255 255 138 157 254 255 254 149 146 255 200 143 209 247 244 244 157 
144 253 186 145 223 255 254 254 208 255 255 149 165 255 255 203 143 231 
251 155 160 255 255 255 162 157 251 191 145 220 255 255 253 149 137 255 
254 255 255 255 217 142 191 255 255 254 212 255 241 139 164 255 255 255 
227 143 175 255 153 156 255 255 185 141 232 255 208 140 238 255 147 154 
255 255 184 146 235 255 198 138 240 255 140 161 255 255 255 181 136 252 
255 138 156 255 255 255 148 148 255 236 144 209 255 194 145 243 255 241 
138 200 255 156 145 241 246 248 227 145 172 254 156 160 242 248 255 255 
255 255 255 255 255 255 255 255 255 255 255 255 255 255 255 255 255 255 
255 255 255 255 255 255 255 255 255 255 255 255 255 255 255 255 255 255 
255 255 255 255 255 255 255 255 255 255 255 254 254 255 253 254 255 254 
254 255 255 255 255 255 255 255 255 255 255 255 255 254 224 217 218 155 
 78  78  79  79  80  79  79  78  74 208 254 254 255 255 255 255 254 255 
241 221 218 216 217 225 161  97  81  78  78  81  79  78  80  80  77  78 
 77  78  75  77  77  73  96 161 192 202 203 230 217 216 218 206 203 195 
178 110  53  59  60  62  61  62  62  61  61  60  62  61  60  62  59  60 
 76 135 253 254 250 237 227 228 244 255 254 255 253 254 219 216 219  62 
 58  61  62  62  61  61  61  60  97 251 255 254 255 254 255 255 255 255 
255 255 255 255 255 255 254 255 255 255 183 143 212 254 255 255 255 255 
255 254 203 141 221 255 255 255 255 147 144 255 140 161 255 253 255 181 
138 251 254 137 177 255 254 255 164 148 255 167 145 148 148 148 148 143 
139 229 172 153 247 254 255 254 255 255 255 151 162 255 254 204 143 231 
253 154 168 254 254 254 168 157 253 173 147 243 254 254 255 190 136 255 
255 255 255 255 182 140 239 255 255 255 255 255 205 138 217 255 254 255 
255 142 148 255 153 161 255 255 197 141 236 255 213 141 227 255 145 168 
255 255 198 145 241 255 201 140 237 255 140 162 255 255 255 181 137 253 
255 138 178 255 254 254 171 149 253 236 143 209 254 193 145 241 255 241 
137 200 252 138 145 149 148 147 148 143 146 255 204 137 145 153 159 209 
255 255 255 255 255 255 255 255 255 255 255 255 255 255 255 255 255 255 
255 255 255 255 255 255 255 255 255 255 255 255 255 255 255 255 255 255 
255 255 255 255 255 255 255 255 255 255 255 255 255 254 255 255 255 255 
255 255 255 255 255 255 255 255 255 255 255 255 255 254 225 216 217 165 
 77  78  78  79  79  79  79  78  78 173 253 255 254 254 254 255 243 222 
216 217 217 212 165  92  73  78  78  79  79  78  79  79  79  81  80  78 
 80  80  76  89 128 179 209 203 202 204 203 201 215 217 209 202 205 203 
203 208 199 138  88  55  58  61  61  60  62  61  59  61  60  61  63  61 
 61  56  55 151 230 255 255 255 255 252 254 255 255 250 214 217 195  61 
 62  60  60  62  61  61  61  61 105 252 255 255 255 255 255 255 255 255 
255 255 255 255 255 255 255 255 255 255 221 145 166 255 255 253 255 253 
230 255 211 141 211 254 254 255 253 140 156 255 140 160 255 255 255 181 
137 252 255 138 176 255 255 255 165 148 255 177 142 201 215 215 216 218 
216 245 176 148 244 255 254 255 255 255 255 148 163 255 255 203 143 232 
251 156 167 254 254 253 169 156 252 182 146 236 255 255 255 166 138 254 
255 255 255 255 193 140 224 254 255 255 255 255 218 137 198 255 254 253 
255 141 157 255 153 160 255 255 197 142 236 255 213 141 228 255 144 169 
254 255 196 145 241 255 203 138 239 255 143 154 255 254 255 175 137 252 
255 137 178 255 255 255 170 149 254 236 144 209 255 193 145 243 255 240 
138 200 255 140 147 218 215 215 216 219 216 255 255 243 208 187 155 141 
255 255 255 255 255 255 255 255 255 255 255 255 255 255 255 255 255 255 
255 255 255 255 255 255 255 255 255 255 255 255 255 255 255 255 255 255 
255 255 255 255 255 255 255 255 255 255 255 255 254 254 255 255 255 255 
255 255 255 255 255 255 255 255 255 255 255 255 255 255 223 217 217 167 
 77  78  79  79  79  79  79  78  78 141 254 253 255 255 248 220 216 216 
218 217 181  85  78  80  78  79  77  79  79  80  81  78  78  78  80  80 
 81  82 161 205 203 203 204 201 203 203 202 202 211 217 203 204 202 203 
204 203 202 203 203 188  89  60  60  60  60  62  62  59  63  60  61  62 
 62  61  59  61  60 151 255 255 255 255 255 254 254 238 216 216 175  61 
 60  61  63  62  61  61  61  62 112 253 255 255 255 255 255 255 255 255 
255 255 255 255 255 255 254 255 255 255 251 155 145 160 245 254 251 175 
144 205 244 148 155 251 254 253 170 141 213 255 139 161 254 255 255 181 
138 251 255 137 177 255 255 255 163 148 255 225 146 181 255 254 252 159 
216 253 205 145 170 255 254 244 145 230 255 157 141 249 255 203 143 232 
252 155 168 254 255 253 170 155 252 214 146 162 250 255 208 146 138 255 
255 255 255 255 238 145 163 253 254 250 155 215 255 148 149 239 255 255 
187 145 202 255 153 160 255 255 197 140 236 255 213 141 228 255 145 166 
255 255 196 145 241 255 203 138 239 255 174 141 214 254 236 143 150 255 
255 136 177 255 255 253 172 149 254 236 145 209 255 202 142 214 255 242 
138 200 255 177 145 219 255 253 231 159 241 255 198 234 255 255 225 142 
255 255 255 255 255 255 255 255 255 255 255 255 255 255 255 255 255 255 
255 255 255 255 255 255 255 255 255 255 255 255 255 255 255 255 255 255 
255 255 255 255 255 255 255 255 255 255 255 255 255 255 255 255 255 254 
254 254 255 255 255 255 255 255 255 255 255 255 255 254 222 217 217 167 
 77  78  79  79  79  79  79  78  80 118 255 254 255 231 216 216 215 222 
190 108  75  79  79  77  77  79  79  79  80  79  78  78  79  81  70 106 
173 217 219 202 202 202 204 201 203 202 202 203 203 212 201 205 203 204 
203 203 202 203 203 204 222 190 123  56  60  60  60  60  60  61  61  61 
 61  61  60  60  62  56  80 175 255 253 255 255 254 228 216 216 155  59 
 60  61  62  60  61  61  61  61 114 254 255 254 255 255 255 255 255 255 
255 255 255 255 255 255 255 255 255 254 255 245 165 141 143 151 142 140 
157 239 255 204 139 147 164 154 140 175 254 255 138 159 255 255 254 181 
135 252 254 136 177 255 255 255 162 145 254 252 183 136 159 171 152 138 
206 255 255 180 140 151 163 146 143 216 254 234 143 146 235 202 140 230 
250 153 168 253 255 254 166 154 250 254 184 138 142 146 140 169 135 255 
255 254 255 254 254 195 136 148 164 150 137 200 254 217 137 145 163 156 
138 163 249 255 151 159 255 255 195 139 235 255 212 140 227 255 143 166 
255 255 195 143 240 255 201 136 238 255 242 147 143 157 145 142 221 255 
254 135 177 255 255 254 171 147 254 236 142 208 255 249 156 142 195 240 
136 198 255 243 150 142 165 167 143 150 237 249 149 142 170 176 146 160 
255 255 255 255 255 255 255 255 255 255 255 255 255 255 255 255 255 255 
255 255 255 255 255 255 255 255 255 255 255 255 255 255 255 255 255 255 
255 255 255 255 255 255 255 255 255 255 255 255 255 255 255 255 255 255 
255 254 255 255 255 255 255 255 255 255 255 254 255 253 221 217 217 167 
 77  78  79  79  78  79  79  78  78  96 255 244 216 216 217 215 213 153 
 75  79  80  79  78  79  79  80  79  80  79  80  78  80  77  94 186 254 
217 217 218 205 201 204 202 203 205 204 203 203 202 201 203 202 203 203 
203 203 203 203 201 232 222 215 221 196  93  61  61  60  61  62  62  61 
 61  62  61  62  62  62  59  56 113 238 254 253 254 223 215 219 129  62 
 62  61  60  62  62  61  61  60 115 254 255 253 255 255 255 255 255 255 
255 255 255 255 255 255 254 255 255 255 255 253 255 211 170 162 168 208 
255 255 254 255 235 172 162 166 210 255 255 255 187 198 255 255 255 211 
184 253 255 184 209 255 255 255 201 191 254 254 255 220 169 162 176 243 
255 254 254 255 216 168 163 176 239 255 254 255 242 176 251 224 188 240 
252 195 202 255 255 254 203 195 251 255 255 228 190 192 242 176 144 255 
255 255 255 255 254 255 226 170 163 171 231 255 255 254 241 176 162 164 
206 255 255 253 195 198 255 255 220 186 245 255 230 186 239 255 190 201 
255 255 220 189 247 254 223 185 245 255 255 243 177 162 171 230 255 254 
255 185 208 255 255 255 205 192 254 242 191 227 254 254 255 183 232 247 
185 221 255 254 255 192 164 162 195 255 255 255 255 193 164 162 184 252 
255 255 255 255 255 255 255 255 255 255 255 255 255 255 255 255 255 255 
255 255 255 255 255 255 255 255 255 255 255 255 255 255 255 255 255 255 
255 255 255 255 255 255 255 255 255 255 255 255 255 255 255 255 255 255 
255 255 255 255 255 255 255 255 255 255 255 255 255 253 219 217 216 166 
 77  78  79  79  79  79  79  78  78  77 229 215 216 217 219 200  95  78 
 79  79  80  78  80  79  79  79  79  79  78  78  80  73 179 250 255 255 
226 217 217 211 202 202 203 203 204 203 204 203 202 202 203 203 203 203 
202 202 203 204 206 255 254 240 215 218 216 190  76  59  60  60  60  60 
 62  61  60  62  60  63  59  61  60  67 179 255 254 218 216 222 102  61 
 62  63  61  61  61  61  61  61 114 254 255 255 255 255 255 255 255 255 
255 255 255 255 255 255 255 255 255 255 255 255 255 255 255 254 255 255 
255 255 255 254 255 255 254 255 254 254 255 255 254 255 254 254 254 255 
255 255 254 255 255 254 255 254 255 255 255 255 253 255 254 254 255 255 
254 255 255 255 255 255 254 255 255 254 255 255 255 255 254 255 255 255 
255 255 255 255 255 255 255 255 255 254 208 179 255 255 208 145 186 255 
255 255 255 255 255 254 255 255 254 254 255 254 255 254 254 255 254 255 
255 255 255 255 255 255 255 255 255 255 255 255 255 255 255 255 255 254 
254 254 255 255 255 254 254 255 255 254 254 255 255 254 255 254 254 254 
255 255 255 254 255 255 255 255 255 255 255 255 255 255 255 255 255 255 
255 255 255 255 255 255 255 255 255 255 255 255 255 255 255 255 255 255 
255 255 255 255 255 255 255 255 255 255 255 255 255 255 255 255 255 255 
255 255 255 255 255 255 255 255 255 255 255 255 255 255 255 255 255 255 
255 255 255 255 255 255 255 255 255 255 255 255 255 255 255 255 255 255 
255 255 255 255 255 255 255 255 255 255 255 255 255 253 217 217 216 163 
 77  78  79  79  79  79  79  78  80  71 200 218 216 224 156  75  78  78 
 78  78  80  78  80  80  80  78  80  78  80  73 129 235 255 254 255 254 
235 216 218 214 202 204 203 204 203 203 203 203 203 203 203 202 202 203 
203 203 203 200 224 255 253 255 250 225 215 218 218 135  63  60  62  59 
 62  61  61  61  62  61  60  61  62  60  52 124 243 216 218 223  81  61 
 61  61  60  61  61  61  60  62 106 251 253 255 254 255 255 255 255 255 
255 255 255 255 255 255 255 255 254 255 255 255 255 254 255 254 255 255 
255 255 254 255 255 254 255 255 255 255 255 255 255 255 254 255 254 255 
255 255 255 254 255 255 255 255 255 255 255 255 255 255 255 255 255 255 
254 255 255 255 255 255 255 255 255 255 255 255 254 255 255 254 254 255 
254 255 255 255 255 254 255 255 255 251 173 140 138 140 137 164 245 254 
255 255 254 255 254 255 255 254 255 255 255 255 255 255 255 255 255 255 
255 255 255 255 255 255 255 255 255 255 255 255 255 255 255 255 255 255 
255 255 255 255 255 255 255 255 255 255 255 255 255 255 255 255 254 255 
255 255 255 254 255 255 255 255 255 255 255 255 255 255 255 255 255 255 
255 255 255 255 255 255 255 255 255 255 255 255 255 255 255 255 255 255 
255 255 255 255 255 255 255 255 255 255 255 255 255 255 255 255 255 255 
255 255 255 255 255 255 255 255 255 255 255 255 255 255 255 255 255 255 
255 255 255 255 255 255 255 255 255 255 255 255 255 255 255 255 255 255 
255 255 255 255 255 255 255 255 255 255 255 255 255 248 216 217 218 157 
 78  78  79  79  79  79  79  78  78  74 176 219 212 109  77  78  77  81 
 78  80  80  80  77  78  78  78  79  80  76 186 254 253 254 255 255 255 
243 215 216 217 203 204 203 204 203 203 203 203 203 203 203 203 203 203 
203 203 202 202 238 254 255 255 252 255 238 217 216 216 201  74  58  62 
 61  63  61  62  62  61  63  61  60  62  59  60  63 198 217 225  63  62 
 61  61  61  61  60  61  61  62  99 252 254 255 255 255 255 255 255 255 
255 255 255 255 255 255 254 255 255 255 255 255 255 254 255 255 255 254 
255 255 255 255 255 255 255 255 255 255 255 254 255 255 255 255 254 255 
255 255 255 255 254 255 255 255 254 255 255 255 255 255 254 255 255 255 
255 255 255 254 255 254 255 254 255 255 255 254 255 255 255 255 255 255 
255 255 255 254 254 255 255 255 255 255 255 232 187 181 222 254 254 255 
255 255 255 254 255 255 255 255 255 255 255 255 255 255 255 255 255 255 
255 255 255 255 255 255 255 255 255 255 255 255 255 255 255 255 255 255 
255 255 255 255 255 255 255 255 255 255 255 255 255 255 255 255 255 255 
255 255 255 255 255 255 255 255 255 255 255 255 255 255 255 255 255 255 
255 255 255 255 255 255 255 255 255 255 255 255 255 255 255 255 255 255 
255 255 255 255 255 255 255 255 255 255 255 255 255 255 255 255 255 255 
255 255 255 255 255 255 255 255 255 255 255 255 255 255 255 255 255 255 
255 255 255 255 255 255 255 255 255 255 255 255 255 255 255 255 255 255 
255 255 255 255 255 255 255 255 255 255 255 255 255 237 216 216 217 144 
 78  78  79  79  79  79  79  78  79  75 156 196  97  77  79  79  78  79 
 80  79  79  80  79  79  79  78  75 109 234 255 255 254 254 255 255 255 
251 216 218 217 207 202 203 202 203 204 203 204 203 203 203 203 203 203 
203 203 202 203 250 254 255 255 255 254 255 247 220 217 217 214 137  52 
 62  61  62  61  61  61  62  62  62  61  59  61  61  65 152 221  50  61 
 61  60  61  62  61  61  61  61  91 251 255 255 255 255 255 255 255 255 
255 255 255 255 255 255 255 255 255 255 255 254 255 255 255 255 254 255 
255 255 255 255 254 255 255 255 255 255 255 255 255 255 255 254 255 255 
255 255 255 255 255 255 255 255 255 254 255 255 255 254 255 255 255 255 
254 255 255 255 255 255 254 255 255 254 255 255 255 255 255 255 255 254 
255 255 255 255 255 254 255 255 255 255 255 255 255 255 255 255 255 255 
255 255 255 255 254 255 254 255 254 255 255 255 255 255 255 255 255 255 
255 255 255 255 255 255 255 255 255 255 255 255 255 255 255 255 255 255 
255 255 255 255 255 255 255 255 255 255 255 255 255 255 255 255 255 255 
255 255 255 255 255 255 255 255 255 255 255 255 255 255 255 255 255 255 
255 255 255 255 255 255 255 255 255 255 255 255 255 255 255 255 255 255 
255 255 255 255 255 255 255 255 255 255 255 255 255 255 255 255 255 255 
255 255 255 255 255 255 255 255 255 255 255 255 255 255 255 255 255 255 
255 255 255 255 255 255 255 255 255 255 255 255 255 255 255 255 255 255 
255 255 255 255 255 255 255 255 255 255 255 255 255 224 217 216 217 131 
 78  78  79  79  79  79  79  78  80  77 119  86  79  79  80  80  79  79 
 80  79  80  79  78  78  78  77 142 254 254 255 255 255 255 255 254 255 
255 217 215 216 214 200 202 201 204 202 203 203 203 203 203 203 203 203 
203 203 201 206 255 254 254 255 255 255 254 254 253 224 217 217 222 170 
 68  60  62  60  61  62  60  62  60  61  62  61  61  61  57 136  55  62 
 61  60  61  62  61  61  61  61  79 248 255 255 255 255 255 255 255 255 
255 255 255 255 255 255 255 255 255 255 254 255 249 255 254 251 251 255 
255 255 255 255 255 255 255 255 255 254 255 254 255 255 255 255 255 255 
255 255 255 255 255 255 255 255 254 255 255 254 255 255 255 254 255 254 
255 252 251 253 255 255 255 255 253 255 254 255 255 255 254 249 253 255 
254 255 253 251 251 255 255 251 251 251 251 250 254 255 255 255 255 255 
255 255 245 243 251 255 255 254 255 255 255 255 255 255 255 255 255 255 
255 255 255 255 255 255 255 255 255 255 255 255 255 255 255 255 255 255 
255 255 255 255 255 255 255 255 255 255 255 255 255 255 255 255 255 255 
255 255 255 255 255 255 255 255 255 255 255 255 255 255 255 255 255 255 
255 255 255 255 255 255 255 255 255 255 255 255 255 255 255 255 255 255 
255 255 255 255 255 255 255 255 255 255 255 255 255 255 255 255 255 255 
255 255 255 255 255 255 255 255 255 255 255 255 255 255 255 255 255 255 
255 255 255 255 255 255 255 255 255 255 255 255 255 255 255 255 255 255 
255 255 255 255 255 255 255 255 255 255 255 254 254 216 216 216 219 115 
 78  78  79  79  79  79  80  78  78  80  79  77  80  78  79  80  79  80 
 81  79  79  79  78  79  76 199 255 254 255 254 255 255 254 255 254 255 
255 223 217 217 216 202 202 203 204 204 203 203 203 203 203 203 203 203 
203 203 201 222 255 255 254 254 255 255 255 254 255 254 232 218 216 218 
206  73  64  62  63  61  62  62  62  62  62  61  63  61  60  60  61  61 
 60  61  62  62  61  60  61  62  61 251 255 254 255 255 255 255 255 255 
255 255 255 255 255 255 255 255 255 255 248 159 181 255 255 168 145 255 
255 255 255 255 255 254 255 255 254 255 254 255 255 255 255 255 255 255 
254 255 255 255 255 255 255 255 255 255 255 255 255 254 255 255 255 254 
255 191 143 249 255 255 255 255 255 255 255 255 255 255 207 147 211 255 
255 255 245 156 173 255 254 167 152 151 152 152 152 187 255 254 253 255 
211 154 150 149 152 182 255 254 255 255 255 255 255 255 255 255 255 255 
255 255 255 255 255 255 255 255 255 255 255 255 255 255 255 255 255 255 
255 255 255 255 255 255 255 255 255 255 255 255 255 255 255 255 255 255 
255 255 255 255 255 255 255 255 255 255 255 255 255 255 255 255 255 255 
255 255 255 255 255 255 255 255 255 255 255 255 255 255 255 255 255 255 
255 255 255 255 255 255 255 255 255 255 255 255 255 255 255 255 255 255 
255 255 255 255 255 255 255 255 255 255 255 255 255 255 255 255 255 255 
255 255 255 255 255 255 255 255 255 255 255 255 255 255 255 255 255 255 
255 255 255 255 255 255 255 255 255 255 255 254 247 215 216 217 221  95 
 79  78  79  79  79  79  80  79  77  80  77  79  79  79  80  79  79  81 
 79  80  80  80  80  82 203 255 255 253 254 255 254 255 254 255 255 254 
254 233 216 216 217 205 202 202 203 203 203 203 203 203 203 203 203 203 
203 203 200 238 255 254 255 255 254 255 255 255 255 255 254 233 218 216 
217 206  93  58  62  62  61  61  62  63  61  63  63  62  62  62  61  62 
 63  63  62  62  63  62  62  63  53 228 255 255 255 255 255 255 255 255 
255 255 255 255 255 255 255 255 255 254 249 151 179 255 255 164 138 255 
255 255 255 255 255 254 255 254 255 255 255 255 255 255 255 255 255 255 
254 255 255 255 255 255 255 255 255 255 254 255 255 255 255 255 255 255 
254 188 137 248 255 255 255 255 255 254 255 255 255 255 206 139 208 255 
255 255 243 149 168 255 255 161 144 160 162 162 149 142 169 255 255 185 
142 144 170 175 153 142 155 245 254 255 255 255 255 255 255 255 255 255 
255 255 255 255 255 255 255 255 255 255 255 255 255 255 255 255 255 255 
255 255 255 255 255 255 255 255 255 255 255 255 255 255 255 255 255 255 
255 255 255 255 255 255 255 255 255 255 255 255 255 255 255 255 255 255 
255 255 255 255 255 255 255 255 255 255 255 255 255 255 255 255 255 255 
255 255 255 255 255 255 255 255 255 255 255 255 255 255 255 255 255 255 
255 255 255 255 255 255 255 255 255 255 255 255 255 255 255 255 255 255 
255 255 255 255 255 255 255 255 255 255 255 255 255 255 255 255 255 255 
255 255 255 255 255 255 255 255 255 255 255 254 238 216 216 216 221  76 
 79  78  79  79  79  79  80  79  79  80  79  80  79  80  78  79  80  77 
 78  78  78  80  86 231 255 254 254 254 254 255 255 255 254 255 254 254 
255 239 216 217 217 207 202 202 202 203 203 204 203 203 203 203 203 203 
203 203 201 251 255 255 255 254 254 255 255 255 255 254 253 255 231 216 
217 217 216  90  61  61  61  63  62  62  62  63  63  62  62  63  62  62 
 61  62  62  62  62  62  62  62  57 175 255 253 255 255 255 255 255 255 
255 255 255 255 255 255 255 254 255 255 182 147 156 182 254 162 140 236 
160 145 195 253 255 255 184 195 168 162 253 251 193 151 145 177 240 255 
255 229 179 232 255 255 243 183 214 254 255 240 173 144 160 235 177 210 
255 187 137 237 171 142 178 247 255 255 255 255 255 255 205 140 207 255 
255 255 243 149 168 255 255 160 142 246 255 255 253 156 140 240 203 144 
145 235 255 255 255 169 173 253 255 254 255 255 255 255 255 255 255 255 
255 255 255 255 255 255 255 255 255 255 255 255 255 255 255 255 255 255 
255 255 255 255 255 255 255 255 255 255 255 255 255 255 255 255 255 255 
255 255 255 255 255 255 255 255 255 255 255 255 255 255 255 255 255 255 
255 255 255 255 255 255 255 255 255 255 255 255 255 255 255 255 255 255 
255 255 255 255 255 255 255 255 255 255 255 255 255 255 255 255 255 255 
255 255 255 255 255 255 255 255 255 255 255 255 255 255 255 255 255 255 
255 255 255 255 255 255 255 255 255 255 255 255 255 255 255 255 255 255 
255 255 255 255 255 255 255 255 255 255 255 254 227 218 216 218 186  73 
 79  77  79  79  78  79  79  79  79  79  79  79  79  79  79  79  79  78 
 80  78  78  84 227 255 255 255 255 255 255 255 255 255 255 255 254 255 
255 242 217 217 217 210 201 202 204 203 203 203 203 203 203 203 203 203 
203 203 203 254 254 254 255 255 255 255 255 255 254 255 255 255 254 236 
216 217 217 214 103  60  62  62  63  63  61  63  62  62  63  61  62  62 
 62  62  62  62  62  62  63  62  60 112 255 255 255 255 255 255 255 255 
255 255 255 255 255 254 255 255 255 255 152 145 146 147 250 163 145 144 
157 145 143 181 255 255 151 146 153 177 247 153 141 162 166 140 146 217 
255 216 142 223 255 254 237 146 193 255 213 145 139 166 154 145 143 187 
255 188 142 148 151 151 143 160 255 254 255 255 255 255 211 140 213 255 
255 255 250 150 169 255 255 161 141 244 255 255 255 194 139 215 166 145 
231 255 254 255 255 250 254 255 254 255 255 255 255 255 255 255 255 255 
255 255 255 255 255 255 255 255 255 255 255 255 255 255 255 255 255 255 
255 255 255 255 255 255 255 255 255 255 255 255 255 255 255 255 255 255 
255 255 255 255 255 255 255 255 255 255 255 255 255 255 255 255 255 255 
255 255 255 255 255 255 255 255 255 255 255 255 255 255 255 255 255 255 
255 255 255 255 255 255 255 255 255 255 255 255 255 255 255 255 255 255 
255 255 255 255 255 255 255 255 255 255 255 255 255 255 255 255 255 255 
255 255 255 255 255 255 255 255 255 255 255 255 255 255 255 255 255 255 
255 255 255 254 255 255 255 255 255 255 255 254 217 217 218 220 135  77 
 79  78  79  79  78  79  79  79  79  79  79  79  79  79  79  79  79  79 
 80  80  83 220 255 254 255 255 255 255 255 255 255 255 255 255 255 255 
255 245 215 217 217 210 201 202 204 203 203 204 203 203 203 203 203 203 
203 203 206 255 254 254 255 255 255 255 255 255 255 255 255 254 255 254 
231 216 218 216 211  89  59  61  63  60  62  61  62  62  61  63  62  62 
 62  62  62  62  62  62  62  62  62  60 255 254 254 254 255 255 255 255 
255 255 255 255 255 255 255 255 255 254 251 153 180 255 255 163 143 215 
255 255 157 137 247 255 152 155 255 255 162 143 208 255 254 235 148 147 
249 215 143 221 255 254 237 147 194 254 159 148 231 255 255 185 144 190 
254 188 143 183 254 255 177 137 227 254 255 255 255 202 139 146 141 137 
135 137 138 145 168 255 255 159 141 240 251 250 241 157 141 240 149 157 
249 255 255 254 255 255 255 255 255 255 255 255 255 255 255 255 255 255 
255 255 255 255 255 255 255 255 255 255 255 255 255 255 255 255 255 255 
255 255 255 255 255 255 255 255 255 255 255 255 255 255 255 255 255 255 
255 255 255 255 255 255 255 255 255 255 255 255 255 255 255 255 255 255 
255 255 255 255 255 255 255 255 255 255 255 255 255 255 255 255 255 255 
255 255 255 255 255 255 255 255 255 255 255 255 255 255 255 255 255 255 
255 255 255 255 255 255 255 255 255 255 255 255 255 255 255 255 255 255 
255 255 255 255 255 255 255 255 255 255 255 255 255 255 255 255 255 255 
255 255 255 255 255 254 255 255 255 255 255 242 214 218 215 219  89  78 
 79  78  79  79  78  79  79  79  79  79  79  79  79  80  79  78  78  79 
 78  75 226 255 254 254 255 255 255 255 255 255 255 255 255 255 255 255 
255 247 215 217 216 210 203 202 204 203 204 203 203 203 203 203 203 203 
203 203 209 254 254 255 255 255 254 255 255 255 255 254 255 255 254 255 
255 229 218 217 218 217  83  64  62  63  63  63  62  63  62  62  62  62 
 62  62  62  62  62  62  62  62  63  57 221 254 255 255 255 255 255 255 
255 255 255 255 255 255 255 255 255 255 244 151 178 255 254 163 139 255 
255 255 201 141 234 254 152 158 255 244 148 171 254 255 254 255 193 146 
233 216 142 223 255 255 238 147 194 254 144 168 254 254 254 249 139 189 
255 188 137 245 254 254 228 137 207 255 254 255 255 210 149 145 152 156 
157 155 155 147 169 254 159 146 145 150 149 149 148 146 168 255 151 154 
249 255 255 255 255 254 255 255 254 255 255 255 255 255 255 255 255 255 
255 255 255 255 255 255 255 255 255 255 255 255 255 255 255 255 255 255 
255 255 255 255 255 255 255 255 255 255 255 255 255 255 255 255 255 255 
255 255 255 255 255 255 255 255 255 255 255 255 255 255 255 255 255 255 
255 255 255 255 255 255 255 255 255 255 255 255 255 255 255 255 255 255 
255 255 255 255 255 255 255 255 255 255 255 255 255 255 255 255 255 255 
255 255 255 255 255 255 255 255 255 255 255 255 255 255 255 255 255 255 
255 255 255 255 255 255 255 255 255 255 255 255 255 255 255 255 255 255 
255 255 255 255 255 255 255 254 255 255 255 221 216 217 218 200  81  79 
 79  78  79  79  79  79  79  79  79  79  79  79  79  80  79  78  80  80 
 70 184 255 254 255 255 255 255 255 255 255 255 255 255 255 255 255 255 
255 247 215 217 216 212 203 202 203 203 203 203 203 203 203 203 203 203 
203 203 211 253 255 255 255 255 255 255 255 254 255 255 255 255 255 255 
255 253 223 215 216 218 198  62  62  62  62  63  62  62  62  63  62  62 
 62  62  62  62  62  62  62  64  60  63 179 254 255 255 255 255 255 255 
255 255 255 255 255 255 255 254 255 254 246 151 177 255 255 163 137 255 
255 255 202 140 233 255 153 157 255 240 147 176 255 254 255 254 196 146 
231 215 144 223 255 254 237 148 193 253 143 171 255 255 254 253 138 189 
255 188 136 249 254 255 229 136 209 255 254 255 255 255 209 140 211 255 
255 254 248 150 167 255 173 147 145 161 164 163 170 197 250 254 163 147 
233 255 254 255 255 255 255 255 255 255 255 255 255 255 255 255 255 255 
255 255 255 255 255 255 255 255 255 255 255 255 255 255 255 255 255 255 
255 255 255 255 255 255 255 255 255 255 255 255 255 255 255 255 255 255 
255 255 255 255 255 255 255 255 255 255 255 255 255 255 255 255 255 255 
255 255 255 255 255 255 255 255 255 255 255 255 255 255 255 255 255 255 
255 255 255 255 255 255 255 255 255 255 255 255 255 255 255 255 255 255 
255 255 255 255 255 255 255 255 255 255 255 255 255 255 255 255 255 255 
255 255 255 255 255 255 255 255 255 255 255 255 255 255 255 255 255 255 
255 255 255 255 254 255 254 255 255 255 248 217 217 216 217 180  80  79 
 79  79  79  79  79  79  79  79  79  79  79  79  79  79  79  78  80  77 
153 254 255 255 255 255 255 255 255 255 255 255 255 255 255 255 255 255 
255 245 215 217 217 212 201 202 203 204 203 203 203 203 203 203 203 203 
203 203 212 253 255 255 255 255 255 255 255 255 255 255 255 254 255 255 
255 255 253 220 217 217 217 192  61  63  62  61  62  62  62  62  62  62 
 62  62  62  62  62  62  63  62  62  61 126 255 253 255 255 255 255 255 
255 255 255 255 255 255 254 255 255 255 247 152 171 255 255 163 138 255 
255 255 202 140 233 254 152 158 255 254 151 143 244 255 254 253 161 149 
242 231 144 196 255 255 220 144 201 253 158 150 240 253 254 196 143 189 
254 188 137 249 255 255 229 138 208 254 255 255 254 255 206 139 210 255 
254 255 243 149 168 255 254 162 140 248 254 255 255 255 254 255 202 144 
145 243 253 255 250 181 183 254 255 255 255 255 255 255 255 255 255 255 
255 255 255 255 255 255 255 255 255 255 255 255 255 255 255 255 255 255 
255 255 255 255 255 255 255 255 255 255 255 255 255 255 255 255 255 255 
255 255 255 255 255 255 255 255 255 255 255 255 255 255 255 255 255 255 
255 255 255 255 255 255 255 255 255 255 255 255 255 255 255 255 255 255 
255 255 255 255 255 255 255 255 255 255 255 255 255 255 255 255 255 255 
255 255 255 255 255 255 255 255 255 255 255 255 255 255 255 255 255 255 
255 255 255 255 255 255 255 255 255 255 255 255 255 255 255 255 255 255 
255 255 255 255 255 255 255 255 254 255 234 217 216 216 222 130  79  79 
 79  79  79  79  79  79  79  79  79  79  79  79  79  79  79  78  80 100 
252 254 254 255 255 255 255 255 255 255 255 255 255 255 255 255 255 254 
255 243 216 217 218 211 201 202 203 204 204 203 203 203 203 203 203 203 
203 203 214 253 254 255 255 255 255 255 255 255 255 255 255 255 255 254 
254 254 254 243 213 217 218 215 135  57  62  63  63  61  64  62  62  62 
 62  62  62  62  62  62  62  62  62  61  65 255 254 254 255 255 255 255 
255 255 255 255 255 255 255 254 255 255 255 167 144 173 253 163 137 255 
254 255 201 138 233 255 153 157 255 255 230 141 150 182 187 157 138 194 
255 247 148 147 169 171 147 140 244 254 206 139 151 166 162 145 144 189 
255 187 138 247 255 255 229 137 209 255 254 255 255 255 207 140 208 255 
255 255 244 150 168 255 255 161 141 246 255 255 254 255 255 254 254 185 
144 148 164 167 156 145 150 250 255 255 255 255 255 255 255 255 255 255 
255 255 255 255 255 255 255 255 255 255 255 255 255 255 255 255 255 255 
255 255 255 255 255 255 255 255 255 255 255 255 255 255 255 255 255 255 
255 255 255 255 255 255 255 255 255 255 255 255 255 255 255 255 255 255 
255 255 255 255 255 255 255 255 255 255 255 255 255 255 255 255 255 255 
255 255 255 255 255 255 255 255 255 255 255 255 255 255 255 255 255 255 
255 255 255 255 255 255 255 255 255 255 255 255 255 255 255 255 255 255 
255 255 255 255 255 255 255 255 255 255 255 255 255 255 255 255 255 255 
255 255 255 255 255 255 255 254 255 253 216 216 217 217 218  75  78  79 
 79  79  79  79  79  79  79  79  79  79  79  79  79  79  79  78  81 236 
255 255 254 253 255 254 255 255 255 255 255 255 255 255 255 254 255 255 
255 237 216 217 217 211 201 202 203 204 203 204 203 203 203 203 203 203 
203 203 213 253 255 255 255 255 255 255 255 254 255 255 254 255 255 255 
255 255 255 255 233 215 216 215 224  96  60  61  62  63  62  63  62  62 
 62  62  62  62  62  62  63  62  62  63  53 187 254 254 255 255 255 255 
255 255 255 255 255 255 255 255 255 255 254 255 181 157 255 176 156 254 
255 255 210 156 236 255 166 172 254 255 254 220 165 149 147 160 204 255 
255 255 240 168 151 150 165 234 255 254 255 217 168 161 169 227 139 191 
255 195 153 249 255 255 232 154 216 255 255 254 255 255 212 157 214 255 
255 254 245 164 180 255 255 174 158 245 255 255 255 255 254 255 254 255 
203 163 151 148 157 179 247 255 255 255 255 255 255 255 255 255 255 255 
255 255 255 255 255 255 255 255 255 255 255 255 255 255 255 255 255 255 
255 255 255 255 255 255 255 255 255 255 255 255 255 255 255 255 255 255 
255 255 255 255 255 255 255 255 255 255 255 255 255 255 255 255 255 255 
255 255 255 255 255 255 255 255 255 255 255 255 255 255 255 255 255 255 
255 255 255 255 255 255 255 255 255 255 255 255 255 255 255 255 255 255 
255 255 255 255 255 255 255 255 255 255 255 255 255 255 255 255 255 255 
255 255 255 255 255 255 255 255 255 255 255 255 255 255 255 255 255 255 
255 255 255 255 255 255 255 255 255 229 216 217 217 217 157  75  78  79 
 79  79  79  79  79  79  79  79  79  79  79  79  78  78  78  79 188 255 
253 255 255 254 255 255 255 255 255 255 255 255 255 255 255 255 254 255 
255 230 215 216 216 211 203 203 203 205 203 203 203 203 203 203 203 203 
203 203 211 253 254 254 255 255 255 254 255 255 255 255 255 255 255 255 
254 255 255 255 251 217 217 217 217 201  68  62  61  63  60  62  62  62 
 62  62  62  62  62  62  62  63  63  61  62  84 255 254 255 255 255 255 
255 255 255 255 255 255 255 255 255 254 254 255 254 253 255 255 252 254 
254 255 253 254 254 255 253 254 255 254 254 255 254 253 254 254 255 254 
255 255 255 254 253 253 254 255 253 255 254 232 251 254 255 200 143 226 
255 255 253 254 255 255 255 253 254 255 255 255 254 255 255 253 254 255 
255 255 254 253 254 255 255 254 253 254 254 255 255 255 255 255 255 255 
254 254 254 254 252 255 254 254 255 255 255 255 255 255 255 255 255 255 
255 255 255 255 255 255 255 255 255 255 255 255 255 255 255 255 255 255 
255 255 255 255 255 255 255 255 255 255 255 255 255 255 255 255 255 255 
255 255 255 255 255 255 255 255 255 255 255 255 255 255 255 255 255 255 
255 255 255 255 255 255 255 255 255 255 255 255 255 255 255 255 255 255 
255 255 255 255 255 255 255 255 255 255 255 255 255 255 255 255 255 255 
255 255 255 255 255 255 255 255 255 255 255 255 255 255 255 255 255 255 
255 255 255 255 255 255 255 255 255 255 255 255 255 255 255 255 255 255 
255 255 255 255 254 255 255 253 252 218 217 217 217 214 103  80  79  80 
 79  79  79  79  79  79  79  79  79  80  80  81  78  79  78 107 254 255 
255 255 255 255 255 255 255 255 255 255 255 255 255 255 254 255 254 255 
255 221 216 217 216 209 202 203 203 203 203 201 202 203 201 203 204 203 
203 203 207 252 255 255 254 255 255 255 255 255 255 255 255 255 255 255 
255 255 255 254 255 245 215 217 216 218 147  52  61  62  62  62  62  62 
 62  62  62  62  62  62  62  62  62  62  64  66 229 254 254 255 255 255 
255 254 255 255 255 255 255 255 255 255 255 255 255 255 255 255 255 255 
255 255 255 255 255 255 255 255 255 255 255 255 255 255 255 255 255 255 
255 255 255 255 255 255 255 255 255 255 219 133 156 183 173 142 163 252 
253 255 254 255 255 254 255 255 255 255 255 255 255 255 255 255 255 255 
255 255 255 255 255 255 255 255 255 255 255 255 255 255 255 255 255 255 
255 255 255 255 255 255 255 255 255 255 255 255 255 255 255 255 255 255 
255 255 255 255 255 255 255 255 255 255 255 255 255 255 255 255 255 255 
255 255 255 255 255 255 255 255 255 255 255 255 255 255 255 255 255 255 
255 255 255 255 255 255 255 255 255 255 255 255 255 255 255 255 255 255 
255 255 255 255 255 255 255 255 255 255 255 255 255 255 255 255 255 255 
255 255 255 255 255 255 255 255 255 255 255 255 255 255 255 255 255 255 
255 255 255 255 255 255 255 255 255 255 255 255 255 255 255 255 255 255 
255 255 255 255 255 255 255 255 255 255 255 255 255 255 255 255 255 255 
255 255 255 255 255 255 255 255 229 216 217 218 217 199  79  79  79  80 
 79  79  79  79  79  79  79  79  80  80  80  79  80  78  77 243 255 255 
255 255 255 255 255 255 255 255 255 255 255 255 255 255 255 254 255 255 
255 215 216 217 217 209 203 203 204 204 202 202 203 204 201 203 203 203 
203 203 203 255 253 254 255 254 255 255 255 255 255 255 255 255 255 255 
255 255 255 255 253 255 228 215 217 217 224  91  62  61  62  61  62  62 
 62  62  62  62  62  62  62  63  63  63  62  60 151 255 254 255 255 254 
255 255 255 254 255 255 255 255 255 255 255 255 255 255 255 255 255 255 
255 255 255 255 255 255 255 255 255 255 255 255 255 255 255 255 255 255 
255 255 255 255 255 255 255 255 255 253 255 216 159 154 154 187 255 255 
255 254 255 255 255 255 255 255 255 255 255 255 255 255 255 255 255 255 
255 255 255 255 255 255 255 255 255 255 255 255 255 255 255 255 255 255 
255 255 255 255 255 255 255 255 255 255 255 255 255 255 255 255 255 255 
255 255 255 255 255 255 255 255 255 255 255 255 255 255 255 255 255 255 
255 255 255 255 255 255 255 255 255 255 255 255 255 255 255 255 255 255 
255 255 255 255 255 255 255 255 255 255 255 255 255 255 255 255 255 255 
255 255 255 255 255 255 255 255 255 255 255 255 255 255 255 255 255 255 
255 255 255 255 255 255 255 255 255 255 255 255 255 255 255 255 255 255 
255 255 255 255 255 255 255 255 255 255 255 255 255 255 255 255 255 255 
255 255 255 255 255 255 255 255 255 255 255 255 255 255 255 255 255 255 
255 255 255 254 255 254 254 243 216 217 217 217 224 108  76  79  78  79 
 79  79  79  79  79  79  79  79  79  78  80  80  78  80 146 255 254 255 
255 255 255 255 255 255 255 255 255 255 255 255 255 255 255 255 255 255 
248 216 216 215 215 206 201 202 203 202 202 209 213 215 213 204 204 202 
202 203 200 249 255 255 255 254 255 255 255 255 255 255 255 255 255 255 
255 255 254 255 255 253 247 216 217 217 217 173  60  60  61  62  62  62 
 62  62  62  62  62  62  62  62  62  61  61  63  57 250 254 254 254 255 
254 254 254 255 255 255 255 255 255 255 255 255 255 255 255 255 255 255 
255 255 255 255 255 255 255 255 255 255 255 255 255 255 255 255 255 255 
255 255 255 255 255 255 255 255 255 255 254 255 253 249 250 255 255 254 
255 255 254 255 255 255 255 255 255 255 255 255 255 255 255 255 255 255 
255 255 255 255 255 255 255 255 255 255 255 255 255 255 255 255 255 255 
255 255 255 255 255 255 255 255 255 255 255 255 255 255 255 255 255 255 
255 255 255 255 255 255 255 255 255 255 255 255 255 255 255 255 255 255 
255 255 255 255 255 255 255 255 255 255 255 255 255 255 255 255 255 255 
255 255 255 255 255 255 255 255 255 255 255 255 255 255 255 255 255 255 
255 255 255 255 255 255 255 255 255 255 255 255 255 255 255 255 255 255 
255 255 255 255 255 255 255 255 255 255 255 255 255 255 255 255 255 255 
255 255 255 255 255 255 255 255 255 255 255 255 255 255 255 255 255 255 
255 255 255 255 255 255 255 255 255 255 255 255 255 255 255 255 255 255 
255 255 255 255 255 255 255 221 217 217 217 217 185  74  79  79  79  80 
 79  79  79  79  79  79  79  79  78  80  81  79  79  74 239 253 255 255 
255 255 255 255 255 255 255 255 255 255 255 255 255 255 255 255 255 255 
244 229 231 238 247 204 206 210 218 232 249 255 245 231 223 219 211 223 
215 209 202 234 255 254 254 255 254 254 255 255 255 255 255 255 255 255 
255 255 255 254 255 255 255 227 216 216 218 222  90  60  61  62  62  62 
 62  62  62  62  62  62  61  62  61  63  62  61  59 137 254 255 255 254 
255 255 254 255 255 255 255 255 255 255 255 255 255 255 255 255 255 255 
255 255 255 255 255 255 255 255 255 255 255 255 255 255 255 255 255 255 
255 255 255 255 255 255 255 255 254 255 255 255 255 255 255 255 255 254 
255 255 255 255 255 255 255 255 255 255 255 255 255 255 255 255 255 255 
255 255 255 255 255 255 255 255 255 255 255 255 255 255 255 255 255 255 
255 255 255 255 255 255 255 255 255 255 255 255 255 255 255 255 255 255 
255 255 255 255 255 255 255 255 255 255 255 255 255 255 255 255 255 255 
255 255 255 255 255 255 255 255 255 255 255 255 255 255 255 255 255 255 
255 255 255 255 255 255 255 255 255 255 255 255 255 255 255 255 255 255 
255 255 255 255 255 255 255 255 255 255 255 255 255 255 255 255 255 255 
255 255 255 255 255 255 255 255 255 255 255 255 255 255 255 255 255 255 
255 255 255 255 255 255 255 255 255 255 255 255 255 255 255 255 255 255 
255 255 255 255 255 255 255 255 255 255 255 255 255 255 255 255 255 255 
255 255 254 255 255 255 225 217 215 217 218 217 115  78  78  80  79  80 
 79  79  79  79  79  79  79  79  81  79  77  79  75 171 255 254 255 255 
255 255 255 255 255 255 255 255 255 255 255 255 255 255 255 255 255 255 
255 255 255 255 255 254 253 255 254 254 255 255 254 255 254 254 253 252 
254 254 254 254 254 255 255 253 255 255 255 255 255 255 255 255 255 255 
255 254 255 255 254 255 254 253 218 217 217 217 205  59  63  61  62  62 
 62  62  62  62  62  62  64  62  63  63  61  61  62  71 248 255 255 255 
255 255 254 254 255 255 255 255 255 255 255 255 255 255 255 255 255 255 
255 255 255 255 255 255 255 255 255 255 255 255 255 255 255 255 255 255 
255 255 255 255 255 255 255 255 255 255 255 255 255 254 255 255 255 255 
255 254 255 254 255 255 255 255 255 255 255 255 255 255 255 255 255 255 
255 255 255 255 255 255 255 255 255 255 255 255 255 255 255 255 255 255 
255 255 255 255 255 255 255 255 255 255 255 255 255 255 255 255 255 255 
255 255 255 255 255 255 255 255 255 255 255 255 255 255 255 255 255 255 
255 255 255 255 255 255 255 255 255 255 255 255 255 255 255 255 255 255 
255 255 255 255 255 255 255 255 255 255 255 255 255 255 255 255 255 255 
255 255 255 255 255 255 255 255 255 255 255 255 255 255 255 255 255 255 
255 255 255 255 255 255 255 255 255 255 255 255 255 255 255 255 255 255 
255 255 255 255 255 255 255 255 255 255 255 255 255 255 255 255 255 255 
255 255 255 255 255 255 255 255 255 255 255 255 255 255 255 255 255 255 
255 255 255 254 255 253 236 219 215 214 218 178  76  79  77  80  80  79 
 79  79  79  79  79  79  79  79  78  79  80  80  88 241 253 254 255 255 
255 255 255 255 255 255 255 255 255 255 255 255 255 255 255 255 255 255 
255 254 255 255 254 255 254 255 255 254 255 254 254 255 254 254 255 255 
254 255 255 255 255 255 254 255 255 254 255 255 255 255 255 255 255 255 
255 255 255 254 255 255 254 254 228 217 216 217 217 100  62  62  62  62 
 62  62  62  62  62  62  62  62  62  62  62  61  61  59 116 254 255 255 
255 254 255 255 255 255 255 255 255 255 255 255 255 255 255 255 255 255 
255 255 255 255 255 255 255 255 255 255 255 255 255 255 255 255 255 255 
255 255 255 255 255 255 255 255 254 255 254 255 255 255 255 255 255 255 
255 255 254 255 255 255 255 255 255 255 255 255 255 255 255 255 255 255 
255 255 255 255 255 255 255 255 255 255 255 255 255 255 255 255 255 255 
255 255 255 255 255 255 255 255 255 255 255 255 255 255 255 255 255 255 
255 255 255 255 255 255 255 255 255 255 255 255 255 255 255 255 255 255 
255 255 255 255 255 255 255 255 255 255 255 255 255 255 255 255 255 255 
255 255 255 255 255 255 255 255 255 255 255 255 255 255 255 255 255 255 
255 255 255 255 255 255 255 255 255 255 255 255 255 255 255 255 255 255 
255 255 255 255 255 255 255 255 255 255 255 255 255 255 255 255 255 255 
255 255 255 255 255 255 255 255 255 255 255 255 255 255 255 255 255 255 
255 255 255 255 255 255 255 255 255 255 255 255 255 255 255 255 255 255 
255 255 255 255 255 253 255 255 251 240 220  81  78  81  78  78  79  79 
 78  78  78  79  79  79  79  79  79  80  76  77 125 255 255 254 255 255 
255 255 255 255 255 255 255 255 255 255 255 255 255 255 255 255 255 255 
254 255 255 254 254 254 254 255 255 255 254 254 255 254 255 255 255 255 
255 254 255 255 255 254 255 254 255 255 255 255 255 255 255 255 255 255 
255 254 255 255 254 255 255 255 245 215 218 216 217 171  56  62  62  62 
 62  62  62  62  62  62  62  62  62  62  63  60  62  61  58 195 255 255 
254 255 255 255 255 255 255 255 255 255 255 255 255 255 255 255 255 255 
255 255 255 255 255 255 255 255 255 255 255 255 255 255 255 255 255 255 
255 255 255 255 255 255 255 255 255 254 255 255 254 255 254 255 254 255 
254 255 255 254 255 255 255 255 255 255 255 255 255 255 255 255 255 255 
255 255 255 255 255 255 255 255 255 255 255 255 255 255 255 255 255 255 
255 255 255 255 255 255 255 255 255 255 255 255 255 255 255 255 255 255 
255 255 255 255 255 255 255 255 255 255 255 255 255 255 255 255 255 255 
255 255 255 255 255 255 255 255 255 255 255 255 255 255 255 255 255 255 
255 255 255 255 255 255 255 255 255 255 255 255 255 255 255 255 255 255 
255 255 255 255 255 255 255 255 255 255 255 255 255 255 255 255 255 255 
255 255 255 255 255 255 255 255 255 255 255 255 255 255 255 255 255 255 
255 255 255 255 255 255 255 255 255 255 255 255 255 255 255 255 255 255 
255 255 255 255 255 255 255 255 255 255 255 255 255 255 255 255 255 255 
255 255 255 255 255 255 255 253 255 255 158  71  76  80  79  79  80  80 
 78  78  78  78  79  79  79  79  79  79  78  68 225 255 254 254 255 255 
255 255 255 255 255 255 255 255 255 255 255 255 255 255 255 254 255 255 
255 255 255 255 255 255 255 255 255 254 255 255 255 254 255 255 255 255 
254 254 254 254 254 255 253 255 254 255 255 255 255 255 255 255 255 255 
255 255 254 255 255 255 255 255 255 222 217 218 218 223  74  60  61  61 
 61  61  61  61  61  61  61  61  62  61  61  62  61  59  55  88 254 254 
255 255 255 254 255 255 255 255 255 255 255 255 255 255 255 255 255 255 
255 255 255 255 255 255 255 255 255 255 255 255 255 255 255 255 255 255 
255 255 255 255 255 255 255 255 255 255 255 254 255 255 255 255 255 254 
255 255 254 255 255 255 255 255 255 255 255 255 255 255 255 255 255 255 
255 255 255 255 255 255 255 255 255 255 255 255 255 255 255 255 255 255 
255 255 255 255 255 255 255 255 255 255 255 255 255 255 255 255 255 255 
255 255 255 255 255 255 255 255 255 255 255 255 255 255 255 255 255 255 
255 255 255 255 255 255 255 255 255 255 255 255 255 255 255 255 255 255 
255 255 255 255 255 255 255 255 255 255 255 255 255 255 255 255 255 255 
255 255 255 255 255 255 255 255 255 255 255 255 255 255 255 255 255 255 
255 255 255 255 255 255 255 255 255 255 255 255 255 255 255 255 255 255 
255 255 255 255 255 255 255 255 255 255 255 255 255 255 255 255 255 255 
255 255 255 255 255 255 255 255 255 255 255 255 255 255 255 255 255 255 
255 255 255 255 255 255 255 255 255 254 255 229 184 145 123 109 101  99 
 97 111 103  79  80  79  78  79  80  79  79 111 254 254 255 255 255 255 
255 255 255 255 255 255 255 255 255 255 255 255 255 255 255 255 255 255 
255 255 255 255 255 255 255 255 255 255 255 255 255 255 255 255 255 255 
255 255 255 255 255 255 255 255 255 255 255 255 255 255 255 255 255 255 
255 255 255 255 255 255 255 255 255 241 216 217 217 219 157  59  61  63 
 63  62  63  61  60  61 112  91  83  81  88 113 132 169 215 255 255 253 
255 254 255 255 255 255 255 255 255 255 255 255 255 255 255 255 255 255 
255 255 255 255 255 255 255 255 255 255 255 255 255 255 255 255 255 255 
255 255 255 255 255 255 255 255 255 255 255 255 255 255 255 255 255 255 
255 255 255 255 255 255 255 255 255 255 255 255 255 255 255 255 255 255 
255 255 255 255 255 255 255 255 255 255 255 255 255 255 255 255 255 255 
255 255 255 255 255 255 255 255 255 255 255 255 255 255 255 255 255 255 
255 255 255 255 255 255 255 255 255 255 255 255 255 255 255 255 255 255 
255 255 255 255 255 255 255 255 255 255 255 255 255 255 255 255 255 255 
255 255 255 255 255 255 255 255 255 255 255 255 255 255 255 255 255 255 
255 255 255 255 255 255 255 255 255 255 255 255 255 255 255 255 255 255 
255 255 255 255 255 255 255 255 255 255 255 255 255 255 255 255 255 255 
255 255 255 255 255 255 255 255 255 255 255 255 255 255 255 255 255 255 
255 255 255 255 255 255 255 255 255 255 255 255 255 255 255 255 255 255 
255 255 255 255 255 255 255 255 255 254 254 255 253 254 255 255 255 255 
224 218 201  85  80  78  78  79  80  80  78 183 254 254 255 255 255 255 
255 255 255 255 255 255 255 255 255 255 255 255 255 255 255 255 255 255 
255 255 255 255 255 255 255 255 255 255 255 255 255 255 255 255 255 255 
255 255 255 255 255 255 255 255 255 255 255 255 255 255 255 255 255 255 
255 255 255 255 255 255 255 255 253 250 218 217 216 217 199  66  62  62 
 61  61  61  61  60 140 219 218 220 218 217 239 254 254 254 254 253 255 
255 254 255 255 255 255 255 255 255 255 255 255 255 255 255 255 255 255 
255 255 255 255 255 255 255 255 255 255 255 255 255 255 255 255 255 255 
255 255 255 255 255 255 255 255 255 255 255 255 255 255 255 255 255 255 
255 255 255 255 255 255 255 255 255 255 255 255 255 255 255 255 255 255 
255 255 255 255 255 255 255 255 255 255 255 255 255 255 255 255 255 255 
255 255 255 255 255 255 255 255 255 255 255 255 255 255 255 255 255 255 
255 255 255 255 255 255 255 255 255 255 255 255 255 255 255 255 255 255 
255 255 255 255 255 255 255 255 255 255 255 255 255 255 255 255 255 255 
255 255 255 255 255 255 255 255 255 255 255 255 255 255 255 255 255 255 
255 255 255 255 255 255 255 255 255 255 255 255 255 255 255 255 255 255 
255 255 255 255 255 255 255 255 255 255 255 255 255 255 255 255 255 255 
255 255 255 255 255 255 255 255 255 255 255 255 255 255 255 255 255 255 
255 255 255 255 255 255 255 255 255 255 255 255 255 255 255 255 255 255 
255 255 255 255 255 255 255 255 255 255 254 255 255 255 255 254 255 254 
254 228 217 189  79  79  78  79  79  79  81 227 254 255 255 255 255 255 
255 255 255 255 255 255 255 255 255 255 255 255 255 255 255 255 255 255 
255 255 255 255 255 255 255 255 255 255 255 255 255 255 255 255 255 255 
255 255 255 255 255 255 255 255 255 255 255 255 255 255 255 255 255 255 
255 255 255 255 255 255 255 255 255 254 221 217 218 217 215  77  61  62 
 61  62  61  55 124 230 231 234 241 246 251 255 254 255 255 253 255 255 
255 255 255 255 255 255 255 255 255 255 255 255 255 255 255 255 255 255 
255 255 255 255 255 255 255 255 255 255 255 255 255 255 255 255 255 255 
255 255 255 255 255 255 255 255 255 255 255 255 255 255 255 255 255 255 
255 255 255 255 255 255 255 255 255 255 255 255 255 255 255 255 255 255 
255 255 255 255 255 255 255 255 255 255 255 255 255 255 255 255 255 255 
255 255 255 255 255 255 255 255 255 255 255 255 255 255 255 255 255 255 
255 255 255 255 255 255 255 255 255 255 255 255 255 255 255 255 255 255 
255 255 255 255 255 255 255 255 255 255 255 255 255 255 255 255 255 255 
255 255 255 255 255 255 255 255 255 255 255 255 255 255 255 255 255 255 
255 255 255 255 255 255 255 255 255 255 255 255 255 255 255 255 255 255 
255 255 255 255 255 255 255 255 255 255 255 255 255 255 255 255 255 255 
255 255 255 255 255 255 255 255 255 255 255 255 255 255 255 255 255 255 
255 255 255 255 255 255 255 255 255 255 255 255 255 255 255 255 255 255 
255 255 255 255 255 255 255 255 255 255 255 255 255 255 255 255 254 254 
255 255 235 219 183  86  77  78  78  80  87 255 254 255 255 255 255 255 
255 255 255 255 255 255 255 255 255 255 255 255 255 255 255 255 255 255 
255 255 255 255 255 255 255 255 255 255 255 255 255 255 255 255 255 255 
255 255 255 255 255 255 255 255 255 255 255 255 255 255 255 255 255 255 
255 255 255 255 255 255 255 255 254 255 231 216 216 216 219 129  58  63 
 62  62  58 127 255 254 255 255 254 255 255 254 255 255 253 255 255 254 
254 254 254 254 255 255 255 255 255 255 255 255 255 255 255 255 255 255 
255 255 255 255 255 255 255 255 255 255 255 255 255 255 255 255 255 255 
255 255 255 255 255 255 255 255 255 255 255 255 255 255 255 255 255 255 
255 255 255 255 255 255 255 255 255 255 255 255 255 255 255 255 255 255 
255 255 255 255 255 255 255 255 255 255 255 255 255 255 255 255 255 255 
255 255 255 255 255 255 255 255 255 255 255 255 255 255 255 255 255 255 
255 255 255 255 255 255 255 255 255 255 255 255 255 255 255 255 255 255 
255 255 255 255 255 255 255 255 255 255 255 255 255 255 255 255 255 255 
255 255 255 255 255 255 255 255 255 255 255 255 255 255 255 255 255 255 
255 255 255 255 255 255 255 255 255 255 255 255 255 255 255 255 255 255 
255 255 255 255 255 255 255 255 255 255 255 255 255 255 255 255 255 255 
255 255 255 255 255 255 255 255 255 255 255 255 255 255 255 255 255 255 
255 255 255 255 255 255 255 255 255 255 255 255 255 255 255 255 255 255 
255 255 255 255 255 255 255 255 255 255 255 255 255 255 255 255 255 255 
255 253 255 253 223 226 102  77  79  75 144 254 255 253 255 255 255 255 
255 255 255 255 255 255 255 255 255 255 255 255 255 255 255 255 255 255 
255 255 255 255 255 255 255 255 255 255 255 255 255 255 255 255 255 255 
255 255 255 255 255 255 255 255 255 255 255 255 255 255 255 255 255 255 
255 255 255 255 255 255 255 255 254 254 250 214 217 216 217 191  53  61 
 62  59 180 255 255 255 252 255 254 255 255 255 255 255 255 254 255 254 
255 255 254 255 255 255 255 255 255 255 255 255 255 255 255 255 255 255 
255 255 255 255 255 255 255 255 255 255 255 255 255 255 255 255 255 255 
255 255 255 255 255 255 255 255 255 255 255 255 255 255 255 255 255 255 
255 255 255 255 255 255 255 255 255 255 255 255 255 255 255 255 255 255 
255 255 255 255 255 255 255 255 255 255 255 255 255 255 255 255 255 255 
255 255 255 255 255 255 255 255 255 255 255 255 255 255 255 255 255 255 
255 255 255 255 255 255 255 255 255 255 255 255 255 255 255 255 255 255 
255 255 255 255 255 255 255 255 255 255 255 255 255 255 255 255 255 255 
255 255 255 255 255 255 255 255 255 255 255 255 255 255 255 255 255 255 
255 255 255 255 255 255 255 255 255 255 255 255 255 255 255 255 255 255 
255 255 255 255 255 255 255 255 255 255 255 255 255 255 255 255 255 255 
255 255 255 255 255 255 255 255 255 255 255 255 255 255 255 255 255 255 
255 255 255 255 255 255 255 255 255 255 255 255 255 255 255 255 255 255 
255 255 255 255 255 255 255 255 255 255 255 255 255 254 254 254 255 255 
255 253 254 255 254 252 255 164  77  70 208 253 254 255 254 255 255 255 
255 255 255 255 255 255 255 255 255 255 255 255 255 255 255 255 255 255 
255 255 255 255 255 255 255 255 255 255 255 255 255 255 255 255 255 255 
255 255 255 255 255 255 255 255 255 255 255 255 255 255 255 255 255 255 
255 255 255 255 255 255 255 255 254 254 255 217 217 216 217 227  62  55 
 98 210 253 255 254 255 255 255 254 255 253 254 255 254 255 254 255 255 
255 255 255 255 255 255 255 255 255 255 255 255 255 255 255 255 255 255 
255 255 255 255 255 255 255 255 255 255 255 255 255 255 255 255 255 255 
255 255 255 255 255 255 255 255 255 255 255 255 255 255 255 255 255 255 
255 255 255 255 255 255 255 255 255 255 255 255 255 255 255 255 255 255 
255 255 255 255 255 255 255 255 255 255 255 255 255 255 255 255 255 255 
255 255 255 255 255 255 255 255 255 255 255 255 255 255 255 255 255 255 
255 255 255 255 255 255 255 255 255 255 255 255 255 255 255 255 255 255 
255 255 255 255 255 255 255 255 255 255 255 255 255 255 255 255 255 255 
255 255 255 255 255 255 255 255 255 255 255 255 255 255 255 255 255 255 
255 255 255 255 255 255 255 255 255 255 255 255 255 255 255 255 255 255 
255 255 255 255 255 255 255 255 255 255 255 255 255 255 255 255 255 255 
255 255 255 255 255 255 255 255 255 255 255 255 255 255 255 255 255 255 
255 255 255 255 255 255 255 255 255 255 255 255 255 255 255 255 255 255 
255 255 255 255 255 255 255 255 255 255 254 255 255 255 255 255 255 255 
254 254 255 254 255 253 254 255 248 114 255 254 255 255 255 255 255 255 
255 255 255 255 255 255 255 255 255 255 255 255 255 255 255 255 255 255 
255 255 255 255 255 255 255 255 255 255 255 255 255 255 255 255 255 255 
255 255 255 255 255 255 255 255 255 255 255 255 255 255 255 255 255 255 
255 255 255 255 255 255 255 255 255 255 254 224 216 217 220 255 111 173 
255 254 255 253 255 255 255 255 255 255 255 254 255 255 254 255 255 254 
253 254 255 255 255 255 255 255 255 255 255 255 255 255 255 255 255 255 
255 255 255 255 255 255 255 255 255 255 255 255 255 255 255 255 255 255 
255 255 255 255 255 255 255 255 255 255 255 255 255 255 255 255 255 255 
255 255 255 255 255 255 255 255 255 255 255 255 255 255 255 255 255 255 
255 255 255 255 255 255 255 255 255 255 255 255 255 255 255 255 255 255 
255 255 255 255 255 255 255 255 255 255 255 255 255 255 255 255 255 255 
255 255 255 255 255 255 255 255 255 255 255 255 255 255 255 255 255 255 
255 255 255 255 255 255 255 255 255 255 255 255 255 255 255 255 255 255 
255 255 255 255 255 255 255 255 255 255 255 255 255 255 255 255 255 255 
255 255 255 255 255 255 255 255 255 255 255 255 255 255 255 255 255 255 
255 255 255 255 255 255 255 255 255 255 255 255 255 255 255 255 255 255 
255 255 255 255 255 255 255 255 255 255 255 255 255 255 255 255 255 255 
255 255 255 255 255 255 255 255 255 255 255 255 255 255 255 255 255 255 
255 255 255 255 255 255 255 255 255 255 255 254 255 255 255 254 254 255 
255 255 255 255 255 255 255 254 255 255 253 255 254 254 255 255 255 255 
255 255 255 255 255 255 255 255 255 255 255 255 255 255 255 255 255 255 
255 255 255 255 255 255 255 255 255 255 255 255 255 255 255 255 255 255 
255 255 255 255 255 255 255 255 255 255 255 255 255 255 255 255 255 255 
255 255 255 255 255 255 255 255 255 255 255 232 221 244 254 255 251 254 
254 255 254 255 254 255 254 255 255 255 255 255 255 255 255 255 255 254 
255 255 254 255 255 255 255 255 255 255 255 255 255 255 255 255 255 255 
255 255 255 255 255 255 255 255 255 255 255 255 255 255 255 255 255 255 
255 255 255 255 255 255 255 255 255 255 255 255 255 255 255 255 255 255 
255 255 255 255 255 255 255 255 255 255 255 255 255 255 255 255 255 255 
255 255 255 255 255 255 255 255 255 255 255 255 255 255 255 255 255 255 
255 255 255 255 255 255 255 255 255 255 255 255 255 255 255 255 255 255 
255 255 255 255 255 255 255 255 255 255 255 255 255 255 255 255 255 255 
255 255 255 255 255 255 255 255 255 255 255 255 255 255 255 255 255 255 
255 255 255 255 255 255 255 255 255 255 255 255 255 255 255 255 255 255 
255 255 255 255 255 255 255 255 255 255 255 255 255 255 255 255 255 255 
