P2
# Written by pgmwrite
 360  240
 255
255 255 254 254 254 253 253 253 253 252 252 252 251 251 251 251 250 250 
250 250 250 249 249 249 249 249 249 248 248 248 248 248 248 248 248 248 
248 248 248 247 247 247 247 247 247 247 247 247 247 247 248 248 248 248 
248 248 248 248 248 248 248 248 248 248 248 248 248 248 248 248 248 248 
248 248 249 248 248 249 249 249 249 248 248 249 247 235 221 249 249 249 
249 248 249 249 249 249 249 248 249 248 248 248 248 248 248 248 248 248 
248 248 248 248 248 248 248 248 248 248 248 248 248 248 248 248 248 248 
248 248 248 248 248 248 248 248 248 248 248 248 248 249 248 249 249 249 
249 249 249 249 249 249 249 249 248 248 249 249 249 249 247 249 249 248 
249 249 248 249 249 249 248 248 248 248 248 247 248 247 248 248 248 248 
248 248 248 248 248 248 248 247 247 247 247 247 247 247 247 247 247 247 
247 247 247 247 247 247 247 247 247 247 247 246 246 246 246 246 246 246 
246 246 246 246 246 246 246 246 246 246 246 246 246 246 246 246 246 246 
246 246 246 246 246 246 246 246 246 246 246 246 246 246 246 246 246 246 
246 246 246 246 246 246 246 246 246 246 246 246 246 246 246 246 246 246 
246 246 246 246 246 246 246 246 246 246 246 246 246 246 246 246 246 246 
246 246 246 246 246 246 246 246 246 246 246 246 246 246 246 246 246 246 
246 246 246 246 246 246 246 247 247 247 247 247 247 247 247 247 247 247 
247 247 247 247 248 248 248 248 248 248 248 249 249 249 249 249 250 250 
250 250 251 251 251 251 252 252 252 252 253 253 253 254 254 254 255 255 
255 254 253 253 252 252 251 250 250 249 249 248 247 247 246 246 245 245 
245 244 244 243 243 243 242 242 242 241 241 241 241 241 240 240 240 240 
240 240 240 240 240 240 240 240 239 240 240 240 240 240 240 240 240 240 
240 240 240 240 240 240 240 241 241 241 241 240 241 240 241 240 241 242 
240 241 241 242 242 241 242 241 242 213 242 232 205 202 205 242 241 241 
242 242 241 242 242 242 242 242 242 242 242 242 241 242 241 241 241 241 
241 241 241 241 241 241 241 241 241 241 241 241 241 241 241 241 241 241 
241 241 241 241 241 241 241 241 241 241 242 242 242 242 242 242 242 242 
242 242 242 242 242 242 242 242 242 242 242 242 242 242 242 242 177 242 
241 241 241 242 242 241 242 242 242 240 241 241 240 240 241 241 241 241 
240 240 240 240 240 240 240 240 239 239 239 239 239 239 239 239 239 239 
238 238 238 238 238 238 238 238 238 238 238 238 238 238 238 238 237 237 
237 237 237 237 237 237 237 237 237 237 237 237 237 237 237 237 237 237 
237 237 237 237 237 237 237 237 237 237 237 237 237 237 237 237 237 237 
237 237 237 237 237 237 237 237 237 237 237 237 237 237 237 237 237 237 
237 237 237 237 237 237 237 237 237 237 237 237 237 237 237 237 237 237 
237 237 237 237 237 237 237 237 237 237 237 237 237 237 237 237 237 237 
237 237 237 237 238 238 238 238 238 238 238 238 238 238 238 239 239 239 
239 239 239 240 240 240 240 241 241 241 242 242 242 243 243 243 244 244 
245 245 246 246 247 247 248 248 249 250 250 251 251 252 253 253 254 255 
254 253 252 251 251 250 249 248 247 246 245 244 244 243 242 241 241 240 
239 239 238 237 237 236 236 235 235 235 234 234 234 233 233 233 233 232 
232 232 232 232 232 232 232 232 232 232 232 232 232 232 232 232 232 232 
232 232 233 233 233 233 233 233 233 233 233 234 234 234 234 234 235 234 
235 235 234 234 235 235 235 212 112  44 194 195 197 197 195 230 236 235 
235 235 234 235 235 234 235 235 235 235 235 235 235 234 235 234 234 234 
234 234 234 234 234 234 234 234 234 234 234 234 234 234 234 234 234 234 
234 234 234 234 234 234 234 234 234 235 235 235 235 235 235 235 235 235 
235 235 235 235 235 236 236 236 236 236 235 235 236 236 234 236  56  53 
152 235 234 235 234 234 234 235 235 235 234 233 234 234 234 234 234 233 
233 233 233 233 232 232 232 232 232 231 231 231 231 231 231 230 230 230 
230 230 230 230 230 229 229 229 229 229 229 229 229 229 229 229 229 229 
228 228 228 228 228 228 228 228 228 228 228 228 228 228 228 228 228 228 
228 228 228 228 228 228 228 228 228 228 228 228 228 228 228 228 228 228 
228 228 228 228 228 228 228 228 228 228 228 228 228 228 228 228 228 228 
228 228 228 228 228 228 228 228 228 228 228 228 228 228 228 228 228 228 
228 228 228 228 228 228 228 228 228 228 228 228 228 228 228 228 228 228 
228 228 229 229 229 229 229 229 229 229 229 229 230 230 230 230 230 231 
231 231 231 232 232 233 233 233 234 234 235 235 236 236 237 237 238 239 
239 240 241 242 242 243 244 245 246 247 248 249 250 250 251 252 253 254 
254 253 251 250 249 248 247 245 244 243 242 241 240 239 238 237 236 235 
234 233 232 232 231 230 229 229 228 228 227 227 226 226 226 225 225 225 
225 224 224 224 224 224 224 224 224 224 224 224 224 224 224 224 224 225 
225 225 225 225 225 226 226 226 226 226 226 226 227 227 227 227 227 228 
228 226 228 227 227 228 161  43  52  49 126 193 190 192 191 210 229 229 
229 229 228 229 228 229 228 228 228 228 228 228 228 228 228 228 227 227 
227 227 227 227 227 227 227 227 227 227 227 227 227 227 227 227 227 227 
227 227 227 227 227 227 228 227 228 228 228 228 228 228 228 228 229 228 
229 229 229 229 229 229 229 229 229 229 229 229 228 229 229 225  22  35 
 32  64 214 193 222 227 227 227 226 227 226 226 227 227 227 227 226 226 
226 226 225 225 225 225 224 224 224 224 223 223 223 223 222 222 222 222 
222 222 221 221 221 221 221 221 220 220 220 220 220 220 220 220 220 220 
220 220 219 219 219 219 219 219 219 219 219 219 219 219 219 219 219 219 
219 219 219 219 219 219 219 219 219 219 219 219 219 219 219 219 219 219 
219 219 219 219 219 219 219 219 219 219 219 219 219 219 219 219 219 219 
219 219 219 219 219 219 219 219 219 219 219 219 219 219 219 219 219 219 
219 219 219 219 219 219 219 219 219 219 219 219 219 219 219 219 219 219 
220 220 220 220 220 220 220 220 220 221 221 221 221 221 222 222 222 223 
223 223 224 224 225 225 225 226 227 227 228 229 229 230 231 232 232 233 
234 235 236 237 238 239 240 242 243 244 245 246 248 249 250 251 253 254 
254 252 251 249 247 246 244 243 241 240 239 237 236 235 233 232 231 230 
229 228 227 226 225 224 223 222 222 221 220 220 219 219 218 218 218 217 
217 217 217 216 216 216 216 216 216 216 216 216 216 216 217 217 217 217 
217 217 218 218 218 218 219 219 219 219 220 220 220 220 220 219 221 220 
220 221 221 221 222  93  46  46  47  46  64 189 183 184 183 187 222 221 
222 222 222 222 221 222 222 221 222 221 221 221 221 221 221 221 221 220 
221 220 220 220 220 220 220 220 220 220 220 220 220 220 220 220 220 220 
220 220 220 220 220 221 220 221 221 221 221 221 221 222 221 222 222 222 
222 222 222 222 222 223 223 223 223 223 223 223 223 223 223 146  22  29 
 27  28  37 141 184 198 222 221 220 221 221 218 220 220 220 219 219 219 
219 218 218 217 217 217 217 216 216 216 216 215 215 215 214 214 214 214 
213 213 213 213 213 212 212 212 212 212 212 211 211 211 211 211 211 211 
211 211 211 211 211 211 210 210 210 210 210 210 210 210 210 210 210 210 
210 210 210 210 210 210 210 210 210 210 210 210 210 210 210 210 210 210 
210 210 210 210 210 210 210 210 210 210 210 210 210 210 210 210 210 210 
210 210 210 210 210 210 210 210 210 210 210 210 210 210 210 210 210 210 
210 210 210 210 210 210 210 210 210 210 210 210 210 210 210 211 211 211 
211 211 211 211 211 211 211 212 212 212 212 212 213 213 213 214 214 214 
215 215 216 216 217 218 218 219 220 220 221 222 223 224 225 226 227 228 
229 230 231 233 234 235 237 238 240 241 243 244 246 247 249 250 252 254 
253 252 250 248 246 244 242 240 239 237 235 234 232 230 229 228 226 225 
223 222 221 220 219 218 217 216 215 214 213 213 212 212 211 211 210 210 
210 209 209 209 209 209 208 209 208 209 208 209 209 209 209 209 209 210 
210 210 210 211 211 211 211 212 212 212 212 213 212 212 213 214 210 206 
203 198 198 199  84  37  38  38  40  39  39 166 178 178 176 178 212 215 
215 216 215 216 215 215 215 215 215 215 214 215 214 214 214 214 214 214 
213 214 213 213 213 213 213 213 213 213 213 213 213 213 213 213 213 213 
213 213 213 213 214 214 214 214 214 214 214 214 215 215 215 215 215 215 
216 216 216 216 216 216 216 216 216 215 216 216 215 216 216  63  21  24 
 23  23  23  22 140 177 183 210 213 213 214 213 213 213 213 212 212 212 
211 211 210 210 210 210 209 209 208 208 208 207 207 207 206 206 206 206 
205 205 205 205 204 204 204 204 203 203 203 203 203 203 203 202 202 202 
202 202 202 202 202 202 202 202 202 202 202 202 201 201 201 201 201 201 
201 201 201 201 201 201 201 201 201 201 201 201 201 201 201 201 201 201 
201 201 201 201 201 201 201 201 201 201 201 201 201 201 201 201 201 201 
201 201 201 201 201 201 201 201 201 201 201 201 201 201 201 201 201 201 
201 201 201 201 201 201 201 201 201 201 201 202 202 202 202 202 202 202 
202 202 202 202 203 203 203 203 203 204 204 204 204 205 205 206 206 206 
207 208 208 209 209 210 211 212 213 213 214 215 216 218 219 220 221 223 
224 225 227 228 230 232 233 235 237 238 240 242 244 246 248 250 251 253 
253 251 249 247 244 242 240 238 236 234 232 230 228 226 225 223 221 220 
218 217 215 214 213 212 211 210 209 208 207 206 205 205 204 203 203 203 
202 202 202 201 201 201 201 201 201 201 201 201 201 201 202 202 202 202 
203 203 203 203 204 204 204 204 205 205 205 205 206 206 202 170 169 169 
170 169 171  57  32  31  32  32  33  35  34 134 170 171 172 171 197 209 
209 209 209 209 209 207 209 208 209 208 208 208 208 207 208 207 207 207 
207 207 207 206 206 206 206 206 206 206 206 206 206 206 206 206 206 206 
206 207 206 207 207 207 207 207 207 208 208 208 208 208 208 209 209 209 
209 209 209 210 210 210 210 210 210 209 210 210 209 210 196  30  16  18 
 17  16  16  15  16 137 169 170 205 207 207 207 206 205 206 205 205 204 
204 204 203 203 203 202 202 201 201 200 200 199 199 199 199 198 198 197 
197 197 197 196 196 196 196 195 195 195 195 194 194 194 194 194 194 194 
194 193 193 193 193 193 193 193 193 193 193 193 193 193 193 193 193 193 
193 193 193 193 193 193 193 193 193 193 193 193 193 192 192 192 192 192 
192 192 192 192 192 192 192 192 192 192 192 192 192 192 192 192 192 192 
192 192 192 192 192 192 192 192 192 192 192 192 192 192 193 193 193 193 
193 193 193 193 193 193 193 193 193 193 193 193 193 193 193 193 193 193 
193 194 194 194 194 194 194 195 195 195 196 196 196 197 197 198 198 199 
199 200 200 201 202 203 204 205 206 207 208 209 210 211 213 214 216 217 
219 221 222 224 226 228 230 232 234 236 238 240 242 244 246 249 251 253 
253 250 248 245 243 240 238 236 233 231 229 227 225 223 221 219 217 215 
213 212 210 209 207 206 204 203 202 201 200 199 198 198 197 196 196 195 
195 195 194 194 194 194 193 194 193 194 193 194 194 194 194 194 195 195 
195 196 196 196 196 197 197 198 198 198 198 199 198 166 138  99  83  82 
 91 108  90  25  26  25  25  27  26  27  24  79 168 166 165 164 177 203 
202 203 202 203 202 203 202 202 202 202 201 202 201 201 201 201 200 201 
200 200 200 200 200 200 199 199 199 199 199 199 199 199 199 199 200 199 
200 200 200 200 200 200 201 200 201 201 201 201 202 202 202 202 203 202 
203 203 203 203 204 203 204 204 204 204 203 203 204 203 159   8   9  10 
 11   9  11   9   9  28 120  94  88 103 109 128 158 196 199 199 198 198 
197 197 196 196 195 195 194 194 193 193 192 192 191 191 191 190 190 190 
189 189 188 188 188 188 187 187 187 187 186 186 186 186 186 185 185 185 
185 185 185 185 185 185 184 184 184 184 184 184 184 184 184 184 184 184 
184 184 184 184 184 184 184 184 184 184 184 184 184 184 184 184 184 184 
184 184 184 184 184 184 184 184 184 184 184 184 184 184 184 184 184 184 
184 184 184 184 184 184 184 184 184 184 184 184 184 184 184 184 184 184 
184 184 184 184 184 184 184 184 184 184 184 184 184 184 184 185 185 185 
185 185 185 185 186 186 186 186 187 187 187 188 188 189 189 190 190 191 
191 192 193 194 195 196 197 198 199 200 201 203 204 205 207 209 210 212 
214 216 218 220 222 224 226 228 231 233 235 238 240 243 245 248 250 253 
253 250 247 244 241 239 236 233 231 228 226 223 221 219 216 214 212 210 
208 206 205 203 201 200 198 197 196 195 194 193 192 191 190 189 189 188 
188 187 187 187 187 186 186 186 186 186 186 186 187 187 187 187 188 188 
188 188 189 189 190 190 191 191 191 191 158  64  10  12  13  16  19  19 
 18  17  17  18  20  19  20  20  23  20  20  18 161 158 159 157 158 195 
197 196 197 196 197 196 196 195 196 195 195 195 195 194 195 194 194 194 
194 193 193 193 193 192 193 192 193 193 192 193 192 193 193 192 193 193 
192 193 193 194 193 193 193 194 194 194 195 195 195 196 195 196 196 196 
196 197 197 197 197 197 197 198 198 198 197 198 197 197  60   3   3   4 
  3   4   4   2   3   2   3   1   1   0   2   4   7  11  34 124 191 191 
190 189 188 188 188 187 187 186 186 185 185 184 184 183 183 182 182 182 
181 181 181 180 180 179 179 179 179 178 178 178 178 177 177 177 177 177 
177 177 176 176 176 176 176 176 176 176 176 176 176 176 176 176 176 176 
176 176 176 175 175 175 175 175 175 175 175 175 175 175 175 175 175 175 
175 175 175 175 175 175 175 175 175 175 175 175 175 175 175 175 175 175 
175 175 175 175 175 175 175 175 175 175 175 175 175 175 175 175 175 175 
175 175 175 176 176 176 176 176 176 176 176 176 176 176 176 176 176 176 
177 177 177 177 177 178 178 178 178 179 179 180 180 181 181 182 182 183 
184 185 186 186 187 189 190 191 192 193 195 196 198 200 201 203 205 207 
209 211 213 215 218 220 223 225 228 230 233 236 238 241 244 247 250 252 
252 249 246 243 240 237 234 231 228 225 223 220 217 215 212 210 208 206 
203 201 199 198 196 194 193 191 190 188 187 186 185 184 183 183 182 181 
181 180 180 180 179 179 179 179 179 179 179 179 179 180 180 180 180 181 
181 182 182 182 182 183 183 184 184 185 142   9  10  10  12  14  12  11 
 12  13  13  14  13  15  13  13  14  14  13  12  83 155 151 153 151 170 
190 190 190 191 189 190 189 190 189 189 189 189 188 189 188 188 187 188 
187 187 187 187 187 187 186 186 186 185 186 186 186 185 186 185 186 185 
187 186 187 187 186 187 188 188 187 187 189 188 189 189 190 189 190 190 
191 190 191 191 191 191 192 191 191 191 192 190 192 170   9   2   3   2 
  2   1   3   4   4   6   5   5   5   6   6   9   7   9  10  67 180 184 
183 183 180 182 181 181 180 179 179 178 177 177 176 176 175 175 174 174 
173 173 173 172 172 172 171 171 171 170 170 170 170 169 169 169 169 169 
168 168 168 168 168 168 168 168 168 168 168 168 167 167 167 167 167 167 
167 167 167 167 167 167 167 167 167 167 167 167 167 167 167 167 167 167 
167 167 167 167 167 167 167 167 167 167 167 167 167 167 167 167 167 167 
167 167 167 167 167 167 167 167 167 167 167 167 167 167 167 167 167 167 
167 167 167 167 167 167 167 167 167 167 167 168 168 168 168 168 168 168 
168 169 169 169 169 169 170 170 170 171 171 172 172 173 173 174 175 176 
176 177 178 179 180 182 183 184 186 187 189 190 192 194 196 198 200 202 
204 206 209 211 214 216 219 222 225 228 231 234 237 240 243 246 249 252 
252 249 245 242 239 235 232 229 226 223 220 217 214 211 208 206 203 201 
199 196 194 192 190 188 187 185 184 182 181 180 179 178 177 176 175 174 
174 173 173 173 172 172 172 172 172 172 172 172 173 172 173 173 174 174 
174 174 175 175 176 176 177 177 178 178 179  62   0   3   5   4   5   4 
  5   5   6   6   7   8   8   8   8   9  10   8  23 141 147 146 147 149 
182 184 184 184 184 183 184 183 184 183 183 182 183 182 182 181 182 181 
181 181 181 180 179 179 180 179 180 180 179 179 179 180 180 180 179 180 
180 180 180 181 180 181 180 182 180 182 182 183 183 183 183 184 184 184 
184 185 185 185 185 186 185 186 186 186 185 185 186  71   8   9   8   8 
  8   8   9   9   9  10  10  12  12  12  11  12  14  14   9 135 136 139 
152 161 173 174 174 173 173 172 172 171 170 170 169 168 168 167 167 166 
166 165 165 165 164 164 164 163 163 162 162 162 162 161 161 161 161 161 
161 160 160 160 160 160 160 160 160 159 159 159 159 159 159 159 159 159 
159 159 159 159 159 159 159 159 159 159 159 159 159 159 159 159 159 159 
159 159 159 159 159 159 159 159 159 159 159 159 159 159 159 159 159 159 
159 159 159 159 159 159 159 159 159 159 159 159 159 159 159 159 159 159 
159 159 159 159 159 159 159 159 159 159 159 159 160 160 160 160 160 160 
160 161 161 161 161 162 162 162 163 163 164 164 165 165 166 167 167 168 
169 170 171 172 173 175 176 178 179 181 182 184 186 188 190 192 195 197 
199 202 205 207 210 213 216 219 222 225 228 232 235 238 242 245 248 252 
252 248 244 241 237 234 230 227 223 220 217 214 210 208 205 202 199 196 
194 192 189 187 185 183 181 179 178 176 175 174 172 171 170 169 168 168 
167 167 166 166 165 165 165 165 165 165 165 166 165 166 166 167 167 167 
167 168 168 169 169 170 170 171 171 172 171 172   9   3   3   0   0   1 
  0   1   0   2   1   2   1   3   3   3   2   3   0 110 142 140 140 140 
168 179 178 179 178 178 177 178 177 177 176 177 176 176 175 176 175 175 
175 175 174 174 173 173 173 174 174 168 173 173 173 173 173 174 174 173 
174 174 174 174 173 175 174 174 176 175 176 176 177 177 178 177 178 178 
179 178 179 179 180 179 180 180 180 178 179 180 178   2  13  13  14  14 
 14  14  15  15  15  16  16  16  17  17  19  16  20  25 105 135 133 132 
131 129 162 167 167 167 166 165 164 164 163 163 162 161 161 160 159 159 
158 158 157 157 157 156 156 156 155 155 154 154 154 154 153 153 153 153 
153 152 152 152 152 152 152 152 152 152 151 151 151 151 151 151 151 151 
151 151 151 151 151 151 151 151 151 151 151 151 151 151 151 151 151 151 
151 151 151 151 151 151 151 151 151 151 151 151 151 151 151 151 151 151 
151 151 151 151 151 151 151 151 151 151 151 151 151 151 151 151 151 151 
151 151 151 151 151 151 151 151 151 151 151 151 152 152 152 152 152 152 
152 153 153 153 153 154 154 155 155 155 156 156 157 158 158 159 160 161 
162 163 164 165 167 168 170 171 173 175 176 178 180 182 185 187 190 192 
195 197 200 203 206 209 213 216 219 223 226 230 233 237 240 244 248 252 
251 247 244 240 236 232 228 225 221 217 214 210 207 204 201 198 195 192 
189 187 184 182 180 178 176 174 172 170 169 167 166 165 164 163 162 161 
161 160 160 159 159 159 159 158 159 158 159 159 159 159 160 160 160 160 
161 161 162 162 163 163 164 164 166 166 167 166  89  10   7   7   5   6 
  4   6   4   5   4   5   3   4   3   4   1   5   3  10 140 136 137 132 
140 171 173 171 173 172 172 171 172 171 171 170 171 170 170 169 170 169 
169 168 169 168 168 126 125 128 141 131 129 131 140 146 161 168 167 152 
136 129 124 139 159 149 145 149 166 170 170 171 171 171 171 172 172 173 
172 173 173 174 173 174 174 174 174 173 173 173  76  25  19  20  19  19 
 20  20  20  21  22  23  22  22  22  22  25  27  26   4 129 127 127 125 
125 151 161 160 161 160 159 158 158 157 156 155 155 154 154 153 153 152 
151 151 150 150 149 149 149 148 148 147 147 147 146 146 146 146 145 145 
145 145 145 144 144 144 144 144 144 144 144 144 144 144 144 143 143 143 
143 143 143 143 143 143 143 143 143 143 143 143 143 143 143 143 143 143 
143 143 143 143 143 143 143 143 143 143 143 143 143 143 143 143 143 143 
143 143 143 143 143 143 143 143 143 143 143 143 143 143 143 143 143 143 
143 143 143 143 143 143 143 143 144 144 144 144 144 144 144 144 144 145 
145 145 145 146 146 146 147 147 147 148 149 149 150 150 151 152 153 154 
155 156 157 159 160 162 163 165 167 168 170 173 175 177 179 182 185 187 
190 193 196 199 203 206 209 213 216 220 224 228 232 235 239 243 247 251 
251 247 243 239 235 231 226 223 219 215 211 208 204 201 197 194 191 188 
185 182 180 177 175 173 170 168 166 165 163 162 160 159 158 157 156 155 
154 154 153 153 152 152 152 152 152 152 152 152 152 153 153 154 154 155 
155 156 156 157 157 158 158 159 159 160 160 160 161  11  15  10  13  11 
 12  11  11  10  11   9  10   9   9   7   9   8  10  11  77 128 129 130 
128 153 165 168 166 167 166 167 165 166 165 165 164 165 164 164 163 163 
163 163 162 162 162 124 109 109 108 106 109 117 122 122 121 122 107 108 
109 111 110 119 123 124 126 134 164 164 165 165 165 165 166 166 167 166 
167 167 168 168 168 168 169 168 169 168 168 152  30  25  25  25  25  25 
 25  26  26  26  27  26  28  28  28  28  29  32  37  82 122 121 120 119 
126 156 155 155 154 154 152 152 151 150 149 149 148 148 147 146 145 145 
144 144 143 143 142 142 141 141 140 140 140 139 139 139 138 138 138 138 
137 137 137 137 137 137 137 136 136 136 136 136 136 136 136 136 136 136 
136 136 136 136 136 136 136 136 136 136 136 136 136 136 136 136 136 136 
136 136 136 136 136 136 136 136 136 136 136 136 136 136 136 136 136 135 
136 135 135 135 135 135 136 135 136 136 136 136 136 136 136 136 136 136 
136 136 136 136 136 136 136 136 136 136 136 136 136 136 137 137 137 137 
137 138 138 138 138 139 139 140 140 141 141 142 143 143 144 145 146 147 
148 149 151 152 154 155 157 159 161 163 165 167 169 172 174 177 180 183 
186 189 192 196 199 203 206 210 214 218 222 226 230 234 238 242 247 251 
251 246 242 238 233 229 225 221 216 212 208 205 201 197 194 190 187 184 
181 178 175 172 170 167 165 163 161 159 158 156 155 153 152 151 150 149 
148 148 147 147 146 146 146 146 146 146 146 146 146 146 147 147 148 148 
149 149 150 150 151 151 152 152 154 154 154 155 154  96  24  20  16  17 
 18  17  16  16  15  16  14  15  14  15  13  15  14  16   3 128 126 123 
125 128 162 159 162 160 161 160 161 159 160 159 159 158 159 158 158 157 
158 157 157 156 157 127 103 104 103 104 102 103 104 108 103 101 104 102 
103 105 102 119 119 120 118 136 157 159 159 160 159 160 160 161 161 162 
161 162 162 163 162 163 163 163 161 164 163  58  31  30  30  29  30  30 
 31  31  31  32  32  33  33  34  34  35  35  38   3 124 117 115 114 112 
149 150 149 148 148 147 146 145 145 144 143 142 142 141 140 139 139 138 
137 137 136 136 135 135 134 134 133 133 133 132 132 131 131 131 131 130 
130 130 130 130 130 129 129 129 129 129 129 129 129 129 129 129 128 128 
128 128 128 128 128 128 128 128 128 128 128 128 128 128 128 128 128 128 
128 128 128 128 128 128 128 128 128 128 128 128 128 128 128 128 128 128 
128 128 128 128 128 128 128 128 128 128 128 128 128 128 128 128 128 128 
128 128 128 128 128 128 128 129 129 129 129 129 129 129 129 129 130 130 
130 130 131 131 131 132 132 133 133 134 134 135 136 136 137 138 139 140 
142 143 144 146 147 149 151 153 155 157 159 161 164 167 169 172 175 178 
182 185 188 192 196 199 203 207 211 215 220 224 228 233 237 242 246 251 
251 246 241 237 232 228 223 219 214 210 206 202 198 194 190 187 183 180 
177 174 171 168 165 163 160 158 156 154 152 151 149 148 146 145 144 143 
142 142 141 141 140 140 140 140 139 140 140 140 140 141 141 141 141 142 
142 144 144 145 145 146 146 147 147 149 149 150 148 145  10  22  25  21 
 23  21  22  21  21  20  21  19  20  18  20  19  22  18  24  48 122 120 
118 117 137 157 155 155 155 156 154 155 154 154 153 154 152 153 152 152 
151 152 151 151 151 128  97  98  98  98  98  99  98  97  99  98  99  98 
100  99  98 113 114 113 112 138 153 153 154 153 155 154 155 155 156 156 
157 156 157 157 158 157 158 158 157 158 133  41  35  35  36  35  36  36 
 36  36  37  37  38  38  39  39  39  41  42  43  74 112 111 109 108 127 
144 145 143 143 142 141 140 139 138 138 136 136 135 134 133 133 132 131 
131 130 129 129 128 128 127 127 126 126 125 125 125 125 124 124 124 123 
123 123 123 123 122 122 122 122 122 122 122 122 122 122 121 121 121 121 
121 121 121 121 121 121 121 121 121 121 121 121 121 121 121 121 121 121 
121 121 121 121 121 121 121 121 121 121 121 121 121 121 121 121 121 121 
121 121 121 121 121 121 121 121 121 121 121 121 121 121 121 121 121 121 
121 121 121 121 121 121 121 121 121 122 122 122 122 122 122 122 123 123 
123 123 124 124 124 125 125 126 126 127 127 128 129 130 131 132 133 134 
135 137 138 140 141 143 145 147 149 151 154 156 159 162 164 168 171 174 
177 181 185 188 192 196 200 205 209 213 218 222 227 231 236 241 246 251 
250 245 241 236 231 226 221 217 212 208 203 199 195 191 187 183 180 176 
173 169 166 163 161 158 156 153 151 149 147 145 144 142 141 139 139 137 
137 136 135 135 135 134 134 134 134 134 134 134 135 134 135 135 136 136 
137 137 138 138 140 140 141 141 143 142 144 144 144 145  29  32  29  28 
 27  28  26  27  25  26  25  26  24  25  23  25  24  26  23  25  90 113 
113 113 114 142 151 150 151 149 149 149 149 148 149 147 148 147 147 146 
147 146 146 145 145 127  92  92  93  93  93  94  92  93  92  93  93  93 
 93  94  93 107 108 109 106 139 147 148 148 149 149 150 149 150 150 151 
151 152 150 152 152 152 151 152 152 150  17  40  40  39  40  40  41  41 
 41  42  42  43  43  44  44  45  45  46  49  38 100 105 105 103 103 137 
138 138 137 137 136 135 134 133 132 131 131 129 129 128 127 126 126 125 
124 123 123 122 122 121 121 120 120 119 119 118 118 118 117 117 117 117 
116 116 116 116 116 115 115 115 115 115 115 115 115 115 115 114 114 114 
114 114 114 114 114 114 114 114 114 114 114 114 114 114 114 114 114 114 
114 114 114 114 114 114 114 114 114 114 114 114 114 114 114 114 114 114 
114 114 114 114 114 114 114 114 114 114 114 114 114 114 114 114 114 114 
114 114 114 114 114 114 114 114 115 115 115 115 115 115 115 115 116 116 
116 116 117 117 117 118 118 119 119 120 121 122 122 123 124 125 126 128 
129 130 132 134 135 137 139 141 144 146 148 151 154 157 160 163 166 170 
173 177 181 185 189 193 197 202 206 211 216 221 225 230 235 240 245 250 
250 245 240 235 230 225 220 215 210 206 201 197 192 188 184 180 176 172 
169 165 162 159 156 153 151 148 146 144 142 140 138 137 135 134 133 132 
131 131 130 129 129 129 128 128 128 128 128 129 129 129 129 130 130 131 
131 132 132 134 134 135 135 137 136 138 137 139 138 140 117  48  36  33 
 33  32  33  31  32  30  31  29  31  29  30  28  31  29  31  29   3 115 
108 109 106 116 145 144 144 146 144 145 143 144 143 143 142 143 141 142 
141 141 140 141 140 124  86  88  88  87  87  87  87  87  88  87  88  88 
 88  88  89 101 102 103 101 139 143 142 143 143 144 144 145 145 146 145 
145 146 147 147 147 147 148 147 147  66  46  46  43  45  45  46  46  46 
 46  47  47  48  48  49  49  50  52  51  56   9 105 100  99  96 115 134 
134 133 132 131 130 129 128 127 126 126 124 124 123 122 121 120 119 119 
118 117 117 116 115 115 114 114 113 113 112 112 112 111 111 111 110 110 
110 110 109 109 109 109 109 109 108 108 108 108 108 108 108 108 108 108 
108 108 108 108 108 108 108 108 107 107 107 107 107 107 107 107 107 107 
107 107 107 107 107 107 107 107 107 107 107 107 107 107 107 107 107 107 
107 107 107 107 107 107 107 107 107 107 107 107 107 107 107 107 107 107 
107 107 108 108 108 108 108 108 108 108 108 108 108 108 109 109 109 109 
110 110 110 111 111 111 112 112 113 114 114 115 116 117 118 119 120 122 
123 125 126 128 130 132 134 136 138 141 143 146 149 152 155 159 162 166 
169 173 177 182 186 190 195 199 204 209 214 219 224 229 234 239 245 250 
250 245 239 234 229 223 218 213 208 203 199 194 190 185 181 177 173 169 
165 162 158 155 152 149 146 144 142 139 137 135 134 132 131 129 128 127 
126 125 125 124 124 123 123 123 123 123 123 123 124 123 124 124 125 125 
127 126 128 128 129 129 131 131 132 132 134 133 135 135 137   9  40  38 
 37  38  36  37  35  36  34  36  34  35  33  35  33  35  33  36  38  25 
105 102 103 100 123 139 140 139 140 139 140 137 139 137 138 137 137 136 
137 136 136 135 135 121  81  83  83  82  82  82  82  82  82  83  82  83 
 83  83  85  97  98  99  95 137 137 138 138 139 138 140 139 140 140 141 
141 142 141 142 142 143 141 142 109  61  50  50  50  50  48  49  51  51 
 51  52  52  53  53  54  53  55  56  57  64  86  96  95  94  94 131 129 
129 127 127 124 125 123 123 121 121 119 119 118 117 116 115 114 114 113 
112 111 111 110 109 109 108 107 107 106 106 106 105 105 105 104 104 104 
103 103 103 103 103 102 102 102 102 102 102 102 102 102 101 101 101 101 
101 101 101 101 101 101 101 101 101 101 101 101 101 101 101 101 101 101 
101 101 101 101 101 101 101 101 101 101 101 101 101 101 101 101 101 101 
101 101 101 101 101 101 101 101 101 101 101 101 101 101 101 101 101 101 
101 101 101 101 101 101 101 101 101 102 102 102 102 102 102 102 103 103 
103 103 104 104 105 105 106 106 107 108 108 109 110 111 112 113 114 116 
117 119 120 122 124 126 128 131 133 136 138 141 144 148 151 154 158 162 
166 170 174 178 183 187 192 197 202 207 212 217 223 228 233 239 244 250 
250 244 239 233 228 222 217 212 206 201 196 192 187 182 178 174 169 166 
162 158 154 151 148 145 142 140 137 135 132 131 129 127 125 124 123 122 
121 120 119 119 118 118 118 118 117 118 117 118 118 119 119 120 120 121 
121 122 122 124 123 125 125 127 126 128 127 130 128 130 130  63  45  42 
 43  42  42  40  41  39  41  39  40  38  40  38  39  38  39  39  39  38 
 73 100  98 100  96 129 135 136 134 135 133 134 133 134 132 133 132 132 
131 131 131 131 129 116  76  78  79  78  77  77  77  77  78  77  78  78 
 78  78  81  91  93  92  91 132 131 132 134 133 135 134 135 135 136 136 
136 134 138 137 138 137 137 136  31  55  56  55  54  54  54  55  55  56 
 56  56  57  57  58  59  58  61  60  63  30  95  91  89  88 104 125 122 
123 121 121 120 119 118 117 116 115 114 113 112 111 110 109 109 108 107 
106 105 105 104 103 103 102 102 101 101 100 100  99  99  98  98  98  98 
 97  97  97  97  96  96  96  96  96  96  96  96  95  95  95  95  95  95 
 95  95  95  95  95  95  95  95  95  95  95  95  95  95  95  95  95  95 
 95  95  95  95  95  95  95  95  95  95  95  95  95  95  95  95  95  95 
 95  95  95  95  95  95  95  95  95  95  95  95  95  95  95  95  95  95 
 95  95  95  95  95  95  95  95  95  95  95  96  96  96  96  96  96  97 
 97  97  98  98  99  99 100 100 101 102 102 103 104 105 106 107 109 110 
112 113 115 117 119 121 123 126 128 131 134 137 140 143 147 150 154 158 
162 166 171 175 180 185 190 195 200 205 210 216 221 227 232 238 244 250 
250 244 238 232 227 221 216 210 205 199 194 189 184 180 175 171 166 162 
158 154 151 147 144 141 138 135 133 130 128 126 124 122 121 119 118 117 
116 115 115 114 114 113 113 112 113 112 113 113 114 113 114 114 115 115 
117 116 118 118 119 119 121 121 123 122 124 124 125 125 127  97  42  49 
 47  48  45  46  44  45  43  45  43  44  42  44  42  44  43  45  44  45 
 40  77  95  91  93  93 130 130 131 129 130 129 129 128 129 127 128 127 
127 126 126 126 125 110  71  72  73  73  73  73  73  73  73  73  73  73 
 73  74  75  87  88  88  90 128 127 129 128 130 129 130 130 131 131 132 
132 133 131 133 133 133 133   5  65  60  57  59  60  57  61  59  60  60 
 61  61  62  62  63  63  64  64  66  66  11  88  85  85  83 111 120 119 
118 117 116 115 114 113 112 111 110 109 108 107 106 105 104 103 102 101 
101 100  99  98  98  97  96  96  95  95  94  94  93  93  93  92  92  92 
 91  91  91  91  91  90  90  90  90  90  90  90  90  89  89  89  89  89 
 89  89  89  89  89  89  89  89  89  89  89  89  89  89  89  89  89  89 
 89  89  89  89  89  89  89  89  89  89  89  89  89  89  89  89  89  89 
 89  89  89  89  89  89  89  89  89  89  89  89  89  89  89  89  89  89 
 89  89  89  89  89  89  89  89  89  89  89  90  90  90  90  90  91  91 
 91  91  92  92  93  93  94  94  95  96  97  98  99 100 101 102 103 105 
106 108 110 112 114 116 118 121 124 126 129 132 136 139 143 146 150 154 
159 163 168 172 177 182 187 192 198 203 209 214 220 226 232 237 243 249 
249 243 237 232 226 220 214 209 203 198 192 187 182 177 172 168 163 159 
155 151 147 144 140 137 134 132 129 126 124 122 120 118 116 115 113 113 
111 111 110 109 109 109 108 108 108 108 108 109 108 109 109 110 110 111 
111 113 113 114 114 116 116 117 117 119 119 121 119 122 120 118  45  49 
 53  51  51  49  50  48  49  47  49  47  48  46  48  46  48  46  47  48 
 50  26  86  92  89  91  95 127 125 125 124 126 124 125 123 124 123 123 
122 122 121 122 121 104  68  69  68  69  68  68  68  68  68  68  69  68 
 69  69  71  82  85  83  87 123 124 123 125 124 126 125 126 126 127 127 
128 126 128 128 126 129  28  65  63  65  63  64  63  63  63  64  64  65 
 65  66  66  67  67  68  67  69  71  74  42  83  81  80  81 117 115 115 
113 112 111 110 109 108 107 106 104 104 102 102 100 100  98  98  97  96 
 95  94  93  93  92  92  91  90  90  89  89  88  88  87  87  87  86  86 
 86  86  85  85  85  85  85  84  84  84  84  84  84  84  84  84  84  83 
 83  83  83  83  83  83  83  83  83  83  83  83  83  83  83  83  83  83 
 83  83  83  83  83  83  83  83  83  83  83  83  83  83  83  83  83  83 
 83  83  83  83  83  83  83  83  83  83  83  83  83  83  83  83  83  83 
 83  83  83  83  83  83  83  83  84  84  84  84  84  84  84  85  85  85 
 85  86  86  87  87  88  88  89  90  90  91  92  93  94  95  97  98 100 
101 103 105 107 109 111 114 116 119 122 125 128 131 135 139 143 147 151 
155 160 164 169 174 179 185 190 196 201 207 213 219 225 231 237 243 249 
249 243 237 231 225 219 213 207 202 196 190 185 180 175 170 165 161 156 
152 148 144 140 137 134 131 128 125 122 120 118 116 114 112 111 110 108 
107 106 106 105 105 104 104 103 104 103 104 103 104 104 105 105 106 106 
108 107 109 109 111 110 112 112 114 114 115 114 117 117 119 117  12  60 
 56  57  53  55  52  54  52  53  51  53  51  52  50  52  50  52  51  54 
 51  55  25  85  85  85  83  92 122 120 122 120 120 119 120 119 119 118 
118 117 118 117 116  96  63  63  64  64  64  64  64  64  64  64  64  65 
 64  65  65  79  79  80  79 119 119 119 119 121 120 122 121 123 122 123 
123 124 123 125 124  30  72  66  68  66  68  66  68  67  69  68  69  69 
 69  70  70  71  71  72  73  74  75  81  72  79  76  74  97 112 111 110 
109 107 107 105 104 103 102 101 100  99  98  96  96  94  94  93  92  91 
 90  89  88  88  87  86  86  85  85  84  83  83  83  82  82  81  81  81 
 80  80  80  80  80  79  79  79  79  79  79  78  78  78  78  78  78  78 
 78  78  78  78  78  78  78  78  78  78  78  78  78  78  78  78  78  78 
 78  78  78  78  78  78  78  78  78  78  78  78  78  78  78  78  78  78 
 78  78  78  78  77  78  77  78  77  78  77  78  78  78  78  78  78  78 
 78  78  78  78  78  78  78  78  78  78  78  78  79  79  79  79  79  80 
 80  80  81  81  82  82  83  84  84  85  86  87  88  89  90  92  93  95 
 96  98 100 102 104 107 109 112 115 118 121 124 128 131 135 139 143 148 
152 157 162 167 172 177 182 188 194 200 205 211 218 224 230 236 243 249 
249 243 236 230 224 218 212 206 200 194 189 183 178 173 168 163 158 154 
149 145 141 137 134 130 127 124 121 119 116 114 112 110 108 107 105 104 
103 102 101 101 100 100  99 100  99 100  99 100 100 101 100 102 101 103 
103 104 104 106 105 107 107 109 109 111 110 112 112 114 113 115  49  66 
 61  59  59  57  58  56  57  55  57  55  57  54  56  54  56  54  56  56 
 58  55  57  14  81  83  79  80  94 118 115 117 116 116 115 116 114 115 
114 114 113 113 112  89  59  58  60  60  60  61  60  59  60  60  60  60 
 61  60  59  75  76  76  73 114 116 114 116 116 117 117 118 118 119 118 
119 118 120 119  58  76  73  73  71  71  71  71  70  72  71  73  72  73 
 73  74  74  75  75  76  77  79  78  60  83  75  73  72 107 108 106 105 
104 103 102 100  99  99  97  96  95  94  93  92  91  90  89  88  87  86 
 85  84  83  83  82  81  81  80  79  79  78  78  77  77  77  76  76  76 
 75  75  75  75  74  74  74  74  74  74  73  73  73  73  73  73  73  73 
 73  73  73  73  73  73  73  73  73  73  73  73  73  72  72  72  72  72 
 72  72  72  72  72  72  72  72  72  72  72  72  72  72  72  72  72  72 
 72  72  72  72  72  72  72  72  72  72  72  72  72  72  72  72  72  72 
 72  72  72  72  73  73  73  73  73  73  73  73  73  74  74  74  74  75 
 75  75  76  76  77  77  78  79  79  80  81  82  83  84  85  87  88  90 
 92  93  95  98 100 102 105 108 110 114 117 120 124 128 131 136 140 144 
149 154 159 164 169 175 180 186 192 198 204 210 216 223 229 236 242 249 
249 242 236 229 223 217 211 205 199 193 187 181 176 170 165 160 156 151 
147 142 138 134 131 127 124 121 118 115 113 110 108 106 105 103 102 100 
 99  98  98  96  96  95  96  95  96  95  96  95  96  96  97  97  98  98 
 99  99 101 101 103 102 104 104 106 106 108 107 109 108 110 110 106  75 
 63  65  61  62  60  62  58  61  59  60  58  59  58  60  57  59  58  61 
 58  62  57  62  29  76  77  75  76  87 114 112 113 111 111 110 111 110 
109 108 109 109 109  78  54  55  56  57  56  56  55  56  56  56  56  57 
 56  57  54  69  72  71  70 107 110 112 111 112 112 114 113 115 113 116 
115 115 115  35  81  76  77  75  76  75  75  76  76  76  74  76  76  77 
 77  76  77  79  80  80  80  82  87   9  75  70  68  73 103 103 102 101 
100  99  98  96  95  94  93  92  91  89  88  87  86  85  84  83  82  81 
 80  79  79  78  77  76  76  75  75  74  74  73  73  72  72  71  71  71 
 70  70  70  70  69  69  69  69  69  69  69  68  68  68  68  68  68  68 
 68  68  68  68  68  68  68  68  68  68  68  68  68  68  68  68  68  68 
 68  67  67  67  67  67  67  67  67  67  67  67  67  67  67  67  67  67 
 67  67  67  67  67  67  67  67  67  67  67  67  67  67  67  67  67  67 
 67  67  67  68  68  68  68  68  68  68  68  68  68  69  69  69  69  70 
 70  70  71  71  72  72  73  74  74  75  76  77  78  80  81  82  84  85 
 87  89  91  93  96  98 101 104 107 110 113 117 120 124 128 132 137 141 
146 151 156 161 167 173 178 184 190 196 203 209 215 222 229 235 242 249 
249 242 235 229 222 216 210 203 197 191 185 180 174 169 163 158 153 149 
144 140 135 132 128 124 121 118 115 112 109 107 105 103 101 100  98  97 
 95  95  93  93  92  92  91  92  91  92  91  92  92  93  93  94  94  95 
 95  97  96  98  98 100  99 101 101 103 103 104 104 107 106 108 106  57 
 69  66  67  64  66  63  64  63  64  61  63  63  63  61  63  62  64  62 
 64  63  66  63  65  27  69  74  71  72  87 110 108 108 107 108 106 106 
106 106 105 105 105  68  52  51  52  52  53  52  52  52  52  52  53  52 
 53  52  52  61  68  69  67  98 108 106 108 108 109 108 110 109 111 109 
111 111  26  81  80  80  79  80  77  80  78  80  79  80  79  79  81  81 
 81  82  82  84  83  84  85  86  93  30  69  66  65  74 100  99  98  97 
 96  95  93  92  91  90  88  87  86  85  84  83  82  81  80  79  78  77 
 76  75  74  74  73  72  71  71  70  70  69  69  68  68  67  67  66  66 
 66  66  65  65  65  65  64  64  64  64  64  64  64  64  63  63  63  63 
 63  63  63  63  63  63  63  63  63  63  63  63  63  63  63  63  63  63 
 63  63  63  63  63  63  63  63  63  63  63  63  63  63  63  63  63  63 
 63  63  63  63  63  63  63  63  63  63  63  63  63  63  63  63  63  63 
 63  63  63  63  63  63  63  63  63  63  63  64  64  64  64  64  65  65 
 65  66  66  67  67  68  68  69  70  71  72  73  74  75  76  78  79  81 
 83  85  87  89  92  94  97 100 103 106 109 113 117 121 125 129 134 138 
143 148 154 159 165 170 176 182 189 195 201 208 214 221 228 235 242 248 
249 242 235 228 222 215 209 202 196 190 184 178 172 167 161 156 151 146 
142 137 133 129 125 121 118 115 112 109 107 104 102  99  98  96  95  93 
 92  91  91  89  89  88  89  88  88  88  88  88  89  89  90  89  91  91 
 92  92  94  93  95  95  97  97  99  98 100  99 102 102 104 102 105  37 
 69  72  68  70  67  69  66  69  66  68  64  68  66  69  65  66  64  68 
 67  69  67  68  66  69  47  61  70  66  68  77 105 104 105 103 104 103 
103 102 102 100 102  52  48  48  48  48  48  48  48  48  48  49  48  49 
 49  50  47  55  64  65  62  90 102 104 103 106 105 107 105 107 105 107 
107   6  89  85  84  83  84  83  84  82  83  82  85  82  83  84  84  84 
 85  85  86  86  86  88  89  88  94  60  61  64  59  86  97  95  94  93 
 92  91  89  88  87  86  85  83  82  81  80  79  78  76  76  74  74  73 
 72  71  70  69  68  68  67  66  66  65  65  64  64  63  63  62  62  62 
 61  61  61  61  60  60  60  60  60  60  59  59  59  59  59  59  59  59 
 59  59  59  59  59  59  59  59  59  58  58  58  58  58  58  58  58  58 
 58  58  58  58  58  58  58  58  58  58  58  58  58  58  58  58  58  58 
 58  58  58  58  58  58  58  58  58  58  58  58  58  58  58  58  58  58 
 58  58  58  58  58  58  58  59  59  59  59  59  59  59  60  60  60  61 
 61  61  62  62  63  63  64  65  66  66  67  68  70  71  72  74  75  77 
 79  81  83  85  88  90  93  96  99 103 106 110 114 118 122 126 131 136 
141 146 151 157 163 168 175 181 187 193 200 207 213 220 227 234 241 248 
248 242 235 228 221 214 208 201 195 189 182 177 171 165 159 154 149 144 
139 135 130 127 122 119 115 112 109 106 103 101  99  97  95  93  91  90 
 89  88  87  87  85  86  85  85  84  85  84  85  85  86  86  87  87  88 
 88  90  89  91  91  93  93  95  94  96  96  98  97 100  99 100 100  15 
 74  73  73  71  72  70  72  71  70  69  66  71  72  68  71  67  71  70 
 71  67  74  71  73  71  73  60  37  67  64  63  68 100  99  99  99 100 
 99  99  97  98  97  45  44  44  45  46  44  45  45  45  45  45  45  45 
 46  45  44  46  61  61  60  78 101 100 102  99 103 102 104 103 103 101 
 40  93  87  89  88  86  86  85  86  85  87  88  86  88  89  82  88  88 
 87  89  89  90  90  92  90  93  86  57  59  58  54  92  93  92  91  89 
 88  87  86  84  83  82  81  79  78  77  76  75  74  73  71  71  69  69 
 68  67  66  65  64  64  63  62  62  61  60  60  59  59  59  58  58  58 
 57  57  57  56  56  56  56  56  55  55  55  55  55  55  55  55  55  55 
 55  55  54  54  54  54  54  54  54  54  54  54  54  54  54  54  54  54 
 54  54  54  54  54  54  54  54  54  54  54  54  54  54  54  54  54  54 
 54  54  54  54  54  54  54  54  54  54  54  54  54  54  54  54  54  54 
 54  54  54  54  54  54  54  54  54  55  55  55  55  55  55  56  56  56 
 57  57  58  58  59  59  60  61  61  62  63  64  66  67  68  70  71  73 
 75  77  79  82  84  87  90  93  96  99 103 107 110 115 119 124 128 133 
138 144 149 155 161 167 173 179 186 192 199 206 213 220 227 234 241 248 
248 241 234 227 220 214 207 200 194 187 181 175 169 163 158 152 147 142 
137 133 129 124 120 116 113 109 107 103 101  98  96  94  92  90  89  87 
 86  85  84  83  83  82  82  81  82  81  82  81  83  82  83  83  85  84 
 86  86  87  87  89  89  91  90  93  92  94  94  96  95  98  97  99   2 
 77  78  74  76  73  75  73  75  73  76   3   8  74  74  71  73  72  73 
 72  73  72  74  74  75  74  76  76  12  63  61  61  61  90  96  96  96 
 96  95  95  95  77  39  42  42  41  43  41  42  41  42  41  42  42  42 
 42  43  41  42  56  58  59  69  94  98  97  99  98  99  98 101  73  64 
 95  92  92  90  90  90  91  89  90  90  90  90  89  95  56  57 101  92 
 92  92  93  92  92  95  97  95  79  53  56  54  55  90  89  88  87  86 
 84  83  82  81  79  78  77  76  75  73  72  71  70  69  68  67  66  65 
 64  63  62  61  61  60  59  58  58  57  57  56  56  55  55  54  54  54 
 53  53  53  52  52  52  52  52  52  51  51  51  51  51  51  51  51  51 
 51  51  51  51  51  50  50  50  50  50  50  50  50  50  50  50  50  50 
 50  50  50  50  50  50  50  50  50  50  50  50  50  50  50  50  50  50 
 50  50  50  50  50  50  50  50  50  50  50  50  50  50  50  50  50  50 
 50  50  50  50  50  50  50  50  50  51  51  51  51  51  51  52  52  52 
 53  53  54  54  55  55  56  57  58  58  60  61  62  63  65  66  68  70 
 71  74  76  78  81  83  86  89  93  96 100 104 108 112 116 121 126 131 
136 141 147 153 159 165 171 178 184 191 198 205 212 219 226 233 241 248 
248 241 234 227 220 213 206 199 193 186 180 174 168 162 156 151 145 141 
135 131 126 122 118 114 110 107 104 101  98  96  93  92  89  88  86  85 
 83  83  81  81  80  80  79  79  78  79  78  79  79  80  80  81  81  82 
 82  84  83  85  85  87  87  89  88  91  90  92  90  94  93  96  93  12 
 82  79  79  76  79  76  78  76  76  81  11  67  26  74  77  76  77  75 
 77  76  76  76  76  77  77  79  79  80  44  62  57  56  56  77  93  94 
 92  93  92  92  50  38  39  40  39  38  40  38  39  38  39  38  39  39 
 40  39  39  39  49  53  56  59  94  94  95  94  96  94  97  25  93  97 
 95  96  94  94  93  95  92  92  93  93  92  93  95  26  62  70 104  95 
 94  95  96  97  96  98  99 100  72  51  53  50  62  87  86  85  84  82 
 81  80  79  77  76  75  74  72  71  70  69  68  66  65  64  63  62  61 
 60  59  58  58  57  56  55  55  54  54  53  52  52  52  51  51  50  50 
 50  49  49  49  49  48  48  48  48  48  48  48  47  47  47  47  47  47 
 47  47  47  47  47  47  47  47  47  47  47  47  47  47  47  47  47  47 
 47  47  46  46  46  46  46  46  46  46  46  46  46  46  46  46  46  46 
 46  46  46  46  46  46  46  46  46  46  46  46  46  46  46  46  46  46 
 46  46  46  46  46  46  46  47  47  47  47  47  47  47  48  48  48  49 
 49  49  50  50  51  52  52  53  54  55  56  57  58  60  61  63  64  66 
 68  70  72  75  77  80  83  86  90  93  97 101 105 109 114 118 123 128 
134 139 145 151 157 163 170 176 183 190 197 204 211 218 225 233 240 248 
248 241 234 226 219 212 206 199 192 185 179 173 167 161 155 149 144 139 
134 129 125 120 116 112 109 105 102  99  96  93  91  89  87  85  84  82 
 81  79  79  78  78  77  77  76  77  76  77  76  77  77  78  77  79  79 
 80  80  82  81  84  83  85  85  87  86  89  88  89  89  92  90  93  20 
 82  84  80  81  79  81  78  82  79  85  34  58  64  46  46  82  76  81 
 78  78  80  80  80  82  80  82  82  82  85  70   8  59  53  52  60  86 
 90  88  89  86  39  36  37  36  36  37  36  36  35  36  35  36  35  36 
 36  37  36  38  41  53  50  54  88  92  91  93  92  73  46 107  99  98 
100  97  97  95  96  96  96  96  95  95  96  93   1  62  57  66  86  97 
 98  97  98  99 101 101 102 102  71  49  47  49  66  84  83  82  80  79 
 78  77  75  74  73  72  70  69  68  67  65  64  63  62  61  60  59  58 
 57  56  55  54  53  53  52  51  51  50  50  49  49  48  48  47  47  46 
 46  46  46  45  45  45  45  45  44  44  44  44  44  44  44  44  44  44 
 44  43  43  43  43  43  43  43  43  43  43  43  43  43  43  43  43  43 
 43  43  43  43  43  43  43  43  43  43  43  43  43  43  43  43  43  43 
 43  43  43  43  43  43  43  43  43  43  43  43  43  43  43  43  43  43 
 43  43  43  43  43  43  43  43  43  43  43  44  44  44  44  44  45  45 
 45  46  46  47  47  48  49  50  50  51  52  54  55  56  58  59  61  63 
 65  67  69  72  74  77  80  83  87  90  94  98 102 107 111 116 121 126 
132 137 143 149 155 162 168 175 182 189 196 203 210 218 225 233 240 248 
248 241 233 226 219 212 205 198 191 185 178 172 165 159 153 148 142 137 
132 128 123 119 114 111 106 103 100  97  94  92  89  87  84  83  81  80 
 78  78  76  76  75  75  74  74  73  74  73  74  74  75  75  76  76  77 
 77  79  78  80  80  82  81  84  83  85  85  87  85  89  88  90  88  28 
 87  84  85  81  84  81  83  82  81  87  56  58  54  80  94  27  82  79 
 83  82  84  82  83  81  85  83  84  85  86  86  89  42  41  52  49  46 
 71  85  85  75  34  34  33  33  33  33  33  32  33  32  33  32  33  33 
 34  33  35  35  36  47  51  46  77  88  89  82  19 110 102 104 101 102 
 99 100  99 100  99 100  98  98  98 100  81  41  59  55  55  62  66 101 
100 103 102 102 103 105 105 105  70  44  47  44  70  81  80  78  77  76 
 75  73  72  71  70  68  67  66  65  63  62  61  60  59  58  57  56  55 
 54  53  52  51  50  50  49  48  47  47  46  46  45  45  44  44  44  43 
 43  43  42  42  42  42  42  41  41  41  41  41  41  41  41  40  40  40 
 40  40  40  40  40  40  40  40  40  40  40  40  40  40  40  40  40  40 
 40  40  40  40  40  40  40  40  40  40  40  40  40  40  40  39  39  39 
 39  39  39  39  39  39  39  39  39  39  39  39  39  39  39  39  39  39 
 39  39  39  39  39  39  40  40  40  40  40  40  40  41  41  41  41  42 
 42  43  43  44  44  45  46  46  47  48  49  50  52  53  55  56  58  60 
 62  64  66  69  72  74  77  81  84  88  92  96 100 104 109 114 119 124 
130 135 141 147 154 160 167 173 180 187 195 202 209 217 225 232 240 248 
248 240 233 226 219 211 204 197 190 184 177 171 164 158 152 147 141 136 
131 126 121 117 113 109 105 101  98  95  92  89  87  85  83  81  80  77 
 77  75  75  73  73  72  72  71  72  71  72  71  73  71  73  73  73  74 
 74  75  77  77  79  78  80  80  82  81  84  83  86  84  87  86  89  23 
 87  89  85  87  84  86  83  86  83  79  58  53  55  85  94  90  51  81 
 84  87  83  87  85  86  85  88  85  90  88  89  88  91  82  30  55  45 
 46  51  76  55  29  32  31  31  30  30  30  30  30  29  29  30  31  31 
 30  31  31  33  29  42  46  47  54  86  34  81 110 106 107 105 106 102 
104 101 102 102 104 102 103 101 112  19  50  55  51  53  59  90  32 103 
104 104 104 105 107 106 107 108  67  44  44  41  71  77  77  76  74  73 
 72  71  69  68  67  66  64  63  62  61  59  58  57  56  55  54  53  52 
 51  50  49  48  47  47  46  45  45  44  43  43  42  42  41  41  41  40 
 40  40  39  39  39  39  39  38  38  38  38  38  38  38  38  37  37  37 
 37  37  37  37  37  37  37  37  37  37  37  37  37  37  37  37  37  37 
 37  37  37  37  37  37  37  37  37  37  37  37  37  37  36  36  36  36 
 36  36  36  36  36  36  36  36  36  36  36  36  36  36  36  36  36  36 
 36  36  36  36  36  36  36  37  37  37  37  37  37  37  38  38  38  39 
 39  39  40  40  41  42  42  43  44  45  46  47  49  50  52  53  55  57 
 59  61  64  66  69  72  75  78  82  85  89  93  98 102 107 112 117 122 
128 134 140 146 152 159 165 172 179 186 194 201 209 216 224 232 240 247 
248 240 233 226 218 211 204 197 190 183 176 170 163 157 151 146 140 135 
129 125 120 116 111 107 103 100  96  94  90  88  85  83  81  79  77  76 
 74  74  72  72  71  71  70  70  69  70  69  70  69  71  70  72  70  73 
 72  73  74  76  74  77  77  79  78  81  80  83  81  84  83  85  84  23 
 92  89  89  87  89  86  88  86  89  61  52  52  54  89  89  90  88  90 
 24  86  88  87  87  88  91  86  90  89  91  90  92  90  93  95  87   6 
 38  45  42  28  27  27  29  28  28  28  28  27  27  32  27  27  28  29 
 28  29  29  29  30  31  45  47  11  62 120 113 107 109 107 108 106 107 
104 107 103 107 104 105 109  73  24  55  53  49  53  69  89  87   4 106 
106 107 106 110 109 109 110 112  68  40  41  40  70  75  74  73  72  70 
 69  68  67  65  64  63  62  60  59  58  57  55  54  53  52  51  50  49 
 48  47  46  45  45  44  43  42  42  41  41  40  40  39  39  38  38  38 
 37  37  37  36  36  36  36  36  35  35  35  35  35  35  35  35  35  35 
 34  34  34  34  34  34  34  34  34  34  34  34  34  34  34  34  34  34 
 34  34  34  34  34  34  34  34  34  34  34  34  34  34  34  34  34  34 
 34  33  33  33  33  33  33  33  33  33  33  33  33  33  33  33  33  33 
 33  33  33  33  33  33  34  34  34  34  34  34  34  35  35  35  35  36 
 36  37  37  38  38  39  40  40  41  42  43  45  46  47  49  51  52  54 
 56  59  61  64  66  69  72  76  79  83  87  91  95 100 105 110 115 120 
126 132 138 144 151 157 164 171 178 186 193 200 208 216 224 231 239 247 
248 240 233 225 218 210 203 196 189 182 176 169 163 156 151 145 139 133 
129 123 119 114 110 106 102  98  95  92  89  86  84  81  80  77  76  74 
 73  71  71  70  70  68  69  68  68  67  68  67  69  67  69  68  69  70 
 71  70  72  72  75  74  76  75  78  76  80  79  81  79  83  81  83  19 
 93  93  89  91  89  91  88  91  88  49  53  49  56  86  89  86  87  86 
 88  66  72  93  90  93  90  94  91  91  91  94  94  93  94  95  94  96 
 92  17  34  25  25  27  26  26  25  26  27  25  29  37  25  26  25  26 
 26  27  26  27  25  29  15  91 113 113 114 111 111 111 110 107 111 107 
108 109 109 108 109 108   4  49  48  49  46  60  86  87  84  86  23 109 
111 108 109 109 112 112 113 114  72  39  38  39  68  73  71  71  69  68 
 66  65  64  63  61  60  59  58  56  55  54  53  51  51  49  48  47  46 
 45  44  44  43  42  41  40  40  39  39  38  37  37  36  36  36  35  35 
 35  34  34  34  34  33  33  33  33  33  33  32  32  32  32  32  32  32 
 32  32  32  32  32  32  32  32  32  32  32  32  32  31  31  31  31  31 
 31  31  31  31  31  31  31  31  31  31  31  31  31  31  31  31  31  31 
 31  31  31  31  31  31  31  31  31  31  31  31  31  31  31  31  31  31 
 31  31  31  31  31  31  31  31  31  31  31  31  32  32  32  32  33  33 
 33  34  34  35  36  36  37  38  39  40  41  42  43  45  46  48  50  52 
 54  56  59  61  64  67  70  74  77  81  85  89  93  98 103 108 113 119 
125 130 137 143 149 156 163 170 177 185 192 200 208 215 223 231 239 247 
248 240 232 225 218 210 203 196 189 182 175 168 162 156 150 144 138 133 
127 123 118 113 109 105 101  97  94  91  87  85  82  80  78  76  74  73 
 71  71  69  69  67  68  66  67  66  67  66  67  66  67  67  67  66  46 
 68  71  70  72  71  74  73  75  74  77  76  79  76  79  79  82  80  19 
 98  94  94  91  93  90  93  91  92  27  46  47  59  87  84  87  84  86 
 82  84  83  32  63  98  94  92  96  92  97  94  97  97  98  99  98  99 
 99 103  90  49   4  29  23  23  23  21  23  21  35  36  30  21  24  22 
 24  22  30  25  39  91 120 118 114 115 114 115 114 114 110 113 111 113 
111 111 114 105  26  38  49  44  44  57  77  82  83  82  84  83  47 112 
112 112 112 114 114 115 115 118  79  35  35  35  67  69  69  68  67  65 
 64  63  62  60  59  58  57  55  54  53  52  50  49  48  47  46  45  44 
 43  42  41  40  40  39  38  37  37  36  36  35  35  34  34  33  33  33 
 32  32  32  31  31  31  31  31  30  30  30  30  30  30  30  30  30  30 
 30  30  29  29  29  29  29  29  29  29  29  29  29  29  29  29  29  29 
 29  29  29  29  29  29  29  29  29  29  29  29  29  29  29  29  29  28 
 28  28  28  28  28  28  28  28  28  28  28  28  28  28  28  28  28  28 
 28  28  28  28  28  28  28  28  28  29  29  29  29  29  30  30  30  30 
 31  31  32  32  33  34  34  35  36  37  38  40  41  42  44  46  47  49 
 52  54  56  59  62  65  68  71  75  79  83  87  92  96 101 106 112 117 
123 129 135 142 148 155 162 169 176 184 191 199 207 215 223 231 239 247 
248 240 232 225 217 210 203 195 188 181 174 168 161 155 149 143 137 132 
127 121 117 112 108 104 100  96  93  89  87  84  82  79  77  75  73  71 
 71  69  68  67  67  65  66  65  65  64  65  64  66  65  66  65  49  26 
 50  68  69  69  71  70  73  71  74  73  76  75  78  75  78  78  80   3 
 97  97  94  95  93  95  92  95  95   2  47  42  76  81  85  80  84  79 
 73  62  70  76  81  19  75  97  98  97  96  99  98 101 100 100 101 101 
 99 100 100 103 107  78   9  11  22  21  19  26  33  35  38  27  20  24 
 16   2  61 125 122 118 119 117 116 116 119 114 118 112 116 115 114 114 
117 102  49  46  43  43  43  50  74  82  80  79  80  82  81  81  70 114 
113 113 115 114 117 116 118 118  88  33  33  34  66  68  67  66  64  63 
 62  61  59  58  57  56  54  53  51  51  49  48  47  46  45  44  43  42 
 41  40  39  38  37  37  36  35  35  34  33  33  32  32  31  31  31  30 
 30  30  29  29  29  29  29  28  28  28  28  28  28  28  28  28  28  27 
 27  27  27  27  27  27  27  27  27  27  27  27  27  27  27  27  27  27 
 27  27  27  27  27  27  27  27  27  27  26  26  26  26  26  26  26  26 
 26  26  26  26  26  26  26  26  26  26  26  26  26  26  26  26  26  26 
 26  26  26  26  26  26  26  26  26  26  26  27  27  27  27  27  28  28 
 29  29  30  30  31  31  32  33  34  35  36  37  39  40  42  43  45  47 
 49  52  54  57  60  63  66  70  73  77  81  85  90  95 100 105 110 116 
122 128 134 140 147 154 161 168 176 183 191 199 206 214 223 231 239 247 
248 240 232 225 217 210 202 195 188 181 174 167 161 155 148 142 137 131 
126 121 116 112 107 103  99  95  92  89  85  83  80  78  75  74  72  71 
 69  68  66  66  65  65  64  64  63  64  63  64  62  65  64  51  26  30 
 27  66  67  68  68  71  70  72  71  74  73  75  74  77  75  78  75   8 
100  97  98  95  97  94  96  95 101  28  42  45  80  82  79  83  50  48 
 45  43  40  44  50  80  76  54  37 109 103  97 101  99 102 101 101 103 
103 105 106 103 106 104 108  97  81  23  24  36  33  32  70  66   3  74 
109 121 122 123 121 121 120 120 119 121 119 119 117 119 117 116 124  94 
  0  33  41  40  40  58  76  79  79  71  74  79  80  79  79  78  79  89 
116 117 114 117 118 120 120 121  95  30  33  31  63  66  65  63  63  61 
 60  58  57  56  55  53  52  51  50  48  47  46  45  44  43  41  41  39 
 39  38  37  36  35  34  34  33  33  32  31  31  30  30  29  29  29  28 
 28  28  27  27  27  27  27  26  26  26  26  26  26  26  26  26  26  25 
 25  25  25  25  25  25  25  25  25  25  25  25  25  25  25  25  25  25 
 25  25  25  25  25  25  25  25  25  24  24  24  24  24  24  24  24  24 
 24  24  24  24  24  24  24  24  24  24  24  24  24  24  24  24  24  24 
 24  24  24  24  24  24  24  24  24  24  24  24  25  25  25  25  26  26 
 26  27  27  28  29  29  30  31  32  33  34  35  37  38  40  41  43  45 
 47  50  52  55  58  61  64  68  71  75  79  84  88  93  98 103 109 114 
120 126 133 139 146 153 160 167 175 182 190 198 206 214 222 230 239 247 
248 240 232 224 217 209 202 195 188 180 174 167 160 154 148 142 136 130 
125 120 115 111 106 102  98  94  91  88  85  82  80  77  75  73  71  69 
 69  67  66  65  65  63  64  62  63  62  63  62  62  46   9  31  27  25 
 27  31  65  66  68  68  70  69  70  70  73  72  74  73  76  74  77  28 
 99 101  97  99  96  98  96  99  88  48  42  56  81  67  34 110 105 107 
 62   6  45  38  40  45  78  75  77  70   2  51  88 111 106 104 101 105 
105 105 103 107 105 106 106 107 107 112 110  73  26   2  66 109 132 125 
125 123 124 122 122 122 123 120 123 120 122 123 126 118  87  46  10  47 
 37  39  49  61  76  76  71  17 105 129 131  89  19  77  75  76  75  15 
124 119 120 119 121 121 122 122 108  29  30  30  60  64  62  62  60  59 
 57  57  55  54  52  52  50  49  47  47  45  44  43  42  41  40  39  38 
 37  36  35  34  33  33  32  31  31  30  29  29  29  28  28  27  27  27 
 26  26  26  25  25  25  25  25  25  24  24  24  24  24  24  24  24  24 
 24  24  24  23  23  23  23  23  23  23  23  23  23  23  23  23  23  23 
 23  23  23  23  23  23  23  23  23  23  23  23  22  22  22  22  22  22 
 22  22  22  22  22  22  22  22  22  22  22  22  22  22  22  22  22  22 
 22  22  22  22  22  22  22  22  22  22  22  22  23  23  23  23  24  24 
 24  25  25  26  27  27  28  29  30  31  32  33  35  36  38  39  41  43 
 46  48  51  53  56  59  63  66  70  74  78  82  87  92  97 102 107 113 
119 125 132 138 145 152 159 167 174 182 190 198 206 214 222 230 239 247 
248 240 232 224 217 209 202 195 187 180 173 167 160 154 147 142 136 130 
125 120 115 110 106 102  97  94  90  87  84  82  78  77  74  72  70  69 
 67  66  65  65  63  63  62  62  61  62  61  62  61  15  25  10  24  25 
 25  27  38  67  66  68  67  69  68  71  69  72  70  74  71  75  73  45 
103 100 101  98 100  98 101 100  40  45  40  68  71  78 101  96  99  97 
 99 102  12  40  37  37  49  73  73  73  71  73  72  46  25  83 104 104 
107 107 109 107 108 109 108 107 109 107  85  24  30  44  26  54 118 124 
124 127 123 125 124 124 123 123 121 121 116  65   8  34  36  34  37  48 
 65  74  74  72  75  74  93 120 117 119 117 118 117   5  47  69  75  62 
127 121 120 122 123 123 123 125 118  24  27  27  57  62  61  59  59  57 
 56  54  54  52  51  49  49  47  46  44  44  42  41  40  39  38  37  36 
 35  34  33  32  32  31  30  30  29  28  28  27  27  26  26  26  25  25 
 25  24  24  24  24  23  23  23  23  23  23  23  22  22  22  22  22  22 
 22  22  22  22  22  22  22  22  22  22  22  22  22  22  22  21  21  21 
 21  21  21  21  21  21  21  21  21  21  21  21  21  21  21  21  21  21 
 21  20  20  20  20  20  20  20  20  20  20  20  20  20  20  20  20  20 
 20  20  20  20  20  20  20  20  20  20  20  20  21  21  21  21  22  22 
 23  23  23  24  25  25  26  27  28  29  30  31  33  34  36  38  40  42 
 44  46  49  52  55  58  61  65  68  72  76  81  85  90  95 101 106 112 
118 124 131 137 144 151 158 166 173 181 189 197 205 213 222 230 238 247 
248 240 232 224 217 209 202 194 187 180 173 166 160 153 147 141 135 130 
125 119 115 110 105 101  97  93  90  86  84  81  78  75  74  71  70  68 
 67  65  65  63  62  62  62  61  61  59  61  60   2  30  24  25  20  24 
 26  25  24  40  65  64  68  66  69  68  70  68  72  70  73  71  74  67 
101 105  99 102  98 102  99 103  19  37  40  75  22 102 100 101 100 102 
100 100 104   7  36  34  35  68  73  70  71  70  70  69  69  69  66  17 
  8  14  20  22  22  22  18  11   1  24  32  29  62  65  64  66  65  40 
 12  18  25  25  27  25  19  12   4  20  36  34  48  59  61  66  71  73 
 71  72  71  73  67  87 124 120 120 118 120 119 120 101  42  36  62  73 
 98 122 124 123 125 124 126 125 133  20  26  26  55  61  59  58  56  56 
 54  53  51  51  49  48  46  46  44  43  42  41  39  39  37  37  35  35 
 33  33  32  31  30  30  29  28  27  27  26  26  25  25  25  24  24  23 
 23  23  23  22  22  22  22  22  22  21  21  21  21  21  21  21  21  21 
 21  21  21  20  20  20  20  20  20  20  20  20  20  20  20  20  20  20 
 20  20  20  20  20  20  20  20  20  20  19  19  19  19  19  19  19  19 
 19  19  19  19  19  19  19  19  18  18  18  18  18  18  18  18  18  18 
 18  18  18  18  18  18  18  18  18  18  19  19  19  19  19  20  20  20 
 21  21  22  22  23  24  24  25  26  27  29  30  31  33  34  36  38  40 
 42  45  47  50  53  56  60  63  67  71  75  80  84  89  94 100 105 111 
117 123 130 136 143 150 158 165 173 181 189 197 205 213 221 230 238 247 
247 240 232 224 217 209 202 194 187 180 173 166 160 153 147 141 135 130 
124 119 114 110 105 101  97  93  89  87  83  81  78  76  73  71  69  68 
 66  65  63  63  62  62  60  61  59  61  59  48  27  25  25  25  23  23 
 23  24  24  27  47  66  64  67  65  68  66  70  67  71  69  72  70  94 
106 102 104 101 104 102 101  88  29  38  53  76  60 100 102 100 103 101 
102 101 103  95  34  35  33  44  70  71  69  69  68  69  68  68  58  14 
 12  14  13  13  12  12  12   8  21  26  25  58  64  64  64  63  63  64 
 37  11  12  12  13  12  12  14  13  14  29  30  41  68  69  69  71  68 
 70  70  71  70   2 124 122 121 119 121 120 123 123 131   9  32  39  69 
 57 126 125 126 126 127 125 128 135  18  26  22  54  57  58  56  55  53 
 53  51  50  48  48  46  45  44  43  41  41  39  38  37  36  35  34  33 
 32  31  30  29  29  28  27  27  26  26  25  25  24  24  23  23  22  22 
 22  22  21  21  21  21  21  20  20  20  20  20  20  20  20  20  19  19 
 19  19  19  19  19  19  19  19  19  19  19  19  19  19  19  19  19  19 
 19  19  19  18  18  18  18  18  18  18  18  18  18  18  18  18  18  18 
 18  17  17  17  17  17  17  17  17  17  17  17  17  17  17  17  17  17 
 17  17  17  17  17  17  17  17  17  17  17  17  17  18  18  18  18  19 
 19  20  20  21  21  22  23  24  25  26  27  28  30  31  33  35  37  39 
 41  43  46  49  52  55  58  62  66  70  74  78  83  88  93  99 104 110 
116 122 129 136 143 150 157 165 172 180 188 196 204 213 221 230 238 247 
247 240 232 224 217 209 202 194 187 180 173 166 160 153 147 141 135 129 
124 119 114 109 105 100  97  93  90  86  83  80  78  75  73  71  69  67 
 66  64  64  62  62  61  60  58  60  58  59   6  28  29  27  27  26  18 
 24  23  25  24  25  40  65  64  66  66  68  67  68  68  71  68  66 115 
104 106 102 104 102 103 102  69  37  34  74  71  93 104 103 103 103 106 
104 104 104 110  37  33  32  30  70  67  68  67  67  66  65  66  20  12 
 14  13  11  13  13  11  10  18  25  22  49  63  61  63  61  62  62  62 
 62  18   9  12  11  13  13  12  12  13  16  30  27  59  66  68  66  69 
 68  69  68  70 125 123 125 122 125 122 123 123 125 130  27  33  28  67 
  4 131 128 126 128 128 130 130 134  65  27  20  48  57  55  55  53  53 
 51  50  48  48  46  45  43  43  41  40  39  38  37  36  34  34  32  32 
 31  30  29  28  27  27  26  26  25  24  24  23  23  22  22  22  21  21 
 21  20  20  20  20  20  19  19  19  19  19  19  19  19  19  18  18  18 
 18  18  18  18  18  18  18  18  18  18  18  18  18  18  18  18  18  18 
 18  17  17  17  17  17  17  17  17  17  17  17  17  17  17  17  16  16 
 16  16  16  16  16  16  16  16  16  16  15  15  15  15  15  15  15  15 
 15  15  15  15  15  15  15  15  15  16  16  16  16  16  16  17  17  17 
 18  18  19  19  20  21  22  22  23  24  26  27  28  30  31  33  35  37 
 40  42  45  47  50  54  57  61  64  68  73  77  82  87  92  98 103 109 
115 122 128 135 142 149 156 164 172 180 188 196 204 212 221 229 238 247 
247 240 232 224 217 209 201 194 187 180 173 166 159 153 147 141 135 129 
124 119 114 109 105 101  96  93  89  86  83  80  77  75  72  71  69  68 
 65  65  63  63  61  60  59  60  59  51  29  31  31  26  28  26  28  26 
 14  23  23  24  25  26  38  65  64  66  65  67  66  69  67  69   8 111 
106 106 106 103 106 103 112   5  33  48  70  74  98 104 104 102 105 104 
105 104 108 104  92  30  30  30  61  68  66  66  65  65  65  35  10  12 
 11  12  11  11   9   8  13  26  22  45  60  36  13   8  17  21  21  28 
 47  59  17   9   9  12  11  12  13  11  13  21  27  26  64  66  66  66 
 68  66  68   6 130 126 124 125 124 124 124 125 123 131  39  30  31  50 
 67 128 126 131 127 130 130 132 134 117  30  18  40  55  55  53  53  50 
 50  48  48  46  45  43  43  41  40  39  38  36  36  34  34  32  32  30 
 30  29  28  27  27  26  25  24  24  23  23  22  22  21  21  21  20  20 
 20  20  19  19  19  19  18  18  18  18  18  18  18  18  18  18  17  17 
 17  17  17  17  17  17  17  17  17  17  17  17  17  17  17  17  17  17 
 17  16  16  16  16  16  16  16  16  16  16  16  16  16  16  15  15  15 
 15  15  15  15  15  15  15  15  15  14  14  14  14  14  14  14  14  14 
 14  14  14  14  14  14  14  14  14  14  14  14  15  15  15  15  16  16 
 16  17  17  18  19  19  20  21  22  23  24  26  27  29  30  32  34  36 
 38  41  43  46  49  52  56  59  63  67  72  76  81  86  91  97 102 108 
114 121 127 134 141 149 156 164 171 179 187 196 204 212 221 229 238 247 
247 240 232 224 217 209 202 194 187 180 173 166 160 153 147 141 135 129 
124 119 114 109 105 100  97  93  89  86  83  80  78  75  73  70  69  67 
 66  64  64  61  61  59  60  57  31  19   6  29  29  30  27  29  26  30 
 26  21  22  23  24  24  25  33  64  64  66  65  66  66  68  67  51 110 
106 108 104 106 104 109  95  39  31  61  71  69  81 105 104 107 104 107 
104 106 108 107  98  18  30  27  62  66  66  65  66  64  53  10  11   9 
 10  12   8   8   8  13  23  23  36  60  28   8   8   6   7   7  15  22 
 21  47  54   8   7   9   8  11  10  11  10  11  24  27  40  66  65  66 
 65  65  65  48 130 126 127 124 127 124 128 125 128 133  19  29  25  52 
 64  31 133 129 133 131 133 131 134 138  10  18  32  55  53  52  50  50 
 48  48  46  45  43  43  41  40  39  38  36  36  34  34  32  32  30  30 
 29  28  27  26  25  25  24  24  23  23  22  22  21  21  20  20  20  19 
 19  19  18  18  18  18  18  18  17  17  17  17  17  17  17  17  17  17 
 17  17  17  16  16  16  16  16  16  16  16  16  16  16  16  16  16  16 
 16  16  16  16  15  15  15  15  15  15  15  15  15  15  15  15  14  14 
 14  14  14  14  14  14  14  14  13  13  13  13  13  13  13  13  13  13 
 13  13  13  13  13  13  13  13  13  13  13  13  13  14  14  14  14  15 
 15  16  16  17  17  18  19  20  21  22  23  24  26  27  29  31  33  35 
 37  40  42  45  48  51  55  58  62  66  71  75  80  85  90  96 102 108 
114 120 127 134 141 148 155 163 171 179 187 195 204 212 221 229 238 247 
248 240 232 224 217 209 202 194 187 180 173 166 160 153 147 141 135 130 
124 119 114 109 105 101  97  93  89  86  83  80  77  75  72  71  69  68 
 65  65  63  62  59  60  42  23  22  11  20  27  29  27  29  28  29  28 
 29  26  20  19  24  26  24  25  27  57  64  65  65  65  64  68  98 108 
110 107 108 106 108 106  32  34  44  69  69  70  19 107 107 107 109 104 
109 106 110 106 104  15  27  28  63  65  62  63  63  54   9  11  11  11 
 10   8   9   8  10  20  22  43  59  45   4   6   8   8   9   6   6  19 
 20  22  55  53  11   7   8   8  11   9  11  11  12  23  26  46  65  64 
 65  64  66  73 127 127 127 129 126 128 124 128 130 136  28  26  25  53 
 64  43 124 133 132 132 133 135 135 140  17  15  25  52  52  50  50  48 
 48  46  45  43  43  41  41  39  38  36  36  34  34  32  32  30  30  29 
 28  27  26  25  25  24  24  23  22  22  21  21  20  20  20  19  19  19 
 18  18  18  18  17  17  17  17  17  17  17  17  16  16  16  16  16  16 
 16  16  16  16  16  16  16  16  16  16  16  15  15  15  15  15  15  15 
 15  15  15  15  15  15  15  15  14  14  14  14  14  14  14  14  14  13 
 13  13  13  13  13  13  13  13  13  12  12  12  12  12  12  12  12  12 
 12  12  12  12  12  12  12  12  12  12  12  12  12  13  13  13  13  14 
 14  15  15  16  16  17  18  19  20  21  22  23  25  26  28  30  32  34 
 36  39  41  44  47  50  54  58  61  66  70  74  79  84  90  95 101 107 
113 119 126 133 140 147 155 163 170 178 187 195 203 212 220 229 238 247 
248 240 232 224 217 209 202 194 187 180 173 166 160 153 147 141 135 130 
124 119 114 110 105 101  97  93  90  86  83  80  78  75  73  71  69  67 
 66  64  64  61  62  46  16   2  25  32  29  29  29  29  29  26  27  28 
 28  27  26  24  13  24  25  24  24  21  49  63  65  63  65  42 103 110 
108 110 109 108 108 107  15  31  67  68  68  68  45 108 108 109 107 109 
107 109 108 111 102  13  27  27  64  60  64  63  61  15   9   7  11   8 
  8   8   6   8  20  22  42  58  57  12   5   4   6   7   5   5   6  11 
 20  21  38  57  49  10   8   6   9   8   9  10   7  12  23  25  56  64 
 62  64  62  63 132 129 129 128 129 128 129 128 130  81  29  26  24  60 
 61  61  94 134 134 132 135 135 137 138  54  16  13  53  50  50  48  48 
 46  46  44  43  41  41  39  39  37  36  35  34  32  32  31  30  29  28 
 27  27  25  25  24  24  23  22  22  21  21  20  20  19  19  19  18  18 
 18  17  17  17  17  17  17  16  16  16  16  16  16  16  16  16  16  16 
 16  15  15  15  15  15  15  15  15  15  15  15  15  15  15  15  15  15 
 15  14  14  14  14  14  14  14  14  14  14  14  13  13  13  13  13  13 
 13  13  12  12  12  12  12  12  12  12  11  11  11  11  11  11  11  11 
 11  11  11  11  11  11  11  11  11  11  11  11  11  12  12  12  12  13 
 13  14  14  15  15  16  17  18  19  20  21  22  24  25  27  29  31  33 
 35  38  40  43  46  50  53  57  61  65  69  74  79  84  89  94 100 106 
112 119 126 133 140 147 155 162 170 178 186 195 203 212 220 229 238 247 
248 240 232 224 217 209 202 194 187 180 173 167 160 154 147 141 136 130 
125 120 115 110 105 101  97  94  90  87  83  81  78  76  73  71  69  68 
 66  65  63  62  61  14  26  28  29  28  29  27  29  27  27  28  28  26 
 29  27  26  25  25   4  25  23  24  25  23  29  57  66  64  18 111 111 
110 110 111 107 112  64  31  46  67  68  67  68  67  73 110 107 110 107 
109 108 113 108 100  22  24  55  62  63  62  61  13   9   8   8   8   6 
  6   6   9  22  21  51  58  57  52   7   4   4   5   5   4   5   5   6 
 20  18  30  56  59  54  10   5   7   8   8   9   8   8  15  23  25  61 
 63  62  63  23 135 131 129 130 129 130 130 130 129  13  27  24  32  61 
 62  59  28 147 135 136 135 137 138 138  98  17  14  44  50  48  48  46 
 46  44  44  42  41  39  39  37  37  35  34  33  32  31  30  29  29  27 
 27  26  25  24  24  23  22  22  21  21  20  20  19  19  19  18  18  18 
 17  17  17  17  16  16  16  16  16  16  16  16  15  16  15  15  15  15 
 15  15  15  15  15  15  15  15  15  15  15  15  15  15  14  14  14  14 
 14  14  14  14  14  14  14  13  13  13  13  13  13  13  13  12  12  12 
 12  12  12  12  12  11  11  11  11  11  11  11  11  10  10  10  10  10 
 10  10  10  10  10  10  10  10  10  10  10  10  11  11  11  11  12  12 
 12  13  13  14  15  15  16  17  18  19  20  21  23  24  26  28  30  32 
 34  37  40  42  46  49  52  56  60  64  68  73  78  83  88  94 100 106 
112 118 125 132 139 147 154 162 170 178 186 194 203 211 220 229 238 246 
248 240 232 224 217 209 202 195 187 180 174 167 160 154 148 142 136 130 
125 120 115 110 106 102  98  94  91  87  84  81  79  76  74  71  68  67 
 67  64  64  48   8  29  25  28  27  29  28  28  28  29  28  29  28  29 
 27  28  26  29  24  28  13  13  26  24  26  23  25  39  65  46 111 111 
109 111 110 112 105  23  34  66  68  66  68  65  68  55  96 110 111 111 
109 112 110 117  55  24  40  62  62  61  61  21   8   8  10   7   8   8 
  6  11  18  30  57  57  56  56  50   6   4   5   5   4   4   4   4   5 
 18  19  25  56  57  58  54  20   2   8   7   8   7   8   6  14  21  30 
 60  61  61  56 136 131 132 130 131 130 132 136  64  28  23  22  48  59 
 57  60  59  76 136 136 136 137 139 139 143  20  11  33  48  48  46  46 
 44  44  42  42  40  39  37  37  35  35  33  33  31  31  29  29  28  27 
 26  25  24  24  23  23  22  21  21  20  20  19  19  19  18  18  18  17 
 17  17  17  16  16  16  16  16  16  16  16  15  15  15  15  15  15  15 
 15  15  15  15  15  15  15  15  15  14  14  14  14  14  14  14  14  14 
 14  14  14  14  13  13  13  13  13  13  13  13  12  12  12  12  12  12 
 12  12  11  11  11  11  11  11  10  10  10  10  10  10  10  10  10  10 
  9   9   9   9   9   9   9   9   9   9   9  10  10  10  10  10  11  11 
 11  12  12  13  14  14  15  16  17  18  19  21  22  24  25  27  29  31 
 34  36  39  42  45  48  52  55  59  63  68  72  77  82  88  93  99 105 
111 118 125 132 139 146 154 162 169 178 186 194 203 211 220 229 238 246 
248 240 232 225 217 210 202 195 188 181 174 167 161 154 148 142 136 131 
125 120 115 111 106 102  98  95  91  88  84  82  79  77  73  70  70  68 
 66  66  54  26  26  24  27  28  26  27  28  28  29  28  29  28  29  27 
 29  27  27  24  29  25  29  27   5  22  24  25  23  27  30 113 113 110 
112 109 113 108  51  30  56  67  65  67  65  65  64  65  38 102 111 111 
113 111 113  94  37  52  62  63  61  60  19   7   5   8   7   6   5   7 
 13  22  45  57  56  56  56  54  49   6   5   3   4   5   5   3   4   5 
 19  17  27  55  56  56  56  56  28   3   5   6   8   5   7   5  14  20 
 35  59  61  59   6 133 132 131 132 133 131  77  28  21  22  33  61  58 
 60  56  59  20 133 139 137 139 139 141 145  44  14  22  49  47  46  44 
 45  42  42  39  40  38  38  36  36  34  33  32  31  30  29  28  28  26 
 26  25  24  23  23  22  22  21  21  20  20  19  19  18  18  18  17  17 
 17  17  16  16  16  16  16  16  16  16  15  15  15  15  15  15  15  15 
 15  15  15  15  15  15  15  15  14  14  14  14  14  14  14  14  14  14 
 14  14  14  13  13  13  13  13  13  13  13  12  12  12  12  12  12  11 
 11  11  11  11  11  10  10  10  10  10  10  10  10   9   9   9   9   9 
  9   9   9   9   9   9   9   9   9   9   9   9   9   9   9  10  10  10 
 11  11  12  12  13  14  14  15  16  17  19  20  21  23  25  27  29  31 
 33  36  38  41  44  47  51  55  59  63  67  72  77  82  87  93  99 105 
111 117 124 131 138 146 153 161 169 177 186 194 203 211 220 229 238 246 
248 240 232 225 217 210 202 195 188 181 174 168 161 155 148 143 137 131 
126 121 116 111 107 103  99  95  92  88  85  82  80  77  75  71  71  69 
 68  65  62  33  28  26  27  27  27  27  26  28  28  29  28  29  28  29 
 27  28  27  29  26  29  25  28  26  22   1  26  26  25  23 118 112 112 
112 111 110 112  20  44  66  63  65  63  65  64  65  63  65  53  20 104 
122 118  41  50  62  60  63  61  61  16   8   7  10   5   6   5  10  15 
 39  53  57  56  56  56  55  55  53   6   4   4   3   3   4   2   2   4 
 18  16  29  56  55  56  55  55  55  47  11   3   3   8   6   7   3  12 
 20  38  59  59  59   6 115 146 146 104  17  24  20  21  31  59  58  60 
 58  59  56  58  70 142 139 138 141 142 143 119  13  17  46  47  45  45 
 43  43  40  41  39  38  36  36  34  34  32  32  30  30  29  28  27  27 
 25  25  24  24  23  22  21  21  20  20  20  19  19  18  18  18  17  17 
 17  17  17  16  16  16  16  16  16  15  16  15  15  15  15  15  15  15 
 15  15  15  15  15  15  15  15  15  14  14  14  14  14  14  14  14  14 
 14  14  14  13  13  13  13  13  13  13  12  12  12  12  12  12  11  11 
 11  11  11  11  10  10  10  10  10  10   9   9   9   9   9   9   8   8 
  8   8   8   8   8   8   8   8   8   8   8   8   8   9   9   9   9  10 
 10  11  11  12  12  13  14  15  16  17  18  19  21  22  24  26  28  30 
 32  35  38  40  44  47  50  54  58  62  67  71  76  81  87  92  98 104 
111 117 124 131 138 146 153 161 169 177 185 194 202 211 220 229 237 246 
248 240 232 225 217 210 203 195 188 181 175 168 161 155 149 143 137 132 
127 121 117 112 108 103  99  96  92  89  86  83  80  78  74  73  70  69 
 67  67  65  64  55  10  28  27  27  26  28  26  29  28  29  28  29  27 
 29  27  26  26  28  26  26  25  28  24  27  26   2  20  82 111 114 111 
114 111 113  13  36  66  63  65  63  66  62  66  62  65  63  64  63  64 
 59  64  61  62  60  61  60  55  15   7   7   8   5   6   5  19  35  55 
 56  55  56  56  55  54  55  54  55  15   2   2   2   2   3   0   1  10 
 17  15  41  54  56  54  55  55  57  56  56  32  10   3   7   4   8   6 
 12  17  37  59  59  59  60  53  38  32  21  20  25  40  60  58  58  56 
 58  57  56  55  55 124 137 138 141 142 143 139   4   8  46  45  46  43 
 43  41  40  39  39  37  37  35  35  33  33  31  31  29  29  28  27  26 
 26  25  24  23  23  22  22  21  21  20  20  19  19  18  18  18  17  17 
 17  17  17  17  16  16  16  16  16  16  16  16  15  16  15  15  15  15 
 15  15  15  15  15  15  15  15  15  15  15  15  14  14  14  14  14  14 
 14  14  14  13  13  13  13  13  13  13  12  12  12  12  12  11  11  11 
 11  11  11  10  10  10  10  10   9   9   9   9   9   8   8   8   8   8 
  8   8   8   8   8   7   8   7   8   8   8   8   8   8   8   8   9   9 
 10  10  10  11  12  12  13  14  15  16  17  19  20  22  23  25  27  29 
 32  34  37  40  43  46  50  54  58  62  66  71  76  81  86  92  98 104 
110 117 124 131 138 145 153 161 169 177 185 194 202 211 220 229 237 246 
248 240 232 225 217 210 203 196 189 182 175 168 162 156 149 144 138 132 
127 122 117 113 108 104 100  96  93  89  86  83  81  78  76  74  72  70 
 69  67  65  63  64  62   0  26  25  28  26  28  27  28  27  29  27  29 
 27  28  27  26  26  28  26  27  24  28  26  25  22  31 108 113 112 113 
111 115  78  23  29  32  49  63  65  63  65  62  65  63  64  60  64  62 
 63  61  63  61  62  60  52   8   8   5   6   6   7  26  50  55  57  56 
 56  56  55  55  55  55  55  54  54  48   2   3   2   1   0   2   1  14 
 16  19  53  55  54  54  55  56  55  55  56  57  55  34   4   6   3   4 
  5   7  20  36  57  60  58  60  58  59  56  57  57  59  57  58  56  57 
 55  57  55  54  53   9 145 141 141 140 145 143  50  10  31  46  44  44 
 42  42  40  40  38  38  36  36  34  34  32  32  30  30  28  28  27  26 
 25  25  24  23  23  22  22  21  21  20  20  19  19  19  18  18  18  17 
 17  17  17  17  17  16  16  16  16  16  16  16  16  16  16  16  16  15 
 16  15  15  15  15  15  15  15  15  15  15  15  15  15  15  14  14  14 
 14  14  14  14  13  13  13  13  13  13  12  12  12  12  12  12  11  11 
 11  11  10  10  10  10  10   9   9   9   9   9   8   8   8   8   8   8 
  7   7   7   7   7   7   7   7   7   7   7   7   7   8   8   8   8   9 
  9   9  10  11  11  12  13  14  15  16  17  18  20  21  23  25  27  29 
 31  34  37  39  43  46  49  53  57  61  66  70  75  80  86  91  97 103 
110 116 123 130 138 145 153 161 169 177 185 194 202 211 220 228 237 246 
248 240 233 225 218 210 203 196 189 182 175 169 162 156 150 144 139 133 
128 123 118 113 109 105 101  97  94  90  87  84  81  79  77  75  71  70 
 69  68  65  66  63  63  61  12  30  28  26  27  28  27  28  27  28  27 
 28  27  27  26  27  26  27  25  26  24  27  25  23  59 115 114 115 112 
116 101  21  28  23  25  23  23  28  35  36  44  47  51  53  57  57  59 
 58  57  53  55  50  39   6   5   3  10  27  45  56  58  57  56  56  56 
 54  56  55  55  54  55  53  54  52  54  32   2   0   1   0   0  11  15 
 18  50  54  53  55  54  53  54  56  54  56  56  56  56  56  38  26   8 
  5   4   7  14  33  58  58  58  59  57  59  58  58  57  58  57  58  55 
 57  54  56  54  54  53  57 147 142 144 144 146 131  17  13  45  45  43 
 42  41  41  39  39  37  37  35  35  33  33  31  31  29  29  28  27  26 
 26  25  24  23  23  22  22  21  21  20  20  20  19  19  19  18  18  18 
 18  18  17  17  17  17  17  17  16  17  16  16  16  16  16  16  16  16 
 16  16  16  16  16  16  16  16  15  15  15  15  15  15  15  15  15  15 
 14  14  14  14  14  14  13  13  13  13  13  12  12  12  12  12  11  11 
 11  11  11  10  10  10  10   9   9   9   9   8   8   8   8   8   8   7 
  7   7   7   7   7   7   7   7   7   7   7   7   7   7   7   8   8   8 
  9   9  10  10  11  11  12  13  14  15  16  18  19  21  22  24  26  29 
 31  33  36  39  42  45  49  53  57  61  65  70  75  80  85  91  97 103 
110 116 123 130 137 145 152 160 168 177 185 193 202 211 220 228 237 246 
248 240 233 225 218 211 203 196 189 183 176 169 163 157 150 145 139 134 
128 124 119 114 110 106 102  98  94  91  88  85  82  80  78  75  73  71 
 70  68  67  65  65  64  63  62  13  27  25  26  26  28  27  28  27  28 
 27  28  27  27  26  27  25  27  24  27  25  25  22 113 113 114 112 115 
111  41  24   9   7  18  22  21  24  23  26  25  25  21  24  21  23  20 
 20  18  20  15  16  10  21  34  55  57  58  57  57  57  56  56  56  55 
 56  55  55  54  55  54  53  53  54  54  54  42   9   5  11  18  18  28 
 53  54  53  53  54  54  54  55  55  54  55  56  55  55  56  57  55  56 
 51  25  13   7  13  27  56  59  57  59  56  58  56  58  57  58  56  57 
 55  56  54  53  53  53  48 109 146 143 144 146 152  39   6  40  42  44 
 42  42  40  40  38  38  36  36  34  34  32  32  30  30  29  28  27  27 
 26  25  24  24  23  23  22  22  21  21  20  20  20  19  19  19  19  18 
 18  18  18  17  18  17  17  17  17  17  17  17  17  17  17  17  17  16 
 17  16  16  16  16  16  16  16  16  16  16  16  16  15  15  15  15  15 
 15  15  15  14  14  14  14  14  13  13  13  13  12  12  12  12  11  11 
 11  11  10  10  10  10   9   9   9   9   9   8   8   8   8   8   7   7 
  7   7   7   7   6   7   6   6   6   6   6   7   7   7   7   7   7   8 
  8   9   9  10  10  11  12  13  14  15  16  17  19  20  22  24  26  28 
 30  33  36  39  42  45  49  52  56  61  65  70  75  80  85  91  97 103 
109 116 123 130 137 145 152 160 168 176 185 193 202 211 219 228 237 246 
248 240 233 225 218 211 204 197 190 183 176 170 164 157 151 145 140 134 
129 124 120 115 111 106 102  99  95  92  89  86  83  81  78  76  74  73 
 71  69  67  67  65  65  62  63  61   9  29  26  27  26  27  27  28  27 
 28  27  27  26  28  25  26  24  26  25  28  24  57 115 116 113 115 117 
 56  24  25  24  26  22  25  20  19  17  18  15  16  14  16  15  18  18 
 22  19  27   1  42  59  58  60  57  58  57  57  57  56  56  57  56  56 
 55  55  54  55  54  53  54  54  52  54  52  53  53  52  52  53  52  53 
 53  51  53  54  54  53  54  54  54  55  54  55  55  55  55  56  56  56 
 56  57  56  52  47  33  32  55  58  56  58  57  56  56  58  56  57  54 
 56  55  55  54  52  52  53  43 127 145 144 145 147 112   8  26  45  42 
 43  41  41  39  39  37  37  35  35  33  33  31  31  30  29  28  28  27 
 26  25  25  24  24  23  23  22  22  21  21  20  20  20  19  19  19  19 
 19  19  18  18  18  18  18  18  18  18  17  18  17  18  17  17  17  17 
 17  17  17  17  17  17  17  17  17  17  16  16  16  16  16  16  16  16 
 15  15  15  15  15  14  14  14  14  14  13  13  13  13  12  12  12  11 
 11  11  11  10  10  10  10   9   9   9   9   8   8   8   8   7   7   7 
  7   7   7   6   6   6   6   6   6   6   6   6   6   6   7   7   7   7 
  8   8   9   9  10  11  11  12  13  14  16  17  18  20  22  24  26  28 
 30  33  35  38  41  45  48  52  56  60  65  69  74  79  85  91  96 103 
109 116 123 130 137 144 152 160 168 176 185 193 202 211 219 228 237 246 
248 240 233 226 218 211 204 197 190 184 177 170 164 158 152 146 140 135 
130 125 120 116 111 107 103 100  96  93  90  87  84  82  79  77  75  73 
 72  70  69  67  67  65  63  62  61  62   0  26  27  27  25  27  26  26 
 27  27  26  27  27  28  27  27  27  27  26  26  92 116 116 116 114  67 
 21  26  23  25  24  25  24  26  24  25  23  26  22  27  24  28  23  26 
 28  22  22  56  60  58  60  58  59  57  58  57  58  56  57  56  56  55 
 56  55  55  54  55  54  54  54  54  53  54  53  53  53  53  53  53  53 
 53  53  53  54  54  54  54  54  54  55  55  55  55  56  56  56  56  57 
 56  57  57  58  57  58  57  58  57  58  57  58  57  58  56  57  56  57 
 55  56  54  55  53  54  50  52  25 135 147 145 147 146   8  14  43  42 
 40  41  40  40  38  38  36  36  34  34  32  32  31  30  29  29  28  27 
 26  26  25  25  24  24  23  23  22  22  21  21  21  20  20  20  20  19 
 19  19  19  19  19  19  19  18  19  18  18  18  18  18  18  18  18  18 
 18  18  18  18  18  18  18  17  17  17  17  17  17  17  17  17  16  16 
 16  16  16  16  15  15  15  15  14  14  14  14  13  13  13  13  12  12 
 12  11  11  11  10  10  10  10   9   9   9   8   8   8   8   7   7   7 
  7   7   6   6   6   6   6   6   6   6   6   6   6   6   6   7   7   7 
  8   8   8   9  10  10  11  12  13  14  15  17  18  20  21  23  25  27 
 30  32  35  38  41  44  48  52  56  60  64  69  74  79  85  90  96 102 
109 115 122 129 137 144 152 160 168 176 185 193 202 211 219 228 237 246 
248 241 233 226 219 211 205 197 191 184 177 171 165 158 152 147 140 136 
131 126 121 116 112 108 104 100  97  94  91  88  85  82  80  78  76  74 
 72  71  69  68  66  66  64  65  60  63  62  17  25  24  26  25  26  27 
 26  25  26  26  27  26  26  25  25  26  27  38 119 113 116 116  60  23 
 26  25  27  24  26  25  27  23  27  23  26  24  28  25  26  25  27  27 
  9  61  57  59  58  60  58  59  58  59  57  58  57  57  56  57  55  56 
 55  55  54  55  54  54  54  54  53  54  53  54  53  53  53  53  53  53 
 53  53  54  54  54  54  54  54  55  55  55  55  56  55  56  56  56  56 
 57  56  57  57  58  57  58  57  58  57  58  57  58  56  57  56  57  55 
 56  54  55  53  54  52  53  49  51  32 139 145 145 150 103  10  40  43 
 43  41  41  39  39  37  37  35  35  33  33  32  32  30  30  29  28  27 
 27  26  26  25  25  24  24  23  23  22  22  22  21  21  21  21  20  20 
 20  20  20  20  19  20  19  20  19  19  19  19  19  19  19  19  19  19 
 19  19  19  19  18  19  18  18  18  18  18  18  18  18  17  17  17  17 
 17  17  16  16  16  16  16  15  15  15  14  14  14  13  13  13  13  12 
 12  12  11  11  11  10  10  10   9   9   9   8   8   8   8   7   7   7 
  7   6   6   6   6   6   6   6   6   6   6   6   6   6   6   6   7   7 
  7   8   8   9   9  10  11  12  13  14  15  16  18  19  21  23  25  27 
 29  32  35  38  41  44  48  51  55  60  64  69  74  79  84  90  96 102 
109 115 122 129 137 144 152 160 168 176 184 193 202 210 219 228 237 246 
248 241 233 226 219 212 205 198 191 184 178 172 164 159 153 148 142 137 
131 127 121 118 113 109 105 102  98  95  91  89  86  84  81  79  77  75 
 73  72  70  69  67  67  66  65  64  61  63  52  24  25  27  25  26  26 
 26  27  26  25  27  25  27  29  27  27  24 103 115 115 120  61  23  26 
 25  27  24  27  25  24  26  25  24  27  24  27  25  27  27  30  11  47 
 61  57  58  59  57  58  59  58  59  57  58  57  58  56  57  56  56  55 
 56  55  55  54  55  54  54  54  54  53  54  53  54  53  54  53  54  53 
 54  54  54  54  54  54  54  54  54  55  55  55  55  56  56  56  56  57 
 56  57  56  57  57  58  57  58  57  58  57  58  56  57  56  57  55  56 
 55  55  54  54  53  53  50  51  49  51  23 124 149 146 154  23  16  43 
 42  42  40  39  38  38  36  36  35  35  33  33  31  31  30  30  29  28 
 27  27  26  26  25  25  24  24  24  23  23  22  22  22  22  21  21  21 
 21  21  21  20  21  20  21  20  20  20  20  20  20  20  20  20  20  20 
 20  20  20  19  20  19  19  19  19  19  19  19  19  19  18  18  18  18 
 18  17  17  17  17  17  16  16  16  15  15  15  14  14  14  14  13  13 
 12  12  12  11  11  11  10  10  10   9   9   9   8   8   8   8   7   7 
  7   7   6   6   6   6   6   6   6   6   6   6   6   6   6   6   6   7 
  7   8   8   9   9  10  11  12  12  14  15  16  18  19  21  23  25  27 
 29  32  34  37  41  44  47  51  55  59  64  69  74  79  84  90  96 102 
108 115 122 129 136 144 152 160 168 176 184 193 202 210 219 228 237 246 
248 241 234 226 219 212 205 198 192 184 177 161 165 160 153 148 142 137 
133 127 123 118 114 110 106 102  99  95  93  90  87  84  82  80  78  76 
 74  73  71  70  68  68  67  66  64  64  62  63  29  26  26  25  26  25 
 26  26  27  26  26  15  21   2  18  18  47 114 117 109  49  22  26  23 
 26  26  26  25  26  26  26  24  27  26  27  27  25  16  16  61  60  59 
 59  60  58  60  58  59  58  59  58  59  57  58  57  57  56  57  56  56 
 55  56  55  55  54  55  54  55  54  54  54  54  54  54  53  54  54  54 
 54  54  54  54  54  54  54  55  55  55  55  55  56  56  56  56  56  56 
 57  56  57  57  57  57  58  57  58  57  58  56  57  56  57  56  57  55 
 56  54  55  53  54  52  53  50  51  49  50  47 106 150 146 101  10  38 
 42  41  41  39  39  38  38  36  36  34  34  33  32  31  31  30  30  29 
 28  28  27  26  26  26  25  25  24  24  24  23  23  23  23  23  22  22 
 22  22  22  22  21  22  21  22  21  21  21  21  21  21  21  21  21  21 
 21  21  21  21  21  21  20  20  20  20  20  20  20  20  19  19  19  19 
 19  18  18  18  18  17  17  17  17  16  16  15  15  15  15  14  14  13 
 13  12  12  12  12  11  11  10  10  10   9   9   9   8   8   8   7   7 
  7   7   6   6   6   6   6   6   6   5   6   5   6   6   6   6   6   7 
  7   7   8   8   9  10  10  11  12  13  15  16  17  19  21  22  24  27 
 29  32  34  37  40  44  47  51  55  59  64  68  73  79  84  90  96 102 
108 115 122 129 136 144 152 160 168 176 184 193 202 210 219 228 237 246 
248 241 234 227 219 213 205 199 192 186 171 135 137 159 154 149 143 139 
132 129 123 119 115 111 107 104 100  97  93  91  88  86  83  81  79  77 
 75  74  72  71  69  67  68  66  66  64  64  62  64   8  24  25  25  27 
 23  25  25  28  27  25  21  24  24  59  89 120  76  18  27  30  27  28 
 26  26  26  28  28  29  28  31  29  20   6  35  52  58  61  59  60  60 
 61  59  59  59  60  58  59  58  59  58  58  57  58  57  57  56  57  56 
 56  55  56  55  55  55  55  54  55  54  55  54  54  54  54  54  54  54 
 54  54  54  54  55  54  55  55  55  55  55  56  56  56  56  56  56  57 
 57  57  57  57  57  58  57  58  57  58  57  58  56  57  56  57  55  56 
 55  56  54  55  53  54  51  52  50  51  48  47  46  35 153 152  24  28 
 42  42  40  41  39  39  37  37  36  36  34  34  33  32  31  31  30  30 
 29  28  28  27  27  26  26  26  25  25  25  24  24  24  24  23  24  23 
 23  23  23  23  23  22  23  22  23  22  23  22  22  22  22  22  22  22 
 22  22  22  22  22  22  22  21  21  21  21  21  21  21  21  20  20  20 
 20  19  19  19  19  18  18  18  17  17  17  16  16  16  15  15  14  14 
 13  13  13  12  12  12  11  11  10  10   9   9   9   9   8   8   7   7 
  7   7   6   6   6   6   6   6   5   6   5   6   5   6   6   6   6   6 
  7   7   8   8   9   9  10  11  12  13  14  16  17  19  20  22  24  26 
 29  31  34  37  40  43  47  51  55  59  64  68  73  78  84  90  96 102 
108 115 122 129 136 144 151 159 168 176 184 193 202 210 219 228 237 246 
248 241 234 227 220 213 206 199 193 185 159 134 127 124 140 148 144 139 
134 129 125 120 116 112 108 104 101  97  95  91  89  86  84  82  80  78 
 76  74  73  72  70  68  67  66  65  66  65  65  62  55  24  23  25  26 
 26  24  25  24  26  27   6  25  24  34 106  10  60  62  60  52  41  35 
 24  24  23  24  23  29  34  46  59  62  59  61  58  60  60  60  59  60 
 59  60  58  59  58  59  58  59  58  59  58  58  57  58  57  57  56  57 
 56  57  56  56  55  56  55  55  55  55  54  55  54  55  54  55  54  55 
 54  55  54  55  55  55  55  55  55  56  56  56  56  56  56  56  57  57 
 57  57  57  57  58  57  58  57  58  57  58  57  58  56  57  56  57  55 
 56  55  55  54  54  53  53  51  52  50  49  48  48  46   2 109 135   4 
 43  42  42  40  40  39  39  37  37  36  35  34  34  33  32  31  31  30 
 30  29  29  28  28  27  27  27  26  26  26  26  25  25  25  25  24  25 
 24  24  24  24  24  24  24  24  24  24  23  24  23  24  23  24  23  24 
 23  23  23  23  23  23  23  23  23  23  22  22  22  22  22  21  21  21 
 21  20  20  20  20  19  19  19  18  18  18  17  17  16  16  15  15  15 
 14  14  13  13  13  12  12  11  11  10  10   9   9   9   9   8   8   7 
  7   7   7   6   6   6   6   6   6   5   5   5   5   5   6   6   6   6 
  7   7   8   8   9   9  10  11  12  13  14  15  17  18  20  22  24  26 
 29  31  34  37  40  43  47  51  55  59  63  68  73  78  84  89  95 102 
108 115 122 129 136 144 151 159 167 176 184 193 201 210 219 228 237 246 
248 241 234 227 220 213 206 200 192 187 145 135 130 124 117 114 136 139 
135 130 125 121 116 113 109 106 102  99  95  93  90  88  85  83  81  79 
 77  76  74  73  71  69  66  67  67  66  66  65  65  63  30  26  23  26 
 23  25  23  27  23  26  15  24  13  26  57  61  61  59  62  60  54  50 
 60  60  62  61  61  60  62  59  62  59  61  59  61  58  61  60  60  60 
 60  59  60  59  60  59  60  59  59  58  59  58  59  57  58  57  58  57 
 57  56  57  56  56  56  56  55  56  55  56  55  56  55  55  55  55  55 
 55  55  55  55  56  55  56  56  56  56  56  56  57  57  57  57  57  57 
 57  58  57  58  58  58  58  58  57  58  57  58  57  58  57  57  56  57 
 55  56  54  55  53  54  52  53  51  52  50  49  48  48  47  36  12  14 
 22  44  42  41  40  40  39  38  37  37  36  35  34  34  33  32  32  31 
 31  30  30  29  29  28  28  28  28  27  27  26  27  26  26  26  26  25 
 26  25  26  25  25  25  25  25  25  25  25  25  25  25  25  25  25  25 
 25  25  25  24  25  24  24  24  24  24  24  23  23  23  23  23  23  22 
 22  22  21  21  21  20  20  20  19  19  18  18  18  17  17  16  16  16 
 15  15  14  14  13  13  12  12  11  11  10  10   9   9   9   8   8   8 
  7   7   7   7   6   6   6   6   6   6   5   5   5   6   6   6   6   6 
  7   7   7   8   8   9  10  11  12  13  14  15  17  18  20  22  24  26 
 28  31  34  37  40  43  47  51  55  59  63  68  73  78  84  89  95 101 
108 115 122 129 136 144 151 159 167 176 184 193 201 210 219 228 237 246 
248 241 234 227 220 213 207 200 194 186 139 137 130 124 119 112 105 109 
121 131 127 120 118 113 110 106 103  99  97  93  91  88  86  84  82  80 
 78  76  75  73  72  70  69  68  68  66  66  66  65  65  63   9  23  25 
 25  23  25  25  26  21  32  76 103  34  61  60  61  62  46  27  20  22 
 21  27  44  61  60  62  61  62  60  62  60  62  60  61  60  60  60  60 
 60  61  60  61  59  59  59  60  59  60  58  59  58  59  58  58  57  58 
 57  58  57  57  56  57  56  57  56  56  56  56  55  56  55  56  55  56 
 55  56  56  56  56  56  56  57  56  57  57  57  57  57  57  57  58  58 
 58  58  58  58  58  58  58  58  58  58  58  58  58  57  58  57  57  56 
 57  55  56  54  55  53  54  52  53  51  51  48  50  48  47  46  43  19 
  6  43  43  41  42  40  40  39  38  37  37  36  35  35  34  33  33  32 
 32  31  31  30  30  30  29  29  28  28  28  28  27  28  27  27  27  27 
 27  27  26  27  26  27  26  27  26  27  26  27  26  27  26  27  26  26 
 26  26  26  26  26  26  26  26  25  25  25  25  25  25  24  24  24  24 
 23  23  23  22  22  22  21  21  21  20  20  19  19  18  18  17  17  16 
 16  15  15  14  14  13  13  12  12  11  11  10  10   9   9   9   8   8 
  8   7   7   7   6   6   6   6   6   5   6   5   5   5   6   6   6   6 
  7   7   7   8   8   9  10  11  12  13  14  15  17  18  20  22  24  26 
 28  31  34  37  40  43  47  50  54  59  63  68  73  78  84  89  95 101 
108 115 121 129 136 144 151 159 167 176 184 193 201 210 219 228 237 246 
248 241 234 226 220 214 207 201 124  41 129 139 131 125 120 112 108 104 
 98  95 110 117 117 115 110 107 103 101  97  95  92  89  87  85  82  80 
 79  78  76  75  73  70  71  70  68  68  67  66  66  65  65  31  26  24 
 23  24  24  25  33  75 135 136   1  27  61  61  61  55  15  15  17  23 
 24  22  23  40  61  60  62  60  62  61  62  61  62  60  61  60  61  60 
 61  60  61  60  61  60  60  59  60  59  60  59  60  58  59  58  59  58 
 59  57  58  57  58  57  58  57  57  56  57  56  57  56  57  56  57  56 
 57  56  57  56  57  56  57  57  57  57  58  57  58  58  58  58  58  58 
 58  58  58  59  59  59  59  59  58  59  58  59  58  58  57  58  57  57 
 56  57  55  56  54  55  53  54  52  52  51  51  49  50  48  48  46  46 
 33  31  43  43  42  42  40  40  39  38  37  37  36  36  35  34  34  33 
 33  32  32  31  31  31  31  30  30  29  30  29  29  29  29  28  29  28 
 29  28  28  28  28  28  28  28  28  28  28  28  28  28  28  28  28  28 
 28  28  28  27  28  27  27  27  27  27  27  26  26  26  26  26  25  25 
 25  24  24  24  23  23  22  22  22  21  21  20  20  19  19  18  18  17 
 17  16  15  15  14  14  13  13  12  12  11  11  10  10   9   9   9   8 
  8   8   7   7   7   6   6   6   6   6   5   6   5   6   6   6   6   6 
  6   7   7   8   8   9  10  11  12  13  14  15  17  18  20  22  24  26 
 28  31  34  36  40  43  46  50  54  59  63  68  73  78  83  89  95 101 
108 114 121 129 136 143 151 159 167 176 184 193 201 210 219 228 237 246 
248 241 235 226 221 214 207 199  34   7   6  53 139 125 119 113 110 106 
100  94  91  86  86  97 110 108 104  99  99  95  92  90  88  84  84  80 
 80  78  76  75  74  72  72  70  70  69  68  67  65  66  65  60  18  23 
 25  22  26  88 125 130 131  60  25  21  61  60  33  23  24  24  25  18 
 12  24  24  24  42  62  59  61  61  62  61  62  61  62  61  62  61  61 
 61  61  60  61  60  61  60  61  60  61  60  60  59  60  59  60  59  59 
 58  59  58  59  58  59  58  58  57  58  57  58  57  58  57  58  57  58 
 57  58  57  58  57  58  57  58  58  58  58  58  58  59  58  59  59  59 
 59  59  59  59  59  59  59  59  59  59  59  59  59  58  59  58  58  57 
 58  56  57  55  56  54  55  53  54  52  52  51  51  49  49  48  48  46 
 45  44  45  43  43  42  42  40  40  39  39  38  37  37  36  36  35  35 
 34  34  33  33  32  32  31  32  31  31  30  31  30  31  30  30  30  30 
 30  30  29  30  29  30  29  30  29  30  29  30  29  30  29  30  29  30 
 29  30  29  29  29  29  29  29  29  29  28  28  28  28  27  27  27  26 
 26  26  25  25  25  24  24  23  23  22  22  21  21  20  20  19  19  18 
 18  17  17  16  15  15  14  13  13  12  12  11  11  10  10   9   9   8 
  8   8   8   7   7   6   6   6   6   6   6   6   6   6   6   6   6   6 
  6   7   7   8   8   9  10  11  12  13  14  15  16  18  20  22  24  26 
 28  31  33  36  39  43  46  50  54  58  63  68  73  78  83  89  95 101 
108 114 121 128 136 143 151 159 167 176 184 193 201 210 219 228 237 246 
248 241 234 227 221 214 207 196   3   3   9  19   8  64 115 118 111 105 
 98  97  90  88  81  76  71  77  84  90  88  93  93  92  88  86  84  83 
 80  79  77  75  74  74  71  71  70  68  63  55  49  39  30  25  17  18 
 47  88 129 131 128 131 122   9  23  21  58  53  27  26  24  26  24  25 
 26   0  25  23  24  58  62  59  62  61  62  61  62  61  62  61  62  61 
 62  61  62  61  62  61  61  61  61  60  61  60  61  60  61  60  60  59 
 60  59  60  59  60  59  59  58  59  58  59  58  59  58  59  58  59  58 
 59  58  59  58  59  58  59  58  59  58  59  59  59  59  60  59  60  59 
 60  60  60  60  60  60  60  60  60  60  59  60  59  59  59  59  58  58 
 57  58  57  57  56  56  55  55  53  54  52  52  51  51  49  49  48  48 
 47  46  44  45  44  43  42  42  41  40  40  39  38  38  37  37  36  36 
 35  35  35  34  34  33  33  33  33  32  32  32  32  31  32  31  32  31 
 32  31  32  31  32  31  32  31  32  31  32  31  32  31  32  31  32  31 
 31  31  31  31  31  31  31  30  30  30  30  30  30  29  29  29  28  28 
 28  27  27  27  26  26  25  25  24  24  23  23  22  22  21  20  20  19 
 18  18  17  17  16  16  15  14  14  13  12  12  11  11  10  10   9   9 
  8   8   8   7   7   7   6   6   6   6   6   6   6   6   6   6   6   6 
  6   7   7   8   8   9  10  11  11  13  14  15  16  18  20  22  24  26 
 28  31  33  36  39  43  46  50  54  58  63  68  73  78  83  89  95 101 
108 114 121 128 136 143 151 159 167 176 184 193 201 210 219 228 237 246 
248 241 235 227 220 214 208 167   1   4   9  16  20  28  33  38 105 104 
102  95  92  86  83  79  76  71  69  65  62  58  55  61  67  70  72  69 
 75  73  74  67  64  58  52  42  34  31  30  29  30  30  28  25  27 119 
130 128 129 129 128 127  32  13  25  21  59   4  26  25  27  26  26  25 
 27  26   2  25  21  38  61  62  61  62  61  62  61  62  61  62  61  62 
 61  62  61  62  61  62  61  62  61  62  61  62  61  62  61  61  60  61 
 60  61  60  61  60  61  59  60  59  60  59  60  59  60  59  60  59  60 
 59  60  59  60  59  60  59  60  59  60  59  60  60  60  60  61  60  61 
 60  61  61  61  61  61  61  61  61  60  61  60  60  60  60  59  59  58 
 59  58  58  57  57  56  56  55  55  54  54  52  52  51  51  50  49  48 
 48  47  46  45  45  44  43  43  42  41  41  40  39  39  38  38  37  37 
 36  36  36  36  35  35  34  35  34  34  33  34  33  34  33  34  33  34 
 33  34  33  34  33  34  33  34  33  34  33  34  33  34  33  33  33  33 
 33  33  33  33  33  33  32  32  32  32  32  32  31  31  31  30  30  30 
 29  29  29  28  28  27  27  26  26  25  25  24  23  23  22  21  21  20 
 20  19  18  17  17  16  16  15  15  14  13  12  12  11  11  10  10   9 
  9   8   8   8   7   7   7   6   6   6   6   6   6   6   6   6   6   6 
  6   7   7   8   8   9  10  10  11  12  14  15  16  18  20  21  23  26 
 28  31  33  36  39  43  46  50  54  58  63  68  73  78  83  89  95 101 
108 114 121 128 136 143 151 159 167 176 184 193 201 210 219 228 237 246 
248 241 235 228 221 214 207 144   2   1  10  14  21  25  33  40  37  11 
 38  98  99  90  85  80  76  76  69  66  63  61  57  56  51  50  47  45 
 42  41  39  38  36  37  34  34  34  34  33  39  22  38  88 119 131 127 
126 128 127 127 136  57  24  19  25  23  56  11  25  24  26  26  25  26 
 25  25  23  19  22  25  61  62  62  62  62  62  62  62  63  62  63  62 
 63  62  63  62  63  62  63  62  63  62  63  62  63  62  62  61  62  61 
 62  61  62  61  62  61  62  60  62  60  61  60  61  60  61  60  61  60 
 61  60  61  60  61  60  61  60  61  60  61  61  61  61  62  61  62  61 
 62  61  62  61  62  61  62  61  61  61  61  61  61  61  60  60  60  60 
 59  59  58  58  57  57  56  56  55  55  54  54  52  52  51  51  49  50 
 48  48  47  47  46  45  44  44  43  42  42  41  41  40  40  39  39  38 
 38  37  37  37  37  36  36  36  36  35  36  35  36  35  35  35  35  35 
 35  35  35  35  35  35  35  35  35  35  35  35  35  35  35  35  35  35 
 35  35  35  35  35  34  35  34  34  34  34  33  33  33  33  32  32  31 
 31  31  30  30  29  29  28  28  27  27  26  25  25  24  23  23  22  21 
 21  20  19  19  18  17  16  16  15  15  14  13  12  12  11  11  10  10 
  9   9   8   8   8   7   7   7   6   6   6   6   6   6   6   6   6   6 
  6   7   7   8   8   9  10  10  11  12  14  15  16  18  20  21  23  26 
 28  30  33  36  39  43  46  50  54  58  63  67  72  78  83  89  95 101 
108 114 121 128 136 143 151 159 167 175 184 193 201 210 219 228 237 246 
249 242 235 228 222 214 208 129   4   2   8  15  20  25  30  37  40  47 
 54  63  16  37  62  71  80  76  72  68  65  60  59  55  53  51  48  46 
 45  42  41  40  40  38  40  32  18   3  36  94 131 127 124 126 125 126 
127 128 127 128  66  20  23  26  27  22  54   3  25  26  25  24  25  24 
 26  24  25   2  25  27  60  62  62  63  62  63  62  63  62  63  63  63 
 63  63  63  63  63  64  63  64  63  64  63  64  63  64  63  63  62  63 
 62  63  62  63  62  63  62  63  61  63  61  63  61  62  61  62  61  62 
 61  62  61  62  61  62  61  62  61  62  61  63  62  63  62  63  62  63 
 62  63  62  63  62  63  62  62  62  62  62  62  62  61  61  61  61  60 
 60  59  60  58  59  57  58  56  57  55  55  54  54  53  53  51  51  50 
 50  49  48  47  47  46  46  45  44  44  43  43  42  42  41  41  40  40 
 39  39  38  39  38  38  37  38  37  38  37  37  36  37  36  37  36  37 
 36  37  36  37  37  37  37  37  37  37  37  37  37  37  37  37  37  37 
 37  37  37  37  37  37  36  36  36  36  35  35  35  35  34  34  34  33 
 33  32  32  31  31  30  30  29  29  28  27  27  26  25  25  24  23  22 
 22  21  20  19  19  18  18  17  16  15  15  14  13  12  12  11  11  10 
 10   9   9   8   8   7   7   7   7   6   6   6   6   6   6   6   6   6 
  7   7   7   8   8   9  10  10  11  12  14  15  16  18  20  21  23  26 
 28  30  33  36  39  43  46  50  54  58  63  67  72  78  83  89  95 101 
107 114 121 128 136 143 151 159 167 175 184 193 201 210 219 228 237 246 
249 242 235 229 221 215 208 129   4   2   8  12  19  25  32  35  42  46 
 52  54  61  65  66  63  61  20  10  49  71  68  63  60  57  55  52  52 
 51  50  48  31   4  38  85 108 113 118 123 122 123 122 125 126 126 125 
127 126 134  67  20  22  24  26  22  23  51  38  30  24  26  24  26  23 
 26  26  27  21  26  27  63  62  63  63  63  63  63  63  63  63  64  63 
 64  64  64  64  64  64  64  64  65  64  65  64  65  64  65  64  65  63 
 64  63  64  63  64  63  64  63  64  63  64  63  64  62  64  62  64  62 
 64  62  64  62  64  62  64  62  64  63  64  63  64  63  64  63  64  63 
 64  63  64  63  64  63  63  63  63  63  63  63  62  62  62  62  61  61 
 61  61  60  60  59  59  58  58  57  57  56  56  54  54  53  52  52  52 
 51  50  49  49  48  47  47  46  46  45  44  44  43  43  43  42  42  41 
 41  40  40  40  40  39  40  39  39  38  39  38  39  38  39  38  39  38 
 39  38  39  38  39  39  39  39  39  39  40  39  40  39  40  39  39  39 
 39  39  39  39  39  38  39  38  38  38  38  37  37  37  36  36  36  35 
 35  34  34  33  33  32  31  31  30  30  29  28  27  27  26  25  24  24 
 23  22  21  21  20  19  18  18  17  16  15  15  14  13  12  12  11  11 
 10  10   9   9   8   8   7   7   7   7   6   6   6   6   6   6   6   6 
  7   7   7   8   8   9  10  10  11  12  14  15  16  18  19  21  23  26 
 28  30  33  36  39  43  46  50  54  58  63  67  72  78  83  89  95 101 
107 114 121 128 136 143 151 159 167 175 184 193 201 210 219 228 237 246 
249 242 235 228 222 215 199 105   5   1   7  13  18  24  29  35  39  45 
 49  56  57  63  66  71  75  82  85  94  95  87  79  74  73  68  74  83 
 89 100 115 122 119 120 117 117 118 120 119 121 122 123 124 125 126 127 
125 130  62  18  22  22  21  25  15  23  53  62  10  25  26  26  25  25 
 25  26  25  28  25  53  62  63  63  63  63  64  63  64  64  64  64  65 
 64  65  64  65  65  65  65  65  65  66  65  66  65  66  65  66  65  66 
 65  66  65  66  64  66  64  66  64  65  64  65  64  65  64  65  64  65 
 64  65  64  65  64  65  64  65  64  65  64  65  64  65  64  65  64  65 
 64  65  64  65  64  65  64  64  64  64  64  64  64  63  63  63  63  62 
 62  61  61  60  60  59  59  58  58  57  57  56  56  55  55  54  53  52 
 52  51  51  50  49  49  48  47  47  46  46  45  44  44  44  44  43  43 
 42  42  41  42  41  41  41  41  40  41  40  41  40  41  40  41  40  41 
 40  41  40  41  41  41  41  42  41  42  41  42  41  42  41  42  41  42 
 41  41  41  41  41  41  40  40  40  40  40  39  39  39  38  38  37  37 
 37  36  36  35  34  34  33  32  32  31  31  30  29  28  28  26  26  25 
 24  23  23  22  21  20  19  18  18  17  16  15  15  14  13  12  12  11 
 11  10  10   9   9   8   8   7   7   7   7   6   6   6   6   6   6   6 
  7   7   7   8   8   9  10  10  11  12  14  15  16  18  19  21  23  25 
 28  30  33  36  39  42  46  50  54  58  63  67  72  78  83  89  95 101 
107 114 121 128 136 143 151 159 167 175 184 193 201 210 219 228 237 246 
249 242 235 228 221 210 171 114   4   1   8  11  18  23  29  33  40  43 
 49  53  59  62  69  71  75  77  82  84  88  89  94  95  99 101 103 104 
107 108 111 111 115 114 116 115 119 119 121 120 121 123 124 124 124 125 
119  36  21  23  23  25  23  26  10  23  55  63  40  25  26  23  26  23 
 25  23  25  17  46  63  63  62  64  64  64  64  64  64  65  65  65  65 
 65  65  66  65  66  66  66  66  67  66  67  66  67  66  67  66  67  66 
 67  66  67  66  67  66  67  66  67  65  67  65  67  65  67  65  67  65 
 67  65  67  65  67  65  67  65  66  65  66  65  66  65  66  65  66  65 
 66  65  66  65  66  65  66  65  65  65  65  65  65  64  64  64  63  63 
 63  63  62  62  61  61  60  60  59  59  58  57  56  56  55  55  54  54 
 53  52  52  51  50  50  49  49  48  47  47  46  46  45  45  45  45  44 
 44  43  44  43  43  42  43  42  43  42  43  42  43  42  43  42  43  42 
 43  42  43  43  44  43  44  43  44  43  44  43  44  43  44  43  44  43 
 44  43  44  43  43  43  43  42  42  42  42  41  41  41  40  40  40  39 
 39  38  37  37  36  36  35  34  33  33  32  31  30  30  29  28  26  26 
 25  25  24  23  22  21  20  20  18  18  17  16  15  15  14  13  12  12 
 11  11  10  10   9   9   8   8   7   7   7   7   6   6   6   6   6   7 
  7   7   7   8   8   9  10  10  11  12  14  15  16  18  19  21  23  25 
 28  30  33  36  39  42  46  50  54  58  63  67  72  78  83  89  95 101 
107 114 121 128 136 143 151 159 167 175 184 193 201 210 219 228 237 246 
249 242 236 229 223 181 172 128   6   1   6  12  17  23  27  34  38  44 
 47  53  56  62  64  70  72  77  79  84  85  89  90  95  95  99 100 105 
104 107 107 111 110 113 114 116 114 119 117 121 120 122 123 123 129  70 
 45  20  20  22  22  24  24  25  12  22  57  62  63  42  25  25  23  24 
 24  25  26  39  63  60  63  64  64  64  64  65  65  65  65  66  66  66 
 66  66  66  67  67  67  67  68  67  68  67  68  67  68  67  68  67  69 
 67  69  67  69  67  69  67  69  67  69  67  68  67  68  67  68  66  68 
 66  68  66  68  66  68  66  68  66  68  66  68  66  68  66  68  67  68 
 67  67  67  67  66  67  66  67  66  66  66  66  66  65  65  65  65  64 
 64  63  63  62  62  61  61  60  60  59  59  58  58  57  57  56  55  55 
 54  53  53  52  52  51  50  50  49  49  48  48  47  47  46  47  46  46 
 45  46  45  45  44  45  44  45  44  45  44  45  44  45  44  45  44  45 
 44  45  45  46  45  46  45  46  45  46  45  46  46  46  46  46  46  46 
 46  46  45  46  45  45  45  45  44  44  44  44  43  43  42  42  42  41 
 41  40  39  39  38  37  37  36  35  34  34  33  32  31  30  29  29  27 
 27  26  25  24  23  22  21  20  20  18  18  17  16  15  15  14  13  12 
 12  11  11  10   9   9   8   8   8   7   7   7   7   6   7   6   7   7 
  7   7   8   8   8   9  10  10  11  12  14  15  16  18  19  21  23  25 
 28  30  33  36  39  42  46  50  54  58  63  67  72  77  83  89  95 101 
107 114 121 128 136 143 151 159 167 175 184 193 201 210 219 228 237 246 
249 241 234 229 194 180 128  12   5   1   6  11  17  22  28  32  39  42 
 48  51  57  60  65  67  73  75  80  81  86  87  91  92  96  98 101 100 
105 106 108 108 111 111 114 114 118 115 119 118 120 121 124 111  23  68 
 65  16  21  20  23  23  24  25  10  24  62  63  62  63  51   1  21  27 
 27  18  16  64  61  64  64  63  64  65  65  65  65  66  66  66  67  67 
 67  67  68  68  68  68  68  68  69  68  69  69  70  69  70  69  70  69 
 70  69  70  69  70  69  70  69  70  68  70  68  70  68  70  68  70  68 
 70  68  70  68  70  68  70  68  70  68  69  68  69  68  69  68  69  68 
 69  68  69  68  68  68  68  67  68  67  67  67  67  66  66  66  66  65 
 65  65  64  64  63  63  62  62  61  61  60  60  59  58  58  57  56  56 
 55  55  54  53  53  52  52  51  51  50  50  49  49  48  49  48  48  47 
 48  46  47  46  47  46  47  46  47  46  47  46  47  46  47  46  47  46 
 47  47  48  47  48  47  48  47  48  48  48  48  49  48  49  48  49  48 
 48  48  48  48  48  47  47  47  47  46  46  46  46  45  45  44  44  43 
 43  42  41  41  40  39  39  38  37  36  35  35  34  33  32  30  30  29 
 28  27  26  25  24  23  22  21  20  20  18  18  17  16  15  14  14  13 
 12  12  11  10  10   9   9   8   8   8   7   7   7   7   7   7   7   7 
  7   7   8   8   8   9  10  11  11  12  14  15  16  18  19  21  23  25 
 28  30  33  36  39  42  46  50  54  58  63  67  72  77  83  89  95 101 
107 114 121 128 136 143 151 159 167 175 184 193 201 210 219 228 237 246 
249 241 236 221 188 120  18  11   6   1   4  11  16  23  26  33  36  43 
 46  52  55  61  63  69  70  76  77  82  83  88  89  93  94  98  97 102 
103 105 106 110 109 112 111 116 115 117 117 119 120 125  63  59  69  67 
 67  10  21  22  22  24  22  25  11  25  64  60  63  63  64  63  61  59 
 58  61  62  62  64  64  65  65  65  65  66  66  66  66  67  67  67  68 
 68  68  68  69  69  69  69  70  70  70  70  71  70  71  70  71  70  72 
 70  72  70  72  70  72  70  72  70  72  70  72  70  72  70  72  70  72 
 70  71  69  71  69  71  69  71  69  71  69  71  69  71  69  71  69  70 
 69  70  69  70  69  70  69  69  68  69  68  68  68  68  67  67  67  66 
 66  65  65  65  64  64  63  63  62  62  61  60  60  59  59  58  58  57 
 56  56  55  55  54  54  53  53  52  52  51  51  50  50  49  50  49  49 
 48  49  48  49  48  49  48  49  48  49  48  49  48  49  48  49  48  50 
 49  50  49  50  49  50  50  51  50  51  50  51  50  51  50  51  50  51 
 50  51  50  50  50  50  50  50  49  49  48  48  48  47  47  46  46  45 
 45  44  43  43  42  41  41  40  39  38  37  36  35  34  34  32  31  30 
 29  28  28  26  26  24  23  22  22  20  20  18  18  17  16  15  14  13 
 13  12  11  11  10  10   9   9   8   8   8   7   7   7   7   7   7   7 
  7   7   8   8   9   9  10  11  11  12  14  15  16  18  19  21  23  25 
 28  30  33  36  39  42  46  50  54  58  63  67  72  77  83  89  95 101 
107 114 121 128 136 143 151 159 167 175 184 192 201 210 219 228 237 246 
248 241 235 205 126  18  19  14   7   2   5  10  17  21  27  31  38  41 
 47  50  56  58  64  66  72  73  78  80  85  86  90  91  95  95 100 100 
104 104 107 107 111 112 114 114 117 116 121 126  63  32  70  70  68  69 
 66  36  23  19  23  22  23  24  14  35  63  64  62  64  63  63  63  64 
 64  62  63  64  64  64  63  66  65  66  66  67  67  67  68  68  68  69 
 69  69  70  70  70  70  71  71  71  71  72  71  72  72  73  72  73  72 
 73  72  73  72  73  72  74  72  74  72  74  72  74  71  73  71  73  71 
 73  71  73  71  73  71  73  71  73  71  73  71  72  71  72  71  72  70 
 72  70  71  70  71  70  71  70  70  69  70  69  69  69  69  68  68  67 
 67  67  66  66  65  65  64  64  63  63  62  62  61  60  60  59  59  58 
 58  57  57  56  56  55  55  54  54  53  53  52  52  51  52  51  51  50 
 51  50  51  50  51  50  51  50  51  50  51  50  51  50  51  50  52  51 
 52  51  52  51  53  52  53  52  53  52  53  53  53  53  53  52  53  53 
 53  53  53  52  53  52  52  52  52  51  51  50  50  50  49  49  48  48 
 47  46  46  45  44  43  42  42  41  40  39  38  37  36  34  34  33  31 
 31  30  29  28  26  26  24  24  22  21  20  20  18  18  16  16  15  14 
 13  13  12  11  10  10   9   9   8   8   8   8   7   7   7   7   7   7 
  7   7   8   8   9   9  10  11  11  13  14  15  16  18  19  21  23  25 
 28  30  33  36  39  42  46  50  54  58  62  67  72  77  83  89  95 101 
107 114 121 128 136 143 151 159 167 175 184 192 201 210 219 228 237 246 
249 242 236 207  35  24  20  12   8   1   4  11  15  22  25  32  35  42 
 45  51  54  60  62  67  69  75  76  81  82  87  88  92  93  97  97 100 
101 106 104 110 108 113 111 115 115 113  71  47  73  70  71  69  69  68 
 68  59  24  20  22  22  20  27  20  43  65  64  63  63  64  64  63  62 
 65  64  65  65  64  65  66  65  67  66  67  67  68  68  69  69  69  70 
 70  70  71  71  71  72  72  72  72  73  73  74  73  74  73  74  73  75 
 74  75  74  75  74  75  74  75  73  75  73  75  73  75  73  75  73  75 
 73  75  73  75  73  75  73  75  72  74  72  74  72  74  72  74  72  73 
 72  73  72  73  71  72  71  72  71  71  70  71  70  70  69  69  69  69 
 68  68  67  67  66  66  65  65  64  64  63  63  62  62  61  61  60  59 
 59  58  58  57  57  57  56  56  55  55  54  54  53  54  52  53  52  53 
 52  53  51  53  51  53  51  53  52  53  52  53  52  53  52  54  53  54 
 53  54  54  55  54  55  54  55  55  56  55  56  55  55  55  56  55  56 
 55  56  55  55  55  55  54  54  54  54  53  53  52  52  51  51  50  50 
 49  48  48  47  46  45  45  44  43  42  41  40  39  38  37  34  35  33 
 32  31  30  29  28  27  26  24  24  22  21  20  19  18  17  16  16  15 
 14  13  12  12  11  10  10   9   9   8   8   8   8   7   7   7   7   7 
  7   7   8   8   9   9  10  11  12  13  14  15  16  18  19  21  23  25 
 28  30  33  36  39  42  46  50  54  58  62  67  72  77  83  89  95 101 
107 114 121 128 136 143 151 159 167 175 184 192 201 210 219 228 237 246 
249 241 231  50  31  25  17  15   7   2   5   9  16  20  27  30  37  40 
 46  49  55  57  63  65  71  72  77  78  84  84  89  90  94  94  99  99 
104 103 106 107 112 112 124  90   3  58  74  75  71  72  70  71  69  68 
 65  68  19  19  22  21  23  23  26  56  63  65  64  64  63  64  64  65 
 64  64  65  66  65  66  66  67  67  68  67  68  68  69  69  70  70  71 
 71  71  72  72  73  73  73  73  74  74  75  74  75  75  76  75  76  75 
 77  75  77  75  77  75  77  75  77  75  77  75  77  75  77  75  77  75 
 77  75  77  74  77  74  76  74  76  74  76  74  76  74  75  74  75  73 
 75  73  74  73  74  73  73  72  73  72  72  71  72  71  71  70  70  70 
 69  69  68  68  68  67  67  66  66  65  64  64  63  63  62  62  61  60 
 60  59  59  58  58  57  57  56  57  56  56  55  56  54  55  54  55  53 
 55  53  54  53  54  53  55  53  55  54  55  54  55  54  56  55  56  55 
 57  56  57  56  57  57  58  57  58  57  58  57  58  58  58  58  58  58 
 58  58  58  57  58  57  57  57  57  56  56  55  55  54  54  53  53  52 
 51  51  50  49  48  47  46  46  45  44  42  42  39  39  38  37  36  35 
 34  33  31  30  29  28  27  26  24  23  22  21  20  19  18  17  16  15 
 14  14  13  12  11  11  10  10   9   9   8   8   8   8   7   7   7   7 
  7   8   8   8   9   9  10  11  12  13  14  15  16  18  19  21  23  25 
 28  30  33  36  39  42  46  50  54  58  62  67  72  77  83  89  95 101 
107 114 121 128 135 143 151 159 167 175 184 192 201 210 219 228 237 246 
248 242 132  37  32  25  20  13   8   1   3  10  14  21  25  32  35  41 
 44  50  53  59  61  67  68  74  75  80  81  86  87  91  93  97  95 100 
101 109 111 102  69  29  46  78  78  75  75  72  74  71  72  70  69  68 
 69  67  11  22  19  22  20  20  31  60  65  64  65  64  64  64  65  64 
 66  64  66  64  67  66  66  67  68  68  69  69  70  70  71  71  71  72 
 72  73  73  73  74  74  75  75  75  76  76  77  76  77  76  78  77  78 
 77  78  77  79  77  79  77  79  77  79  77  79  77  79  77  79  77  79 
 76  79  76  79  76  78  76  78  76  78  76  78  75  77  75  77  75  77 
 75  76  74  76  74  75  74  75  73  74  73  73  72  73  72  72  71  71 
 70  70  69  69  69  68  68  67  67  66  65  65  64  64  63  63  62  62 
 61  61  60  60  59  59  58  59  57  58  57  57  56  57  56  57  55  56 
 55  56  55  56  55  56  55  57  55  57  56  57  56  58  57  58  57  59 
 58  59  58  60  59  60  59  60  60  61  60  61  59  61  59  55  60  61 
 60  61  60  60  60  60  59  59  59  59  58  58  57  57  56  56  55  54 
 54  53  52  51  50  49  49  47  47  45  45  43  42  41  27  39  38  36 
 35  34  33  31  30  29  28  27  26  24  23  22  21  20  19  18  17  16 
 15  14  13  13  12  11  11  10  10   9   9   8   8   8   8   7   7   7 
  8   8   8   8   9   9  10  11  12  13  14  15  16  18  19  21  23  25 
 28  30  33  36  39  42  46  50  54  58  62  67  72  77  83  89  95 101 
107 114 121 128 135 143 151 159 167 175 184 192 201 210 219 228 237 246 
249 240  42  39  31  25  19  14   7   4   4   9  15  20  26  29  36  40 
 46  48  54  56  62  64  70  71  77  78  83  84  89  90  93  95 100 101 
 87  23  48  85  80  83  76  65  56  59  68  75  72  72  71  71  69  69 
 68  69   5  19  21  21  22  12  31  65  64  66  64  65  64  66  64  66 
 65  66  65  67  66  68  67  68  68  69  69  70  70  71  71  72  72  73 
 73  74  74  75  75  76  76  76  77  77  78  76  77  67  26   4  34  58 
 57  58  55  55  30   8  29  71  81  79  81  79  80  79  81  78  80  78 
 81  78  81  78  80  78  80  78  80  77  79  77  79  77  79  77  78  76 
 78  76  77  76  77  75  76  75  76  74  74  74  72  73  73  47  13   9 
  9   9  10  12  13  32  66  68  68  67  67  66  66  65  65  64  64  63 
 63  62  62  61  61  60  60  59  60  58  59  58  59  57  58  57  58  57 
 58  57  58  57  58  57  59  57  59  58  59  58  60  59  60  59  61  60 
 61  59  62  61  62  61  63  62  63  62  63  61  63  22 171  36  64  63 
 63  63  63  63  63  62  62  62  62  61  61  60  60  59  59  57  57  56 
 56  55  53  53  52  52  51  50  48  48  45  45  33 163  46  41  39  38 
 35  35  34  33  31  30  29  28  26  25  24  23  22  21  19  19  17  17 
 16  15  14  13  12  12  11  10  10   9   9   9   8   8   8   8   8   8 
  8   8   8   9   9   9  10  11  12  13  14  15  16  18  19  21  23  25 
 28  30  33  36  39  42  46  50  54  58  62  67  72  77  83  89  95 101 
107 114 121 128 135 143 151 159 167 175 184 192 201 210 219 228 237 246 
248 197 113  65  22  19  18  12   8   0   5  10  14  21  24  32  34  41 
 43  51  53  57  61  66  67  73  74  77  65  54  38  24  16  38  61  81 
 92  88  87  84  82  50  41  37  40  36  37  37  51  71  73  69  70  68 
 69  66   2  20  21  23  19   2  48  65  66  64  66  64  66  65  66  65 
 67  66  67  66  68  67  69  68  70  68  71  70  72  71  73  73  74  74 
 75  75  75  76  76  77  76  77  15  41  81 109 140 153 152 149 148 148 
147 146 148 145 147 148 151 152 137 109  82  44   5  68  79  82  80  83 
 80  83  80  81  80  82  79  82  79  81  79  81  79  81  78  80  78  80 
 78  79  76  79  77  77  76  76  66   6  48  85 113 138 159 160 157 157 
157 159 160 159 161 163 164 147 126  98  63  12  48  65  65  64  64  64 
 63  64  62  63  62  62  60  61  60  60  60  60  59  60  59  60  59  60 
 59  60  59  60  59  60  59  61  59  61  60  62  61  62  61  63  62  63 
 62  64  62  64  63  65  64  65  65  65  65  49 101 187 182  39  65  66 
 65  66  65  66  65  65  64  65  64  64  63  63  62  62  60  60  59  59 
 57  57  57  56  55  53  53  52  51  48  48  83 196 211  44  42  41  39 
 38  36  36  34  33  31  30  29  28  26  25  24  23  21  20  19  18  17 
 16  15  15  13  13  12  11  11  10  10   9   9   8   8   8   8   8   8 
  8   8   8   9   9  10  10  11  12  13  14  15  16  18  20  21  23  25 
 28  30  33  36  39  42  46  50  54  58  62  67  72  77  83  89  95 101 
107 114 121 128 135 143 151 159 167 175 184 192 201 210 219 228 237 246 
248 243 236 229 220 137  50  25   5   2   4  10  16  18  26  29  36  38 
 45  47  53  57  61  63  69  71  76  80  30  79  68  67  69  97  94  94 
 89  90  86  86  46  44  44  43  40  41  36  38  34  38  66  71  69  71 
 66  69   3  18  22  20  22  10  64  66  65  66  65  66  65  66  65  67 
 66  67  66  68  67  69  68  70  68  71  70  72  72  73  72  74  74  75 
 75  75  76  77  63  19  81 157 150 145 142 143 142 144 141 142 141 142 
140 141 140 142 141 143 140 142 138 142 138 142 144 151  98   2  62  79 
 85  82  84  82  84  81  84  80  83  81  83  80  83  80  82  80  82  78 
 81  78  80  78  76  57   2 107 156 152 147 147 147 149 146 148 149 150 
150 150 150 151 152 151 153 154 153 154 155 161 168 132  26  43  60  65 
 65  63  64  63  63  62  63  61  62  61  62  61  62  60  62  60  62  60 
 62  60  62  60  62  61  63  61  63  62  64  62  64  63  65  64  65  64 
 66  65  67  66  67  65  68  66  68  59  32 188 180 181 179  41  69  68 
 69  68  68  68  68  67  67  67  67  66  66  65  65  64  64  62  62  61 
 61  60  58  58  57  56  54  54  51   7 192 203 201 207  41  44  42  41 
 38  38  37  36  34  33  31  30  29  27  26  25  23  22  21  20  19  18 
 17  16  15  14  13  13  12  11  10  10   9   9   9   8   8   8   8   8 
  8   8   8   9   9  10  10  11  12  13  14  15  16  18  20  21  23  25 
 28  30  33  36  39  42  46  50  54  58  62  67  72  77  83  89  95 101 
107 114 121 128 135 143 151 159 167 175 184 192 201 210 219 228 237 246 
249 242 235 229 224 216 212 188 146  23  10  11  13  20  24  31  33  39 
 43  49  52  57  59  65  66  72  73  80  80  26  68  61  62  84  97  92 
 91  88  88  67  50  32   8  21   1  38  46  36  36  34  36  64  70  69 
 70  67   8  22  20  22  21  32  67  64  67  65  66  65  67  65  67  66 
 68  66  68  67  69  68  70  69  71  71  72  72  73  73  75  75  76  76 
 77  77  49  88 131 146 145 142 143 141 140 140 141 138 139 139 141 138 
139 138 139 136 139 137 139 137 140 135 140 136 141 136 140 139 133 104 
  2  86  84  85  82  86  83  85  82  85  82  85  81  84  82  83  81  83 
 80  82  80  11 116 136 148 144 145 145 145 145 145 146 147 147 148 148 
149 149 150 150 150 151 152 152 153 154 154 154 155 156 160 153 129  37 
 65  66  63  65  64  65  63  64  63  64  61  63  62  63  62  63  62  63 
 62  64  62  64  62  64  63  65  64  65  64  66  65  67  66  67  66  68 
 67  69  68  68  68  70  68  69   9 152 180 176 179 177 177  44  71  71 
 71  71  70  71  70  70  70  70  69  69  68  68  67  67  66  64  64  64 
 63  62  61  60  59  57  57  41 148 195 198 199 199 206  39  45  44  41 
 41  40  38  37  35  34  33  31  30  28  27  26  25  23  22  21  20  18 
 18  16  16  14  14  13  12  11  11  10  10   9   9   9   8   8   8   8 
  8   8   8   9   9  10  10  11  12  13  14  15  16  18  20  21  23  25 
 28  30  33  36  39  42  46  50  54  58  62  67  72  77  83  89  95 101 
107 114 121 128 135 143 151 159 167 175 184 192 201 210 219 228 237 246 
248 242 236 230 223 218 210 204 199 195 141  51  14  21  26  28  34  39 
 46  47  53  55  61  63  70  70  77  76  83  75  54  69  60  60  91  94 
 90  89  86  39  70 118 119 116 122 122  81   7  38  36  32  41  68  69 
 68  70   4  18  21  19  21  60  62  67  65  67  65  67  65  67  66  68 
 66  68  67  69  68  70  69  71  71  73  72  73  73  74  75  74  76  78 
 27  83 157 145 143 143 141 143 139 141 139 139 137 140 137 138 137 138 
136 137 135 137 135 137 135 137 135 137 133 138 134 137 136 137 136 139 
143 116   2  81  88  83  87  84  87  84  87  84  86  83  85  83  83  82 
 56  27 132 152 141 144 141 144 143 144 143 145 144 146 144 146 146 147 
146 148 148 150 148 149 150 151 151 152 154 152 154 154 154 155 155 164 
155  47  43  65  66  65  66  63  65  62  65  64  65  63  65  63  65  63 
 65  64  65  64  66  65  66  65  67  66  68  67  69  67  69  68  70  69 
 71  70  71  71  72  71  43  90 182 178 174 176 174 175 174  47  74  73 
 74  73  74  73  73  72  73  72  72  71  71  70  70  69  68  68  67  66 
 65  64  63  61  61  53  64 196 193 195 193 196 198 205  37  47  45  44 
 41  41  40  38  37  35  34  32  31  30  28  27  25  24  23  22  20  19 
 18  17  16  15  14  13  12  12  11  11  10  10   9   9   9   8   8   8 
  8   8   9   9   9  10  10  11  12  13  14  15  16  18  20  21  23  26 
 28  30  33  36  39  42  46  50  54  58  62  67  72  77  83  89  95 101 
107 114 121 128 135 143 151 159 167 175 184 192 201 210 219 228 237 246 
249 242 235 230 224 216 212 205 200 192 188 182 164  25  26  31  33  41 
 43  49  52  57  60  65  65  72  73  80  79  85  71  59  65  59  74  92 
 93  88  72 108 106 109 108 112 112 115 114 118  79  36  36  30  60  68 
 69  67   6  18  20  24  18  64  67  64  67  65  67  65  67  66  68  66 
 69  67  69  68  70  69  72  71  73  72  74  74  75  75  76  75  67  94 
147 144 142 143 141 141 140 139 140 138 138 138 137 136 137 135 136 136 
136 134 135 133 134 132 135 134 134 133 135 132 134 132 135 133 135 132 
136 134 138 130  34  89  87  89  85  89  86  88  85  87  84  87  83  34 
139 139 140 139 141 140 142 141 142 142 142 142 144 143 146 144 146 145 
147 147 148 148 149 150 150 149 151 152 152 152 153 153 155 153 154 153 
156 156 162  65  60  67  66  67  65  66  64  66  65  66  65  66  65  67 
 65  67  66  67  66  68  67  69  67  69  68  70  69  71  70  72  71  73 
 72  73  72  74  70  44 181 174 174 172 173 172 173 172 171  50  76  77 
 76  76  76  76  75  75  75  75  74  74  73  73  72  72  71  70  69  68 
 67  66  66  64   0 188 187 190 190 191 193 193 195 203  37  49  47  46 
 44  42  41  39  38  36  35  33  32  30  29  27  26  25  24  22  21  20 
 19  18  17  15  15  14  13  12  12  11  10  10   9   9   9   9   8   8 
  8   8   9   9   9  10  10  11  12  13  14  15  17  18  20  21  23  26 
 28  30  33  36  39  42  46  50  54  58  62  67  72  77  83  89  95 101 
107 114 121 128 135 143 151 159 167 175 184 192 201 210 219 228 237 246 
248 242 236 229 224 218 209 206 199 195 186 184 176 172 126  15  42  39 
 46  47  53  54  61  62  68  70  75  76  81  84  88  23  68  61  54  88 
 88  91  78 105 109 107 111 109 116 112 116 115 122  83  37  34  47  71 
 68  70   4  19  21  15  62  67  65  67  65  67  65  68  66  68  66  69 
 67  70  68  71  69  72  71  73  72  74  73  76  75  76  76  34 138 145 
143 142 143 140 140 139 139 138 137 138 136 136 136 135 133 136 133 134 
131 134 132 133 131 132 130 132 131 133 130 133 129 133 130 133 132 134 
131 135 132 133 140  79  74  87  91  88  90  87  89  85  89  13 117 144 
137 139 137 139 139 139 140 141 140 142 141 142 142 143 144 144 144 145 
145 145 146 147 147 148 148 150 149 149 149 152 151 152 152 153 154 154 
154 154 154 158 138  37  68  66  68  65  68  66  68  66  68  66  68  67 
 68  67  69  68  70  68  70  69  71  70  72  71  73  72  74  73  75  74 
 75  73  76   4 135 179 172 172 171 171 169 172 169 170 169  52  79  78 
 79  78  79  78  78  78  78  77  77  76  76  75  75  74  73  71  72  71 
 70  69  33 120 190 185 186 186 188 189 191 192 193 202  34  50  49  47 
 45  43  42  41  39  38  36  35  33  32  30  29  27  26  24  23  22  21 
 19  18  17  16  15  14  13  13  12  11  11  10  10   9   9   9   9   9 
  8   9   9   9   9  10  11  11  12  13  14  15  17  18  20  21  23  26 
 28  30  33  36  39  42  46  50  54  58  62  67  72  77  83  89  95 101 
107 114 121 128 135 143 151 159 167 175 184 192 201 210 219 228 237 246 
249 243 237 230 224 216 212 205 200 192 188 182 177 171 167 161  70  34 
 43  50  52  58  58  65  66  71  72  78  79  85  84  99  19  59  58  58 
 93  74  94 106 106 108 108 112 111 116 114 118 117 125  50  36  45  69 
 71  68   5  19  18   7  67  65  68  65  68  65  68  66  68  66  69  67 
 70  68  71  69  72  71  73  72  74  74  76  74  77  63  83 150 143 144 
140 141 140 140 138 138 137 136 136 135 135 134 134 133 133 132 132 131 
133 130 132 130 131 129 131 129 131 129 131 129 131 129 131 129 132 129 
132 129 133 129 138  42  90  93  90  92  89  90  89  68  92 140 136 134 
137 135 137 137 138 137 139 138 140 139 141 140 142 141 143 142 144 144 
144 145 145 147 147 147 148 148 149 149 150 150 152 151 151 153 152 153 
153 155 153 153 155 160 110  46  68  68  68  69  68  69  68  69  68  70 
 68  70  69  71  70  72  70  73  71  73  72  74  73  75  74  76  75  77 
 76  50 101 176 171 170 169 168 169 167 169 165 168 167 165  55  81  82 
 81  82  81  81  80  81  80  80  79  79  78  78  77  76  74  75  72  73 
 57  56 185 180 181 182 183 184 186 187 189 190 193 199  32  52  49  49 
 47  45  44  42  41  39  37  35  34  32  31  29  28  26  25  24  22  21 
 20  19  18  16  16  15  14  13  12  11  11  10  10   9   9   9   9   9 
  9   9   9   9  10  10  11  11  12  13  14  15  17  18  20  21  23  26 
 28  30  33  36  39  42  46  50  54  58  62  67  72  77  83  89  95 101 
107 114 121 128 135 143 151 159 167 175 184 192 201 210 219 228 237 246 
249 243 236 230 224 218 211 206 199 195 188 184 177 173 166 163 155 138 
  8  52  53  54  61  62  68  69  75  76  81  82  88  89  80  58  57  58 
 80  77  96 104 109 107 111 110 114 112 116 115 119 118 119  14  54  71 
 68  69   0  20  25  57  66  68  66  68  66  68  66  68  66  69  67  70 
 68  70  69  71  70  73  72  75  73  76  74  78  54 126 146 142 143 141 
141 139 139 138 137 136 136 135 134 134 133 133 132 132 131 131 130 130 
129 130 128 130 128 129 127 129 127 129 127 129 127 130 127 129 127 129 
127 129 127 133  15  91  94  92  94  91  92  90   7 126 133 134 133 135 
133 136 134 137 135 137 136 138 137 139 139 140 140 141 141 142 142 143 
143 144 144 145 145 147 147 148 148 149 149 150 149 151 150 151 151 152 
152 153 152 153 153 155 154 150  24  68  69  69  70  69  71  68  71  70 
 72  70  72  71  73  72  74  73  75  74  76  75  77  76  78  77  79  78 
 65 163 169 169 167 168 165 167 165 166 165 165 164 165 163  56  84  83 
 84  83  84  83  83  83  83  82  82  81  81  80  80  79  78  76  76  12 
162 177 177 177 178 180 181 182 184 185 187 188 190 197  31  54  52  50 
 48  47  45  44  42  40  38  37  35  34  32  30  29  27  26  25  23  22 
 20  19  18  17  16  15  14  13  12  12  11  11  10  10   9   9   9   9 
  9   9   9   9  10  10  11  11  12  13  14  15  17  18  20  22  23  26 
 28  30  33  36  39  42  46  50  54  58  62  67  72  77  83  89  95 101 
107 114 121 128 135 143 151 159 167 175 184 192 201 210 219 228 237 246 
249 243 237 230 224 217 212 205 201 193 189 182 178 171 168 161 158 151 
149  48  57  58  60  65  66  73  72  78  78  85  84  89  93  43  64  53 
 61  89  81 107 107 109 108 112 111 115 111 117 116 119 118   3  72  69 
 71  68   1  20  21  66  67  65  68  66  68  66  68  66  69  67  70  68 
 71  69  72  70  73  72  74  73  76  74  78  36 140 147 142 144 140 141 
139 139 137 137 136 135 134 134 133 132 132 131 131 129 130 128 129 127 
128 127 128 125 128 125 127 125 127 125 127 125 127 125 126 126 128 126 
129 125 132  36  93  95  94  96  92  96  91  47 143 129 132 131 133 131 
134 132 135 133 136 135 137 136 138 137 139 138 140 139 141 141 142 142 
143 143 144 144 145 145 146 146 147 147 148 148 149 149 150 150 151 151 
152 151 152 151 152 153 153 152 161  66  69  71  70  72  69  72  71  72 
 71  73  72  74  73  75  73  76  75  77  76  78  77  79  78  81   0 136 
175 165 166 165 166 164 165 163 164 162 163 162 163 162 161  60  85  87 
 85  86  86  86  85  86  85  85  84  84  83  83  82  81  80  31 105 178 
173 174 175 175 176 178 179 180 182 183 185 187 188 196  29  55  54  52 
 50  48  47  45  43  41  40  38  36  34  33  31  30  28  27  25  24  22 
 21  20  19  17  17  15  15  14  13  12  12  11  10  10  10   9   9   9 
  9   9   9   9  10  10  11  11  12  13  14  15  17  18  20  22  23  26 
 28  30  33  36  39  42  46  50  54  58  62  67  72  77  83  89  95 101 
107 114 121 128 135 143 151 159 167 175 184 192 201 210 219 228 237 246 
249 243 236 230 224 218 211 206 199 195 188 184 177 173 166 163 155 154 
145 145 105  48  61  63  69  69  74  76  80  82  86  87  92  93  11  57 
 50  82  31 110 109 108 111 110 114 111 118 115 119 118 120  14  69  70 
 68  70  10  10  60  69  65  67  66  68  66  68  66  69  67  70  68  70 
 69  72  69  72  71  73  73  76  75  78  56 138 145 143 143 140 141 138 
139 137 137 135 135 133 133 132 131 131 130 129 129 128 127 128 126 127 
125 126 124 126 124 126 123 125 123 125 123 125 122 125 124 125 123 127 
123 128  53  95  97  96  98  93  97  89 103 132 129 130 127 131 129 133 
130 133 132 134 133 135 134 136 135 137 136 138 138 139 139 141 140 142 
142 143 143 144 144 145 145 146 146 147 147 148 148 149 149 150 149 151 
150 151 150 152 151 152 150 152 152 153 118  60  73  71  73  72  74  73 
 75  73  75  74  76  75  77  76  79  77  79  78  81  79  63 127 169 166 
165 165 163 165 162 163 161 162 160 161 160 161 159 160 158  61  89  88 
 89  88  88  87  88  88  88  87  87  86  86  84  84  76  70 173 168 168 
169 171 171 173 174 176 177 178 180 181 183 185 186 194  28  57  55  53 
 51  50  48  46  44  43  41  39  37  36  34  32  30  29  27  26  24  23 
 22  20  19  18  17  16  15  14  13  13  12  11  11  10  10  10   9   9 
  9   9   9  10  10  10  11  12  12  13  14  15  17  18  20  22  23  26 
 28  30  33  36  39  42  46  50  54  58  62  67  72  77  83  89  95 101 
107 114 121 128 135 143 151 159 167 175 184 192 201 210 219 228 237 246 
249 243 237 230 224 217 212 205 200 193 189 182 178 171 168 161 158 151 
149 141 141 113  32  66  67  73  73  78  79  84  84  89  89  94  72  61 
 53  57  89  34 109 109 108 113 112 116 114 119 117 120 118  37  72  69 
 70  66  17  47  69  65  69  65  68  66  68  66  69  67  69  67  70  68 
 71  70  73  71  72  73  76  75  77  56 133 147 142 144 140 141 138 138 
136 136 134 134 133 133 131 131 130 129 129 128 127 126 126 125 126 124 
125 123 124 122 124 122 124 121 123 121 123 121 124 121 123 122 125 120 
128  54  98 101  98 100  97 100  75 100 130 126 129 126 129 128 129 129 
131 130 132 131 133 132 134 134 136 135 137 136 138 138 139 139 140 140 
142 141 143 143 144 144 145 145 146 146 147 147 148 148 149 148 150 149 
150 149 151 150 151 150 152 151 150 150 154 124  47  73  73  75  73  76 
 74  76  74  77  76  79  77  80  79  81  80  81  81  66 159 165 166 163 
163 162 162 160 160 159 160 159 159 158 158 157 158 157 157  65  91  91 
 91  91  91  91  89  90  90  90  89  89  88  87  21 138 168 165 167 166 
167 168 170 171 172 174 175 177 178 180 181 183 185 192  26  58  57  55 
 53  51  49  47  46  43  42  40  38  36  35  33  31  30  28  26  25  24 
 22  21  20  18  17  16  15  14  14  13  12  11  11  10  10  10   9   9 
  9   9   9  10  10  10  11  12  12  13  14  15  17  18  20  22  24  26 
 28  30  33  36  39  42  46  50  54  58  62  67  72  77  83  89  95 101 
107 114 121 128 135 143 151 159 167 175 184 192 201 210 219 228 237 246 
249 243 236 230 224 218 211 206 199 195 188 184 177 173 166 163 155 154 
147 144 138 136 120  30  71  70  74  77  81  82  87  88  93  93 104  11 
 56  52  82  87  49 109 113 110 114 114 116 115 118 122  63  72  67  70 
 65  35  20  69  66  69  65  68  66  68  66  69  66  69  67  70  68  71 
 69  72  71  74  72  76  74  77  76  85 146 141 146 142 142 138 139 136 
136 134 134 132 132 131 130 129 129 128 127 126 125 125 124 124 123 123 
122 123 121 122 120 122 120 122 119 122 119 122 119 122 120 122 119 125 
 87  95 102 100 102  98 102  66 123 127 123 127 124 127 125 127 128 129 
128 130 129 132 130 133 132 134 133 135 135 136 136 138 137 139 139 140 
140 141 141 143 143 144 144 145 145 146 146 147 147 148 147 149 148 149 
149 150 149 150 149 150 148 150 151 151 150 150 125  56  75  74  76  74 
 77  76  78  77  79  78  81  80  81  81  82  12 158 168 162 163 162 162 
161 161 159 159 159 158 157 157 156 157 155 156 155 155 153  66  93  93 
 93  93  93  93  93  92  92  92  91  91  46 116 166 160 162 163 163 164 
166 166 168 169 170 172 173 175 176 178 180 181 183 191  24  60  58  56 
 54  52  50  49  46  45  43  41  39  37  35  34  32  30  29  27  26  24 
 23  22  20  19  18  17  16  15  14  13  12  12  11  11  10  10  10   9 
  9   9   9  10  10  10  11  12  12  13  14  15  17  18  20  22  24  26 
 28  30  33  36  39  42  46  50  54  58  62  67  72  77  83  89  95 101 
107 114 121 128 135 143 151 159 167 175 184 192 201 210 219 228 237 246 
249 242 237 230 224 217 212 205 200 193 189 182 178 171 168 161 158 151 
149 142 140 133 133 122  24  74  74  77  80  84  85  89  89  94  96  93 
 42  50  67  85  86  37  95 119 112 115 113 119 124  43  69  70  72  68 
 41  20  53  67  69  66  68  66  68  66  69  66  69  67  70  68  71  69 
 72  70  74  71  75  74  77  76  28 153 140 143 140 141 138 139 136 136 
134 134 132 132 130 130 129 128 127 126 126 125 124 123 123 122 122 121 
121 120 121 119 120 118 120 118 120 118 120 117 120 117 119 118 120 106 
101 105 102 104 101 103  90 109 124 121 124 122 125 123 126 125 128 126 
129 127 130 129 131 130 132 132 134 133 135 135 136 136 138 137 139 139 
140 140 141 141 143 143 144 144 145 145 146 146 147 147 148 147 148 148 
149 148 149 148 150 148 151 148 149 149 149 147 149 137  52  76  75  78 
 76  79  78  80  79  82  79  81  82  61 134 164 165 161 162 160 160 159 
159 157 159 156 156 156 155 154 155 153 154 153 153 152 152  69  96  96 
 96  96  95  96  94  95  94  93  93  83 154 157 158 158 159 160 161 162 
162 164 166 167 168 170 171 173 174 176 178 180 181 189  23  61  59  57 
 56  54  52  50  48  46  44  42  40  38  36  35  33  31  30  28  26  25 
 23  22  21  19  18  17  16  15  14  13  13  12  11  11  10  10  10  10 
 10   9  10  10  10  11  11  12  12  13  14  15  17  18  20  22  24  26 
 28  30  33  36  39  42  46  50  54  58  62  67  72  77  83  89  95 101 
107 114 121 128 135 143 151 159 167 175 184 192 201 210 219 228 237 246 
249 243 236 230 223 218 211 206 199 195 187 183 176 173 166 163 156 153 
146 144 137 136 130 127 118  24  79  77  84  81  87  88  92  92  98  97 
 13  54  47  87  82  83  80  37  12  31  33   9  42  74  70  72  67  42 
  2  40  59  68  65  69  66  69  66  68  66  69  67  70  68  71  69  72 
 70  73  72  75  72  77  74  60 142 142 144 141 141 139 138 136 137 134 
134 132 132 130 130 128 128 126 126 125 124 124 124 123 122 122 120 121 
120 119 118 119 118 120 117 118 116 118 116 118 116 119 116 118 122  56 
107 103 105 102 105  93  96 123 121 121 120 123 122 124 123 126 124 127 
125 128 127 129 128 131 130 132 131 133 133 135 135 136 136 138 138 139 
139 140 140 142 142 143 143 144 144 145 145 146 146 147 146 147 147 148 
147 148 148 149 147 149 148 149 147 148 148 147 147 147 110  71  79  78 
 80  78  81  80  81  80  84  76  53 170 163 164 161 161 158 159 158 157 
156 157 155 155 153 153 153 152 152 152 151 151 150 151 149  71  98  98 
 98  97  98  97  98  97  97   5 139 158 155 156 155 156 157 158 159 160 
161 161 165 165 166 168 170 171 173 174 176 178 180 188  21  63  61  59 
 57  55  53  51  49  47  45  43  41  39  37  36  34  32  30  29  27  25 
 24  23  21  20  19  18  16  15  14  14  13  12  12  11  11  10  10  10 
 10  10  10  10  10  11  11  12  12  13  14  16  17  18  20  22  24  26 
 28  30  33  36  39  42  46  50  54  58  62  67  72  77  83  89  95 101 
107 114 121 128 135 143 151 159 167 175 184 192 201 210 219 228 237 246 
249 242 236 230 224 217 212 205 200 193 189 182 178 171 168 161 157 151 
149 142 140 133 131 126 124 114  47  81  80  86  85  89  90  95  95 100 
 98  56  50  71  85  81  81  78  80  75  77  74  75  71  72  69  42  17 
 47  23  69  67  67  66  69  66  69  66  69  67  70  67  70  68  72  70 
 73  71  75  73  76  74  78  39 145 144 141 142 138 139 136 137 134 135 
132 132 130 130 128 128 126 126 124 124 124 123 122 121 119 115 112 109 
108 108 111 112 118 116 118 116 116 114 116 114 116 114 118 119  12 109 
106 108 105 107 104  70 123 117 121 118 122 120 123 121 124 122 124 124 
126 125 128 127 129 128 131 130 132 132 133 133 135 135 136 136 138 138 
139 139 140 141 142 142 143 143 144 144 145 145 146 146 147 146 147 147 
148 147 148 147 148 148 148 147 148 146 147 146 149 145 148 106  74  80 
 79  81  79  82  82  80   9 169 164 162 162 159 160 158 160 157 157 155 
155 153 154 152 153 151 152 150 151 149 150 148 149 148 148  73 100 101 
100 100 100 100  97  63 130 154 151 151 152 152 153 154 155 156 157 158 
159 160 162 163 165 166 168 169 171 173 175 176 178 186  20  64  62  60 
 58  56  54  52  50  48  46  44  42  40  38  36  34  33  31  29  28  26 
 25  23  22  20  19  18  17  16  15  14  13  12  12  11  11  10  10  10 
 10  10  10  10  10  11  11  12  13  13  14  16  17  18  20  22  24  26 
 28  30  33  36  39  42  46  50  54  58  62  67  72  77  83  89  95 101 
107 114 121 128 135 143 151 159 167 175 184 192 201 210 219 228 237 246 
249 243 236 230 223 218 211 206 199 194 187 183 176 172 166 162 156 153 
146 144 138 136 130 128 122 121 104  61  82  84  87  87  93  92  97  98 
107  23  49  64  83  84  80  81  77  78  73  76  72  74  70  41  25  39 
 47  12  67  69  66  69  66  69  66  69  66  69  67  70  68  71  69  73 
 71  73  72  76  74  78  67 150 146 141 142 139 140 137 137 134 135 132 
133 129 130 128 128 126 126 125 123 123 126 132  61  17  59  73  84  91 
 99  97  89  73  54   3  82 129 119 117 113 115 112 115 113  76 110 107 
110 107 108 106  21 122 115 120 116 120 118 121 119 122 120 123 122 125 
123 126 125 126 128 128 128 130 130 133 133 134 133 135 135 137 137 140 
142 144 145 144 140 142 142 144 143 144 145 145 145 146 146 146 146 146 
147 146 148 148 147 149 146 147 146 147 145 146 145 147 144 147  53  79 
 81  81  83  82  85 117 166 164 160 162 159 159 157 158 155 156 154 154 
152 153 151 152 150 150 149 149 148 148 147 147 146 147 145  75 103 102 
102 102 102 102  37 147 149 148 149 149 149 150 151 152 153 154 155 156 
157 159 160 161 163 164 166 168 169 171 173 175 177 185  19  66  63  61 
 59  57  55  53  51  49  47  45  43  41  39  37  35  33  31  30  28  27 
 25  24  22  21  19  18  17  16  15  14  13  13  12  11  11  11  10  10 
 10  10  10  10  10  11  11  12  13  13  14  16  17  18  20  22  24  26 
 28  31  33  36  39  42  46  50  54  58  62  67  72  77  83  89  95 101 
107 114 121 128 135 143 151 159 167 175 184 192 201 210 219 228 237 246 
249 242 236 230 224 217 212 205 200 193 189 182 178 171 167 160 157 151 
148 142 140 133 132 126 124 119 116  79  79  86  86  90  90  94  95 101 
 99  82  48  52  84  80  82  78  78  75  77  72  74  66  38  26  36  47 
 47  57  70  66  69  66  69  66  69  66  69  67  70  67  71  69  72  70 
 73  72  74  74  77  75  34 149 143 143 139 140 137 138 135 135 132 133 
130 131 127 127 126 126 124 122 126 105  17  94 105 106 105 107 106 108 
108 110 109 109 109 111 110  92   1  67 110 115 114 111 121  64 108 112 
109 111 108  59 123 114 119 115 118 115 119 117 120 118 121 120 123 121 
124 123 126 124 126 128 129 128 131 130 131 133 137 142 126  99  84  56 
 35  34  35  49  83  98 121 144 148 144 143 145 145 145 146 146 146 147 
146 146 147 147 148 145 149 145 148 145 146 144 147 143 145 142 157   0 
 80  84  83  85  83 159 162 160 162 158 159 156 157 155 155 153 154 151 
152 150 150 149 149 147 148 146 147 145 146 145 145 144 144  77 104 104 
104 104 103 104  74 148 148 146 148 147 148 148 149 150 151 152 153 154 
156 157 158 160 161 163 164 166 168 170 171 173 175 183  17  67  65  63 
 61  58  56  54  52  50  48  46  44  42  40  38  36  34  32  30  29  27 
 26  24  23  21  20  19  17  16  15  14  14  13  12  12  11  11  10  10 
 10  10  10  10  10  11  11  12  13  14  15  16  17  18  20  22  24  26 
 28  31  33  36  39  42  46  50  54  58  63  67  72  77  83  89  95 101 
107 114 121 128 135 143 151 159 167 175 184 192 201 210 219 228 237 246 
249 243 236 230 223 218 211 206 199 194 187 183 176 172 165 162 155 153 
146 144 137 135 129 128 122 119 114 114  56  91  90  87  94  93  98  97 
103 104  31  47  82  83  77  80  76  78  72  76  62  35  32  31  45  42 
 32  69  67  69  66  69  66  69  66  69  66  70  67  70  68  72  69  73 
 71  74  73  77  75  76 100 142 145 140 141 137 139 135 136 133 133 130 
131 128 128 126 126 124 123 121  55 101 102 105 105 107 108 108 109 109 
110 110 111 111 112 111 113 111 113 108  99   6 112 116   6 109 113 111 
113 109  95 112 112 115 113 116 114 117 115 118 117 119 118 121 120 122 
121 124 123 127 125 127 126 129 130 131 131 138  67  46  81  84  86  86 
 85  85  84  83  83  79  77  68  27 139 150 145 143 145 145 146 146 146 
146 148 147 146 145 148 145 146 145 146 144 145 143 145 143 146  93  79 
 83  83  85  85  87 160 160 160 157 159 156 157 154 155 152 153 151 151 
149 150 148 148 146 147 145 145 144 144 143 144 142 143 141  79 106 105 
106 106 106 105  71 146 144 144 144 145 146 147 147 148 149 150 151 153 
154 155 157 158 160 161 163 165 166 168 170 172 174 182  16  68  66  64 
 62  60  57  55  53  51  49  47  44  43  40  38  36  35  33  31  29  28 
 26  24  23  22  20  19  18  17  16  15  14  13  12  12  11  11  10  10 
 10  10  10  10  11  11  11  12  13  14  15  16  17  18  20  22  24  26 
 28  31  33  36  39  42  46  50  54  58  63  67  72  77  83  89  95 101 
107 114 121 128 135 143 151 159 167 175 184 192 201 210 219 228 237 246 
249 242 236 230 224 217 212 205 200 193 188 181 177 170 167 160 157 150 
148 141 139 133 131 125 124 118 116 110 110  11  88  91  91  96  94 101 
 98 108  46  51  72  81  82  78  78  75  76  54  35  29  27  44  42  44 
  6  66  69  66  69  66  69  66  69  66  69  67  70  68  71  69  73  70 
 74  72  76  74  78  69 130 144 141 142 138 139 136 137 133 134 130 131 
128 128 126 125 123 125 127  24 104 103 106 105 107 108 109 110 110 111 
111 112 112 113 112 114 112 115 113 115 113 114 101  25 105 114 111 115 
111 114  23 111 114 111 115 112 116 113 116 115 118 116 119 118 121 120 
122 121 123 124 126 126 128 126 138 110   7  75  90  90  87  89  86  87 
 86  85  84  84  83  82  81  81  80  80  18  77 154 145 145 145 147 146 
146 146 145 147 146 145 146 146 145 144 145 144 144 142 149  23  81  83 
 82  85  85  86  85 155 160 158 158 155 156 154 154 152 152 150 151 148 
149 147 147 145 146 144 144 143 143 142 142 141 141 140 140  81 108 108 
108 107 107 108  70 144 143 142 143 143 144 145 146 146 148 148 150 151 
152 153 155 156 158 160 161 163 165 167 169 171 173 181  15  69  67  65 
 63  61  58  56  54  52  50  47  45  43  41  39  37  35  33  31  30  28 
 26  25  23  22  21  19  18  17  16  15  14  13  13  12  11  11  11  10 
 10  10  10  10  11  11  11  12  13  14  15  16  17  18  20  22  24  26 
 28  31  33  36  39  43  46  50  54  58  63  67  72  77  83  89  95 101 
107 114 121 128 135 143 151 159 167 175 184 192 201 210 219 228 237 246 
249 243 236 230 223 218 211 205 199 194 187 182 176 172 165 162 155 152 
146 143 137 135 129 127 121 119 114 114 109 108  75  89  92  94  98  97 
102 104 113  48  58  83  78  78  76  75  44  35  30  31  43  40  44  49 
 37  69  67  69  66  69  66  69  66  69  66  70  67  71  68  72  70  74 
 70  75  73  77  75  57 155 141 144 139 140 136 137 134 135 131 132 128 
129 126 126 124 126 121  75 104 102 106 105 108 108 109 110 110 112 112 
113 113 114 113 115 114 116 114 116 114 116 115 116 114 117 114 116 114 
116  73 122 111 110 112 110 113 111 115 113 116 114 117 116 119 118 121 
120 121 123 124 123 127 128 122  18  93  94  92  92  89  90  87  88  85 
 86  85  84  84  83  82  82  81  80  80  80  79  30 130 147 146 145 147 
145 145 146 145 145 146 145 144 144 145 144 144 146 132  38  82  83  83 
 84  85  87  85  89 156 160 157 157 156 154 154 152 152 150 150 148 148 
146 147 145 145 143 143 142 142 141 141 140 140 139 140 138  82 110 108 
109 109 110 109  68 143 141 141 141 142 142 143 144 145 146 147 148 149 
151 152 153 155 156 158 160 162 164 165 167 169 171 179  13  70  68  66 
 64  62  59  57  55  53  50  48  46  44  42  40  38  36  34  32  30  29 
 27  25  24  22  21  20  18  17  16  15  14  14  13  12  12  11  11  11 
 10  10  10  10  11  11  11  12  13  14  15  16  17  18  20  22  24  26 
 28  31  33  36  39  43  46  50  54  58  63  67  72  77  83  89  95 101 
107 114 121 128 135 143 151 159 167 175 184 192 201 210 219 228 237 246 
249 242 236 229 224 217 211 204 199 192 188 181 177 170 166 160 157 150 
147 141 139 133 131 125 123 116 117 111 110 105  79  88  92  97  95 101 
101 105 107   2  49  80  81  77  62  39  38  25  32  45  40  43  41  30 
 70  66  69  66  69  66  68  66  69  66  69  67  70  68  71  69  73  71 
 75  72  77  74  79   2 148 143 141 141 137 138 134 136 132 133 129 130 
126 127 124 125 122 130  44 104 106 106 108 108 109 110 110 112 112 112 
113 115 114 116 115 117 115 117 116 118 116 117 116 118 116 117 115 116 
111  74 109 106 110 108 111 110 113 111 114 113 115 114 117 116 119 118 
121 120 122 121 125 128  76  70  94  95  92  93  91  91  90  89  87  87 
 86  86  85  84  83  83  82  81  81  80  79  78  79  73  40 157 146 145 
146 146 145 145 146 145 146 145 145 143 144 148  80  67  82  82  83  84 
 85  87  86  89  86 156 156 156 156 154 154 152 152 150 150 148 148 146 
146 144 144 142 143 141 141 140 140 139 139 138 138 137 137  84 111 112 
111 111 111 111  67 141 140 139 140 140 141 141 143 143 144 145 147 148 
149 150 152 153 155 157 159 160 162 164 166 168 170 178  12  72  69  67 
 65  63  60  58  56  53  51  49  47  45  43  40  38  36  34  32  31  29 
 27  26  24  23  21  20  19  17  16  15  15  14  13  12  12  11  11  11 
 10  10  10  10  11  11  12  12  13  14  15  16  17  18  20  22  24  26 
 28  31  33  36  39  43  46  50  54  58  63  67  72  77  83  89  95 101 
107 114 121 128 135 143 151 159 167 175 184 192 201 210 219 228 237 246 
249 243 236 230 223 217 210 205 198 193 187 182 175 171 165 161 155 152 
145 143 137 134 128 127 121 120 113 113 108 107 102  15  99  94  98  99 
104 102 107  36  43  82  71  51  35  40  15  39  42  39  44  42  48  39 
 67  69  66  69  66  68  66  68  66  69  66  70  67  71  68  72  70  74 
 72  76  74  78  76  37 150 142 143 138 139 135 136 132 134 130 132 127 
129 124 126 122 123 124 103 106 106 108 108 109 110 111 112 113 114 114 
115 115 116 116 117 117 118 117 119 116 118 117 119 117 119 117 119 116 
 69 107 107 110 108 110 108 112 109 112 111 114 112 115 114 117 116 119 
118 121 120 124 123  31  99  96  96  94  94  93  92  91  89  89  88  87 
 86  85  85  84  83  82  82  81  81  80  80  79  79  76  77   4 146 146 
145 147 145 146 145 145 144 145 144 144 143  30  82  79  83  83  85  84 
 86  86  88  88  89 155 157 156 154 154 152 152 150 150 148 148 146 146 
144 144 142 142 140 141 139 139 138 138 137 137 136 136 134  85 112 113 
112 112 113 112  65 141 138 138 138 139 139 140 141 142 143 144 145 146 
148 149 151 152 154 155 157 159 161 163 165 167 169 177  11  73  70  68 
 66  64  61  59  56  54  52  50  47  45  43  41  39  37  35  33  31  29 
 28  26  24  23  21  20  19  18  17  16  15  14  13  12  12  11  11  11 
 11  10  10  11  11  11  12  12  13  14  15  16  17  19  20  22  24  26 
 28  31  33  36  39  43  46  50  54  58  63  67  72  77  83  89  95 101 
107 114 121 128 135 143 151 159 167 175 184 192 201 210 219 228 237 246 
249 242 236 229 223 217 211 204 199 192 188 181 176 170 166 159 156 150 
147 141 138 132 130 125 123 116 116 111 110 103 103 100  77  97  96 100 
100 106 104  71  49  52  41  37  41   0  41  41  40  42  42  45  29  64 
 68  66  69  66  68  66  68  66  69  66  69  67  70  68  72  69  73  71 
 75  73  77  75  79  71 145 144 140 140 136 137 133 135 130 132 128 129 
125 126 122 122 121  86 105 104 108 108 110 110 112 112 113 114 115 115 
116 117 117 118 116 119 118 120 118 120 118 120 117 120 118 120 116 119 
 80 106 108 105 108 106 110 108 110 109 112 111 113 113 115 114 117 117 
119 120 120 130   5  99  98  98  96  96  94  93  92  91  90  89  88  87 
 86  86  85  84  83  83  82  81  81  80  80  78  79  79  78  78  38 143 
146 146 146 145 146 145 145 146 143 137  52  81  79  83  82  84  84  86 
 86  88  88  90  89 153 156 154 154 153 152 150 150 148 148 145 146 144 
144 142 142 140 140 138 139 137 137 136 136 135 135 134 134  87 114 115 
114 114 114 114  65 138 137 136 137 137 138 139 140 140 142 142 144 145 
146 148 149 151 153 154 156 158 160 162 164 166 168 176  10  74  71  69 
 67  64  62  60  57  55  53  50  48  46  44  41  39  37  35  33  32  30 
 28  26  25  23  22  20  19  18  17  16  15  14  13  13  12  11  11  11 
 11  11  11  11  11  11  12  12  13  14  15  16  17  19  20  22  24  26 
 28  31  33  36  39  43  46  50  54  58  63  67  72  77  83  89  95 101 
107 114 121 128 135 143 151 159 167 175 184 192 201 210 219 228 237 246 
249 242 236 230 223 217 210 205 197 193 186 182 175 171 164 161 154 151 
145 142 136 134 128 126 121 119 114 113 108 107 101 101  44  95  99  99 
103 104 108  97  48  43  41  36  18  38  41  39  42  40  45  49  42  70 
 66  69  66  68  66  68  66  68  66  69  66  70  67  71  69  72  70  74 
 72  76  74  78  76  68 147 140 141 137 139 134 136 131 133 129 130 126 
127 123 124 121 122 118 104 108 107 110 110 112 112 113 114 115 116 116 
117 117 118 118 120 119 120 119 121 120 121 120 121 120 121 119 121  54 
112 106 104 106 105 107 106 109 107 110 109 112 111 113 114 114 116 118 
118 119 124  27 102  99  98  98  97  95  95  93  93  91  90  89  88  87 
 87  86  85  84  83  83  82  81  81  80  80  79  79  78  78  77  77  17 
156 148 146 146 147 146 144 154  68  69  81  80  82  82  84  84  86  85 
 87  87  89  89  91 154 154 155 152 152 150 150 148 148 146 147 144 144 
142 142 140 140 138 138 137 137 135 136 134 135 133 134 132  88 116 115 
116 115 116 115  62 137 135 134 135 136 136 136 139 139 140 141 142 144 
145 147 148 151 151 153 155 157 159 161 163 165 167 175   9  75  72  70 
 67  65  63  60  58  56  53  51  49  47  44  42  40  38  36  34  32  30 
 28  27  25  24  22  21  19  18  17  16  15  14  13  13  12  12  11  11 
 11  11  11  11  11  11  12  12  13  14  15  16  17  19  20  22  24  26 
 28  31  33  36  39  43  46  50  54  58  63  67  72  77  83  89  95 101 
107 114 121 128 135 143 151 159 167 175 184 192 201 210 219 228 237 246 
249 242 236 229 223 216 211 204 199 192 186 180 176 168 165 158 156 149 
146 139 137 132 130 124 122 117 115 111 107 105 104  99  99  73  98 102 
101 107 105 120  39  41  24  38  36  37  37  41  40  42  43   2  69  66 
 68  66  68  66  68  65  68  66  68  66  69  67  70  68  72  69  73  71 
 75  73  77  75  79  53 146 143 138 140 135 137 132 134 130 131 127 129 
123 125 122 121 120 127  46 107 109 109 110 112 113 114 115 116 116 117 
118 118 119 120 120 121 120 122 121 122 121 122 121 122 120 122 119  35 
104 103 105 103 106 104 107 106 108 107 110 109 113 111 113 114 116 115 
118 123   4 103 100 101  99  99  97  96  95  94  92  92  90  89  88  87 
 87  86  85  84  83  82  82  81  81  80  80  79  79  78  78  78  77  78 
  0 146 147 146 146 146 140  24  79  80  80  82  82  83  83  85  85  87 
 87  89  89  91  90 152 155 153 153 150 149 148 148 145 146 144 144 142 
142 140 140 138 138 136 136 135 135 134 134 133 133 132 131  90 116 117 
116 117 116 117  61 135 134 133 134 135 135 136 136 138 139 140 141 143 
144 145 148 149 150 152 154 156 158 160 162 164 166 174   8  75  73  71 
 68  66  64  61  59  56  54  52  49  47  45  43  40  38  36  34  32  30 
 29  27  25  24  22  21  20  18  17  16  15  14  14  13  12  12  11  11 
 11  11  11  11  11  11  12  12  13  14  15  16  17  19  20  22  24  26 
 28  31  33  36  39  43  46  50  54  58  63  67  72  77  83  89  95 101 
107 114 121 128 135 143 151 159 167 175 184 192 201 210 219 228 237 246 
249 242 236 230 223 217 210 205 198 193 186 181 174 170 163 160 154 151 
145 142 136 133 128 126 120 117 113 112 107 106 102 101  97  64 109 102 
103 103 109 113   6  12  37  36  38  37  41  38  41  40  42  64  67  69 
 66  67  66  68  65  68  65  68  66  69  66  70  67  71  69  72  70  74 
 71  76  74  79  77  29 149 139 141 136 138 134 135 131 132 128 129 126 
126 121 123 119 120 118 102  98 108 111 111 113 113 115 115 117 117 118 
118 119 120 120 121 120 122 121 123 122 123 122 123 122 123 119 123  97 
101 104 102 104 103 105 104 107 106 108 107 110 109 113 111 115 113 117 
117  31 105 102 102 101 100  98  98  96  95  94  93  92  91  90  88  88 
 86  86  85  84  83  82  82  81  80  80  79  79  78  78  78  78  78  76 
 78  79 151 145 146 130  45  78  80  79  81  81  83  83  84  84  86  86 
 88  88  90  90  91 153 153 153 151 151 148 149 146 147 144 144 142 142 
140 140 138 138 136 136 135 135 133 133 132 132 131 132 130  90 118 118 
118 118 118 117  60 135 133 133 133 133 134 135 137 137 138 139 140 142 
143 144 146 148 149 151 153 155 157 159 161 163 165 174   8  76  74  71 
 69  67  64  62  59  57  55  52  50  48  45  43  41  39  37  35  33  31 
 29  27  26  24  23  21  20  19  17  16  15  15  14  13  12  12  11  11 
 11  11  11  11  11  11  12  12  13  14  15  16  17  19  20  22  24  26 
 28  31  33  36  39  43  46  50  54  58  63  67  72  77  83  89  95 101 
107 114 121 128 135 143 151 159 167 175 184 192 201 210 219 228 237 246 
249 242 236 229 223 216 211 204 199 191 187 180 176 153 156 155 155 148 
146 140 137 131 129 124 121 116 115 110 103  95  90  76  63  56  50 101 
103 106 106 113  74  33  34  36  36  40  38  42  41  43  49  68  68  67 
 69  66  68  65  68  65  68  65  68  66  69  67  70  68  72  69  73  71 
 75  73  78  76  80   3 147 142 138 139 135 136 132 133 129 130 126 127 
123 124 120 122 118 118 116 115  20  97 113 112 115 115 117 117 118 119 
120 119 121 122 121 123 121 123 123 124 123 124 123 124 123 124  40 109 
103 100 103 101 104 103 105 104 107 106 109 108 110 111 112 112 114 116 
100 102 102 104 101 102 100  99  97  96  95  94  93  92  91  89  89  87 
 87  85  85  84  83  82  82  81  80  80  79  79  79  78  78  77  78  76 
 77  78 119 151  75  76  79  79  80  81  81  81  82  84  84  85  86  87 
 88  89  90  92  91 151 154 152 152 149 149 146 147 145 144 143 142 140 
140 138 138 136 136 135 135 133 133 132 132 131 131 130 129  92 118 119 
119 119 118 119  59 133 132 131 132 133 133 134 135 136 137 137 140 141 
141 143 145 147 148 150 152 154 156 158 160 162 164 173   7  77  74  72 
 70  67  65  62  60  57  55  53  50  48  46  43  41  39  37  35  33  31 
 29  28  26  24  23  21  20  19  18  17  16  15  14  13  13  12  12  11 
 11  11  11  11  11  11  12  12  13  14  15  16  17  19  20  22  24  26 
 28  31  33  36  39  43  46  50  54  58  63  67  72  77  83  89  95 101 
107 114 121 128 136 143 151 159 167 175 184 192 201 210 219 228 237 246 
249 242 236 229 223 217 210 204 198 192 186 181 174 132 125 121 114 117 
118 119 116 118 111 104  97  93  79  71  70  66  62  62  59  55  15 103 
105 105 107 111  86  30  36  34  38  37  40  40  45  19  68  69  67  69 
 66  68  66  68  65  68  65  68  65  68  66  69  67  71  68  72  70  74 
 72  76  74  79  76  56 153 138 141 136 138 133 135 130 131 127 128 124 
125 121 122 117 119 117 115 112 114 111  35  79 112 115 115 118 119 119 
120 120 122 121 123 123 124 123 124 124 125 124 125 124 125 123  77 103 
 99 100 100 102 101 104 103 105 104 107 106 108 108 110 110 114 114 116 
 81 106 106 103 103 101 100  99  98  97  95  94  93  92  91  90  88  88 
 86  86  84  84  83  82  81  81  80  80  79  79  78  78  78  78  77  77 
 77  76  16   8  77  77  79  79  80  80  81  82  83  83  84  85  86  87 
 89  89  91  91  92 152 153 152 150 150 149 147 146 146 144 143 141 140 
138 138 136 136 135 135 133 133 132 132 130 131 129 130 128  92 120 119 
120 119 120 119  58 133 130 132 131 132 131 134 134 136 137 137 138 141 
141 143 144 146 148 149 151 153 155 157 159 162 164 172   6  78  75  73 
 70  68  65  63  60  58  56  53  51  48  46  44  42  40  37  35  33  31 
 30  28  26  25  23  22  20  19  18  17  16  15  14  13  13  12  12  11 
 11  11  11  11  11  12  12  13  13  14  15  16  17  19  20  22  24  26 
 28  31  33  36  39  43  46  50  54  58  63  67  72  78  83  89  95 101 
107 114 121 128 136 143 151 159 167 175 184 192 201 210 219 228 237 246 
249 242 236 229 223 216 210 204 198 192 187 180 175 139 126 121 117 110 
105 101  97  91  88  84  83  79  76  71  69  66  64  60  60  61  46  90 
105 107 106 110  92  33  33  37  35  41  39  45  14  69  70  66  69  66 
 67  66  68  65  67  65  67  65  68  66  69  66  70  68  71  69  73  71 
 75  73  78  76  80  71 130 142 137 139 134 136 131 133 128 130 125 127 
122 123 120 121 115 117 114 114 112 113 113 119  94  61  27  17  57  98 
120 122 121 123 123 124 124 125 124 126 124 126 125 125 124 103 103  98 
101  99 101 100 102 101 104 103 105 105 107 107 109 109 112 111 115  53 
107 106 105 105 102 102 100  98  98  97  96  94  93  92  91  89  89  87 
 87  85  85  83  83  82  82  80  80  79  79  78  78  77  77  77  77  77 
 77  77  78  78  77  78  79  79  80  79  81  82  82  84  84  85  86  88 
 88  90  90  92  92 151 153 151 151 149 148 147 147 150 114 138 140 139 
139 137 137 135 135 133 133 132 132 130 130 129 129 128 128  93 120 121 
120 121 120 120  57 132 130 128 131 133 133 132 139 127 122 137 137 139 
141 142 144 145 147 149 151 152 154 157 159 161 163 171   6  78  76  73 
 71  68  66  63  61  58  56  54  51  49  47  44  42  40  38  36  34  32 
 30  28  26  25  23  22  20  19  18  17  16  15  14  13  13  12  12  11 
 11  11  11  11  11  12  12  13  13  14  15  16  17  19  20  22  24  26 
 28  31  33  36  39  43  46  50  54  58  63  67  72  78  83  89  95 101 
107 114 121 128 136 143 151 159 167 175 184 192 201 210 219 228 237 246 
249 242 236 229 223 217 210 204 198 192 186 181 174 148 125 121 115 112 
106 102  97  94  89  86  82  78  74  73  70  67  61  54  32  10  26  36 
105 107 109 109  98  30  37  35  38  38  43   5  69  70  66  69  67  67 
 66  67  65  67  65  67  65  67  65  68  66  69  67  71  68  72  70  74 
 72  76  73  79  77  78 104 139 141 136 137 133 134 129 131 126 128 123 
125 120 121 117 118 115 114 112 113 110 110 108 109 106 105 108 111 114 
114  78  37   3  44  79  94 102 115 123 126 125 126 125 125  59  97 100 
 98 100  99 101 100 102 101 104 103 105 105 107 106 109 109 112 123  80 
109 107 106 105 104 102 101  99  98  97  95  94  93  92  90  90  88  88 
 86  86  84  84  82  82  81  81  79  80  78  79  78  78  77  77  77  77 
 77  77  76  78  78  78  79  79  79  80  81  82  83  83  84  85  86  87 
 89  89  91  92  92 151 152 152 150 149 147 150 138  25  92 136 140 139 
138 137 135 135 134 133 132 132 130 130 129 129 128 128 126  94 121 121 
121 121 121 121  56 131 129 129 129 129 134 135  60 114  99 135 137 138 
140 141 143 145 146 148 150 152 154 156 158 160 163 171   5  79  76  74 
 71  69  66  64  61  59  56  54  52  49  47  45  42  40  38  36  34  32 
 30  28  27  25  23  22  21  19  18  17  16  15  14  13  13  12  12  11 
 11  11  11  11  11  12  12  13  13  14  15  16  17  19  20  22  24  26 
 28  31  33  36  39  43  46  50  54  58  63  67  72  78  83  89  95 101 
107 114 121 128 136 143 151 159 167 175 184 192 201 210 219 228 237 246 
249 242 236 229 223 216 210 204 198 191 186 180 174 164 126 121 116 110 
107 101  98  93  90  85  83  79  79  69  42  12   5  14  18  21  21  27 
 93 106 108 111  98  34  35  36  37  41   8  71  69  68  69  68  69  66 
 68  66  67  65  67  65  67  65  68  65  68  66  70  68  71  69  73  71 
 74  72  78  76  80  78  50 145 137 139 134 136 131 133 128 129 125 126 
122 122 119 120 116 117 113 114 109 112 109 108 106 107 105 104 103 102 
103 100 102 101 103 101  96  87  82  74  48   6  62 126 126  18  98  99 
100  98  99  99 101 100 102 102 104 104 106 106 108 107 110 111  39 110 
108 108 106 105 104 102 101 100  98  97  96  94  93  92  91  89  89  87 
 87  85  85  83  83  81  81  80  80  79  79  78  78  77  77  77  77  76 
 77  77  77  77  78  77  79  79  80  79  81  82  82  83  84  85  86  88 
 88  90  91  92  92 150 153 151 150 148 152 110  80 105  75 135 140 138 
138 136 136 134 134 132 132 131 130 129 129 128 128 127 126  95 121 122 
122 122 121 122  56 130 129 128 129 131 123  65 114 108 101 135 137 138 
139 141 142 144 146 147 149 151 153 155 158 160 162 170   5  79  77  74 
 72  69  67  64  62  59  57  54  52  49  47  45  43  40  38  36  34  32 
 30  28  27  25  24  22  21  19  18  17  16  15  14  14  13  12  12  12 
 11  11  11  11  11  12  12  13  13  14  15  16  17  19  20  22  24  26 
 28  31  33  36  39  43  46  50  54  58  63  67  72  78  83  89  95 101 
107 114 121 128 136 143 151 159 167 175 184 192 201 210 219 228 237 246 
249 242 236 229 223 216 210 204 197 192 186 180 146  55  65  72  76  77 
 75  74  69  62  55  46  34  21   4   6   9   9  11  14  16  20  20  25 
 71 106 109 111  97  33  36  36  42  10  71  72  68  66  65  67  67  67 
 65  67  65  67  65  67  65  67  65  68  66  69  67  70  68  72  70  74 
 72  76  74  79  77  82  46 153 141 136 138 132 134 129 131 127 128 123 
124 120 121 117 118 114 115 111 112 109 109 107 107 105 106 104 104 102 
102 101  99  99  98  98  98  98  97  97  98 102 106 110  70  75  96  98 
 97  97  98  99  99 101 100 102 102 104 104 106 106 108 111 109  61 110 
109 108 107 105 104 103 101 100  98  97  96  95  93  92  90  90  88  88 
 86  86  84  84  82  82  80  81  79  79  78  78  77  78  76  77  76  77 
 76  77  77  77  77  78  78  79  79  80  81  82  82  83  84  85  86  87 
 89  90  91  92  94 151 152 152 151 149  27 102 104 104  76 136 139 139 
137 136 135 134 133 132 131 131 130 129 128 128 127 127 126  95 122 122 
122 121 122 122  55 130 128 129 135  51 105 118 116 109 100 135 136 137 
139 140 142 143 145 147 149 151 153 155 157 159 162 170   4  80  77  75 
 72  70  67  65  62  60  57  55  52  50  47  45  43  41  38  36  34  32 
 30  29  27  25  24  22  21  20  18  17  16  15  14  14  13  12  12  12 
 11  11  11  11  11  12  12  13  13  14  15  16  17  19  20  22  24  26 
 28  31  33  36  39  43  46  50  54  58  63  67  72  78  83  89  95 101 
107 114 121 128 136 143 151 159 167 175 184 192 201 210 219 228 237 246 
249 242 236 229 223 216 210 204 198 191 186 179 158  56  51  45  42  34 
 30  24  20  18  14   9   6   1   0   5   7   9  11  14  16  19  20  24 
 30 112 109 112  88  33  36  40  24  73  62  40  32  29  31  28  47  65 
 67  65  67  65  67  65  67  65  67  65  68  66  69  67  71  69  73  71 
 75  73  78  75  80  77  83  82 138 141 134 136 131 133 129 129 124 126 
121 123 118 119 115 116 112 113 110 111 107 108 105 105 103 103 101 101 
100 100  99  98  98  97  97  96  96  95  96  96  96  96  96  96  97  97 
 97  97  98  98  99  99 101 101 103 103 104 105 108 107 111 101  97 111 
109 108 107 105 104 103 101 100  99  97  96  94  94  92  91  89  89  87 
 87  85  85  83  83  81  81  79  80  78  79  77  78  76  77  76  77  76 
 77  76  77  77  78  77  78  78  80  80  81  81  82  83  84  85  86  87 
 88  90  91  92  93 150 153 151 132  74 101 103 104 104  76 133 140 138 
137 136 135 134 133 132 131 130 130 129 128 127 127 127 126  95 122 123 
122 122 122 122  56 129 129 127  51 120 118 118 116 109 100 134 136 137 
138 140 141 143 145 147 149 150 153 155 157 159 161 170   4  80  77  75 
 72  70  67  65  62  60  57  55  52  50  48  45  43  41  39  37  35  33 
 31  29  27  25  24  22  21  20  18  17  16  15  14  14  13  12  12  12 
 11  11  11  11  11  12  12  13  13  14  15  16  17  19  20  22  24  26 
 28  31  34  36  39  43  46  50  54  58  63  67  72  78  83  89  95 101 
107 114 121 128 136 143 151 159 167 175 184 193 201 210 219 228 237 246 
249 242 235 229 222 216 210 204 197 192 184 180 172  53  50  45  40  35 
 31  27  22  20  14   9   5   3   1   3   7   9  11  13  16  18  22  23 
 23  86 108 112  76  34  33  49  73  45  32  33  31  31  31  30  29  32 
 53  67  65  66  65  66  65  67  65  68  66  69  67  70  68  72  70  74 
 71  76  74  79  77  82  80  46 139 136 137 134 134 128 132 126 128 123 
124 120 121 117 118 114 115 111 112 108 109 106 106 104 104 102 102 100 
100  99  99  98  97  97  96  96  95  96  95  96  95  95  96  97  95  95 
 96  96  97  98  98 100 100 101 101 103 102 105 106 106 112  64 113 111 
110 108 107 106 104 103 101 100  98  98  96  95  93  92  90  90  88  88 
 85  86  83  84  81  82  80  80  78  79  77  78  76  77  76  77  76  77 
 76  77  76  77  77  78  78  79  79  80  80  82  82  83  84  85  86  87 
 88  90  91  92  91 152 159  21  97 100 100 102 103 105  75 135 139 138 
137 136 135 134 133 132 131 130 129 129 128 128 127 127 125  95 123 123 
123 123 123 121  54 133  40 101 121 120 119 118 118 109 100 134 135 137 
138 140 141 143 144 146 148 150 152 154 156 159 161 169   3  80  78  75 
 73  70  68  65  63  60  58  55  53  50  48  46  43  41  39  37  35  33 
 31  29  27  26  24  23  21  20  19  17  16  15  15  14  13  13  12  12 
 11  11  11  11  12  12  12  13  13  14  15  16  18  19  20  22  24  26 
 28  31  34  36  39  43  46  50  54  58  63  67  72  78  83  89  95 101 
107 114 121 128 136 143 151 159 167 175 184 193 201 210 219 228 237 246 
249 242 236 229 223 216 210 203 198 191 186 180 174  76  50  44  41  36 
 33  27  23  19  15  11   8   4   1   3   5   9  11  15  16  19  21  24 
 27  51 110 113  63  11  73  75  54  35  34  34  25  22  21  24  31  28 
 28  60  66  65  66  64  66  65  67  65  68  66  69  67  71  69  73  71 
 75  73  77  75  80  78  83  81  77 143 133 137 131 134 126 129 124 126 
121 123 118 119 115 116 112 113 109 110 107 108 105 105 103 103 101 101 
 99  99  98  98  96  96  96  95  95  95  95  94  95  95  95  94  96  95 
 96  96  97  97  98  98 100 100 102 102 104 104 106 107 115  18 113 111 
110 109 107 106 105 103 102 100  99  97  96  94  94  91  91  89  89  86 
 87  84  84  82  83  80  81  79  80  78  78  77  78  76  77  76  77  75 
 77  76  77  76  77  77  78  78  79  79  81  81  82  83  84  85  86  87 
 88  89  90  92  91 119  55  97  98 100 101 102 104 104  76 134 139 138 
137 136 135 133 133 132 131 130 129 128 128 127 127 126 125  96 123 123 
123 123 122 123  40  21 122 121 121 119 118 119 118 109 100 134 135 136 
138 139 141 142 144 146 148 150 152 154 156 158 161 169   3  80  78  75 
 73  70  68  65  63  60  58  55  53  50  48  46  43  41  39  37  35  33 
 31  29  27  26  24  23  21  20  19  17  16  15  15  14  13  13  12  12 
 12  11  11  11  12  12  12  13  14  14  15  16  18  19  21  22  24  26 
 28  31  34  36  40  43  46  50  54  58  63  67  72  78  83  89  95 101 
107 114 121 128 136 143 151 159 167 175 184 193 201 210 219 228 237 246 
249 242 235 229 222 216 210 204 197 192 185 180 174 128  45  46  40  37 
 31  27  22  19  15  11   7   4   0   4   7   9  11  14  16  20  22  24 
 26  36 106 119  34  79  76  76  37  36   6  36  41  41  43  40  30  21 
 26  35  65  66  64  66  64  66  65  67  65  68  66  70  68  72  70  74 
 72  76  74  79  76  81  79  84  81 113 137 134 134 128 131 126 128 123 
124 119 121 116 118 113 115 111 112 108 109 106 106 103 104 101 102 100 
100  98  98  97  97  96  96  95  95  95  94  94  95  94  95  95  94  96 
 95  96  96  97  97  99  99 100 101 102 103 104 105 107 119  80 113 112 
110 109 107 106 104 103 101 101  98  98  96  95  93  93  90  90  88  88 
 85  85  83  84  81  82  79  80  78  79  77  78  76  77  75  77  75  77 
 75  77  76  77  76  78  77  79  78  80  80  81  81  83  83  85  86  87 
 88  89  90  92  92  88  96  96  98 100 100 102 104 105  75 135 138 139 
137 136 135 134 133 132 131 130 129 129 128 128 127 127 125  95 123 122 
123 122 123 122 117 122 122 120 121 120 120 119 118 110  99 134 135 136 
138 139 141 142 144 146 148 150 152 154 156 158 161 169   3  80  78  76 
 73  71  68  65  63  60  58  55  53  51  48  46  44  41  39  37  35  33 
 31  29  27  26  24  23  21  20  19  18  17  16  15  14  13  13  12  12 
 12  11  11  11  12  12  12  13  14  14  15  16  18  19  21  22  24  26 
 29  31  34  36  40  43  46  50  54  58  63  67  72  78  83  89  95 101 
107 114 121 128 136 143 151 159 167 175 184 193 201 210 219 228 237 246 
249 242 236 229 223 216 210 203 197 190 186 180 172 167  53  45  42  36 
 32  26  22  18  15  11   7   4   0   3   6   8  11  15  17  19  22  24 
 28  28  93 101  80  77  77  74  31  21  45  43  42  41  43  45  47  52 
  4  25  66  64  66  64  66  64  67  65  68  66  69  67  70  68  72  70 
 75  73  77  75  80  77  83  81  85  47 137 137 130 133 128 130 124 126 
121 123 118 119 115 116 112 113 109 110 107 108 104 105 102 103 100 101 
 99  99  97  97  96  96  95  95  95  94  94  94  94  94  94  94  95  95 
 95  95  96  96  98  98  99 100 101 102 103 104 105 106 116 114 112 112 
111 109 108 106 105 103 102 100  99  97  97  94  94  91  91  89  89  86 
 87  84  84  82  83  80  81  79  79  77  78  76  77  75  77  75  76  75 
 76  75  77  76  77  76  78  77  79  79  80  80  82  82  84  84  86  86 
 88  89  91  90  93  94  96  97  98 100 101 102 103 105  76 135 139 138 
137 136 135 134 133 132 131 130 130 129 128 127 127 126 125  95 123 123 
123 123 123 123 122 121 122 121 121 119 119 119 117 110 100 134 135 136 
138 139 141 142 144 146 148 150 152 154 156 158 161 169   3  81  78  76 
 73  71  68  66  63  61  58  56  53  51  48  46  44  41  39  37  35  33 
 31  29  28  26  24  23  21  20  19  18  17  16  15  14  13  13  12  12 
 12  12  11  12  12  12  12  13  14  14  15  16  18  19  21  22  24  26 
 29  31  34  37  40  43  46  50  54  58  63  68  72  78  83  89  95 101 
107 114 121 128 136 143 151 159 167 175 184 193 201 210 219 228 237 246 
249 242 235 229 222 216 210 204 196 191 185 180 174 165  73  45  41  36 
 30  27  23  19  15  11   7   4   0   3   7   9  12  15  18  20  20  24 
 24  47   5  65  79  77  77  74   1  41  42  42  42  45  45  46  47  47 
 52  19  65  66  64  66  64  66  64  67  65  68  66  69  68  71  69  73 
 71  76  74  78  76  81  79  84  82  86  53 130 136 129 132 126 128 123 
125 120 121 116 118 113 115 111 112 108 109 106 106 103 104 101 102  99 
100  98  98  97  97  95  95  95  94  94  94  94  94  93  94  94  93  95 
 95  96  96  97  97  98  99 100 100 102 101 104 105 105  95 115 113 111 
110 109 108 107 105 104 102 101  99  98  96  95  93  93  90  90  87  88 
 85  86  83  84  81  82  79  80  78  79  77  78  76  77  75  77  75  76 
 75  76  75  77  76  77  77  78  78  80  79  81  81  83  83  85  85  87 
 87  89  90  92  92  94  94  97  98  99 101 102 103 105  75 134 141 138 
137 136 135 134 133 132 131 130 129 129 128 128 127 127 125  95 123 123 
122 123 123 122 122 122 122 121 121 119 119 118 118 110  99 134 135 136 
138 139 141 142 144 146 148 150 152 154 156 158 160 169   3  81  78  76 
 73  71  68  66  63  61  58  56  53  51  48  46  44  41  39  37  35  33 
 31  29  28  26  24  23  21  20  19  18  17  16  15  14  13  13  12  12 
 12  12  12  12  12  12  12  13  14  14  15  16  18  19  21  22  24  26 
 29  31  34  37  40  43  46  50  54  58  63  68  73  78  83  89  95 101 
107 114 121 128 136 143 151 159 167 175 184 193 201 210 219 228 237 246 
249 242 236 229 222 216 210 203 196 191 185 178 174 143 116  43  40  36 
 31  28  23  19  14  11   7   4   0   2   6   9  12  14  17  21  14  26 
 47  47  41  27  80  77  77  75  38  41  40  42  42  44  44  45  47  46 
 47  32  66  64  66  64  66  64  66  65  67  65  68  67  70  68  72  70 
 74  72  77  75  78  77  81  80  86  82  88  54 117 135 128 131 125 126 
121 123 118 120 115 117 112 113 109 111 107 108 104 105 102 103 100 101 
 99  99  97  97  96  96  95  95  94  95  95  94  94  94  94  94  94  93 
 96  95  96  96  97  98  99  99 100 101 103 103 105 106  90 115 113 112 
111 109 108 106 105 103 103 100 100  97  97  94  94  91  91  89  89  86 
 87  84  85  82  83  80  81  78  79  77  78  76  77  75  77  75  76  74 
 76  75  77  75  77  76  78  77  79  78  80  80  82  82  84  84  86  86 
 88  88  90  91  93  93  95  96  98  99 101 102 103 104  75 135 140 139 
138 136 135 134 133 132 131 131 130 129 129 128 127 127 126  95 122 121 
122 123 122 122 122 122 121 121 120 120 119 118 117 110 100 134 135 136 
138 139 141 142 144 146 148 150 152 154 156 158 161 169   3  81  78  76 
 73  71  68  66  63  61  58  56  53  51  48  46  44  41  39  37  35  33 
 31  29  28  26  24  23  21  20  19  18  17  16  15  14  13  13  12  12 
 12  12  12  12  12  12  13  13  14  15  15  17  18  19  21  22  24  26 
 29  31  34  37  40  43  46  50  54  58  63  68  73  78  83  89  95 101 
108 114 121 128 136 143 151 159 167 175 184 193 201 210 219 228 237 246 
249 242 235 229 222 216 210 203 197 191 185 180 172 129 121  44  39  34 
 32  27  23  18  14  11   8   2   1   4   6   9  11  15  17  21   5  38 
 49  47  47   2  68  78  76  75  47  39  40  41  43  44  44  44  45  46 
 47  49  65  65  64  65  64  66  64  67  65  68  66  69  67  71  69  73 
 71  75  73  78  76  81  79  84  82  87  84  90  84  69 135 127 128 123 
125 120 123 116 119 114 115 111 112 108 108 106 107 103 104 101 103  99 
100  98  98  96  96  95  95  94  94  94  94  94  94  94  94  94  94  94 
 95  95  95  96  97  98  98  99 100 101 101 103 105 105  90 115 113 113 
111 110 108 107 105 104 102 101  99  98  96  96  93  93  90  90  87  88 
 85  86  83  84  81  82  79  80  77  79  76  78  75  77  75  76  74  76 
 74  76  75  77  75  77  76  78  77  79  79  81  80  83  82  84  84  87 
 87  89  89  91  92  94  94  96  97  99 100 102 103 104  74 135 140 139 
138 137 136 135 134 133 132 131 130 130 129 128 128 127 126  95 122 122 
122 122 122 122 122 121 121 121 120 119 119 118 117 109 100 134 135 137 
138 140 141 143 144 146 148 150 152 154 156 158 161 169   3  80  78  76 
 73  71  68  66  63  61  58  56  53  51  48  46  44  42  39  37  35  33 
 31  29  28  26  24  23  22  20  19  18  17  16  15  14  14  13  12  12 
 12  12  12  12  12  12  13  13  14  15  16  17  18  19  21  22  24  26 
 29  31  34  37  40  43  47  50  54  58  63  68  73  78  83  89  95 101 
108 114 121 128 136 143 151 159 167 175 184 193 201 210 219 228 237 246 
249 242 235 229 222 216 210 204 197 191 185 180 166 130  75  44  39  35 
 31  27  22  19  14  11   6   4   0   3   7   9  12  14  18  20  23  23 
  3  48   4  60  42  52  76  75  27  38  40  41  44  44  44  46  44  47 
 49  21  65  64  65  64  65  64  66  64  67  65  68  66  70  68  72  70 
 74  72  76  74  79  77  82  80  85  82  88  85  92  86  44 126 126 127 
122 125 118 121 114 117 112 113 111 111 106 109 104 106 102 103 100 101 
100  99  97  97  96  96  95  95  94  94  94  94  93  94  94  94  94  94 
 95  95  96  96  97  97  98  99 100 101 102 103 104 106  89 115 114 112 
111 109 109 106 106 103 103 100 100  97  97  94  94  91  92  89  89  86 
 87  84  85  82  83  80  81  78  80  77  78  76  77  75  77  74  76  74 
 76  74  76  75  77  75  78  76  79  78  80  79  82  81  83  83  85  85 
 87  88  90  90  92  93  95  95  97  98 100 101 103 104  74 136 141 140 
138 137 136 135 134 133 132 131 131 130 129 129 128 128 126  94 121 122 
122 122 122 122 121 121 121 120 120 119 118 118 117 109 100 134 136 137 
138 140 141 143 145 146 148 150 152 154 156 159 161 169   3  80  78  76 
 73  71  68  66  63  61  58  56  53  51  48  46  44  41  39  37  35  33 
 31  29  28  26  24  23  22  20  19  18  17  16  15  14  14  13  13  12 
 12  12  12  12  12  12  13  13  14  15  16  17  18  19  21  23  24  27 
 29  31  34  37  40  43  47  50  54  59  63  68  73  78  83  89  95 101 
108 114 121 128 136 143 151 159 167 176 184 193 201 210 219 228 237 246 
249 242 236 229 223 216 210 203 197 191 186 178 161 127  52  45  40  36 
 33  26  22  18  15  11   6   2   0   2   6   9  11  15  16  19  21  25 
 28  23  73  93  45  38  48  73  30  45  42  42  42  43  43  46  49  46 
 48  54  65  65  64  65  64  66  64  66  65  67  66  69  67  70  69  73 
 71  75  73  77  75  80  78  83  81  86  84  90  87  92  91  95   2  88 
136 122 122 118 120 115 116 112 112 107 111 106 107 104 105 101 102  99 
100  98  99  97  97  95  96  94  95  94  94  94  94  93  94  94  94  94 
 95  95  96  96  97  97  98  99 100 101 102 103 104 106 111 114 113 113 
111 110 108 107 105 104 102 102  99  99  96  96  93  93  90  91  87  88 
 85  86  83  84  81  82  79  80  77  79  76  78  75  77  74  76  74  76 
 74  76  74  77  75  77  76  78  77  79  78  81  80  82  82  84  84  86 
 86  88  88  91  91  93  94  96  96  98  99 101 102 104  73 136 141 140 
139 138 137 135 135 134 133 132 131 130 130 129 129 128 127  94 121 121 
121 121 121 121 121 121 120 120 119 119 118 117 117 108 101 135 136 137 
139 140 142 143 145 147 148 151 152 155 157 159 161 169   3  80  78  75 
 73  70  68  65  63  60  58  55  53  51  48  46  44  41  39  37  35  33 
 31  29  28  26  25  23  22  20  19  18  17  16  15  14  14  13  13  12 
 12  12  12  12  12  12  13  13  14  15  16  17  18  19  21  23  25  27 
 29  31  34  37  40  43  47  50  54  59  63  68  73  78  83  89  95 101 
108 114 121 128 136 143 151 159 167 176 184 193 201 210 219 228 237 246 
249 242 235 229 222 216 210 204 197 192 184 180 157 106  47  46  41  36 
 31  27  24  19  14  11   7   3   0   3   6   7  11  14  17  18  22  26 
 27  32 105 117  35  40  38  37  73  24  41  43  44  45  45  46  46  44 
 33  64  65  64  65  64  65  64  66  64  67  65  68  66  69  68  71  69 
 73  72  76  74  79  77  82  79  85  82  88  86  91  88  94  91  98  96 
 52  76 110 122 116 119 114 115 112 112 107 108 107 107 105 105 102 101 
 99 100  98  98  96  96  96  95  95  95  94  94  94  94  94  94  94  94 
 95  95  95  96  97  98  98  99 100 101 102 102 104 106 120 103 113 112 
112 109 109 106 106 103 103 100 100  97  97  94  95  91  92  89  89  86 
 87  84  85  82  83  80  81  78  80  77  78  75  77  75  77  74  76  74 
 76  74  76  74  77  75  77  76  78  77  80  79  81  80  83  82  85  84 
 87  87  89  89  92  92  94  94  97  97  99 100 102 103  73 137 141 141 
139 138 137 136 135 134 133 133 132 131 130 130 129 129 127  93 120 121 
121 121 121 121 120 120 120 119 119 118 117 117 116 108 101 135 137 138 
139 140 142 144 145 147 149 151 153 155 157 159 161 170   4  80  78  75 
 73  70  68  65  63  60  58  55  53  51  48  46  44  41  39  37  35  33 
 31  29  28  26  25  23  22  20  19  18  17  16  15  14  14  13  13  12 
 12  12  12  12  12  12  13  13  14  15  16  17  18  19  21  23  25  27 
 29  31  34  37  40  43  47  50  54  59  63  68  73  78  83  89  95 101 
108 114 121 128 136 143 151 159 167 176 184 193 201 210 219 228 237 246 
249 242 236 229 223 216 210 203 198 190 186 180 174  70  49  47  40  36 
 31  27  23  17  14  10   7   3   1   4   6  10  11  14  17  19  21  25 
 27  43 109 114  50   1  42  37  36  71  59  24  16  35  31  15  29  59 
 64  63  65  65  64  65  64  65  64  66  65  67  66  68  67  70  68  72 
 70  74  72  77  75  80  78  83  81  86  84  89  87  92  90  95  94  98 
 97 102  82  55  21  99 131 119 114 110 110 107 108 105 105 101 104 101 
101  98 100  96  97  96  96  95  95  94  94  94  94  94  94  94  94  94 
 95  95  96  96  97  97  99  99 100 101 102 103 105 105 116  40 113 112 
111 110 108 107 105 105 102 102  99  99  96  96  93  93  90  91  87  88 
 85  86  83  84  81  82  79  80  77  79  76  78  75  77  74  77  74  76 
 74  76  74  76  74  77  75  78  76  79  77  80  79  82  81  84  83  86 
 85  88  88  90  90  93  93  95  95  98  98 100 101 103  72 137 142 141 
140 139 138 137 136 135 134 133 132 132 131 130 130 129 128  92 120 120 
120 120 120 120 120 119 119 119 118 118 117 116 115 107 102 136 137 138 
140 141 142 144 146 148 149 151 153 155 157 159 162 170   4  80  77  75 
 72  70  68  65  63  60  58  55  53  50  48  46  44  41  39  37  35  33 
 31  29  28  26  25  23  22  20  19  18  17  16  15  14  14  13  13  12 
 12  12  12  12  12  12  13  13  14  15  16  17  18  20  21  23  25  27 
 29  31  34  37  40  43  47  51  54  59  63  68  73  78  83  89  95 101 
108 114 121 128 136 143 151 159 167 176 184 193 201 210 219 228 237 246 
249 242 236 229 223 216 210 204 197 191 184 179 170  53  51  44  40  37 
 31  28  23  19  14  11   8   4   0   3   6   8  12  14  16  18  22  25 
 26  68 110 112  72  37  18  33  37  33  66  70  70  69  68  67  67  65 
 65  65  65  64  65  64  65  64  65  64  66  65  67  66  69  67  71  69 
 73  71  75  73  78  76  81  79  83  82  87  85  90  88  93  92  97  95 
100  98 104 102 107 104  90  26  28  59  81 102 115 114 108 106 101 101 
 99 100  97  99  97  97  94  96  96  95  94  95  94  94  94  94  94  95 
 95  96  96  97  97  98  98 100 100 101 102 104 104 106 110  38 113 112 
112 109 109 106 106 103 103 100 100  97  98  94  95  91  92  89  90  86 
 87  84  85  82  83  80  81  78  80  77  79  75  78  75  77  74  76  74 
 76  74  76  74  77  75  77  75  78  77  79  78  81  80  82  82  84  84 
 86  86  89  88  91  91  93  93  96  96  98  99 101 101  72 138 143 142 
140 140 138 138 136 136 135 134 133 132 132 131 131 130 129  92 119 119 
119 119 119 119 119 119 118 118 117 117 116 116 115 107 102 136 138 139 
140 142 143 145 146 148 150 152 154 156 158 160 162 170   4  79  77  75 
 72  70  67  65  62  60  57  55  53  50  48  46  43  41  39  37  35  33 
 31  29  28  26  25  23  22  20  19  18  17  16  15  15  14  13  13  12 
 12  12  12  12  12  13  13  14  14  15  16  17  18  20  21  23  25  27 
 29  32  34  37  40  43  47  51  55  59  63  68  73  78  84  89  95 101 
108 114 121 128 136 143 151 159 167 176 184 193 201 210 219 228 237 246 
249 242 236 229 223 216 210 204 198 190 186 180 154  54  50  45  41  36 
 32  27  22  19  14  11   8   3   1   4   6   9  12  15  16  21  19  25 
 20 108 108 112  85  34  37  39  24  34  35  66  70  69  68  65  67  65 
 66  65  65  65  64  65  64  65  64  66  64  67  65  68  67  70  68  72 
 70  74  72  77  74  79  77  82  80  85  83  88  86  92  89  94  93  98 
 96 102  99 105 102 107 106 111 109 111 109 110  99  48   1  51  99 105 
104 102 102  98  99  98  98  97  96  96  96  94  95  94  95  94  95  95 
 95  95  96  96  97  98  99  99 101 101 103 103 105 106 107  94 108 113 
110 110 108 108 105 105 102 102  99  99  96  96  93  94  90  91  87  89 
 85  86  83  84  81  82  79  81  77  79  76  78  75  77  74  77  74  76 
 74  76  74  76  74  77  75  78  76  79  77  80  78  81  80  83  82  85 
 84  87  87  89  89  92  92  94  94  97  97  99  99 102  71 138 144 142 
142 140 139 138 137 136 136 134 134 133 133 132 131 131 130  91 118 118 
119 118 119 118 118 118 118 117 117 116 116 115 114 106 103 137 138 140 
141 142 144 145 147 149 150 152 154 156 158 160 162 171   5  79  77  74 
 72  69  67  65  62  60  57  55  52  50  48  46  43  41  39  37  35  33 
 31  29  28  26  25  23  22  20  19  18  17  16  15  15  14  13  13  13 
 12  12  12  12  12  13  13  14  14  15  16  17  18  20  21  23  25  27 
 29  32  34  37  40  43  47  51  55  59  63  68  73  78  84  89  95 101 
108 114 121 129 136 143 151 159 167 176 184 193 201 210 219 228 237 246 
249 242 236 229 223 216 210 204 196 191 186 180 141  48  50  63  68  75 
 77  73  68  65  50  40  22   4   9   7   8  10  14  14  18  18  21  23 
 54 107 109 110  94  33  37  37  37  11  35  38  70  68  67  68  67  66 
 66  65  65  64  65  64  65  64  65  64  66  65  67  66  69  67  70  69 
 73  71  75  73  78  75  80  78  83  81  87  84  90  87  93  91  95  94 
100  97 102 101 106 104 109 107 112 109 113 112 117 115 119 118 121 113 
 94  71  48  21   9  46  84 110 104  98  95  94  94  95  94  95  95  95 
 95  96  96  97  97  98  99 100 100 102 102 104 104 105 108 105  78 111 
112 109 109 106 106 103 103 100 101  97  98  94  95  91  92  89  90  86 
 88  84  85  82  83  80  82  78  80  77  79  75  78  75  77  74  77  74 
 76  73  76  74  77  74  77  75  78  76  79  77  80  79  82  81  84  83 
 86  85  88  87  90  90  92  92  95  95  97  97 100 100  71 140 144 143 
142 141 140 139 138 137 136 136 135 134 133 133 132 132 130  90 117 118 
118 118 118 118 117 117 117 116 116 115 115 114 113 105 104 138 139 140 
142 143 144 146 148 149 151 153 155 157 159 161 163 171   5  79  76  74 
 71  69  67  64  62  59  57  55  52  50  48  45  43  41  39  37  35  33 
 31  29  28  26  25  23  22  20  19  18  17  16  15  15  14  13  13  13 
 12  12  12  12  12  13  13  14  14  15  16  17  18  20  21  23  25  27 
 29  32  34  37  40  44  47  51  55  59  63  68  73  78  84  89  95 101 
108 115 121 129 136 144 151 159 167 176 184 193 201 210 219 228 237 246 
249 242 236 229 223 216 210 204 197 192 186 180 162 155 163 158 154 149 
145 139 136 131 128 123 121 115 105  70  30   1   6  18  17  19  20  25 
 87 106 108 112  98  33  36  38  38  42   8  32  41  69  68  67  67  65 
 66  65  65  65  64  65  64  65  64  65  64  66  65  68  66  69  68  71 
 70  73  72  76  74  79  77  82  79  85  82  88  85  91  89  94  92  97 
 95 101  99 104 101 107 105 110 108 112 111 115 114 117 116 120 118 122 
121 123 122 125 124 126 125 114  42  36  80  92  99  96  96  96  97  96 
 96  96  97  97  98  98 100 100 101 101 103 103 105 106 107 110   5 113 
109 110 106 108 104 105 102 102  99  99  96  96  93  94  90  91  88  89 
 85  87  83  85  81  83  79  81  77  80  76  79  75  78  74  77  74  77 
 73  75  73  76  73  77  74  78  75  78  76  80  78  81  79  83  81  84 
 83  86  86  89  88  91  90  93  93  95  95  98  98 100  69 140 145 144 
143 141 141 139 139 138 137 136 136 135 134 134 133 133 131  89 116 117 
117 117 117 117 116 116 116 115 115 114 114 113 112 104 105 139 140 141 
142 144 145 147 148 150 152 153 155 157 159 161 163 172   6  78  76  73 
 71  69  66  64  62  59  57  54  52  50  47  45  43  41  39  37  35  33 
 31  29  28  26  25  23  22  20  19  18  17  16  15  15  14  14  13  13 
 13  12  12  12  13  13  13  14  15  15  16  17  19  20  22  23  25  27 
 29  32  35  37  40  44  47  51  55  59  63  68  73  78  84  89  95 102 
108 115 122 129 136 144 151 159 167 176 184 193 201 210 219 228 237 246 
249 242 236 229 223 217 210 204 198 192 185 181 173 169 164 159 153 150 
144 141 135 132 127 124 120 116 112 110 106 104  88  72  15  21  23  28 
102 107 110 109  99  33  37  37  39  38  43   0  32  51  68  67  67  66 
 64  65  65  64  65  64  65  64  65  64  66  65  67  66  68  67  70  68 
 72  70  74  72  77  75  80  78  83  80  86  83  89  87  92  90  95  93 
 99  96 102 100 105 103 108 106 111 109 113 112 116 114 118 117 120 119 
122 121 124 123 125 124 125 125 127 126 118  97   8 110  98  96  97  96 
 97  97  97  98  98  99  99 101 101 103 103 105 105 106 108 110 113 109 
111 109 109 106 106 102 103 100 101  97  98  94  95  92  93  89  90  86 
 88  84  86  82  84  80  82  78  81  77  79  76  78  75  77  74  77  74 
 76  73  76  74  77  74  77  75  78  76  79  76  80  78  82  80  83  82 
 85  84  87  86  89  89  91  91  94  93  96  96  98  98  70 141 145 145 
143 143 141 141 139 139 138 137 136 136 135 135 134 134 132  88 115 116 
116 116 116 116 115 115 115 115 114 114 113 112 111 104 106 140 141 142 
143 144 146 147 149 151 152 154 156 158 160 162 164 172   6  78  75  73 
 71  68  66  64  61  59  56  54  52  49  47  45  43  41  39  37  35  33 
 31  29  28  26  25  23  22  20  19  18  17  16  16  15  14  14  13  13 
 13  13  12  13  13  13  13  14  15  16  16  18  19  20  22  23  25  27 
 30  32  35  37  41  44  47  51  55  59  64  68  73  78  84  90  95 102 
108 115 122 129 136 144 151 159 167 176 184 193 201 210 219 228 237 246 
249 242 236 229 223 216 210 204 198 192 186 180 175 169 164 159 155 149 
145 140 136 131 128 123 121 115 114 109 108 104 101  98  97  58  25  65 
106 105 108 112  97  33  34  38  38  42  40  43  12  33  63  66  66  66 
 66  65  65  65  64  65  64  65  64  65  64  66  65  67  66  69  67  71 
 69  73  71  75  73  78  76  81  79  84  82  87  84  90  88  93  91  96 
 94  99  97 103 101 106 104 109 107 111 110 114 112 116 115 118 117 120 
119 122 121 124 123 125 124 126 125 127 126 127 125 113  35 105  97  97 
 96  97  98  98  99  99 100 100 102 102 104 105 106 106 108 108 116   9 
110 109 107 107 103 105 101 102  99  99  96  97  93  94  90  92  88  89 
 85  87  83  85  81  83  79  81  78  80  76  79  75  78  73  77  73  77 
 73  76  73  77  74  76  74  77  75  77  76  79  77  81  79  82  80  84 
 82  86  84  88  87  90  89  92  91  94  94  97  96  99  68 141 147 145 
145 143 143 141 141 140 139 138 138 137 136 136 135 135 133  87 114 115 
115 115 115 115 114 114 114 113 113 112 112 111 111 103 106 141 142 143 
144 145 147 148 150 151 153 155 157 159 161 163 165 173   7  77  75  72 
 70  68  66  63  61  58  56  54  52  49  47  45  43  41  39  37  35  33 
 31  29  28  26  25  23  22  21  19  18  17  16  16  15  14  14  13  13 
 13  13  13  13  13  13  14  14  15  16  17  18  19  20  22  24  25  27 
 30  32  35  38  41  44  47  51  55  59  64  68  73  78  84  90  96 102 
108 115 122 129 136 144 151 159 167 176 184 193 201 210 219 228 237 246 
249 242 236 229 223 217 210 204 198 192 186 181 175 170 164 159 154 150 
144 141 135 133 127 125 120 118 113 110 107 105 100 100  82  57  42 105 
105 106 108 110  89  32  38  34  38  40  42  41  46  15  35  67  67  67 
 66  64  65  65  65  64  65  64  65  64  66  65  67  65  68  67  70  68 
 72  70  74  72  76  74  79  77  81  80  85  82  88  86  90  89  93  92 
 97  95 101  97 104 102 107 105 109 108 112 110 114 113 117 115 119 118 
121 120 122 121 123 122 125 123 126 125 126 125 126 126 127  17  97  99 
 97  98  98  99  99 100 100 102 102 103 103 105 105 108 108 109 110  97 
100 108 109 105 106 103 103 100 101  97  98  94  95  92  93  89  90  87 
 88  84  86  82  84  80  82  79  81  77  80  76  78  75  78  74  77  74 
 77  73  77  73  76  74  77  74  78  75  79  75  80  78  81  79  83  81 
 84  83  86  85  88  87  90  90  92  92  95  94  97  97  68 143 147 147 
145 145 143 143 141 141 140 139 138 138 137 137 136 136 134  86 113 113 
114 114 114 114 113 113 113 112 112 112 111 110 109 102 108 141 143 144 
145 146 148 149 151 152 154 156 157 159 161 163 165 173   7  76  74  72 
 70  67  65  63  60  58  56  53  51  49  47  45  42  40  38  36  34  33 
 31  29  28  26  24  23  22  21  19  18  17  16  16  15  14  14  13  13 
 13  13  13  13  13  13  14  14  15  16  17  18  19  20  22  24  26  28 
 30  32  35  38  41  44  48  51  55  59  64  69  73  79  84  90  96 102 
108 115 122 129 136 144 151 159 168 176 184 193 202 210 219 228 237 246 
249 242 236 229 223 216 211 204 197 192 187 180 175 167 165 159 155 149 
146 140 137 131 129 124 121 116 115 110 108 104 103  97  61  56  22 103 
103 106 107 110  79  34  33  36  38  39  39  42  42  38  27  53  68  66 
 66  65  65  65  64  65  64  65  64  65  64  66  65  67  66  69  67  70 
 69  72  71  75  73  77  75  80  78  82  81  85  84  88  82  66  64  94 
 93  97  96 101  99 103 102 107 105 110 108 112 111 115 113 117 116 119 
118 121 120 122 121 123 123 124 124 125 124 126 124 126 124  95 101  97 
100  98  99  99 100 100 102 101 103 103 106 104 107 107 109 109 112 115 
 49 110 107 107 104 104 101 102  98  99  96  97  93  94  90  92  88  89 
 85  87  83  85  81  83  79  82  78  80  76  79  75  78  74  77  74  76 
 73  76  39  94  56  77  72  77  74  77  75  79  77  80  78  81  80  83 
 81  85  83  87  85  89  88  91  90  93  92  95  95  97  66 143 149 147 
147 145 145 143 143 142 141 140 140 139 139 138 138 137 136  85 112 112 
112 112 112 112 112 112 112 111 111 110 110 109 108 101 108 143 143 145 
146 147 148 150 151 153 155 156 158 160 162 164 166 174   8  76  74  71 
 69  67  65  62  60  58  55  53  51  49  46  44  42  40  38  36  34  33 
 31  29  27  26  24  23  22  21  19  18  17  17  16  15  14  14  14  13 
 13  13  13  13  13  13  14  14  15  16  17  18  19  21  22  24  26  28 
 30  32  35  38  41  44  48  51  55  60  64  69  74  79  84  90  96 102 
108 115 122 129 136 144 152 159 168 176 184 193 202 210 219 228 237 246 
249 242 236 230 223 217 210 205 198 193 186 179 175 170 164 160 154 150 
145 141 136 133 128 125 120 118 112 112 107 106 101  73  57  59  89 101 
104 104 109 114  22  21  37  36  38  37  40  41  44  44  32  35  66  67 
 66  66  65  65  65  64  65  64  65  64  65  64  66  65  68  66  69  68 
 71  69  73  71  76  74  78  76  80  79  84  81  87  74  87 137 105  84 
 96  94  99  97 101 100 105 103 108 106 110 109 113 111 115 114 117 116 
119 118 121 120 122 121 122 122 124 123 125 124 125 124 125 124  99 100 
 97 100  99 100 100 102 101 103 103 105 104 106 106 108 107 113 110 113 
120  22 107 105 106 102 103 100 100  97  98  94  95  92  93  89  91  87 
 88  84  86  82  84  80  83  79  81  77  80  76  79  75  78  74  76  74 
 77  72  99 152 153  18  77  74  77  75  78  76  79  77  80  78  82  80 
 83  82  85  84  87  86  89  88  91  90  93  93  95  95  66 145 149 149 
147 147 145 145 143 143 142 142 141 140 139 139 138 138 137  84 111 111 
111 111 111 111 111 111 110 110 110 109 109 108 107 100 110 144 145 146 
147 148 150 151 152 154 156 157 159 161 163 165 167 175   9  75  73  71 
 69  66  64  62  60  57  55  53  51  48  46  44  42  40  38  36  34  32 
 31  29  27  26  24  23  22  21  19  18  18  17  16  15  15  14  14  13 
 13  13  13  13  13  14  14  15  15  16  17  18  19  21  22  24  26  28 
 30  33  35  38  41  44  48  52  55  60  64  69  74  79  84  90  96 102 
108 115 122 129 136 144 152 160 168 176 184 193 202 210 219 228 237 246 
249 242 236 229 223 217 211 204 199 191 187 180 176 170 165 159 155 149 
146 140 137 132 129 124 121 117 115 110 109 103  93  61  62  38 100 104 
101 106 104 120  53  77  18  39  38  41  40  42  41  44  46   2  49  66 
 66  65  65  65  65  65  64  65  64  65  64  66  65  67  66  68  67  70 
 68  72  70  74  72  77  75  79  77  81  78  85  67 115 139 133 135 104 
 86  96  94  99  98 103 101 106 104 108 107 111 109 113 112 115 114 117 
116 119 118 121 118 122 121 123 121 124 123 124 123 124 123 124 101  98 
101  99 101 100 102 101 103 103 104 104 106 104 109 108 110 110 113 112 
114 114  79 107 103 104 101 102  98  99  95  97  93  94  90  92  88  90 
 86  88  83  86  81  84  80  82  78  81  77  79  75  78  75  78  74  75 
 73  76 154 147 151 148  79  77  72  78  75  78  76  80  77  81  79  82 
 80  84  82  86  84  87  86  89  88  91  91  93  93  95  64 145 151 149 
149 147 147 145 145 144 144 142 142 141 141 140 140 139 138  83 110 110 
110 110 110 110 110 110 109 109 109 108 108 107 106  98 111 145 146 147 
148 149 150 152 153 155 156 158 160 162 164 166 167 176   9  75  72  70 
 68  66  64  61  59  57  55  52  50  48  46  44  42  40  38  36  34  32 
 31  29  27  26  24  23  22  21  20  19  18  17  16  15  15  14  14  14 
 13  13  13  13  14  14  14  15  16  16  17  18  20  21  23  24  26  28 
 30  33  35  38  41  45  48  52  56  60  64  69  74  79  84  90  96 102 
109 115 122 129 136 144 152 160 168 176 184 193 202 210 219 228 237 246 
249 242 236 230 223 217 210 205 198 193 186 182 175 171 163 161 154 151 
145 142 136 134 128 126 121 119 114 112 107 102  63  63  42  95  99 100 
103 103 108 109  80  80  78  46  26  40  42  41  43  42  44  45  30  67 
 65  66  65  65  65  64  65  64  65  64  65  64  66  65  67  66  69  67 
 71  69  73  71  75  73  78  75  79  76  83  36 131 142 135 137 132 136 
101  63  98  96 100  99 104 102 106 104 109 107 111 110 113 112 115 114 
117 116 119 118 120 119 121 120 122 121 123 122 123 122 124 112 102 101 
100 101 101 102 102 103 103 104 104 106 105 108 107 110 109 112 112 114 
113 118 109  80 104 101 103  99 100  97  98  94  95  91  93  89  91  87 
 89  85  87  83  85  81  83  79  82  77  80  76  79  75  78  74  75  74 
 24 154 146 151 148 150 150 119  33  74  78  75  79  76  80  77  81  79 
 83  81  84  83  86  84  88  87  90  89  92  91  94  93  64 147 151 151 
149 149 147 147 146 146 144 144 143 143 142 142 141 141 139  81 108 109 
109 109 109 109 108 108 108 108 107 107 106 106 105  97 112 146 147 148 
149 150 152 153 154 156 158 159 161 163 164 166 168 176  10  74  72  70 
 67  65  63  61  59  56  54  52  50  48  46  44  42  40  38  36  34  32 
 31  29  27  26  24  23  22  21  20  19  18  17  16  15  15  14  14  14 
 13  13  13  14  14  14  14  15  16  17  18  19  20  21  23  25  26  28 
 31  33  36  39  41  45  48  52  56  60  64  69  74  79  85  90  96 102 
109 115 122 129 137 144 152 160 168 176 184 193 202 210 219 228 237 246 
249 242 236 229 223 217 211 204 199 192 187 181 176 170 166 160 155 150 
147 141 138 132 130 125 123 117 116 111 109  75  66  66  34  98  96 102 
102 105 106  77  83  79  80  75  75  20  40  42  42  43  43  46  27  61 
 67  65  66  65  65  65  64  65  64  65  64  66  65  67  65  68  67  69 
 68  71  70  74  72  76  74  78  75  80  34 137 142 137 139 133 136 130 
133 123  62  99  96 101  99 104 102 107 105 109 107 111 110 114 112 115 
114 117 116 119 118 119 119 120 120 122 121 122 121 123 122  66 103 100 
102 101 103 102 103 103 105 104 106 105 107 107 109 109 111 111 113 113 
116 116 119 108  94 104  99 101  98  99  95  96  93  94  90  92  88  90 
 86  88  84  86  81  84  80  82  78  81  77  80  76  79  75  78  74  35 
156 146 151 147 150 147 150 146 151  14  74  78  74  79  76  80  78  81 
 79  83  81  84  83  86  85  88  87  90  89  92  91  94  62 147 153 151 
151 149 149 148 148 146 146 145 145 144 143 143 143 142 141  80 107 107 
107 107 107 107 107 107 107 106 106 105 105 104 104  96 113 147 148 149 
150 151 153 154 155 157 158 160 162 164 165 167 169 177  11  73  71  69 
 67  65  62  60  58  56  54  52  50  47  45  43  41  39  37  36  34  32 
 30  29  27  26  24  23  22  21  20  19  18  17  16  16  15  15  14  14 
 14  14  14  14  14  14  15  15  16  17  18  19  20  21  23  25  27  29 
 31  33  36  39  42  45  48  52  56  60  65  69  74  79  85  90  96 102 
109 115 122 129 137 144 152 160 168 176 184 193 202 210 219 228 237 246 
249 242 236 230 223 217 211 205 198 193 187 182 176 171 165 161 155 151 
145 142 137 134 129 127 120 120 114 113  82  67  64  18 102  94 100  99 
103 104 108  38  81  81  77  78  74  76  15  49  41  43  43  43  44  39 
 65  66  65  65  65  65  65  64  65  64  65  64  66  65  67  66  68  67 
 70  69  72  70  74  71  77  73  79  11 143 144 139 141 136 139 134 137 
130 133 131  26  99  97 101 100 104 103 107 104 109 108 111 110 113 112 
115 114 117 116 117 117 118 118 120 119 121 120 121 119 120  44 103 103 
103 103 103 104 103 105 104 106 106 107 107 109 109 111 110 113 112 115 
114 116 118 122 107  56 102  98 100  96  97  93  95  91  93  89  91  86 
 89  84  87  82  85  81  83  79  82  78  80  76  79  74  77  74  48 153 
145 151 146 150 148 151 148 150 148 157  91  65  78  75  79  76  80  78 
 82  79  83  81  85  83  86  85  88  87  90  89  92  91  63 149 153 153 
151 151 150 150 148 148 147 147 145 145 144 144 144 143 142  78 106 106 
106 106 106 106 106 106 105 105 105 104 104 103 102  95 114 148 149 150 
151 152 154 155 157 158 160 161 163 164 166 168 170 178  12  72  70  68 
 66  64  62  60  58  55  53  51  49  47  45  43  41  39  37  35  34  32 
 30  29  27  26  24  23  22  21  20  19  18  17  16  16  15  15  14  14 
 14  14  14  14  14  15  15  16  16  17  18  19  20  22  23  25  27  29 
 31  34  36  39  42  45  49  52  56  60  65  69  74  80  85  91  96 103 
109 116 122 129 137 144 152 160 168 176 185 193 202 211 219 228 237 246 
249 242 236 230 224 217 211 205 199 193 188 181 177 170 166 160 156 150 
147 141 139 133 131 125 122 118 115  95  70  67  64  76  92  97  96 101 
100 105 106   8  83  80  80  76  76  74  74  31  40  45  42  44  43  22 
 67  66  66  65  65  65  64  65  64  65  64  65  65  66  65  68  66  69 
 68  71  69  73  71  74  71  78  28 157 146 141 143 138 140 135 136 134 
135 129 131 132  94  64  97 102  99 105 103 107 106 109 108 111 110 113 
112 114 113 116 115 118 117 119 117 119 117 119 118 119   2 114 103 105 
103 104 105 104 105 105 106 106 108 107 109 109 111 110 113 112 115 114 
116 116 118 118 122 133   8  99  96  98  94  96  92  94  90  92  87  90 
 85  88  83  86  82  84  80  82  77  81  77  80  75  79  56  82 153 146 
150 148 151 147 150 147 150 147 149 146 151 151  17  78  75  79  76  80 
 78  82  80  83  81  85  83  86  85  88  87  90  89  92  60 149 155 153 
153 152 152 150 150 149 149 147 147 146 146 145 145 145 143  77 104 105 
105 105 105 105 104 104 104 104 103 103 102 102 101  93 116 150 150 152 
153 154 155 156 158 159 160 162 164 165 167 169 171 179  12  72  70  68 
 66  63  61  59  57  55  53  51  49  47  45  43  41  39  37  35  34  32 
 30  29  27  26  25  23  22  21  20  19  18  17  17  16  15  15  15  14 
 14  14  14  14  15  15  15  16  17  17  18  19  21  22  24  25  27  29 
 31  34  36  39  42  45  49  53  57  61  65  70  75  80  85  91  97 103 
109 116 123 130 137 144 152 160 168 176 185 193 202 211 219 228 237 246 
249 243 236 230 223 217 211 205 199 194 187 182 176 172 165 161 155 152 
146 143 137 135 129 127 121 120 102  75  69  77  24  92  95  96  97  98 
102 101 113  62  81  82  78  79  76  75  73  74  49  44  43  44  46  51 
 48  67  65  66  65  65  65  64  65  64  65  64  66  65  67  66  68  67 
 70  68  71  70  73  72  75  67 147 146 143 143 141 142 136 139 135 137 
130 135 128 131 127 123  54  96 103 100 105 103 107 106 109 108 111 110 
113 112 115 113 116 115 117 116 118 117 119 118 118  27 106 105 104 106 
104 105 105 106 105 107 106 108 107 109 109 111 110 113 112 114 114 116 
116 119 118 121 120 123 122  93  79  94  96  93  94  91  93  89  90  86 
 88  84  87  83  85  81  82  79  82  78  80  76  79   1 134 150 147 149 
147 150 147 152 147 151 147 151 147 150 146 151 147  77  78  75  79  77 
 79  78  82  80  83  81  85  83  86  85  88  87  90  89  60 151 155 156 
153 154 152 152 151 151 149 149 148 148 147 147 146 146 145  76 103 103 
103 103 103 103 103 103 103 102 102 102 101 100 100  92 117 151 152 153 
154 155 156 157 159 160 162 163 165 166 168 170 172 180  13  71  69  67 
 65  63  61  59  57  55  52  50  48  46  44  42  41  39  37  35  33  32 
 30  29  27  26  24  23  22  21  20  19  18  17  17  16  16  15  15  15 
 14  14  14  15  15  15  15  16  17  18  19  20  21  22  24  26  27  29 
 32  34  37  39  42  46  49  53  57  61  65  70  75  80  85  91  97 103 
109 116 123 130 137 144 152 160 168 176 185 193 202 211 219 228 237 246 
249 242 236 230 224 217 211 205 200 193 188 181 177 171 167 160 157 151 
148 142 139 133 130 125 124 108  79  74  72  22  95  91  93  96  96  99 
101 105  74  83  84  80  81  76  78  73  75  70  73  42  42  46  45  46 
  7  65  66  65  65  65  65  65  64  65  64  65  64  66  65  67  66  69 
 67  70  68  72  70  73  90 156 148 145 146 143 144 139 141 136 138 133 
136 132 132 129 130 125 131 126  30  61 100 105 103 107 106 109 108 111 
110 113 111 113 113 114 114 116 115 117 116  39  77 112 105 107 107 104 
107 106 107 106 108 107 109 108 110 109 111 110 113 112 114 114 116 116 
117 117 121 119 124 122 125 124 134  33  58  94  92  92  90  91  87  89 
 85  87  83  85  82  83  80  82  77  81  76  11 100 156 149 146 150 147 
150 147 151 147 150 148 151 147 151 147 150 146 150 151 110  36  76  77 
 77  80  78  82  80  83  82  85  83  86  85  88  87  90  58 151 158 155 
156 154 154 152 153 151 151 150 150 149 149 148 148 147 146  74 101 102 
102 102 102 102 102 101 101 101 101 100 100  99  98  91 118 152 153 154 
155 156 157 159 160 161 163 164 166 167 169 171 173 180  14  70  68  66 
 64  62  60  58  56  54  52  50  48  46  44  42  40  38  37  35  33  32 
 30  29  27  26  25  23  22  21  20  19  18  18  17  16  16  15  15  15 
 15  15  15  15  15  15  16  16  17  18  19  20  21  23  24  26  28  30 
 32  34  37  40  43  46  49  53  57  61  66  70  75  80  85  91  97 103 
109 116 123 130 137 145 152 160 168 176 185 193 202 211 219 228 237 246 
249 243 236 230 223 218 211 206 199 194 187 183 176 172 166 162 156 152 
146 143 136 134 129 127 112  80  78  75  68  75  88  88  93  94 100  98 
101 107  28  86  82  81  79  79  76  77  72  74  70  71  54  43  45  45 
 22  65  66  66  65  65  65  64  65  64  65  64  66  65  66  65  68  66 
 69  68  70  69  66 132 148 149 146 148 143 146 141 143 138 140 135 139 
132 135 131 131 128 130 125 128 124 130  92  19  95  99 105 106 109 107 
110 109 112 111 113 112 112 107  97   0 105 110 107 109 108 109 106 109 
107 108 107 109 108 109 109 110 110 112 111 113 112 114 114 116 115 118 
117 120 119 123 120 124 122 127 125 129 133  82  53  83  90  88  90  86 
 88  83  86  82  84  81  83  75  73  18 134 148 145 149 145 149 148 149 
148 151 147 150 147 151 147 151 147 151 147 150 147 149 146 151   2  76 
 79  77  80  78  82  80  83  82  85  83  86  85  88  87  58 154 157 158 
156 156 154 155 153 153 152 152 151 151 150 150 149 149 148  73 100 100 
100 100 100 100 100 100 100  99  99  99  98  98  97  89 120 153 154 155 
156 157 159 160 161 162 164 165 167 168 170 172 174 181  15  69  67  65 
 63  61  59  58  56  54  52  50  48  46  44  42  40  38  37  35  33  32 
 30  29  27  26  25  23  22  21  20  19  18  18  17  17  16  16  15  15 
 15  15  15  15  15  16  16  17  17  18  19  20  21  23  24  26  28  30 
 32  35  37  40  43  46  50  53  57  61  66  70  75  80  86  91  97 103 
110 116 123 130 137 145 152 160 168 176 185 193 202 211 219 228 237 246 
249 242 236 230 224 217 212 205 200 193 188 182 177 171 167 161 157 151 
148 142 139 134 130 113  86  81  79  70  59  87  86  91  92  95  95 101 
 99  91  81  83  84  80  81  71  69  66  76  73  72  67  71  42  49  48 
 44  65  66  65  65  65  65  65  64  65  64  65  64  66  65  67  66  68 
 67  69  68  51 128 152 152 148 151 145 147 143 145 140 142 137 141 134 
138 134 134 130 132 127 130 125 128 124 126 126 120  89  67  27   7  33 
 48  52  35  17   8  46  67  88 114 113 111 108 110 109 109 108 110 107 
109 109 110 109 110 109 111 110 112 111 113 113 115 114 116 116 118 117 
120 119 122 120 125 123 128 125 128 129 131 130 138 113  89  42   3  40 
 55  78  56  50  13  25  79 107 142 147 147 145 147 145 150 147 150 146 
150 147 151 148 151 147 151 147 151 147 152 147 150 148 150 146 159  31 
 75  79  77  80  78  82  80  83  82  84  83  86  85  87  56 153 160 158 
158 156 157 155 155 154 154 153 153 152 152 151 151 150 149  71  99  99 
 99  99  99  99  99  98  98  98  98  97  97  96  96  88 121 155 156 157 
158 159 160 161 162 164 165 166 168 169 171 173 174 182  16  68  67  65 
 63  61  59  57  55  53  51  49  47  45  43  42  40  38  36  35  33  32 
 30  29  27  26  25  23  22  21  20  19  19  18  17  17  16  16  16  15 
 15  15  15  15  16  16  17  17  18  19  20  21  22  23  25  26  28  30 
 33  35  38  40  43  46  50  54  58  62  66  71  75  81  86  91  97 103 
110 116 123 130 137 145 153 160 168 177 185 193 202 211 220 228 237 246 
249 243 236 230 224 218 211 206 199 194 188 183 176 172 166 162 156 153 
147 144 137 135 116  87  84  82  80  11  83  82  88  88  93  93  97  98 
104  42  85  86  75  60  40  39  37  37  33  47  67  72  69  70  37  44 
 52  38  66  66  65  65  65  65  65  64  65  64  65  65  66  65  67  66 
 69  67  29 152 151 153 150 151 147 149 145 147 142 144 140 142 137 139 
135 137 132 134 130 132 127 129 125 128 123 125 121 122 119 123 123 127 
125 128 121 122 118 115 112 113 111 111 110 111 110 111 109 111 109 111 
110 110 110 111 110 112 111 113 112 114 113 115 114 117 116 118 117 120 
119 122 121 124 124 125 124 128 126 130 128 133 130 134 132 138 141 148 
149 153 150 152 147 148 141 145 142 147 142 148 144 148 145 150 146 150 
147 151 148 151 148 152 148 152 148 151 147 151 147 151 147 152 116  74 
 78  76  79  77  80  78  81  80  83  81  84  83  86  85  56 156 160 160 
158 159 157 157 156 156 155 155 154 154 153 153 152 152 150  70  97  97 
 97  97  97  97  97  97  97  97  96  96  95  95  94  87 122 156 157 158 
159 160 161 162 163 165 166 167 169 170 172 174 175 183  17  68  66  64 
 62  60  58  56  54  53  51  49  47  45  43  41  40  38  36  35  33  32 
 30  29  27  26  25  24  22  22  21  20  19  18  18  17  17  16  16  16 
 15  16  16  16  16  17  17  18  18  19  20  21  22  24  25  27  29  31 
 33  35  38  41  44  47  50  54  58  62  66  71  76  81  86  92  98 104 
110 117 123 130 138 145 153 160 168 177 185 194 202 211 220 228 237 246 
249 243 236 230 224 217 212 205 200 193 189 182 178 171 167 160 158 151 
147 141 139 110  94  87  86  82   8  81  79  86  86  90  90  96  96  99 
112  64  87  64  47  42  42  40  42  36  37  34  35  62  70  67  69  15 
 53   3  66  66  66  64  65  65  64  64  64  65  64  66  65  66  65  68 
 66  68   6 155 154 151 154 150 150 146 148 144 146 142 145 139 141 137 
139 134 136 132 134 130 131 127 129 125 127 123 125 121 124 120 122 119 
120 117 118 116 116 114 115 113 114 112 113 111 112 111 112 111 112 111 
112 111 112 112 112 113 114 113 115 114 116 115 116 116 118 118 120 119 
122 121 124 123 125 124 127 126 129 128 132 131 134 133 135 133 137 136 
140 137 141 139 143 140 144 141 145 143 147 144 148 145 149 146 150 147 
151 147 151 148 152 148 152 147 153 147 152 148 152 148 151 138  52  77 
 73  78  75  79  77  80  78  81  80  83  81  84  83  85  53 156 162 160 
161 159 159 158 158 157 157 155 156 155 155 154 154 153 152  68  96  96 
 96  96  96  96  96  95  95  95  95  94  94  93  93  85 124 158 158 159 
160 161 162 163 165 166 167 169 170 172 173 175 176 184  17  67  65  63 
 61  59  58  56  54  52  50  48  46  45  43  41  39  38  36  34  33  31 
 30  29  27  26  25  24  23  22  21  20  19  18  18  17  17  16  16  16 
 16  16  16  16  17  17  17  18  19  19  20  21  23  24  26  27  29  31 
 33  36  38  41  44  47  51  54  58  62  67  71  76  81  86  92  98 104 
110 117 124 130 138 145 153 161 169 177 185 194 202 211 220 228 237 246 
249 243 236 230 224 218 211 206 199 194 188 183 177 172 166 161 156 152 
147 140 110  98  92  89  92  19  76  76  82  82  86  87  92  91  99  97 
 37  89  59  48  44  44  42  51  30  17   9  30  41  44  70  71  68  68 
  3  25  66  65  65  65  64  65  65  64  65  64  65  64  66  65  67  66 
 68  66  69  22 157 154 151 153 148 150 147 147 145 146 141 143 139 141 
137 139 134 136 132 134 130 131 127 129 125 127 123 125 122 123 120 121 
118 120 117 118 116 117 115 116 114 115 113 114 113 114 113 114 112 114 
113 114 113 114 113 114 114 116 115 117 116 118 117 119 119 120 120 122 
121 124 123 125 124 127 126 129 128 131 130 133 131 135 133 137 135 138 
136 140 138 142 140 143 141 145 142 146 144 148 145 149 146 150 147 151 
147 151 148 152 148 152 150 152 149 152 148 152 148 153 150  23  74  73 
 77  73  78  75  79  77  80  78  81  79  82  81  83  83  54 158 162 163 
161 161 160 160 158 159 157 157 156 156 156 156 155 155 153  67  94  94 
 94  94  94  94  94  94  94  94  93  93  92  92  91  84 125 159 160 161 
162 162 164 165 166 167 168 170 171 173 174 176 177 185  18  66  64  62 
 61  59  57  55  53  52  50  48  46  44  43  41  39  38  36  34  33  31 
 30  29  27  26  25  24  23  22  21  20  19  19  18  18  17  17  16  17 
 16  16  16  17  17  17  18  18  19  20  21  22  23  25  26  28  29  32 
 34  36  39  42  44  48  51  55  58  63  67  72  76  81  87  92  98 104 
110 117 124 131 138 145 153 161 169 177 185 194 202 211 220 229 237 246 
249 243 236 230 224 217 212 205 200 194 189 182 178 171 168 161 157 152 
142 105 104  94  93  88  25  79  74  78  79  84  85  90  90  95  94  97 
 61  76  51  45  46  39   0  97 119 121 121 124  84  13  72  69  69  67 
 59  31  56  66  64  65  65  65  63  64  64  65  64  65  65  66  65  67 
 66  68  65  70  31 152 153 150 151 149 149 147 147 143 146 141 143 139 
141 136 138 134 136 132 134 130 131 128 129 126 127 124 125 122 123 121 
122 119 120 118 119 117 118 116 117 115 116 115 116 114 115 114 115 114 
115 114 116 114 116 116 117 116 118 117 119 118 120 120 121 119 121 122 
124 123 126 125 127 126 129 128 131 129 133 131 134 133 136 134 138 136 
140 138 141 139 143 141 145 142 146 143 147 144 148 146 150 146 151 147 
151 148 152 149 152 150 152 149 153 149 153 149 153 148   5  74  72  75 
 73  76  74  77  75  78  76  79  78  80  79  82  81  83  51 158 165 163 
163 161 162 160 161 159 159 158 158 157 157 157 157 156 155  65  93  93 
 93  93  93  93  93  92  92  92  92  91  91  90  90  82 126 160 161 162 
163 164 165 166 167 168 169 171 172 174 175 177 178 186  19  65  63  62 
 60  58  56  55  53  51  49  47  46  44  42  41  39  37  36  34  33  31 
 30  29  27  26  25  24  23  22  21  20  20  19  19  18  18  17  17  17 
 17  17  17  17  17  17  18  19  20  20  21  22  24  25  27  28  30  32 
 34  36  39  42  45  48  51  55  59  63  67  72  77  82  87  92  98 104 
111 117 124 131 138 145 153 161 169 177 185 194 202 211 220 229 237 246 
249 243 236 230 224 218 211 206 199 194 188 183 176 173 166 163 155 126 
107 105  98  97  97  15  70  72  75  77  81  83  87  87  92  91 101  53 
 90  54  48  52  18  90 117 112 115 114 118 115 120 119  17  71  69  69 
 60  23  18  66  64  65  65  64  65  64  65  64  65  64  65  65  66  65 
 67  66  69  65  70   0 156 153 149 151 148 148 145 147 143 145 141 143 
139 140 136 138 134 136 132 134 130 132 128 130 126 128 124 126 123 124 
121 123 120 121 119 120 118 119 117 118 117 118 116 117 116 117 116 117 
116 117 115 118 117 118 116 120 118 120 119 120 120 122 121 122 123 123 
123 126 125 127 126 129 128 131 130 133 131 133 132 136 134 138 136 139 
137 141 139 143 140 144 142 146 143 147 144 148 145 149 146 150 147 151 
148 152 149 153 149 152 150 153 150 153 151 153 157   0  74  70  75  72 
 75  72  76  74  77  75  78  76  79  77  80  79  81  80  51 161 165 165 
163 164 162 163 161 161 160 160 159 159 159 159 158 158 156  64  91  91 
 91  91  91  91  91  91  91  91  90  90  89  89  88  81 128 162 163 163 
164 165 166 167 168 169 171 172 173 175 176 178 179 187  20  64  63  61 
 59  58  56  54  52  51  49  47  45  44  42  40  39  37  36  34  33  31 
 30  29  27  26  25  24  23  22  21  21  20  19  19  18  18  18  17  17 
 17  17  17  18  18  18  18  19  20  21  22  23  24  26  27  29  30  33 
 34  37  39  42  45  48  52  55  59  63  67  72  77  82  87  93  98 105 
111 117 124 131 138 146 153 161 169 177 185 194 202 211 220 229 237 246 
249 243 237 230 224 218 212 205 200 194 189 182 178 171 168 148 120 112 
111 106 102  99  20  68  65  73  73  77  79  84  84  90  91  94  94  83 
 87  49  50   8 115 112 108 114 112 115 115 117 117 120 122  58  70  68 
 63  28  19  43  66  64  65  65  64  65  64  65  64  65  64  66  65  67 
 66  68  67  68  67  71   8 147 153 150 152 149 149 146 147 143 145 141 
142 138 140 136 138 134 136 132 134 130 132 129 130 127 128 125 126 124 
125 122 123 121 122 120 121 119 120 119 120 118 119 118 119 118 119 118 
119 118 120 118 120 119 120 119 122 121 122 122 124 123 126 123 125 125 
126 125 128 127 129 128 131 130 133 131 134 133 136 134 137 136 139 137 
141 139 142 140 144 142 145 143 147 144 148 145 149 146 150 147 151 148 
152 149 153 149 153 150 153 150 155 151 155 153  15  73  69  74  71  74 
 72  75  72  76  73  76  75  77  76  78  77  80  78  81  49 160 167 165 
166 164 164 163 163 162 162 161 161 160 160 160 160 159 158  62  90  90 
 90  90  90  90  90  89  89  89  89  88  88  87  87  79 129 163 164 165 
165 166 167 168 169 171 172 173 174 176 177 179 180 188  21  64  62  60 
 59  57  55  53  52  50  48  47  45  43  42  40  39  37  36  34  33  31 
 30  29  28  26  25  24  24  22  22  21  20  20  19  19  18  18  18  17 
 18  17  18  18  18  18  19  19  21  21  22  23  25  26  28  29  31  33 
 35  37  40  43  46  49  52  56  60  64  68  72  77  82  88  93  99 105 
111 118 124 131 138 146 153 161 169 177 186 194 202 211 220 229 238 246 
249 243 236 230 224 218 211 206 200 195 188 182 177 167 130 125 117 114 
110 105 100  13  64  64  69  70  75  77  81  82  88  87  92  93   4  95 
 81  51  48 102 110 106 111 112 113 113 115 117 119 119 122  20  68  69 
 60  29  18   9  62  65  65  65  65  64  64  64  65  64  65  64  66  65 
 67  65  68  67  69  67  71  41 146 153 149 150 147 149 145 146 143 144 
141 142 139 140 136 138 135 136 133 134 131 132 129 130 128 129 126 127 
125 126 124 124 122 123 122 122 121 122 120 121 120 121 120 120 119 120 
119 121 120 121 120 122 121 121 121 102 128 123 123 125 123 127 125 127 
126 128 127 130 129 131 130 133 131 134 133 136 134 137 136 139 137 141 
139 142 140 144 141 145 143 146 144 148 145 149 146 150 147 151 148 152 
149 153 150 153 150 153 150 155 151 155 148  22  73  68  73  70  72  70 
 73  71  74  72  75  73  76  74  77  75  78  77  79  78  49 163 167 168 
166 166 165 165 164 164 163 163 162 162 162 161 161 161 159  61  88  88 
 88  88  88  88  88  88  88  88  87  87  86  86  86  78 131 164 165 166 
167 168 169 170 171 172 173 174 175 177 178 179 181 188  22  63  61  60 
 58  56  55  53  51  50  48  46  45  43  41  40  38  37  35  34  33  31 
 30  29  28  27  25  25  24  23  22  21  20  20  19  19  19  19  18  18 
 18  18  18  19  18  19  19  20  21  22  22  24  25  27  28  30  31  33 
 35  38  40  43  46  49  52  56  60  64  68  73  77  83  88  93  99 105 
111 118 125 132 139 146 154 161 169 177 186 194 203 211 220 229 238 246 
249 243 237 230 224 218 212 205 200 194 189 169 147 132 130 123 120 112 
112  87  20  61  59  65  66  71  74  78  78  85  83  89  91  85  93  92 
 93  52  56 108 107 111 109 113 112 115 115 118 116 122 119  12  69  68 
 65  29  15  21  41  64  65  65  63  64  64  64  64  65  64  65  64  66 
 65  67  66  68  66  70  67  71  58  85 161 147 150 146 149 145 146 143 
144 141 142 139 140 137 138 135 136 133 135 131 133 130 131 128 129 127 
128 126 127 125 126 124 125 123 124 122 123 122 123 122 122 121 122 121 
122 121 122 123 123 121 125 129  82  86  55 110 128 125 127 126 128 127 
129 128 130 129 132 131 133 132 134 133 136 135 137 136 139 137 140 139 
142 140 143 141 145 143 146 144 148 145 149 146 150 147 151 148 152 149 
153 150 153 150 154 151 155 151 157 127  30  72  68  72  68  72  69  73 
 70  73  71  74  72  75  73  75  74  76  75  77  76  78  47 163 169 168 
168 167 167 166 166 165 165 164 164 163 163 163 163 162 161  59  87  87 
 87  87  87  87  87  86  86  86  86  85  85  85  84  77 132 166 166 167 
168 169 170 171 172 173 174 175 176 178 179 180 182 189  23  62  60  59 
 57  56  54  52  51  49  48  46  44  43  41  40  38  37  35  34  33  31 
 30  29  28  27  26  25  24  23  22  21  21  20  20  19  19  19  19  18 
 19  18  19  19  19  19  20  20  22  22  23  24  26  27  29  30  32  34 
 36  38  41  43  47  49  53  56  60  64  69  73  78  83  88  94 100 105 
112 118 125 132 139 146 154 161 169 178 186 194 203 211 220 229 238 246 
249 243 236 230 224 218 211 206 197 182 152 144 139 135 128 125 119 115 
 74  45  53  55  62  62  68  69  74  76  81  83  87  88  95  68  94  95 
 91  66  97 104 109 107 112 111 114 113 118 116 119 117 120  34  68  68 
 62  30  13  20  20  65  65  65  64  63  64  64  64  64  65  64  65  65 
 66  65  67  66  69  67  70  69  71  70  35 149 148 150 146 148 145 146 
143 144 141 142 139 140 137 139 135 137 134 135 132 133 131 132 129 130 
128 129 127 128 126 127 125 126 125 125 124 125 124 124 123 124 123 124 
123 124 123 124 124 126 126  65  99  96  98  95  82 130 127 129 128 130 
129 131 130 132 131 133 132 135 134 136 135 138 136 139 138 141 139 142 
140 143 141 145 143 146 144 147 145 149 146 150 147 151 148 152 149 153 
150 154 151 154 151 156 152 157 114  63  69  68  71  68  71  69  72  68 
 72  69  73  70  73  71  74  72  75  73  76  75  77  76  47 165 170 170 
169 169 168 168 167 167 166 166 165 165 164 164 164 164 162  58  85  85 
 85  85  85  85  85  85  85  85  84  84  84  83  83  75 134 167 168 169 
169 170 171 172 173 174 175 176 178 179 180 181 183 190  23  61  60  58 
 57  55  53  52  50  49  47  46  44  43  41  40  38  37  35  34  33  32 
 30  29  28  27  26  25  24  24  22  22  21  21  20  20  19  20  19  19 
 19  19  19  20  19  20  20  21  22  23  24  25  26  28  29  31  32  35 
 36  39  41  44  47  50  53  57  61  65  69  74  78  83  88  94 100 106 
112 118 125 132 139 146 154 162 170 178 186 194 203 211 220 229 238 246 
249 243 236 230 224 218 199 176 164 156 150 144 139 134 128 124 122   4 
 44  49  52  59  60  64  66  71  73  79  79  85  85  92  24  97  95  93 
 92  74  94 108 108 110 109 112 111 115 113 117 118 121 101  70  70  67 
 62  29   9  20  22  23  65  65  64  64  64  64  64  64  64  65  64  66 
 65  66  65  68  66  69  67  70  69  70  70  48 101 154 150 147 148 145 
145 143 144 141 143 139 141 138 139 135 137 135 136 133 134 133 133 130 
131 129 130 128 129 127 128 126 127 126 127 126 126 125 126 126 125 125 
126 126 127 126 126 133  14  96  95  96  94  95  93  18 138 129 131 131 
132 130 133 132 134 133 135 135 137 135 138 137 139 138 141 139 142 140 
143 142 145 143 146 144 147 145 149 146 150 147 151 148 153 149 153 150 
154 151 155 151 155 152 169  15  67  71  66  69  67  70  68  71  68  71 
 69  71  69  72  70  73  71  73  72  74  73  74  74  76  44 165 172 170 
171 169 170 168 169 168 168 167 166 166 166 166 165 165 164  56  84  84 
 84  84  84  84  84  83  83  83  83  82  82  82  81  74 135 169 169 170 
171 172 172 173 174 175 176 177 178 180 181 182 184 191  25  60  59  57 
 56  54  53  51  50  48  47  45  44  42  41  39  38  36  35  34  33  31 
 31  29  28  27  26  25  25  23  23  22  22  21  21  20  20  20  20  19 
 20  19  20  20  20  20  21  22  23  23  25  25  27  28  30  31  33  35 
 37  39  42  44  48  50  54  57  61  65  70  74  79  84  89  94 100 106 
112 119 125 132 139 147 154 162 170 178 186 194 203 211 220 229 238 246 
247 237 226 211 196 179 171 167 160 157 151 145 139 137 129  73  31  42 
 43  47  55  55  61  63  68  69  75  77  83  83  89  65  99  98  94  94 
 89  87  92 104 109 109 111 112 116 114 117 117 118 116  47  71  68  69 
 60  30  10  19  22   9  63  63  64  64  64  64  64  64  64  64  65  64 
 66  65  67  65  68  66  69  68  70  69  71  69  73  20 126 156 149 147 
147 145 144 145 141 143 140 140 138 140 137 137 135 136 135 134 133 134 
132 132 131 131 130 130 129 129 128 129 129 129 127 128 127 129 127 128 
128 129 129 134  84  56  95  93  95  93  94  93  94  91  62  76 135 134 
132 134 133 135 134 135 135 137 136 139 137 140 138 142 140 142 141 144 
142 145 142 146 144 148 145 149 146 150 147 151 148 152 149 153 152 155 
151 155 152 156 159 101  45  67  69  67  70  67  70  67  70  67  70  68 
 70  68  71  69  71  70  72  71  73  72  74  73  74  74  45 168 172 172 
171 171 170 170 169 169 169 169 168 168 168 167 167 167 166  55  82  82 
 82  82  82  82  82  82  82  82  81  81  81  81  80  73 137 170 171 172 
172 173 174 174 175 176 177 178 180 181 182 183 185 193  26  60  57  56 
 55  54  52  51  49  48  46  45  43  42  41  39  38  37  35  34  33  32 
 30  30  28  28  26  26  25  24  23  23  22  22  21  21  20  21  20  20 
 20  20  20  21  21  22  21  23  23  24  25  26  27  29  30  32  33  36 
 37  40  42  45  48  51  54  58  62  66  70  75  79  84  89  95 100 106 
112 119 126 133 140 147 154 162 170 178 186 195 203 212 220 229 238 246 
216 205 198 192 184 178 174 166 162 157 152 143 142 109   9  30  34  39 
 44  48  52  58  59  64  65  73  72  79  79  85  81  72 101  97  96  91 
 92  88   3 112 106 111 109 113 111 116 115 118 123  18  71  69  69  66 
 60  29   9  19  22  25  52  65  63  62  64  64  64  64  63  64  64  65 
 64  66  65  67  66  68  67  69  68  69  69  72  69  73  71  26 149 147 
147 146 145 144 144 143 143 140 143 139 139 138 139 136 136 136 136 134 
135 134 133 132 133 131 133 131 131 130 130 131 130 129 130 129 130 131 
131 130 127  25  93  93  92  93  91  93  91  92  90  92  90  91  35 124 
137 134 137 136 137 136 138 138 139 138 140 139 140 140 143 142 144 142 
145 143 147 143 148 146 149 147 150 148 151 149 152 150 153 150 154 151 
155 153 156 147  12  70  67  68  66  68  66  69  66  69  66  69  67  69 
 67  70  68  70  68  71  69  71  70  72  71  73  72  74  42 167 174 174 
173 172 172 171 171 170 170 170 170 169 169 169 168 168 166  55  81  81 
 81  81  81  81  81  81  81  80  80  80  80  79  79  71 137 172 172 173 
172 174 176 176 176 178 178 180 181 182 183 184 185 193  26  59  58  56 
 55  53  52  50  49  47  46  45  43  42  41  39  38  36  35  34  33  31 
 31  29  29  27  27  26  25  24  24  23  23  22  22  21  21  21  21  20 
 21  20  21  21  22  22  23  23  24  24  26  26  28  29  31  32  34  36 
 38  40  43  45  49  51  55  58  62  66  71  75  80  84  90  95 101 107 
113 119 126 133 140 147 155 162 170 178 186 195 203 212 220 229 238 246 
235 204 198 192 188 179 173 168 162 157 156 102  26  25  27  30  35  38 
 46  46  53  55  61  64  68  69  76  77  81  91  12  84  82  91  94  94 
 90  89  86  19 120 111 111 111 115 118 130  64  46  73  69  71  69  69 
 56  30  10  21  23  24   2  64  62  63  64  64  64  63  64  63  65  64 
 65  64  66  65  67  66  68  67  69  68  70  69  72  70  71  72  60  21 
127 158 147 146 144 145 141 145 140 142 140 141 138 139 137 138 136 137 
135 135 135 135 134 134 132 134 132 133 132 132 131 131 132 131 133 141 
115   3  81  91  90  91  92  91  91  90  91  90  90  89  90  87  89  85 
 12 105 146 139 139 138 138 140 138 141 140 142 141 143 142 144 143 146 
144 146 144 149 146 149 147 150 149 151 149 152 150 153 150 155 150 156 
163 131  15  63  68  65  68  66  69  66  67  66  68  66  68  66  68  66 
 69  67  69  67  69  68  70  69  71  70  71  71  72  72  42 170 174 175 
174 174 173 173 172 172 171 171 170 171 170 171 169 169 168  52  79  79 
 79  80  79  80  79  79  78  79  79  78  78  78  77  70 138 173 173 174 
174 175 176 177 178 178 180 180 182 183 184 185 186 192  27  58  57  56 
 54  53  51  50  48  47  46  45  43  42  40  39  38  37  35  34  33  32 
 31  30  29  28  27  26  25  25  24  24  23  23  22  22  21  22  21  21 
 21  22  21  22  22  23  23  24  24  25  26  27  28  30  31  33  34  37 
 38  41  43  46  49  52  55  59  62  67  71  75  80  85  90  96 101 107 
113 120 126 133 140 147 155 163 170 178 186 195 203 212 220 229 238 247 
246 207 197 191 184 180 176 168 150 113  17  15  14  21  24  31  35  40 
 43  50  54  57  60  64  67  72  73  78  83  20  72  63  62  57  56  66 
 79  85  86  84  59  51  84  90  85  41  53  74  74  72  72  70  70  67 
 52  30   9  21  22  22  25  61  64  64  64  64  63  64  63  64  63  65 
 64  65  64  66  65  67  66  68  66  69  68  70  68  72  70  73  72  75 
 72   4 112 137 151 146 146 143 145 143 143 141 142 140 140 138 139 137 
138 136 137 135 136 135 137 133 135 136 135 135 134 134 137 128 104  10 
 89  90  88  90  89  90  89  90  89  89  88  88  88  88  87  88  86  86 
 85  86  20  98 131 144 141 139 141 140 143 141 143 143 146 143 146 144 
148 146 148 145 150 147 150 148 152 149 152 150 153 151 155 157 151 120 
  7  69  67  69  66  68  65  67  65  67  65  67  65  67  65  67  65  68 
 66  68  66  68  67  69  67  69  68  70  69  71  70  72  43 142 149 146 
147 146 146 146 146 145 145 144 144 144 143 143 143 143 141  53  78  78 
 78  78  78  78  78  78  78  77  77  77  77  76  76  69 116 146 146 146 
147 149 148 151 151 152 152 154 154 156 157 158 159 166  16  57  56  55 
 54  52  51  49  48  47  46  44  43  41  40  39  38  36  35  34  33  32 
 31  30  29  28  28  26  26  25  25  24  24  23  23  22  22  22  22  21 
 22  21  22  22  23  23  24  24  25  25  27  28  29  30  32  33  36  37 
 40  41  44  46  50  52  56  59  63  67  71  76  81  85  91  96 102 107 
114 120 127 133 140 148 155 163 171 178 187 195 203 212 220 229 238 247 
248 236 195 193 189 184 133  54  17   1   5   9  16  20  27  29  35  40 
 45  48  53  56  61  65  69  71  77  81  50  72  66  66  61  58  56  55 
 51  53  52  63  82  83  78  77  75  77  75  74  73  73  70  71  68  69 
 48  30  12  21  23  24  22  42  62  64  64  63  64  63  64  63  64  63 
 64  64  65  64  66  65  67  66  68  66  69  67  70  69  72  70  73  72 
 72  73  75  56  12  95 158 153 144 145 143 143 140 143 141 141 140 140 
139 140 137 139 138 138 136 137 137 136 136 142 148 103   6  66  87  88 
 88  88  88  87  88  87  88  87  86  87  87  86  87  85  86  85  85  84 
 85  84  84  83  60   2 109 155 146 143 142 145 143 146 144 146 145 147 
146 148 147 149 147 151 149 151 150 152 151 152 155 164 134  25  47  65 
 69  66  69  66  68  65  67  65  67  64  66  64  67  64  67  64  67  65 
 67  65  67  65  68  66  68  67  69  68  69  69  70  68  70  64  66  66 
 66  66  67  67  68  68  68  68  69  69  69  70  70  71  69  76  76  77 
 77  77  77  77  77  77  76  76  76  76  75  75  75  72  68  67  67  64 
 66  65  63  63  62  62  61  60  59  58  57  56  54  54  54  57  55  54 
 53  52  50  49  48  47  45  44  42  42  40  39  37  37  35  34  33  32 
 31  30  29  29  27  27  26  26  25  25  24  24  23  23  22  23  22  23 
 22  23  22  23  23  24  24  25  25  27  27  29  29  31  32  34  36  38 
 40  42  44  48  50  53  56  60  63  68  72  76  81  86  91  96 102 108 
114 120 127 134 141 148 155 163 171 179 187 195 203 212 220 229 238 247 
249 221 172 129  84  32  14  12   6   2   5   8  15  19  24  31  34  40 
 44  49  51  59  61  65  69  73  74  79   5  13  23  30  46  58  65  58 
 55  48  51  45  45  52  69  76  78  73  76  73  73  71  72  69  69  68 
 41  28  11  22  22  23  22  24  63  64  63  64  63  64  63  64  63  64 
 63  64  63  65  64  66  65  67  66  68  67  69  68  70  69  70  70  73 
 71  74  73  75  74  76  72   9  50  85 117 143 157 151 150 148 147 144 
145 143 147 144 146 148 149 140 116  84  47   8  69  86  85  85  86  86 
 86  86  86  86  85  86  85  86  85  85  85  84  84  85  84  83  83  84 
 82  83  82  81  81  82  80  58  11  65 101 135 156 153 154 150 151 148 
151 147 150 151 152 153 158 158 165 148 118  80  29  38  67  70  66  69 
 65  68  65  68  65  67  64  67  64  66  64  66  63  66  64  66  64  66 
 64  66  64  66  65  67  66  67  66  68  67  69  68  69  69  70  70  71 
 71  71  71  72  72  73  73  73  74  74  74  73  75  75  75  74  75  75 
 75  75  75  75  75  75  75  75  75  74  74  74  74  73  73  72  72  71 
 70  69  69  68  68  67  66  65  64  63  62  61  60  57  57  56  55  53 
 53  51  50  49  48  46  45  43  43  41  40  39  38  36  36  34  34  32 
 32  30  30  28  28  27  27  26  26  25  25  24  24  23  24  23  23  23 
 23  23  24  23  24  24  25  25  27  27  28  29  31  31  33  34  37  38 
 41  42  46  48  51  54  57  60  64  68  72  76  81  86  91  96 102 108 
114 120 127 134 141 148 156 163 171 179 187 195 204 212 221 229 238 247 
248 183  36  38  32  24  19  13   8   1   5   9  15  20  26  30  36  39 
 45  47  54  57  62  65  69  72  76  80  82  85  89  91  95  97  78  33 
 12  50  46  46  43  44  39  40  59  76  71  75  71  72  70  71  69  68 
 33  29  15  21  23  22  23   5  64  64  64  63  63  63  63  63  64  63 
 64  63  64  63  65  64  66  65  67  66  68  66  69  67  70  69  71  70 
 72  71  73  72  74  73  76  74  77  76  78  77  62  14  18  52  63  86 
 85  85  60  50  20  14  58  82  83  83  84  83  84  82  84  84  84  84 
 83  84  84  84  84  83  84  83  84  83  83  83  83  82  83  82  82  81 
 82  80  81  80  80  79  80  78  78  78  77  77  66  12  35  73  99 118 
138 149 148 119 109  82  46   5  50  69  71  68  69  67  69  67  68  65 
 68  64  67  64  66  64  66  63  66  63  65  63  65  63  65  63  65  63 
 65  63  65  64  66  64  66  65  67  66  67  67  68  67  69  67  69  69 
 70  70  71  71  71  71  72  72  72  73  73  73  73  74  73  74  74  74 
 74  74  74  74  74  74  74  74  73  73  73  73  72  72  71  71  70  70 
 69  69  68  67  66  66  65  64  63  62  61  60  59  58  57  55  53  53 
 52  51  49  49  47  46  44  44  42  41  40  39  37  37  35  35  33  33 
 31  31  30  29  28  28  27  27  25  26  25  25  24  24  23  24  23  24 
 23  24  23  25  24  25  25  27  27  28  28  30  31  33  33  36  37  39 
 41  44  46  49  51  55  57  61  64  69  73  77  82  87  92  97 102 109 
114 121 127 134 141 148 156 163 171 179 187 195 204 212 221 229 238 247 
248 241  88  38  30  25  20  13   8   2   3  10  15  21  25  31  35  41 
 44  50  53  58  61  66  68  73  75  80  81  86  87  91  93  96  99 104 
108 106  83  61  17  34  51  41  40  40  55  72  73  70  71  69  69  67 
 28  30  17  21  22  22  22   8  64  64  63  62  62  63  62  63  62  63 
 62  64  63  64  63  65  64  66  65  67  65  68  66  68  67  70  68  71 
 69  72  71  73  72  74  73  75  74  76  75  77  76  77  77  78  78  79 
 78  80  79  80  80  81  80  81  81  81  81  82  81  82  82  82  82  82 
 82  82  82  82  82  82  81  82  81  82  81  81  81  81  80  81  80  80 
 79  80  79  79  78  79  77  78  77  77  76  77  75  76  74  75  74  75 
 73  74  72  73  71  72  70  71  69  70  68  70  67  69  66  68  65  67 
 65  67  64  66  63  65  63  65  63  65  62  64  62  64  62  64  62  64 
 62  64  63  65  63  65  64  65  65  66  65  67  66  67  67  68  68  68 
 68  69  69  70  70  70  71  71  71  71  72  72  72  72  72  72  73  73 
 73  73  73  73  73  72  73  72  72  72  72  71  71  71  70  70  69  69 
 68  67  67  66  66  65  64  63  62  61  60  59  58  57  56  55  54  52 
 52  50  49  48  47  45  45  43  42  41  40  38  38  36  36  34  34  32 
 32  31  31  29  29  28  28  26  27  25  26  25  25  24  25  24  25  24 
 25  24  25  24  26  25  27  26  28  28  30  30  32  33  35  36  38  39 
 42  44  47  49  52  55  58  61  66  69  74  77  82  87  92  97 103 109 
115 121 128 134 142 149 156 163 171 179 187 195 204 212 221 229 238 247 
249 241 194  34  33  25  19  14   7   2   4   9  16  20  26  30  36  40 
 46  49  55  58  63  65  70  72  77  79  83  85  89  90  94  94  99 100 
103 104 107 107 113 122  82   5  24  42  34  41  63  71  70  70  67  58 
 27  29  24  20  23  23  23  22  64  63  63  63  62  62  63  61  62  62 
 62  62  64  63  64  62  65  64  66  65  66  65  67  66  68  67  69  68 
 70  69  71  70  72  71  73  72  74  73  75  74  76  75  76  76  77  76 
 78  77  78  78  79  78  79  79  79  79  80  79  80  80  80  80  80  80 
 80  80  80  80  80  80  80  80  80  79  80  79  79  79  79  78  79  78 
 78  77  78  77  77  76  77  76  76  75  76  74  75  74  75  73  74  72 
 73  71  72  70  72  70  71  69  70  68  69  67  68  66  68  65  67  64 
 66  64  65  63  65  62  64  62  64  62  64  61  63  61  63  61  63  62 
 63  62  64  62  64  63  64  63  65  64  65  65  66  65  66  66  67  67 
 68  68  68  68  69  69  69  70  70  70  70  71  71  71  71  71  71  72 
 71  72  71  72  71  72  71  71  71  71  70  70  70  70  69  69  68  68 
 67  67  66  65  64  64  63  62  61  61  59  59  57  57  55  55  53  52 
 51  50  49  48  46  46  44  43  42  41  39  39  37  37  35  35  33  33 
 32  32  30  30  29  29  27  28  26  27  25  26  25  26  24  25  24  25 
 24  26  25  26  25  27  26  28  28  30  30  32  32  34  35  37  38  41 
 42  45  47  50  52  56  58  62  66  70  74  78  82  88  92  98 103 109 
115 122 128 135 142 149 156 164 171 179 187 196 204 212 221 229 238 247 
249 242 235 146  25  23  21  12   8   1   4  10  15  21  26  32  36  42 
 45  51  54  59  62  67  69  74  76  81  82  87  88  92  94  98  98 102 
103 107 107 110 109 112 112 115 110  84  15  38  36  41  70  69  69  43 
 30  19  23  24  23  23  24  28  63  63  62  63  61  63  62  62  62  62 
 62  62  62  63  63  63  63  65  64  65  64  66  65  67  66  68  67  69 
 68  70  69  70  69  71  70  72  71  73  72  74  73  74  74  75  74  76 
 75  76  76  77  76  77  77  77  77  78  77  78  78  78  78  78  78  78 
 78  78  78  78  78  78  78  78  78  78  77  78  77  77  77  77  77  77 
 76  77  76  76  75  76  75  75  74  75  74  74  73  74  72  73  72  72 
 71  72  70  71  69  70  68  69  67  69  66  68  66  67  65  66  64  66 
 63  65  63  64  62  64  62  63  61  63  61  63  61  62  61  62  61  62 
 61  63  61  63  62  63  62  64  63  64  64  65  64  65  65  66  66  66 
 66  67  67  67  68  68  68  69  69  69  69  69  70  70  70  70  70  70 
 70  70  70  70  70  70  70  70  70  69  69  69  69  68  68  67  67  67 
 66  65  65  64  64  63  62  61  61  59  59  58  57  56  55  54  53  51 
 51  49  49  47  47  45  44  43  42  40  40  38  38  36  36  34  34  33 
 33  31  31  30  30  28  29  27  28  26  27  26  26  25  26  25  26  25 
 26  25  26  26  27  27  28  28  30  29  31  31  34  34  36  37  40  41 
 43  45  48  50  53  56  60  62  67  70  75  78  83  88  93  98 104 109 
116 122 129 135 142 149 157 164 172 179 188 196 204 212 221 229 238 247 
248 242 235 230  82  23  18  12   7   1   5  10  16  21  27  31  37  41 
 47  50  56  59  64  66  71  73  78  80  84  86  90  91  94  96 100 100 
103 104 107 105 110 110 113 115 116 119 127  80  14  36  35  60  67  34 
 30   8  23  21  23  23  22  28  53  63  63  63  58  41  29  20  21  28 
 49  62  63  60  64  63  64  62  65  64  65  64  66  65  67  66  67  66 
 68  67  69  68  70  69  71  70  71  70  72  71  73  72  73  73  74  73 
 74  74  75  74  75  75  75  75  76  75  76  76  76  76  76  76  76  76 
 76  76  76  76  76  76  76  76  76  76  76  76  76  75  76  75  75  75 
 75  75  75  74  74  74  74  73  74  73  73  72  73  72  72  71  72  70 
 71  69  70  69  70  68  69  67  68  66  67  65  67  64  66  64  65  63 
 64  62  64  62  63  61  63  61  62  60  62  60  62  60  62  60  62  60 
 62  60  62  61  62  61  62  62  63  62  63  63  64  64  64  64  65  65 
 66  66  66  66  67  67  67  68  68  68  68  68  68  69  69  69  69  69 
 69  69  69  69  69  69  69  69  68  69  68  68  68  67  67  67  66  66 
 65  65  64  63  63  62  61  61  60  59  58  57  56  55  54  54  52  52 
 50  49  48  47  46  45  44  43  41  41  39  39  37  37  36  36  34  34 
 32  32  31  31  29  30  28  29  27  28  27  27  26  27  26  27  26  27 
 26  27  26  27  27  28  28  30  29  31  31  33  33  36  36  39  39  42 
 43  46  48  51  53  57  60  64  67  71  75  79  83  89  93  99 104 110 
116 122 129 136 142 150 157 164 172 180 188 196 204 213 221 230 238 247 
249 240 236 229 222  55  17  13   7   0   5  11  16  22  27  33  37  43 
 46  52  55  60  63  68  71  75  77  82  84  88  89  93  94  98  99 102 
103 105 106 109 110 112 114 115 116 118 119 119 121 102  17  29  47  30 
 30   6  23  20  24  24  22  28  48  63  61  57  22  24  23  26  22  22 
 24  50  62  62  62  63  60  64  63  64  63  65  64  66  65  66  65  67 
 66  68  67  68  67  69  68  70  69  70  70  71  70  71  71  72  71  72 
 72  73  72  73  73  73  73  74  73  74  74  74  74  74  74  74  74  74 
 74  75  74  75  74  74  74  74  74  74  74  74  74  74  74  74  74  74 
 73  73  73  73  73  73  72  72  72  72  71  72  71  71  70  71  70  70 
 69  69  68  69  67  68  67  67  66  67  65  66  64  65  63  65  63  64 
 62  63  61  63  61  62  60  62  60  61  60  61  59  61  59  61  59  61 
 60  61  60  61  60  61  61  62  61  62  62  63  62  63  63  64  64  64 
 64  65  65  65  66  66  66  66  67  67  67  67  68  67  68  68  68  68 
 68  68  68  68  68  68  68  68  68  67  67  67  67  66  66  65  65  65 
 64  63  63  62  62  61  61  60  59  58  58  56  56  54  54  53  52  51 
 50  49  48  46  46  44  44  42  42  40  40  38  38  37  37  35  35  33 
 33  32  32  30  31  29  30  28  29  27  28  27  28  26  27  26  27  26 
 27  26  28  27  29  28  30  29  31  31  33  33  35  35  38  38  41  42 
 45  46  49  51  55  57  61  63  68  71  76  79  84  89  94  99 105 110 
117 122 129 136 143 150 157 164 172 180 188 196 204 213 221 230 238 247 
249 242 236 227 223 202  53   6   6   1   6  11  17  22  28  32  38  42 
 48  51  57  60  65  68  72  75  79  81  85  87  91  92  96  97 101 100 
105 105 108 109 111 112 114 114 115 118 119 119 121 123 126  73  26  30 
 28  20  23  22  23  24  23  29  47  63  54  22  24  24  24   4  18  21 
 21  14  41  62  62  62  63  62  64  63  64  63  65  64  65  64  66  65 
 66  66  67  66  68  67  68  68  69  68  69  69  70  69  70  70  71  70 
 71  71  71  71  72  71  72  72  72  72  72  72  72  72  73  72  73  73 
 73  73  73  73  73  73  73  73  73  72  73  72  72  72  72  72  72  72 
 72  72  72  71  72  71  71  71  71  70  71  70  70  69  70  69  69  68 
 69  68  68  67  68  66  67  65  66  65  65  64  65  63  64  62  63  62 
 63  61  62  60  62  60  61  59  61  59  60  59  60  59  60  59  60  59 
 60  59  60  59  60  60  61  60  61  61  61  61  62  62  62  63  63  63 
 64  64  64  64  65  65  65  65  65  66  66  66  66  67  66  67  67  67 
 67  67  67  67  67  67  67  67  66  66  66  66  65  65  65  65  64  64 
 63  63  62  62  61  61  60  59  58  58  56  56  55  54  53  53  51  51 
 49  49  47  47  45  45  43  43  41  41  39  39  38  38  36  36  34  35 
 33  33  31  32  30  31  29  30  28  29  28  29  27  28  27  28  27  28 
 27  28  27  29  28  30  29  31  31  33  32  35  35  37  37  40  41  43 
 45  48  49  53  54  58  61  65  68  72  76  80  84  90  94 100 105 111 
117 123 129 136 143 150 157 165 172 180 188 196 204 213 221 230 238 247 
249 242 236 229 223 207 182  74   5   1   7  12  17  23  28  34  38  44 
 47  53  56  61  65  69  72  77  79  83  85  89  91  94  97  99 100 103 
104 107 108 110 110 114 114 115 117 117 119 120 120 120 123 126 122  12 
 24  21  22  21  22  25  22  30  47  63  27  23  24  15  22  25  25  25 
 25  26  24  51  62  63  60  63  62  63  62  64  63  64  63  65  64  65 
 65  66  65  66  66  67  66  67  67  68  67  68  68  69  68  69  69  69 
 69  70  69  70  70  70  70  70  70  71  70  71  71  71  71  71  71  71 
 71  71  71  71  71  71  71  71  71  71  71  71  71  71  71  71  71  71 
 70  70  70  70  70  70  70  70  69  70  69  69  69  69  68  68  68  68 
 67  67  66  67  66  66  65  66  64  65  63  64  63  64  62  63  61  62 
 61  62  60  61  59  61  59  60  59  60  58  59  58  59  58  59  58  59 
 58  59  59  59  59  60  59  60  60  60  60  61  61  61  61  62  62  62 
 63  63  63  63  64  64  64  64  65  65  65  65  65  65  66  66  66  66 
 66  66  66  66  66  66  66  65  66  65  65  65  65  64  64  63  63  63 
 63  62  62  61  60  59  59  58  58  57  56  55  55  53  53  52  51  50 
 49  48  48  46  46  44  44  42  42  40  40  38  39  37  37  35  36  34 
 34  32  33  31  32  30  31  29  30  28  29  28  29  27  29  27  29  27 
 29  28  29  28  30  29  31  30  32  32  34  34  36  37  39  40  42  43 
 46  47  51  52  56  58  62  65  69  72  77  80  85  90  95 100 106 111 
117 123 130 136 143 150 158 165 173 180 188 196 205 213 221 230 238 247 
249 242 235 229 222 208 171 120   5   1   7  13  18  23  29  34  39  43 
 49  53  58  61  66  69  74  76  81  83  87  89  92  94  97  99 102 103 
106 107 109 110 112 113 115 115 117 118 119 121 122 122 125 124 125 123 
 81  18  22  22  23  24  23  27  47  45  22  24  15  25  26  27  25  27 
 27  27  27   6  62  60  63  62  63  62  63  62  64  63  64  63  64  64 
 65  64  65  65  66  65  66  66  67  66  67  66  67  67  68  67  68  67 
 68  68  68  68  69  68  69  69  69  69  69  69  69  69  69  69  69  69 
 69  69  69  69  69  69  69  69  69  69  69  69  69  69  69  69  69  69 
 69  69  69  69  69  69  69  68  68  68  68  68  68  67  68  67  67  66 
 67  66  66  65  66  65  65  64  64  63  64  62  63  62  62  61  62  60 
 61  60  61  59  60  59  60  58  59  58  59  58  59  57  58  57  58  58 
 58  58  59  58  59  58  59  59  59  59  60  60  60  60  61  61  61  61 
 62  62  62  63  63  63  63  64  63  64  64  64  64  65  64  65  65  65 
 65  65  65  65  65  65  65  65  64  64  64  64  64  64  63  63  62  62 
 61  61  60  60  59  59  58  58  57  56  55  55  54  53  52  52  50  50 
 48  48  47  47  45  45  43  43  41  41  39  40  38  38  36  37  35  35 
 33  34  32  33  31  32  30  31  29  30  29  30  28  29  28  29  28  29 
 28  30  29  30  29  31  30  32  32  34  34  36  36  38  39  41  42  45 
 46  49  50  54  56  60  62  66  69  73  77  81  85  91  95 101 106 112 
117 124 130 137 143 151 158 165 173 181 188 197 205 213 221 230 238 247 
249 241 235 229 222 209 171 107   5   2   6  13  18  25  28  35  39  47 
 50  56  59  64  67  72  75  80  81  88  91  96 100 106 108 111 112 115 
114 115 115 115 113 114 116 118 118 120 121 122 122 123 122 124 124 126 
128 103  29  22  24  24  24  29  55  32  23  25  16  26  27  26  26  25 
 26  26  27  18  61  62  60  61  61  63  62  63  62  63  62  64  63  64 
 63  64  64  65  64  65  64  65  65  66  65  66  65  66  66  66  66  67 
 66  67  67  67  67  67  67  67  67  67  67  67  67  67  67  68  68  68 
 68  68  68  68  68  68  68  68  68  68  68  68  68  68  68  68  68  68 
 68  68  68  68  68  68  67  67  67  67  67  67  67  67  66  66  66  66 
 65  65  65  65  64  64  63  64  63  63  62  63  61  62  61  61  60  61 
 59  60  59  60  58  59  58  59  57  58  57  58  57  58  57  58  57  58 
 57  58  57  58  58  58  57  58  58  59  59  59  59  60  60  60  60  61 
 61  61  62  61  62  62  62  62  63  63  63  63  64  63  64  64  64  64 
 64  64  64  64  64  64  64  64  64  63  63  63  63  62  62  62  62  61 
 61  60  60  59  59  58  57  57  57  55  55  54  54  52  52  51  51  49 
 49  47  47  45  46  44  44  42  42  40  41  39  39  37  38  35  36  34 
 35  33  34  32  33  31  32  30  31  29  31  29  30  29  30  29  30  29 
 30  29  31  30  32  31  32  32  34  33  36  35  38  38  41  41  44  44 
 48  49  52  53  57  59  63  66  70  73  78  81  86  90  96 101 107 112 
118 124 131 137 144 151 158 165 173 181 189 197 205 213 221 230 238 247 
248 242 235 229 221 211 172 106   3   1   7  13  19  25  30  34  41  44 
 50  55  59  64  69  72  72  70  73  48  15   9  35  49  53  54  49  47 
 25   1  26  61  99 105 112 116 122 120 120 120 122 122 125 124 128 126 
128 126 115  27  23  23  23  30  63  29  24  10  27  25  25  26  25  24 
 25  25  25  13  61  61  61  61  62  61  62  62  63  62  63  62  63  62 
 64  63  64  63  64  63  64  64  65  64  65  64  65  65  65  65  65  65 
 65  65  66  65  66  65  66  66  66  66  66  66  66  66  66  66  66  66 
 66  66  66  66  66  66  66  66  66  67  66  67  66  67  66  67  66  67 
 66  67  66  67  66  66  66  66  66  66  66  66  66  66  65  65  65  65 
 65  64  64  64  64  63  63  62  63  62  62  61  61  60  61  60  60  59 
 60  58  59  58  59  57  58  57  58  57  57  56  57  55  57  56  57  56 
 57  56  57  56  57  56  57  57  58  58  58  58  59  59  59  59  59  60 
 60  60  60  61  61  61  61  62  62  62  62  63  62  63  63  63  63  63 
 63  63  63  63  63  63  63  63  62  63  62  61  62  61  61  61  60  61 
 59  60  59  59  58  58  57  57  55  55  54  54  53  53  51  51  49  49 
 48  48  46  46  44  45  43  43  41  41  39  40  38  38  36  37  35  36 
 34  35  32  34  32  33  30  32  30  31  30  31  29  31  29  30  29  31 
 29  31  30  32  31  33  32  33  33  35  35  37  37  40  40  43  43  46 
 47  50  51  55  57  61  62  67  70  74  78  83  86  92  96 102 106 113 
118 125 131 138 144 151 158 166 173 181 189 197 205 213 221 230 238 247 
249 242 234 228 222 214 173 104   4   2   8  14  19  25  30  36  40  46 
 51  59  70  46  17  71  88  98 108 105 103  99  97  94  92  89  88  83 
 83  81  80  78  78  68  54  36   2  59 119 132 125 123 126 125 125 126 
127 128 129 120  31  25  23  20  62  31  24  12  26  24  27  24  26  24 
 27  25  27  18  61  62  61  62  61  62  61  62  61  62  62  63  62  63 
 62  63  62  63  63  63  63  64  63  64  63  64  63  64  64  64  64  64 
 64  64  64  64  64  64  64  64  64  64  64  64  64  64  65  65  65  65 
 65  65  65  65  65  65  65  65  65  65  65  65  65  65  65  65  65  65 
 66  65  66  65  65  65  65  65  65  65  65  65  65  65  65  64  64  64 
 64  64  63  63  63  63  62  62  61  62  61  61  60  60  59  60  59  59 
 58  59  58  58  57  58  57  57  56  57  56  57  55  56  56  56  56  56 
 56  56  56  56  56  57  57  57  57  57  57  58  58  58  58  58  59  59 
 59  59  60  60  60  60  61  61  61  61  62  61  62  62  62  62  62  62 
 62  62  62  62  62  62  62  62  62  60  62  61  60  61  61  59  60  59 
 58  59  59  58  58  57  56  55  55  54  53  53  53  50  51  50  50  48 
 47  47  47  45  45  43  44  42  42  40  41  39  39  37  38  36  37  35 
 36  32  35  32  34  32  33  31  32  30  32  29  32  30  31  30  31  30 
 31  30  32  31  32  32  34  33  35  34  37  37  39  39  42  42  45  46 
 49  50  53  55  58  60  64  67  69  74  79  82  87  91  97 101 107 112 
119 124 131 137 145 151 159 166 174 181 189 197 205 213 222 230 238 247 
248 241 235 228 221 214 185 120   2   3   8  13  22  26  32  36  46  44 
 14  37 108 126 121 119 113 110 106 104 101  99  96  93  91  89  85  85 
 82  80  79  78  76  75  74  73  71  71  69  30  42  91 123 130 128 126 
126 127 127 130 117  30  23  11  62  50  23  25  25  26  27  25  26  25 
 27  26  24  54  61  60  61  61  62  61  62  61  62  61  62  61  62  61 
 62  62  62  62  63  62  63  62  63  62  63  62  63  63  63  63  63  63 
 63  63  63  63  63  63  63  63  63  63  63  63  63  63  63  63  63  63 
 63  63  63  64  63  64  63  64  64  64  64  64  64  64  64  64  64  64 
 64  64  64  65  64  65  64  64  64  64  64  64  64  64  64  64  63  63 
 63  63  63  62  62  62  62  61  61  61  61  60  60  59  59  59  59  58 
 58  57  58  57  57  56  57  56  56  56  56  55  56  55  56  55  55  55 
 56  55  56  56  56  56  56  56  56  57  57  57  57  58  57  58  58  58 
 58  59  59  59  59  60  60  60  60  61  60  61  61  61  61  61  61  61 
 61  61  61  61  61  61  61  61  61  61  61  60  60  60  60  60  59  59 
 58  57  57  58  56  57  54  56  53  54  53  53  51  52  49  50  48  49 
 47  48  46  46  44  45  43  43  41  42  39  40  38  39  37  38  35  37 
 34  35  33  35  32  34  31  33  31  33  30  32  30  32  30  32  30  31 
 31  33  30  32  32  34  33  35  34  37  36  39  38  40  41  44  44  48 
 48  52  53  56  58  62  64  68  71  74  78  83  87  93  97 103 107 113 
119 125 131 138 144 152 159 166 173 181 189 197 205 213 222 230 238 247 
248 241 235 228 220 214 207 155   2   4  10  15  19  27  32  38  50 137 
136 132 129 125 121 117 114 110 107 103 101  97  95  92  90  87  86  83 
 82  80  79  77  76  73  72  71  71  70  68  68  67  48  24  40 120 130 
126 128 130 128 129 108  25   3  62  62  49  17  27  24  26  25  26  26 
 26  27  11  61  59  60  61  61  61  61  61  62  61  62  61  62  61  62 
 61  62  61  62  61  62  61  62  61  62  62  62  62  62  62  62  62  62 
 62  62  62  62  62  62  62  62  62  62  62  62  62  62  62  62  62  62 
 62  62  62  62  62  62  63  62  63  62  63  62  63  63  63  63  63  63 
 63  63  64  63  64  63  64  63  64  63  63  63  63  63  63  63  63  62 
 62  62  62  62  61  61  61  61  60  60  60  60  59  59  58  58  58  58 
 57  57  57  57  56  56  56  56  55  56  55  55  55  55  55  53  55  54 
 54  55  55  55  54  54  56  56  56  56  56  56  57  57  57  57  58  57 
 58  58  58  58  59  59  59  59  60  59  60  60  60  60  60  60  61  60 
 61  60  61  60  61  60  61  60  60  60  60  60  60  59  59  59  58  58 
 58  57  57  55  56  55  56  53  54  52  53  52  52  50  51  49  50  48 
 47  46  47  45  45  43  44  42  42  40  41  39  40  38  39  36  37  35 
 36  34  35  33  35  32  34  31  33  31  33  31  32  31  33  31  33  31 
 33  31  34  32  34  33  35  34  37  36  38  38  41  40  43  41  46  46 
 50  50  55  56  60  61  66  67  72  75  80  83  88  92  98 102 108 113 
120 125 132 138 145 152 159 166 174 181 189 197 205 213 222 230 238 247 
248 240 234 228 221 214 208 181   2   4   9  16  31   6  88 150 148 143 
138 133 128 125 120 117 113 110 106 103  99  97  94  92  89  87  83  83 
 81  79  77  75  75  74  72  72  70  69  68  67  66  31  28  31  17  49 
 87 132 131 129 128 131  92  20  61  60  61  35  30  25  28  26  27  26 
 29   9  61  60  60  59  60  58  61  60  61  61  61  61  61  61  61  61 
 61  61  61  61  61  61  61  61  61  61  61  61  61  61  61  61  61  61 
 61  61  61  61  61  61  61  61  61  61  61  61  61  61  61  61  61  61 
 61  61  61  61  61  61  61  62  61  62  61  62  61  62  62  62  62  63 
 62  63  62  63  62  63  62  63  62  63  62  63  62  63  62  62  62  62 
 61  62  61  61  61  61  60  60  60  60  59  59  59  58  58  58  58  57 
 57  56  56  56  56  55  56  55  55  55  55  55  54  54  47  33  90 121 
134 132 120  91  37  47  55  53  55  56  55  56  56  56  56  57  56  57 
 57  58  57  58  58  58  58  59  58  59  59  59  59  60  59  60  59  60 
 60  60  60  60  60  60  59  60  58  59  59  59  17  50 112  32  58  58 
 57  57  52   4  65 110  44  55  53  54  50  56  75  77   4  50  48  48 
 47  47  45  46  44  45  42  43  41  42  40  41  38  39  37  38  36  37 
 35  36  33  35  33  35   5  96  94  94  16  32  31  33  31  33  31  32 
 31  34  32  35  33  35  34  37  36  83  88  86  56  42  90  79  81  76 
 76  72  71  29  59  62  65  69  72  76  79  85  88  93  98 103 108 114 
119 126 132 139 145 152 159 167 174 182 189 198 205 214 222 230 238 247 
248 240 234 226 221 214 207 200   7   4  12   5 101 164 158 151 148 142 
136 132 128 123 119 115 112 108 105 101  99  96  92  90  88  86  84  82 
 80  78  77  75  73  72  70  70  70  69  67  66  39  27  26  28  17  23 
 23  20  86 123 129 129 130   6  60  60  60  62   8  24  26  27  25  21 
 22  60  58  60  60  59  59  61  60  61  60  61  60  61  60  61  60  61 
 60  61  60  61  60  61  60  61  60  61  60  60  60  60  60  60  60  60 
 60  60  60  60  60  60  60  60  60  60  60  59  60  59  60  59  60  60 
 60  60  60  60  60  60  60  60  61  60  61  60  61  61  61  61  62  61 
 62  61  62  61  62  61  62  61  62  61  62  61  62  61  62  61  62  61 
 61  61  61  60  60  60  60  59  59  59  59  58  58  58  58  57  57  57 
 56  56  56  56  55  55  55  55  54  54  54  54  54  13 169 173 170 168 
169 169 170 169 173 181  43  48  55  55  55  55  56  55  56  56  56  56 
 57  56  57  57  58  57  58  58  58  58  59  58  59  58  59  59  59  59 
 59  59  59  59  59  59  59  59  59  58  59  56 156 168 178  29  56  57 
 57  56  15 171 170 163  43  52  54  51  50 141 173 178  30  49  49  47 
 48  46  47  44  45  43  44  42  43  40  41  39  40  38  39  37  38  36 
 37  35  36  34  36  32  30 180 189 192 116  32  34  32  33  32  33  32 
  9  30  35  33  35  34  37  34  17 197 184 190  54  42 194 180 176 176 
173 173 168 177  61  62  67  69  73  76  81  84  89  93  99 103 109 114 
120 126 133 139 146 152 160 167 174 182 190 197 206 214 222 230 239 247 
248 240 234 227 220 213 207 200  85  20  93 166 169 162 156 152 145 142 
136 132 127 123 119 115 111 108 104 101  97  95  92  90  87  85  83  81 
 79  78  76  75  73  71  71  69  69  68  66  59  28  26  27   7  24  25 
 25  25  21  31  66 128 132 116  62  61  62  59  61  45  29  28  45  56 
 61  59  61  60  61  59  61  60  61  60  61  60  61  60  61  60  61  60 
 61  60  61  60  60  60  60  60  60  60  60  60  60  59  60  59  59  59 
 59  59  59  59  59  59  59  59  59  59  59  59  58  59  58  59  58  59 
 59  59  59  59  59  59  59  60  59  60  59  60  60  60  60  61  60  61 
 60  61  60  61  61  62  61  62  61  62  61  62  61  61  61  61  60  61 
 60  61  60  60  60  60  59  59  59  59  58  58  58  58  57  57  56  56 
 56  56  55  55  55  55  54  54  54  54  54  54  65 173 171 172 174 180 
182 181 176 171 170 169 173 134  37  55  54  55  54  55  55  56  55  56 
 56  56  56  57  56  57  57  57  57  58  57  58  58  58  58  58  58  58 
 58  59  58  59  58  58  58  58  58  58  58  57 152 166 179  26  56  56 
 56  56  14 164 171 164  41  54  51  53  48 140 173 179  29  50  48  48 
 46  47  45  46  44  45  42  43  41  42  40  41  39  40  37  39  36  38 
 35  37  35  36  34  36  31 123 192 188 185  34  31  34  32  34  32  35 
160  12  32  36  34  37  35  38 154 186 185 185  41  44 194 177 177 173 
172 170 168 171  62  64  66  70  73  77  80  85  89  94  98 104 109 115 
120 127 132 139 146 153 160 167 174 182 190 198 206 214 222 230 239 247 
248 241 234 227 220 213 207 200 175 152 180 173 168 162 157 150 146 141 
136 131 127 122 118 114 110 106 103 100  97  94  91  88  86  84  82  80 
 78  76  75  74  72  71  70  68  67  67  66  30  26  27  25  14  24  25 
 25  25  24  25  24  25  84 121  59  59  61  59  57  55  54  54  52  51 
 53  54  56  59  60  60  59  60  60  60  60  60  59  61  59  60  60  60 
 60  60  60  60  59  60  59  60  59  60  59  59  59  59  59  59  59  59 
 58  58  58  58  58  58  58  58  58  58  58  58  58  58  58  58  58  58 
 58  58  58  58  58  58  59  58  59  58  59  59  60  59  60  59  60  59 
 60  60  61  60  61  60  61  60  61  60  61  60  61  60  61  60  61  60 
 61  60  60  59  60  59  59  58  59  58  58  57  58  57  56  56  56  55 
 55  55  55  55  55  54  54  54  54  53  54   7 184 170 170 162  63  10 
 40  29  22 105 171 171 175 119  39  53  54  54  55  53  55  54  55  55 
 56  55  56  56  55  56  57  56  57  57  57  57  57  57  57  57  58  57 
 58  58  58  57  58  57  58  57  57  57  57  57 151 167 179  29  56  56 
 56  55  17 164 170 164  45  52  53  50  49 142 173 179  29  48  49  47 
 48  45  46  44  45  41  43  42  43  40  42  38  41  38  40  37  39  36 
 38  35  37  35  36  34  36  24 200 190 196  57  35  33  35  33  35  26 
201  81  36  34  37  34  38   6 183 185 185  69  43  43 122 114 110 116 
170 170 166 165 136  57  66  70  74  77  82  85  90  94 100 104 110 115 
121 126 133 139 146 153 160 167 175 182 190 198 206 214 222 230 239 247 
248 241 234 227 220 213 206 199 192 185 180 174 167 162 156 151 145 140 
135 130 125 121 117 113 109 106 102  99  96  93  90  88  85  83  81  79 
 77  76  74  73  70  70  69  68  66  65  37  26  27  26  10  28  24  24 
 24  27  26  26  27  27   3  51  64  10  27  24  22  24  22  23  24  24 
 24  22  23  23  25  29  43  54  60  60  60  60  61  59  61  60  60  60 
 60  58  60  58  60  59  60  59  59  59  59  59  59  58  58  58  58  58 
 58  58  58  57  57  57  57  57  57  57  57  57  57  57  57  57  57  57 
 57  57  57  58  57  58  57  58  57  58  58  59  58  59  58  59  59  60 
 59  60  59  60  59  61  59  61  60  61  60  61  60  61  60  61  59  60 
 59  60  59  60  59  59  57  59  57  58  55  58  57  56  55  56  56  56 
 54  54  55  55  54  54  54  54  53  53  52 131 172 170 184  20  52  53 
 52  53  51  51   8 170  89  52  53  53  53  53  53  54  53  54   2  77 
110 108  54  38  55  54  55  56  56  57  56  57  56  56  57  26  67 108 
107  62  37  57  45  29  31  37  57  56  37  34 154 168 178   4  28  40 
 54  29   7 166 170 163  15  26  45  52  48 142 174 177  30  49  47  48 
 46  47  45  46  44  17  96 124 119  54  32  41  38  40  38  40  37  39 
 36  38  35  37  35  37  34  36 167 188 190 176  32  36  33  36  33 119 
189 197  34  37  35  38  36  51 185 183 178  12  42  44  44  48  47   5 
171 167 167 163 166  21  67  70  74  78  81  86  90  95  99 105 109 116 
121 127 133 140 146 153 160 168 175 183 190 198 206 214 222 230 239 247 
248 241 234 227 220 213 206 199 192 186 179 173 167 161 155 150 144 139 
134 129 125 120 116 112 108 104 101  98  95  92  89  86  84  82  80  78 
 76  75  73  72  71  69  68  68  67  48  26  26  25  22  24  23  25  26 
 26  24  25  26  26  27   9  21  26  63  54  23  25  23  25  25  23  16 
 14  11  10  10  12  14  19  23  27  36  46  60  60  61  60  60  59  60 
 60  60  59  59  59  59  59  59  59  59  58  58  58  58  58  58  58  57 
 57  57  57  57  57  57  57  56  57  56  56  56  56  56  56  56  57  56 
 57  56  57  56  57  56  57  57  58  57  58  57  58  58  59  58  59  58 
 60  58  60  59  60  59  60  59  60  59  61  59  61  59  60  59  60  59 
 60  59  60  58  59  58  59  58  58  57  58  57  55  56  56   9  96  34 
 54  54  55  52  54  53  54  53  52  53  50 152 172 170 148  51  51  51 
 52  52  53  51  53  21  52  51  52  52  53  53  53  52  45 147 179 174 
172 172 175 172 106  34  56  55  56  55  56  55  56  10 124 175 172 170 
169 173 171  91  61 183 177 120  57  56 106 178 167 169 166 176 178  95 
 47 160 178 171 170 171 180 188   0  50  48 142 173 180  29  48  49  46 
 47  44  45  75 166 189 184 185 185 190 181 106  36  38  40  38  39  37 
 38  36  38  35  36  35  37  34  39 189 188 190   7  32  35  34  32 186 
187 193  72  35  37  35  39 156 183 185 146  41  43  44  47  47  50 121 
171 167 171 165 161 123  68  71  75  78  83  86  91  95 100 104 111 115 
122 127 134 140 147 153 161 167 175 182 190 198 206 214 222 230 239 247 
248 241 234 227 219 212 205 199 192 185 179 173 166 160 155 149 143 138 
133 128 124 119 115 111 107 104 100  97  94  91  88  86  83  81  79  77 
 75  74  72  71  69  69  66  67  52  26  29  25  27   6  26  26  26  26 
 23  27  24  26  25  27  22  23  23  20 118 115  20   5  17  26  29  29 
 29  28  28  29  29  29  28  29  19   6   5  14  39  57  61  59  59  59 
 58  59  59  59  58  59  59  59  59  58  58  58  58  58  58  57  57  57 
 57  57  56  56  56  56  56  56  56  56  56  56  55  56  55  56  55  56 
 55  56  56  56  56  57  56  57  56  57  57  58  57  58  57  59  58  59 
 58  59  58  60  58  60  59  60  59  60  59  60  59  60  59  60  59  60 
 59  60  58  59  58  59  58  58  56  58  57  56  56  40  92 150  46  55 
 54  55  54  53  53  54  53  52  52  53  50 149 171 173 181   8  52  52 
 50  52  51  51  51  52  51  53  51  53  52  53  51 102 177 170 172 170 
164 167 170 170 170 168  20  55  55  55  55  55   5 177 168 168 169 170 
171 170 167 168 156 167 167 111  55  56 103 169 169 168 168 170 171  89 
 48 154 171 169 171 171 174 178   0  52  47 140 174 179  31  49  47  48 
 46  42 142 181 179 179 181 174 181 181 183 182 181  19  38  40  36  39 
 37  38  36  38  35  37  35  36  14 177 188 187  83  37  33  37  84 190 
189 186 153  37  35  39   6 198 185 191  22  44  43  45  46  49  11 185 
173 175  31 166 161 165  22  71  73  79  82  87  90  96 100 106 110 116 
121 128 133 141 147 154 160 168 175 183 190 198 206 214 222 231 239 247 
248 241 233 226 219 212 205 198 190 185 177 172 166 160 154 148 143 137 
132 127 123 118 114 110 106 102  99  96  93  90  87  85  82  80  78  76 
 75  73  72  70  68  66  67  58  26  27  26  25  10  25  25  25  26  24 
 26  25  26  25  25  14  24  13   5  19  65 115 115  89  25  25  26  24 
 25  26  26  25  26  26  27  24  27  25  25  25  21   8  26  61  60  59 
 60  60  59  59  59  59  59  59  58  58  58  58  58  57  57  57  57  57 
 56  56  56  56  56  56  56  55  56  55  55  55  55  55  55  55  55  55 
 56  55  56  55  56  55  56  56  57  56  57  56  58  57  58  57  59  57 
 59  58  59  58  60  58  60  59  60  59  60  59  60  59  60  59  60  59 
 60  58  60  58  59  58  59  57  57  56  57  55  14 133 139 114  56  53 
 55  53  53  52  53  52  53  52  53  52  52  92 175 172 172 169 135  69 
 18  25  52  51  52  51  51  50  52  52  53  52  69 174 170 174 105  22 
 30  25  62 180 168 169 151  44  53  54  54  28 163 169 169 180 101   6 
 19  40 160 168 168 169 169 113  56  55  57 104 162 169 172 116 108  48 
 48  95 120 170 169 171 112 112  17  50  49 143 173 179  31  47  48  46 
 47  98 177 179 182  92  16  17  11  97 185 183 182 154  41  37  40  37 
 39  36  39  36  38  35  38  35  37 132 188 189 182  34  36  24 183 188 
185 188 192   6  39  37 124 186 183 153  42  42  45  45  47  47 110 174 
169 116  58 141 159 159  67  71  76  79  83  86  92  95 101 105 111 116 
122 128 135 140 147 154 161 168 176 183 191 198 206 214 222 230 239 247 
248 241 233 226 219 212 205 198 191 183 178 171 165 159 153 148 142 137 
131 127 122 117 113 109 105 102  98  95  92  89  86  84  81  79  77  75 
 74  72  71  69  67  67  59  26  27  25  25  20  21  25  26  25  26  26 
 26  26  25  25  24  20  23  29  28  25  32 112 115 116  96  34  24  27 
 25  27  25  25  24  27  26  26  25  26  27  25  27  27  29  17  30  57 
 60  59  58  59  59  58  59  59  59  58  58  58  58  57  57  57  57  56 
 56  56  56  56  55  55  55  55  55  55  55  55  55  55  54  55  54  55 
 55  55  55  56  55  56  55  56  55  57  56  57  56  58  57  58  57  59 
 57  59  58  59  58  60  58  60  58  60  59  60  59  60  59  60  59  60 
 58  60  58  59  58  59  57  58  57  57  55  38 142 137 140  21  53  53 
 54  55  52  54  53  54  51  53  52  53  52  45 159 172 172 172 172 178 
181 184 187 148 101  32  35  52  50  52  50  17 186 171 175  69  52  52 
 53  54  53  15 177 168 174  78  54  54  54 119 171 169 172  10  55  55 
 55  55  49 115 170 169 169 113  55  54  55  54 152 169 182  34  53  53 
 53  53  21 167 171 165  49  51  49  51  46 142 175 179  32  49  46  47 
  5 192 181 185  61  44  41  43  41  43  58 191 183 191  78  41  38  40 
 37  39  35  39  36  38  36  38  34   5 200 185 197  42  35  40 188 186 
183 187 190 148  35  28 168 183 183  64  42  45  43  47  45  38 166 169 
173  32  58  78 161 156 145  71  75  80  83  88  91  97 100 107 111 117 
122 129 134 141 147 154 161 169 175 183 191 199 206 214 222 231 239 247 
248 241 233 226 219 211 204 197 191 184 177 171 165 158 153 147 141 136 
131 126 121 117 112 108 104 101  97  94  91  88  85  83  80  78  76  74 
 73  71  70  69  67  57  24  26  27  24  26  17  25  24  27  26  25  26 
 26  25  27  25  28  25  27  27  26  27  24  66 118 113 114 108  30  24 
 27  26  26  24  25  25  26  24  25  25  25  25  26  26  25  27  28  23 
 42  60  60  59  59  59  59  59  58  58  58  58  57  57  57  57  56  56 
 56  56  56  55  55  55  55  55  55  54  55  54  55  54  55  54  55  54 
 55  54  55  55  56  55  56  55  56  55  57  56  57  56  58  57  58  57 
 59  57  59  58  60  58  60  58  60  59  60  59  60  59  60  59  60  59 
 60  58  60  58  59  58  59  55  58  57  71 138 137 139 136  55  56  54 
 54  54  53  53  54  52  53  52  53  51  51  50  28 155 172 172 172 173 
173 173 172 174 172 173 174   1  52  50  52  79 171 172 140  47  52  51 
 51  52  52  53  82 174 168 180  42  54   9 180 171 176  29  54  55  54 
 54  54  53  41 149 170 169 115  55  54  55  52 154 168 182  23  54  53 
 53  52  14 167 172 167  42  50  51  50  47 143 173 180  30  47  48  46 
135 179 178 122  46  43  44  42  43  40  43 113 181 185 171  27  41  37 
 40  37  40  35  39  36  39  36  37  36 140 190 185 152  38 137 185 197 
 64 173 185 188   3  14 186 185 185  11  44  42  46  46  49  60 174 174 
177  50  60  31 170 158 159  33  77  79  83  87  93  96 102 106 112 117 
123 128 135 141 148 154 162 168 176 183 191 198 207 214 223 231 239 247 
248 240 233 226 218 211 204 197 190 183 177 170 164 158 152 146 140 135 
130 125 120 116 111 107 103 100  96  93  90  87  84  82  79  77  75  73 
 72  70  69  68  52  27  27  26  24  26   7  26  25  25  27  27  25  26 
 26  26  26  27  26  28  26  28  24  26  25  24 107 114 113 115 110  39 
 24  26  25  26  26  26  25  26  26  25  24  27  25  25  26  26  26  25 
 29   3  59  60  59  58  59  59  59  58  58  58  58  57  57  57  56  56 
 56  56  55  55  55  55  55  55  54  55  54  55  54  55  54  55  54  55 
 54  55  54  55  54  56  55  56  55  57  55  57  56  58  56  58  57  59 
 57  59  58  60  58  60  58  60  58  60  59  61  59  61  59  61  59  60 
 58  60  58  60  58  59  55  59  50  85 144 136 139 142   2  56  55  54 
 53  55  53  53  53  54  51  52  52  53  51  52  51  52   1  52 109 150 
187 185 181 175 173 174 173 170  22  52  51 124 174 171 155 106 106 106 
105 107 106 104 117 173 170 174  20  54  64 171 171 145  52  54  54  54 
 54  53  54  55  84 172 171 113  53  53  54  54 156 170 183  25  53  53 
 52  53  12 167 174 166  39  51  50  50  46 142 175 179  32  49  46  36 
161 177 179 144 115 113 116 115 118 113 117 139 183 181 179   6  38  41 
 38  40  37  40  37  38  36  39  36  39  56 187 187 178  23 196 186 170 
 36 135 187 182  75 137 186 183 122  43  43  46  45  48  42 174 174 173 
 67  57  59  62 102 156 155 139  68  81  84  89  92  98 101 107 111 118 
123 129 135 142 148 155 161 169 176 184 191 199 206 215 222 231 239 247 
248 240 233 225 218 211 204 197 190 183 176 170 163 157 151 145 140 134 
129 124 119 115 111 106 102  99  95  92  89  86  83  81  79  75  74  73 
 70  70  68  47  26  28  25  25  24   1  28  25  27  27  27  27  27  27 
 27  27  26  25  27  27  26  27  26  26  27  24  72 114 116 114 113 104 
 28  24  24  24  26  25  27  24  21  17  16  15  15  17  16  16  17  19 
 22  23  28  30  49  55  58  59  57  59  58  58  57  56  56  57  56  56 
 55  56  56  55  54  55  54  53  55  54  55  54  55  54  55  53  55  54 
 55  54  55  53  55  55  56  55  56  55  57  56  57  56  57  55  59  56 
 57  54  59  58  59  57  59  59  61  59  61  59  61  59  61  59  61  59 
 60  59  59  58  60  57  58  47  71 135 136 137 137 116  51  52  56  54 
 55  54  55  53  54  52  53  52  53  51  52  51  52  51  51  49  52  50 
 52  23  29 107 162 174 173 175  76  51  52 145 170 172 171 171 172 173 
170 171 170 171 171 171 170 173  50  52  98 169 170 114  53  54  53  54 
 54  54  54  54  15 181 169 115  54  54  54  53 156 170 183  22  53  52 
 53  52  12 169 172 168  40  50  51  49  47 144 173 181  30  47  48  26 
165 179 177 180 177 180 179 181 180 183 182 184 182 184 181   9  40  38 
 41  37  40  37  40  36  39  36  39  36  17 190 184 188 180 188 184  70 
 40  14 195 186 177 187 181 186  15  42  45  43  46  47  45 179 171 168 
 50  56  61  62  15 157 150 152  17  80  85  88  94  97 103 107 113 117 
124 129 136 141 148 155 162 169 176 183 191 199 207 215 223 231 239 247 
248 240 233 225 218 211 203 196 189 182 176 169 163 157 151 145 139 134 
128 123 119 114 110 106 102  98  94  91  88  85  83  80  78  76  73  69 
 69  65  34  27  27  26  24  24   1  27  26  26  27  28  27  27  27  27 
 27  27  27  26  26  27  25  25  25  26  26  26  33 118 115 114 112 114 
104  28  28  16   7  30  48  54  56  58  57  59  59  59  57  58  58  56 
 55  52  50  10  14  14  20  37  58  59  58  58  58  58  57  57  57  56 
 56  56  55  55  55  54  54  54  52  26  19  24  21  15  28  55  53  54 
 53  55  54  53  54  56  55  56  55  56  56  57  55  58  57  58  57  58 
 56  51  36  28  39  61  59  61  58  61  58  61  58  61  59  61  58  61 
 58  61  59  60  58  60  42  65 140 135 137 136 141  44  54  56  55  56 
 54  55  53  54  53  54  52  53  52  52  50  52  51  52  51  52  50  51 
 50  51  50  51   8 172 173 173 140  52  51 141 173 170 176 183 184 183 
183 182 184 182 182 182 182 184  60  53  96 171 171 118  53  54  52  54 
 53  54  54  54  34 177 169 113  53  54  52  54 156 171 185  24  52  52 
 52  53  10 167 174 165  40  50  49  51  45 142 175 179  32  49  46  30 
166 175 181 183 191 189 192 189 193 190 194 193 195 193 197  15  39  41 
 38  41  38  40  37  39  37  40  37  40  37 113 189 185 186 184 188   5 
 37  41 152 183 185 181 182 141  40  44  44  47  45  48 133 171 173 154 
 94  89  88  83  90 150 153 148  85  82  83  90  93  98 102 108 112 118 
123 130 135 142 148 155 162 169 176 184 191 199 207 215 223 231 239 247 
248 240 233 225 218 210 203 196 189 182 175 169 162 156 150 144 138 133 
128 123 118 113 109 105 101  97  94  90  87  84  82  79  77  75  72  71 
 50  28  28  28  26  25  26   2  27  26  26  28  28  27  28  27  28  27 
 28  27  26  25  27  25  26  26  24  25  26  25  19  83 115 114 115 114 
113  65  62  64  63  63  62  64  62  63  60  62  62  63  62  62  61  62 
 62  61  61  57  28  13   6   8   8  23  39  54  57  58  58  56  57  57 
 56  55  56  55  55  54  54  45  15  15  12   0   1   2   2   6  50  54 
 55  54  54  54  56  54  56  55  56  56  57  56  58  57  58  46  35  19 
  7   2   6  36  61  59  60  58  62  59  61  59  62  60  61  60  62  59 
 61  59  61  58  61  42  14 136 133 138 135 138 141  49  57  54  56  55 
 56  54  55  53  54  53  53  52  53  51  53  49  42   1  52  49  51  50 
 52  50  51  49  50 170 172 175 139  49  52 115 171 172 119  48  48  48 
 48  49  49  47  49  51  50  50  50  53  56 174 170 162  52  53  53  53 
 54  53  54  53 105 173 171 116  54  53  53  53 155 172 182  19  53  52 
 52  51  12 170 173 167  38  50  51  48  46 143 175 182  29  47  48  38 
155 179 177  74  45  40  41  39  42  37  40  41  42  36  39  37  42  39 
 42  38  41  38  41  37  40  37  40  37  40  12 187 186 183 189 140  38 
 41  38  49 185 181 183 184  65  44  43  46  45  48   4 184 175 169 170 
169 168 166 165 161 155 152 149 159  53  86  89  94  98 103 107 113 118 
124 129 136 142 149 155 163 169 177 184 192 199 207 215 223 231 239 247 
248 240 233 225 218 210 203 196 189 182 175 168 162 156 149 144 138 132 
127 122 117 113 108 104 100  96  93  90  87  84  81  78  75  73  72  69 
 37  28  27  26  27  25   2  24  26  29  26  27  27  28  27  28  27  28 
 27  28  26  27  26  27  26  25  24  25  27  25  23  33 112 113 114 113 
112 117  14  63  64  64  64  63  64  62  64  62  64  63  63  61  62  61 
 63  62  62  60  60  27  17   7   8   6   6   5  26  55  57  58  56  57 
 56  55  56  56  56  56  53  18  17  16   1   3   2   3   2   4   4  55 
 52  56  55  56  55  56  54  57  56  57  55  57  47  29   4   5   6   5 
  5  10  54  60  59  61  59  62  59  62  59  62  59  62  60  61  59  62 
 60  62  59  61  47  13 139 134 137 132 137 137  56  57  56  56  55  57 
 54  56  54  55  53  54  52  54  52  52  51  52 124 173  21  52  49  52 
 49  52  50  52   1 171 172 173 103  52  50  57 175 172 164  38  51  51 
 51  52  50  53  42   3  50  53  52  53  19 182 169 174  95  53  53  52 
 53  53  53  26 165 170 170 114  53  52  53  53 153 172 179  24  52  52 
 52  52  12 167 173 167  22  51  49  51  46 131 176 177  56  49  45  48 
112 179 179 166  43  45  43  45  42  45  41   7   0  42  39  43  39  42 
 39  42  38  41  37  41  38  41  38  40  37  38 144 184 186 193   3  41 
 39  41  12 179 184 181 191  42  43  46  45  48  47 144 175 170 172 166 
168 164 164 160 160 154 152 148 146  74  85  90  93  99 103 109 113 119 
124 131 136 143 149 156 162 170 176 184 191 199 207 215 223 231 239 247 
248 240 232 225 217 210 203 195 188 181 174 168 161 155 149 143 137 132 
126 121 117 112 108 103  99  96  92  89  86  83  80  78  74  73  70  70 
 67  43  25  26  25  12  26  26  26  28  27  26  28  28  28  28  28  27 
 28  27  26  27  26  25  26  26  25  26  26  31   7  11  92 112 113 112 
111 112 104  55  62  65  63  65  64  65  62  64  63  44  32  29  29  38 
 62  63  62  62  62  61  29  19   7   7   7   6   5   7  21  54  58  56 
 57  56  57  56  56  56  37  16  19   4   2   4   3   5   4   2   2  37 
 56  54  56  55  57  54  57  56  58  51  32  16   8   3   8   5   8   5 
 15  56  60  57  62  59  62  59  63  58  62  61  62  61  63  60  63  60 
 62  60  61  51  25  86 134 135 133 136 133 136  23  57  58  56  57  55 
 57  54  56  54  55  52  54  51  54  52  27 143 175 172 175 124  29  48 
 52  50  27  70 159 173 172 173   1  50  51  39 179 172 174 147  22  50 
 52  50  52  11 153 180 132   9  53  51  52 107 171 169 173  84  53  53 
 52  53   6 156 172 170 171 115  53  53  53  53 116 171 171 138  51  51 
 51  51  32 166 171 173  93  48  51  49  49 112 175 177 150  31  48  46 
 32 186 177 181 139  33  46  43  45  42  22 171 186 137   6  40  43  39 
 36  10  13  13  39  38  40  38  41  38  41  38  63 190 183 145  41  38 
 42  38  42 126 183 183  79  41  44  44  47  45  11 173 171 174  90  54 
 52  52  46  48  42  39 108 147 145 127  75  90  95  98 104 108 114 118 
125 130 137 142 150 155 163 169 177 184 192 199 207 215 223 231 239 247 
248 240 232 225 217 210 202 195 188 181 174 167 161 155 149 143 137 131 
126 121 116 111 107 103  99  95  92  88  85  82  80  77  75  72  71  69 
 68  65  50  15  23  26  25  28  28  27  28  27  28  28  28  28  28  28 
 27  28  26  27  27  28  26  26  26  21   1  51  45  27  50 115 112 113 
112 113 114  67  65  64  66  65  66  63  66  61  30  26  26  28   8  28 
 45  19  33  63  60  62  60  26  20   9   7   7   8   8   7   5  36  56 
 58  57  56  57  56  55  19  18  16   4   3   4   1   4   3   5   3  21 
 55  56  54  57  55  56  55  55  32  15   9   7   5   8   5   9   3  19 
 59  61  60  62  60  49   6  59  52   9  54  64  60  63  61  64  60  63 
 60  63  58  30  16 140 133 130 135 131 137 119  52  58  57  58  56  58 
 55  57  54  56  54  55  52  54  52  53  36 131 178 171 173 170 181 187 
170 182 184 175 173 173 180 109  49  52  50  52  10 174 171 171 181  83 
 25  29  99 181 170 172 168   9  52  53  51  32 162 171 171 174 171  86 
 72 125 179 172 172 171 170 114  53  53  53  52  29 177 172 172 176  31 
 51  52  51 100 179 172 177 150   4  51  48   5 182 174 175 186  57  47 
 46  46 181 176 180 182  82  28  41 117 188 179 182 166  14  43  40  43 
 12 199 195 170  29  42  38  41  37  41  38  41  32 189 189  66  39  41 
 39  42  40  13 190 175  14  45  44  47  44  49  74 173 173 163  25  57 
 57  61  60  66  66  71   2 148 144 145   6  91  94 100 103 109 113 120 
124 131 136 143 149 156 163 170 177 185 192 200 207 215 223 231 239 247 
248 240 232 225 217 210 202 195 188 181 174 167 161 154 148 142 136 131 
125 120 115 111 106 102  98  95  91  88  85  82  79  77  74  72  70  68 
 67  66  30  27  24  23  26  28  27  25  28  27  28  28  28  28  28  28 
 28  27  26  26  26  27  27  26   7  53  61  63  49  26  16 122 113 111 
110 108 111 113   4  66  65  66  66  66  66  31  27  28  30  55 108 112 
112 112 110  22  63  60  61  61  27  24   9   8   7   8   7   7   6  11 
 53  57  58  57  55  55  18  17  16   5   3   5   4   5   4   4   5  14 
 57  56  57  56  56  56  36  18  15   4   8   6  10   8   8   5  27  59 
 62  60  63  49  23 119 131 134 129 134 121  23  64  62  64  61  65  60 
 64  59  34  14 127 132 131 132 131 134 137  56  60  58  60  57  59  56 
 58  55  57  55  56  54  55  53  55  52  54  49  61 179 171 173 172 171 
171 174 171 174 172 179  80  47  52  49  52  50  52  33 185 172 172 172 
173 174 172 172 173 165  22  52  52  52  52  53  18 171 169 171 170 169 
171 170 171 170 124 175 169 115  53  52  53  52  52  45 177 171 171 118 
 52  51  51  51 104 176 172 179  62  48  51  47  16 179 174 176 154  45 
 48  45  55 189 176 179 178 183 176 183 179 182 168  22  44  41  44  40 
  6 190 180 163  33  39  42  39  42  39  42  38  42  91 195  32  41  40 
 43  40  42  41 137 155  44  43  47  44  48  46 182 175 172 135  56  56 
 59  60  64  64  69  70  74 150 144 142 130  90  96  99 105 109 115 119 
126 131 138 143 150 156 164 170 178 184 192 200 208 215 223 231 239 247 
248 240 232 224 217 209 202 195 187 180 174 167 160 154 148 142 136 130 
125 120 115 110 106 102  98  94  91  87  84  81  79  76  74  72  70  68 
 66  64  64  31  25  26  27  27  27  29  27  28  27  29  28  28  28  28 
 27  27  27  26  25  28  17  33  63  63  64  62  62  24  35  83 111 110 
110 110 110 110  80  66  67  66  67  66  39  28  28  34  56 114 110 111 
111 111 112 122  15  64  64  62  56  24  21   8   8   8   7   6   8   6 
  9  40  57  58  58  54  19  19  16   4   4   5   4   6   4   6   4  11 
 56  57  56  58  49  27  17  13   4   7   5   8   5   8   6  24  59  62 
 61  59  29  30 106 129 132 129 132 129 131 124  24  66  62  65  63  65 
 62  52  26  43 131 130 131 130 134 132 144  41  59  61  58  60  57  59 
 56  58  56  57  55  56  54  56  53  55  53  53  52  16  80 148 184 180 
181 180 184 163 100   8  51  52  51  52  51  52  49  52  14  99 168 183 
180 180 184 151  64  44  52  53  52  53  53  52  53  29  85 165 181 178 
178 182 132  18  46 160 153 102  53  53  53  53  53  53   4 120 185   3 
 52  52  50  51  51  37 153 162  41  51  48  50  48   7 115 186  28  49 
 45  47  45   5 116 179 190 184 190 188 152  62  41  45  41  44  41  43 
  9 184 183 159  31  43  39  43  39  42  39  41  39   7  83  43  40  43 
 40  44  41  43  76  32  43  45  44  48  47  64 161 154 165   8  53  58 
 58  62  62  67  67  72  73  25 132 122 125  24  95 101 104 110 114 121 
125 132 137 144 150 157 163 171 177 185 192 200 207 216 223 231 239 247 
248 240 232 224 217 209 202 194 187 180 173 167 160 154 147 141 136 130 
125 120 115 110 105 101  97  94  90  87  84  81  78  76  73  72  69  68 
 66  64  63  62  59  11  25  28  28  28  27  28  29  28  28  28  27  26 
 27  26  27  26  27   1  61  62  63  64  62  64  64  27  28  30 110 109 
110 108 111 109 116  11  67  67  68  59  28  28  30  35 114 110 110 108 
110 109 112 109  91  65  64  63  63  56  25  20  10   8   8   9   8   8 
  6   6  37  58  59  57  19  18  19   4   7   5   7   5   6   5   5  18 
 58  57  59  43  20  19   9   6   8   7   9   7  10   7  21  61  63  61 
 64  34  27  16 135 131 129 130 127 129 125 130 125  53  67  64  67  64 
 63  24  32 130 128 131 127 131 130 132 102  60  60  58  61  58  60  57 
 59  57  58  56  57  55  57  54  56  53  55  53  54  52  54  52  43   9 
 20  16  27  51  53  51  53  51  52  51  52  51  53  51  52  51  53  13 
 19  18  27  52  53  51  53  52  53  53  53  53  53  51  53  53  13  21 
 15  40  54  52  54  53  54  53  53  53  53  53  53  52  52  52  10  52 
 53  51  53  50  52  51  52  10  52  49  51  49  51  47  50  14  47  47 
 49  46  49  44  48  45   2  29  21  26  46  43  45  42  45  41  45  41 
  5 189 178 129  37  40  43  40  43  40  43  40  43  36  42  39  43  41 
 44  41  44  42  32  43  46  45  48  46  48  47  51  51  54  53  56  57 
 61  61  65  65  70  71  74  77  82  84  89  91  97 100 106 110 116 120 
127 131 138 144 151 157 164 170 178 185 193 200 208 215 224 231 239 247 
248 240 232 224 217 209 202 194 187 180 173 166 160 153 147 141 135 130 
124 119 114 110 105 101  97  93  90  86  83  80  78  75  73  71  69  67 
 66  64  63  61  61  60  40   7  30  29  29  31  28  27  27  29  28  29 
 27  28  26  29  33  61  62  62  61  63  65  65  66  39  27   3 109 109 
109 110 108 107 108  96  62  68  69  47  31  29  22 101 106 107 108 110 
107 109 108 109  99  52  66  65  64  63  45  23  22   9  10   8   9   9 
  8   8   6  29  59  59  26  20  18   7   7   6   6   7   7   7   6  31 
 56  58  33  22  18   8   7   7   6   9   8  12   7  16  60  64  62  65 
 58  25  25  61 131 128 129 126 127 126 127 126 129  25  64  66  63  68 
 41  30  65 130 130 127 131 129 131 130  50  64  59  63  60  62  59  61 
 58  60  57  59  56  58  55  57  54  56  54  55  53  55  53  54  51  54 
 52  53  51  53  50  53  51  52  51  53  51  53  51  53  52  53  52  53 
 52  53  52  52  52  53  53  53  53  53  53  54  53  54  52  53  53  54 
 53  54  52  54  52  54  53  54  53  54  53  53  53  53  53  52  52  52 
 51  53  51  53  51  52  49  52  48  52  48  51  49  51  47  50  46  50 
 47  49  46  49  44  47  45  48  43  47  42  46  43  46  42  45  42  45 
 10 187  29  43  41  44  40  44  40  44  40  44  41  43  41  44  41  43 
 42  45  41  45  43  45  44  48  46  49  48  51  49  53  53  56  56  59 
 59  63  64  68  68  73  74  79  81  86  88  93  96 102 105 111 115 122 
125 133 138 145 150 158 164 171 178 186 193 201 208 216 222 231 239 247 
247 240 232 224 217 209 202 194 187 180 173 166 160 153 147 141 135 130 
124 119 114 110 105 101  97  93  89  86  83  80  78  75  73  71  69  68 
 66  65  63  63  61  60  60  60  18   3  26  28  29  29  27  25  27  26 
 27  26  18  43  62  63  63  63  64  65  65  66  66  52  29  22 102 107 
109 107 109 109 107 106  21  70  70  39  31  34  15 108 109 108 108 107 
107 108 108 107 102  48  66  66  65  64  64  37  25  20   9  10  11   9 
 10  10   9   6  32  58  53  21  22  13   6   6   8   8   7   7   6  50 
 59  30  22  20   9  10  10   8   9   9  11   9  15  60  64  63  65  63 
 47  25  29  87 124 127 125 125 125 125 124 129 124 117  69  65  69  63 
 29  20 114 128 126 129 126 129 128 133   3  62  64  59  63  60  62  59 
 61  58  60  57  59  56  58  55  57  55  55  54  56  52  55  52  55  53 
 53  52  54  52  54  52  53  52  53  52  53  52  53  52  52  52  53  52 
 53  52  53  53  54  53  54  53  54  53  53  53  54  53  54  54  54  54 
 54  54  54  53  54  53  53  54  54  53  54  53  54  53  54  53  54  52 
 53  52  53  52  53  51  53  50  52  50  52  49  51  48  51  48  50  46 
 50  46  49  46  49  44  48  44  48  44  47  44  47  43  46  43  46  42 
 19  31  45  41  45  41  44  41  44  40  44  40  44  41  44  40  45  42 
 45  42  46  42  47  44  48  46  49  47  51  49  53  52  55  55  58  58 
 62  62  66  67  71  72  76  77  83  85  90  93  98 101 107 111 116 121 
128 132 139 144 152 157 165 171 179 184 192 200 208 216 224 231 239 247 
247 240 232 224 217 209 202 194 187 180 173 166 160 153 147 141 135 129 
124 119 114 109 105 101  97  93  90  86  83  80  78  75  73  71  69  67 
 66  64  64  62  62  61  60  59  44  20  13  28  29  27  25  29  28  26 
 26  20  53  62  62  63  64  63  64  65  66  66  67  61  28  34  83 106 
105 108 104 106 105 107  59  71  70  35  33  38  69 107 104 105 105 106 
106 107 108 109 100  49  68  67  67  66  65  62  27  27  17  12  12  11 
 11  11  10   8   7  32  60  33  22  23  10   8   7   9   8   8  28  60 
 27  22  20  10   8  12   9  11  10  12   8   9  54  64  63  67  64  68 
 40  30  27  70 129 123 125 123 125 122 126 124 128 132  30  71  67  38 
 29  10 130 126 127 124 127 126 130 130  39  66  63  65  62  64  61  63 
 60  62  59  61  58  60  56  59  56  58  55  56  54  55  54  56  53  55 
 53  55  53  54  53  54  51  54  51  54  52  54  52  53  53  54  53  54 
 53  54  52  54  53  54  53  54  53  54  53  54  54  54  54  54  54  54 
 53  54  54  54  54  54  54  54  54  54  54  54  54  54  53  54  53  54 
 52  54  52  53  51  53  51  53  51  52  50  51  50  52  49  51  48  51 
 48  50  47  50  46  49  46  49  45  48  44  48  44  47  43  47  43  45 
 42  46  41  46  42  45  42  44  42  44  42  45  42  45  42  45  43  46 
 43  46  44  47  44  48  45  49  47  50  49  51  51  55  54  57  56  61 
 61  65  65  68  70  73  75  80  81  87  89  95  97 103 106 112 116 123 
127 133 139 146 151 158 163 172 178 186 193 201 208 216 224 232 239 247 
247 240 232 224 217 209 201 194 187 180 173 166 159 153 147 141 135 129 
124 119 114 109 105 101  97  93  89  86  83  80  77  75  73  71  69  68 
 66  65  63  63  62  61  60  59  58  23   5  29  28  29  27  26  26  26 
 12  60  62  62  63  64  64  64  65  66  65  68  66  66  31  35  35 109 
107 105 104 104 104 103 112  58  71  34  34  43  94 106 104 102 105 104 
104 105 107 105  93  61  69  69  68  67  67  66  56  25  27  15  12  12 
 11  12   9  10  10   8  40  61  40  26  20  16   9   5  10  33  62  30 
 25  23  13  10  12  11  12  12  14  10  13  45  67  64  68  66  67  65 
 42  28  32  41 125 125 122 124 122 124 122 126 121 131   3  68  66  29 
 41 100 123 125 122 125 124 127 124 125  68  64  66  63  65  62  64  61 
 63  60  62  59  61  58  60  57  59  56  58  56  56  55  56  54  56  52 
 56  54  55  52  55  53  55  52  55  53  54  53  54  53  54  53  54  53 
 54  53  54  54  54  54  55  54  55  53  55  54  55  54  55  54  54  55 
 54  55  55  55  54  55  55  54  55  54  55  53  55  54  55  54  54  52 
 54  52  53  53  54  52  54  52  53  51  52  50  53  50  52  49  52  49 
 51  48  51  46  50  46  50  46  48  45  49  45  48  43  48  44  47  44 
 47  42  46  43  45  43  45  43  46  43  46  43  46  43  46  43  46  44 
 46  44  46  45  48  46  49  47  50  48  52  51  54  53  57  56  60  60 
 63  63  67  68  71  73  78  78  84  86  91  94  99 102 108 112 118 122 
129 132 140 145 152 158 166 172 179 186 194 200 209 216 224 231 240 247 
247 240 232 224 217 209 202 194 187 180 173 166 160 153 147 141 135 129 
124 119 114 109 105 101  97  93  90  86  83  80  78  75  73  71  69  67 
 66  65  64  63  62  61  61  60  60  51  25  23  27  25  27  27  26  18 
 60  62  63  63  63  64  65  64  67  66  68  68  67  66  34  34  14 112 
104 103 103 103 102 104 104  33  73  42  36  43  95 103 100 104 102 105 
102 104 104 108  64  70  69  68  70  69  69  67  67  41  28  27  12  13 
 14  14  12  12  12  11  10  50  63  62  62  63  60  55  62  62  32  25 
 24  15   9  11  10  14  12  15  12  13  25  68  66  69  67  70  67  70 
 51  30  31  16 131 122 124 121 123 120 123 119 122 126  17  73  47  36 
  9 127 125 122 124 122 125 122 129  64  65  68  64  67  64  66  63  65 
 62  64  61  63  60  62  59  61  58  60  57  57  56  51  34  18  32  51 
 55  56  54  56  54  55  54  55  54  55  54  55  53  55  54  55  54  55 
 54  55  54  55  54  55  53  55  55  55  55  55  55  54  55  55  55  54 
 55  55  55  55  55  55  55  55  54  55  55  49  36  55  54  45  25  53 
 53  55  53  54  53  54  52  54  52  54  51  53  50  53  50  53  48  52 
 49  52  48  51  48  51  47  50  47  50  46  48  45  49  45  48  45  48 
 44  47  44  47  44  47  43  47  43  47  43  47  44  47  44  47  44  47 
 45  48  45  48  46  49  48  51  49  51  51  54  53  56  56  59  59  62 
 62  66  67  71  71  76  77  82  83  85  56  91  99  99  95 110 117 124 
 96 132 140 147 152 159 165 173 179 187 194 201 209 216 224 231 240 247 
247 240 232 224 217 209 202 194 187 180 173 166 160 153 147 141 135 130 
124 119 114 110 105 101  97  93  90  87  83  81  78  76  73  72  69  68 
 66  65  64  63  61  62  61  61  60  59  36  16  27  26  27  25  21  56 
 62  63  63  64  64  66  65  67  66  68  68  70  68  67  37  35  36 103 
104 103 102 101 101 101 101  76  72  57  35  44  83 101 103 103 102 101 
104 102 104 113  53  71  72  72  70  71  70  70  69  65  27  30  24  13 
 16  14  14  15  14  12  12  13  63  64  65  64  65  63  65  43  26  26 
 21  13  11  13  13  12  16  14  17  19  67  66  69  68  70  67  72  69 
 67  29  35  38  70 122 119 121 117 123 116 121 118 130  21  70  36  32 
 47 123 119 125 120 123 121 123 129   6  71  67  69  65  68  65  67  64 
 66  63  65  62  63  60  61  59  61  59  59  58   4  46  53  58  55  50 
 17  55  56  55  57  55  56  55  56  55  56  55  56  54  56  55  55  55 
 56  54  56  55  55  55  56  55  55  55  56  56  56  56  55  56  56  55 
 56  55  56  56  56  56  56  56  56  56  56  45  38  55  55   8  61  27 
 56  53  55  54  55  53  55  53  55  51  54  52  54  51  53  51  53  50 
 53  49  52  49  51  48  51  47  50  47  50  47  50  46  49  46  49  45 
 49  45  48  44  48  43  48  44  48  44  47  44  48  45  48  45  48  45 
 48  46  49  47  50  48  50  49  51  51  54  53  56  55  58  58  60  61 
 65  64  69  70  74  75  78  81  86  66  23  35 101  46   2  99 119 100 
 10  66 141 146 154 159 166 172 180 187 194 201 208 216 224 232 240 247 
248 240 232 224 217 209 202 194 187 180 173 166 160 153 147 141 135 130 
125 119 115 110 105 101  97  93  90  87  84  81  78  76  74  72  70  68 
 67  66  65  64  63  61  62  61  60  61  59  60  14  26  24  24  49  63 
 64  64  64  65  65  65  67  67  68  69  70  70  70  70  40  33  40  83 
103 104 101 101 100 102 100  95  61  73  43  42  32 102  98 100 101 103 
 99  99 101  34  74  72  74  72  73  72  72  68  65  62  44  31  34  22 
 19  15   9   8   9  10  13  16  27  66  66  65  64  66  49  25  28  29 
 17  18  11   8   6   9  14  22  18  59  68  70  68  71  68  73  70  72 
 71  45  33  36  16 115 121 117 121 115 120 116 121 121  73  56  33  37 
 86 117 121 118 122 117 122 120 129  48  69  71  68  70  67  69  66  68 
 65  67  63  65  62  64  61  63  60  61  59  12  58  46   9  18   6  41 
 56   4  56  58  56  44  34  39  56  57  55  57  43  47  56  37  36  56 
 56  57  55  45  50  52  35  38  56  55  56  56  56  57  39  35  45  57 
 55  56  57  57  57  40  36  43  56  57  52  49  38  49  54  39   4  54 
 54  46  47  55  34  37  53  55  52  54  53  51  32  34  48  49  38  54 
 51  53  50  53  48  52  48  36  26  34  48  51  46  51  47  38  23  31 
 43  49  45  49  45  48  25  29  44  49  35  27  34  49  45  49  46  48 
 26  30  45  50  36  30  38  53  51  53  41  46  55  58  58  53  49  63 
 64  56  59  68  52  58  79  82  85  82  29  85  96  40   0  93 113 125 
 67 121 141 147 153 153 145 153 175 188 193 201 209 214 202 211 231 248 
248 240 232 224 217 209 202 195 187 180 173 167 160 154 147 142 136 130 
125 120 115 110 106 102  98  94  90  87  84  82  79  77  74  73  70  69 
 67  67  65  65  64  63  62  62  61  61  61  62  55  28  24  33  62  63 
 64  65  65  67  67  68  68  69  69  71  71  72  72  72  40  37  37  62 
101 102 100  99  99  99  99 101  11  79  76  46  23  93  99  99 100  98 
 99  99  86  74  76  76  74  74  67  53  40  35  35  34  34   7  36  70 
 99 106 105 105 106 106 106 100  76  20  44  67  63  50  31  24  20  70 
105 123 123 124 121 123 123 118  92  38  19  68  73  71  74  72  75  73 
 76  61  38  35  40   8 120 118 115 118 113 118 114  28  79  41  40  38 
114 119 115 119 115 120 117 121 114  65  74  69  73  69  71  68  70  67 
 69  66  68  64  66  62  65  61  64  61  43  49  43  53  61  59  61  45 
  7  58  59  57  26  52  51  52  46  37  58  57  56  36  29  52  51  46 
 48  56  58  59  28  43  52  51  23  57  57  57  46  42  51  52  51   6 
 58  58  58  47  44  52  51  53  26  57  17  53  50  50  41   6  54  32 
 53  43  38  46  52  54  37  55  56  54  34  50  54  56  48  14  63  52 
 55  51  54  51  54  47  41  58  56  59  42  46  52  48  28  62  58  62 
 54  21  50  47  50  46  59  63  43   7  63  61  61   7  50  45  50  45 
 58  60  36  12  59  59  58   5  54  53  58  38  58  57  61  14  53  58 
 67  51  10  27  32  33   1  83  86  71  14  54  60   6   2   6  64 111 
 14  81 142 148 108  52  58  64  75 161 195 202 196 107 117 123 132 190 
248 240 232 224 217 209 202 195 188 180 174 167 160 154 148 142 136 131 
125 120 115 111 106 102  98  95  91  88  85  82  80  77  75  73  72  70 
 69  67  66  65  65  64  64  63  63  63  63  62  63  31   4  64  64  65 
 65  66  67  67  68  69  70  70  71  71  73  73  73  73  44  36  39  48 
 99 100  98  98  97  98  96  99  62  79  80  79  78  21 101 101  97 100 
108  34  75  77  77  60  49  40  36  41  37  10  51  78 102 110 108 105 
105 107 106 107 107 106 105 107 107 110 116 106  51  16 104 133 132 126 
126 124 124 124 124 122 122 122 124 125 128 125  98  56  10  59  73  77 
 74  78  55  39  37  46   1 102 124 115 119 123  61  75  70  43  41   4 
123 113 117 114 118 114 120 116 105  72  73  75  71  74  70  72  69  71 
 68  70  67  69  65  67  63  66  62  64   1  47   7  63  59  62  59  62 
 59  60  55  31  56  11  19   3  51  48  49  59  57  52  35  12  19  52 
 22  58  58  59  52  18  11  31  57   1  58  49  49  44  15  26  15  55 
 10  57  43  49  52   0  20  16  58   1  22  49  45   1  49   7  54  35 
 54  43  55  23  11  20  57  22  56  36  58  53   0  16  33  56  64  55 
 53  55  52  55  46  46  59  11  12  10  63  34  50  26  64  27   9   1 
 58  58  26  51  21  64  24   6  65  61  42   2  54  55  38  51  21  64 
 22   6  62  58  35   4  53  49  50  56  60  36  57  61  60  11  55  64 
 66  45  41   2  29   7  34  20  87  74  16  55  77  18   1  50  88 112 
 15  81 142 107  42  80 133 133  81  76 166 199 115 118 193 205 175 189 
248 240 232 225 217 210 202 195 188 181 174 167 161 155 148 142 137 131 
126 121 116 112 107 103  99  95  92  89  86  83  80  78  76  74  72  71 
 69  68  67  66  65  65  64  64  64  64  64  63  64  65  65  64  65  66 
 66  68  68  69  69  71  71  72  72  73  73  75  75  75  45  40  40  31 
 99  97  97  96  95  95  93  94 104  80  81  82  79  82  69  21  53  26 
 58  81  74  55  37  42  41  37  20  42 104 104 101 101  99 101 101 103 
102 103 101 103 104 103 106 104 100  92  40  55  49  36  39  19  90 114 
121 124 121 123 121 122 118 119 117 120 116 119 117 119 118 126  69  27 
 69  77  81  57  42  41  44  46  15  61  49  25  83  79  65  40  50  68 
113 114 113 114 111 116 113 117  86  71  78  74  76  73  75  71  74  70 
 72  69  71  68  70  66  68  65  67  64  17  51  34  62  64  61  63  61 
 63  60  38  52   9  59  60  59  21  57  13  59  55  53  60  59  60  39 
 58  59  60  58  38  58  60  58  46  49  60   5  52  14  52  49  49  38 
 51  58   9  50  28  60  59  59  13  60  60  47  30  59  60   7  52  35 
 56  42  35  58  59  57  34  41  55   7  51  21  58  56  56  51  61  54 
 56  54  57  53  18  60   8  52  55  51  12  51  40  65  37  50  54  50 
 25  62  27  50  49  50  52  49  18  65  29  49   5  65  35  50  55  51 
 53  51  17  57  35  53   1  63  42  56  56  36  61  60  63  11  53  63 
 70  47  25  74  78  79  23  22  90  73  14  53 105  47   3 105 123 113 
 16  83 144  50  46 148 160 168 154  78 113 202 111 122 212 225 240 248 
248 240 232 225 217 210 203 195 188 181 174 168 161 155 149 143 137 132 
127 122 117 112 108 104 100  96  93  90  87  84  82  79  77  75  74  72 
 71  69  68  67  67  66  66  65  65  65  65  64  65  66  64  65  67  66 
 68  69  70  70  71  71  73  73  74  74  76  76  77  76  48  41  43  20 
 96  96  94  94  92  94  93  94  97  36  83  82  84  83  84  83  83  83 
 69  48  45  42  44  51  13  78  94  98  98  96  98 100  98  99 101 100 
102 101 104 103 103 107  86  21  10  20  21  48  35  34  35  24  21  14 
  4  71 128 120 120 116 119 115 117 116 117 116 116 114 117 112 117 113 
 99  38  78  82  75  66  53  57  70  85  80  85  80  84  45  46  45 108 
115 109 112 109 114 111 115 113  80  76  76  78  75  77  74  76  73  75 
 71  74  70  72  69  71  67  70  67  68   7  45  21  65  64  65  63  65 
 62  63  10  51  27  63  61  63  61  46  50  62  55  32  61  60  61  12 
 57  57  60  57  17  61  60  61  30  46  61  27  49  46  46  46  46  51 
 55  35  22  41  53  60  61  60  61  61  61  43  32  61  59  10  52  37 
 58  40  28  60  58  60  28  38  56  22  50  48  56  59  57   6  63  59 
 56  58  55  58  18  58  38  57  53  57  53  56   2  61  14  55  51  55 
 51  58  56  54  51  40  51  54   7  60  32  54   9  60  23  54  58  33 
 52  55   4  54  40  57   1  57  38  59  57  32  60  63  63   8  52  67 
 69  44   4  77  77  81   0  18  88  76  15  56 104  48   3 105 123 115 
 15  84 141  34  46  57  62  68  75  77  87 204 159 100 115 131 144 202 
248 240 232 225 218 210 203 196 189 182 175 168 162 156 150 144 138 133 
127 123 118 113 109 105 101  97  94  91  88  85  83  80  78  76  75  73 
 72  71  69  69  68  68  67  67  66  67  66  67  67  67  67  68  68  69 
 70  71  71  72  72  74  74  75  75  77  77  78  78  79  50  42  43   8 
 96  94  94  92  92  91  92  91  92   4  83  86  84  85  84  86  73  52 
 45  47  46  41   7  80 100  95  96  95  95  96  96  96  97  95  97  99 
 98  98 101  90  51   0  30  23  22  24  23  21  35  37  29  22  26  23 
 24  28  21  41  89 123 118 116 114 117 112 115 114 114 112 113 108 112 
109 117 114  22  61  83  86  83  87  81  86  84  87  79  46  46  27 110 
106 111 108 110 108 112 109 113  66  76  82  78  80  77  79  75  78  74 
 76  73  75  71  73  70  72  69  71  68  36  43  20  66  68  63  67  62 
 41  64  21  51  21  62  63  63  62  53  35  62  52  33  63  62  63  12 
 55  59  63  55  16  62  63  62  27  45  63  15  50   9  23  23  24  26 
 24  53  16  44  52  63  62  63  63  62  63  45  29  62  63  10  49  38 
 59  38  26  60  61  58  24  39  59  14  48  40  61  59  61  31  57  56 
 60  57  60  56   3  59  28  54  58  55  58  54  21  64   0  54  56  51 
 56  61  42  53  46  42  56  53   2  60  36  53  13  61  29  53  55  32 
 55  54   2  55  44  56   7  60  44  59  50  40  64  62  66  14  49  66 
 73  45   0  77  81  82   1  18  92  76  12  56 107  48   6 107 125 114 
 18  85 146  36  50 126 130 136 144 154 158 204 211 206 179 165 140 134 
248 240 233 225 218 210 203 196 189 182 176 169 163 156 151 145 139 134 
129 123 119 114 110 106 102  98  95  92  89  86  84  82  80  78  76  74 
 73  72  71  70  70  69  69  68  68  68  68  68  68  68  70  70  71  71 
 72  72  73  73  75  75  76  77  78  78  80  80  81  81  50  44  46   4 
 93  92  90  90  89  90  89  90  89  27  87  86  88  87  81  52  49  48 
 50  48  13  84  91  90  92  92  94  93  93  93  92  96  96  96  95  95 
 94  94  15  29  26  26  27  24  25  26  24  24  33  40  25  27  24  26 
 26  27  25  27  26  13  86 113 115 112 114 109 111 111 109 109 110 106 
109 106 111 105 109  16  85  89  86  89  86  89  85  73  47  50   6 104 
109 105 106 104 109 106 110 106  61  83  81  83  80  82  78  81  77  79 
 76  78  74  76  73  75  71  74  71  72  65  29  42  25  57  68  63  12 
 45  18  54  40  35  62  64  64  21  48  22  65  52  29  63  65  64   9 
 53  61  64  53  14  65  64  65  28  42  64  35  45   9  64  64  61  31 
 25  63  14  45  21  65  63  54  46  40  64  33  50  59  64  12  49  41 
 60  36  24  63  62  62  23  36  58  22  48  30  55  63  13  47  58  62 
 59  62  58  61  41  49  35  58  56  55  44  20  56  48  50  43  55  58 
 13  52   2  58  47  37  54  57   4  58  35  57  13  57  28  58  55  31 
 56  58   2  51  43  60   6  56  44  63  19  50  23  66  47  43  36  73 
 73  43   1  81  81  83   4  15  92  79  10  59 107  60   3  81 125 118 
 18  87 146  75  48 129 170 176 159  95 183 205 154 198 226 233 210 135 
248 240 233 226 218 211 204 197 190 183 176 170 163 157 151 146 140 135 
130 125 120 116 111 107 103 100  97  94  91  88  85  83  81  80  78  76 
 75  74  73  72  71  71  70  70  70  70  70  70  70  71  71  72  72  72 
 72  73  75  76  76  78  78  79  79  81  81  82  82  83  51  47  47   1 
 92  89  89  87  88  87  87  87  86  47  90  90  90  67  51  51  49  57 
 24  58  92  87  88  90  91  89  90  90  90  91  93  93  93  91 102  67 
  0  44  45  28  28  27  29  26  28  27  27  27  28  36  26  29  28  28 
 29  28  28  28  30  30  50  17  48 116 109 111 108 110 107 108 105 108 
104 107 104 107 102 111  83   8  92  86  92  89  91  62  53  49   8 107 
103 106 101 107 103 107 104 108  53  83  86  82  85  81  84  80  82  79 
 81  77  79  76  78  75  76  73  75  71  74  61  17  44  40  35  42  47 
 28  52  69  16  47  41  23  35  47  14  67  66  50  30  67  66  66   8 
 53  63  66  53  11  66  67  66  26  44  66  63   5  53  29  18  37  51 
 17  66  67   9  49  38  26  43  46  27  65  45  46  44  46  12  49  40 
 61  37  21  62  66  63  23  37  60  62   6  54  48  47  51  24  56  61 
 64  60  63  59  62   0  56  48  29  46  56   3  60  20  57  53  31  42 
 57  35  54  57  44  39  59  56   1  60  39  57  16  58  31  57  52  31 
 60  58   1  53  46  60   8  58  47  63  52  43  45  31  40  43  39  73 
 75  44   2  81  85  85   6  17  95  79  10  58 110 107  19   9  68 117 
 18  85 148 141  55  52  82  90  73  86 180 199 106 106 141 154 132 153 
248 240 233 226 219 211 204 197 190 184 177 171 164 158 152 147 141 136 
131 126 121 117 113 109 105 101  98  95  92  90  87  85  83  81  80  78 
 77  76  75  74  73  73  73  72  72  72  72  72  73  73  74  74  75  75 
 76  75  77  78  79  79  80  81  82  82  84  83  85  83  53  49  50   0 
 89  88  86  86  86  85  84  86  84  67  93  81  54  53  55  52  51  10 
 88  85  84  86  86  86  86  86  87  87  88  88  90  89  92  76  16  84 
 47  46  47  33  29  32  30  31  32  31  30  30  29  28  30  30  30  31 
 30  32  31  32  29  62  51  46  51  28  77 105 107 105 106 102 104 102 
105 100 104  99 102  99 105 104  51  78  90  93  90  63  51  59  35  98 
102 100 104  99 103 101 105 103  53  89  86  86  85  87  83  85  82  84 
 80  83  79  81  78  80  75  78  75  77  74  74  73  31  13  19  16  26 
 70  72  69  71  49  12  24  19  23  70  68  70   0  12  68  69  68  25 
  3  67  68   2  22  69  68  69  14   5  67  68  68  34  18  24  11  57 
 68  68  67  69  29  18  24  10  52  69  67  68  55  11  63  37   0  53 
 64   8  13  68  66  67  14   7  61  67  65  40   0   4  51  13  48  66 
 63  66  63  65  61  65  33  21  31  20  37  64  60  62  46  16  33  28 
 10  62  59  60   1   5  59  62  24   8  49  61  34   7  43  62   5   8 
 60  63  26   3  54  63  31   5  54  67  66  57  10  22  14  48  73  75 
 77  10  34  84  85  89  40  32  95  88  39  80 110 115 119  52 105 126 
 68 110 149 154 160 104  81  86 125 192 198 206 212 158 135 141 170 245 
248 241 233 226 219 212 205 198 191 185 178 172 165 159 154 148 142 137 
132 128 123 119 114 111 107 103 100  97  94  92  89  87  85  83  81  80 
 79  78  77  76  75  75  74  74  74  74  74  75  75  75  75  76  76  77 
 78  79  79  80  81  82  82  84  84  85  86  87  87  87  53  52  51   2 
 87  85  84  83  83  82  82  82  83  83  69  56  56  58  59  40  66  82 
 82  82  82  83  82  83  84  84  85  85  87  87  86  93  13  84  88  88 
 58  49  48  42  33  33  33  33  34  33  34  32  32  31  33  32  34  33 
 33  32  35  35  38  86  87  72  49  51  51  23  87 106 102 104 101 103 
 98 101  99 100  98  98  99 100  97  93  21  94  97  57  58  61  56 100 
 95  98  97 101  98 102  99 103  48  88  92  88  90  87  89  85  87  84 
 86  82  84  81  83  80  81  78  80  77  79  76  78  75  77  73  76  73 
 75  72  74  71  73  71  72  71  71  70  72  71  71  70  70  69  70  70 
 71  70  70  70  71  69  71  69  71  70  71  70  69  71  70  70  71  71 
 70  71  71  70  71  70  70  70  71  69  71  70  71  70  70  70  71  69 
 70  69  70  69  70  68  70  68  70  66  22   9  69  67  22  44   0  66 
 68  65  68  65  67  63  67  64  66  62  66  62  66  61  64  62  64  62 
 65  62  64  61  64  61  64  61  64  61  64  61  64  61  64  62  64  61 
 64  62  65  64  66  64  66  66  68  66  69  69  72  70  74  73  76  76 
 80  81  84  84  89  90  94  95 100 102 106 109 114 117 122 125 131 135 
140 145 151 156 162 167 174 180 187 193 200 206 213 220 227 234 241 248 
248 241 234 226 219 212 206 199 192 185 179 173 167 161 155 149 144 139 
134 129 125 120 116 112 109 105 102  99  96  94  91  89  87  85  84  82 
 81  80  79  78  78  77  77  77  77  76  77  77  77  77  78  78  79  80 
 81  81  82  82  84  84  85  86  87  87  89  89  90  88  54  54  54   1 
 84  83  80  81  80  80  79  80  77  87  43  60  59  66   1  83  79  80 
 80  81  78  81  79  80  80  83  81  84  81  89  33  72  92  90  91  89 
 70  50  52  48  36  37  36  37  36  36  35  36  35  36  35  35  34  37 
 36  37  36  35  58  91  87  92  85  63  51  57  55  25  99  98  99  98 
 98  96  98  95  97  94  98  93  96  94 105  31  85  61  60  68  77  93 
 97  94  99  95  98  96 100  96  56  91  89  94  89  92  89  91  87  89 
 86  88  84  86  83  85  82  83  79  82  79  81  78  79  77  78  76  78 
 75  77  74  76  74  75  74  75  73  75  73  74  73  74  72  74  72  74 
 73  74  73  72  73  73  73  73  73  73  73  73  73  73  73  73  73  73 
 72  73  73  73  73  73  73  73  73  73  73  73  71  73  72  72  71  73 
 71  73  71  73  71  71  71  72  70  68  12  43  48  44  49  20  58  70 
 68  71  66  70  66  70  66  68  66  69  66  69  65  68  65  68  65  67 
 64  67  64  67  64  67  64  66  64  66  64  66  64  66  64  67  65  67 
 65  67  66  68  67  69  68  70  69  72  71  73  73  75  75  78  77  81 
 81  85  85  88  90  93  95  99 101 105 107 112 115 120 123 128 132 137 
141 147 152 158 163 169 175 181 187 194 200 207 213 221 227 234 241 248 
248 241 234 227 220 213 206 199 193 186 180 174 168 162 156 151 145 141 
136 131 126 122 118 114 111 107 104 101  98  96  94  92  89  88  86  85 
 84  83  82  81  80  80  79  79  79  79  79  80  80  80  80  81  82  83 
 83  84  84  86  86  87  88  89  89  91  91  92  92  87  55  57  58   1 
 81  79  78  77  78  76  77  77  77  80  21  65  57  45  78  76  78  74 
 78  75  76  76  80  78  79  79  79  78  83  27  94  93  93  94  94  93 
 81  53  53  54  40  40  39  40  39  38  39  38  39  38  39  38  39  39 
 40  39  39  38  76  91  94  93  92  93  79  56  58  56  44  85  97  95 
 93  94  92  94  90  94  89  94  91  92  92  94  88  43  65  70  88  93 
 91  94  91  95  93  96  93  96  57  92  97  94  96  92  95  91  93  90 
 92  88  90  87  89  85  86  84  86  83  84  82  83  79  82  80  81  78 
 80  78  79  77  79  77  78  76  78  76  77  75  77  76  77  76  75  75 
 76  75  76  75  75  75  76  76  75  76  76  76  76  76  75  76  76  76 
 76  76  76  75  76  74  76  74  76  75  76  74  76  75  76  75  76  74 
 76  74  75  73  74  73  75  73  75  73  75  49   6   2  41  70  73  71 
 73  70  73  69  73  69  72  69  72  69  71  68  71  68  71  68  70  67 
 70  67  70  67  69  67  69  67  69  67  69  67  69  67  69  67  70  68 
 70  68  70  69  71  70  72  71  73  73  75  74  77  77  79  79  82  82 
 85  86  89  90  93  95  98 100 104 106 111 113 118 121 126 129 134 138 
144 148 154 159 165 170 176 182 189 194 201 207 214 221 228 234 242 248 
248 241 234 227 220 214 207 200 194 187 181 175 169 163 158 152 147 142 
138 133 129 124 120 116 113 110 107 104 101  98  96  94  92  90  89  87 
 86  85  85  84  83  83  82  82  82  82  82  82  83  83  84  84  85  85 
 86  86  88  88  89  90  91  91  93  93  94  95  96  78  58  59  61  12 
 77  77  75  75  74  74  73  75  73  77   5  44  54  75  72  73  73  73 
 72  74  73  73  74  75  75  77  80  47  79  99  99  97  97  97  97  96 
 92  56  58  57  47  41  42  41  42  43  41  43  41  42  41  42  42  43 
 42  43  41  44  90  96  96  98  96  98  97  92  63  63  61  61  18  99 
 92  89  91  89  91  88  90  86  89  87  92  87  90  83   0  72 101  87 
 91  89  91  88  92  90  93  91  65  97  98 100  96  99  95  97  93  95 
 92  94  91  92  89  91  88  89  86  88  85  86  84  86  83  85  81  84 
 81  83  81  82  79  81  80  81  79  80  79  80  79  80  79  78  78  79 
 78  79  78  79  78  79  78  79  78  78  78  79  78  78  78  79  78  79 
 77  79  78  79  78  79  77  79  78  78  78  79  78  79  78  79  77  77 
 77  78  77  78  76  77  76  78  76  78  75  77  75  77  74  77  74  76 
 74  76  73  76  72  75  71  75  71  75  71  74  71  74  71  73  70  73 
 70  73  70  73  70  72  70  72  70  72  70  72  70  72  70  72  70  73 
 71  73  72  74  72  75  73  76  75  77  76  79  78  81  81  83  83  86 
 87  90  90  94  95  98 100 104 105 110 112 116 119 124 127 132 135 141 
145 151 155 161 166 172 177 184 189 196 202 209 215 222 228 235 242 249 
248 242 235 228 221 214 208 201 195 189 182 177 171 165 160 154 149 144 
139 135 131 127 123 119 115 112 109 106 104 101  99  97  95  93  92  91 
 89  88  87  87  86  86  85  85  85  85  85  86  86  86  86  87  88  89 
 89  90  90  92  92  93  94  95  95  97  97  98  98  69  62  62  63  21 
 74  73  72  71  71  70  71  71  69  71  30  62  70  69  69  68  70  69 
 69  70  70  70  73  72  73  74  10 102 101 102 101 102 101 101  99 100 
 99  61  58  59  57  43  45  43  46  44  45  45  45  45  45  45  46  45 
 46  45  45  49 100  97 100  99 102 100 102 100 102  71  67  64  73  18 
 81  90  85  89  85  87  85  86  85  87  83  87  83  87  87  13  90  86 
 84  89  85  88  86  89  87  90  71  95 104 100 103  99 101  97 100  96 
 98  95  96  93  95  92  93  90  92  89  90  88  83  87  87  82  83  85 
 86  84  86  84  85  83  84  83  84  81  83  81  83  82  83  82  82  82 
 82  82  82  81  82  81  82  82  81  82  82  81  82  82  82  81  82  81 
 82  79  78  79  82  81  82  81  80  81  81  81  82  81  81  75  80  80 
 80  80  79  76  77  79  81  75  77  75  77  73  79  78  80  77  80  77 
 79  77  69  64  75  76  78  74  78  75  78  74  77  74  77  74  76  74 
 76  73  76  73  76  73  75  73  75  73  75  73  75  73  75  73  76  74 
 76  74  77  75  77  76  78  77  80  79  81  80  83  83  85  85  88  88 
 91  91  95  95  99 100 104 105 109 111 115 118 122 125 130 133 138 142 
148 152 157 162 168 173 179 184 191 197 203 209 216 222 229 235 242 249 
249 242 235 228 222 215 209 202 196 190 184 178 172 167 161 156 151 146 
142 137 133 129 125 121 118 115 112 109 107 104 102 100  98  96  95  94 
 93  91  91  90  90  89  89  88  89  88  89  89  89  89  90  90  91  91 
 93  93  94  94  96  96  97  98  99  99 101 100 101  63  65  65  69  35 
 71  71  68  69  67  68  66  68  67  66  66  68  65  67  66  66  66  66 
 64  67  67  68  68  69  71  51 107 105 106 104 105 104 103 104 103 103 
103  70  64  64  62  48  48  49  49  50  48  49  48  49  48  49  48  49 
 49  50  47  70 102 104 101 103 103 105 104 105 105 106  82  71  67  72 
 58  72  83  82  84  82  84  81  84  80  83  80  82  80  84  81  84  81 
 85  81  84  81  86  84  86  83  88 104 104 106 103 105 102 104 100 102 
 99 101  97  99  96  98  95  96  93  95  85   3  17  92  90   4  21  90 
 88  89  87  89  87  87  86  87  85  87  84  87  85  86  85  86  85  86 
 84  86  85  85  85  85  85  85  85  85  85  85  85  84  85  85  85  84 
 85  21  27  79  85  85  85  85  85  85  84  85  84  85  36  23  40  85 
 84  85  73  14   1  84  82   4  21  20  21  19  22  15  81  82  79  83 
 36  18  25  24  24   9  79  80  79  81  78  81  78  80  77  80  77  80 
 77  79  77  79  77  79  76  79  76  79  76  79  77  79  77  79  77  79 
 78  80  78  80  79  81  80  82  81  84  83  85  85  87  87  90  90  93 
 93  96  97 100 101 104 106 109 111 115 117 122 124 129 132 137 140 145 
149 154 159 164 169 175 180 186 192 198 204 210 216 223 229 236 242 249 
249 242 235 229 222 216 210 203 197 191 185 180 174 169 163 158 153 149 
144 140 135 132 128 124 121 118 115 112 110 107 105 103 101 100  98  97 
 96  95  94  94  93  93  92  92  92  92  92  92  92  93  93  94  94  95 
 96  97  97  98  99 100 100 102 102 103 104 104  97  67  68  70  74  51 
 67  67  66  64  65  64  63  63  65  61  65  62  63  62  62  62  63  61 
 64  62  63  63  64  61  59 111 110 108 108 109 107 108 107 108 107 106 
105  84  66  66  67  55  52  51  52  52  52  52  52  52  52  52  53  52 
 53  52  51  88 107 105 108 106 108 107 110 108 111 109 111  88  76  71 
 75  62  48  85  78  81  78  81  77  79  78  79  75  80  77  80  78  80 
 76  80  78  81  78  82  80  82  89  82 111 107 110 106 108 105 107 103 
105 102 103 100 102  99 100  98  99  95  92   9  20  94  95   2  23  92 
 93  91  93  91  92  89  91  89  91  89  90  89  90  89  90  89  89  89 
 88  88  89  88  89  88  89  88  89  88  88  88  89  88  89  88  89  88 
 88  21  29  81  89  88  89  88  89  87  89  88  89  88  39  29  41  87 
 88  87  76  19   1  86  88   8  23   9   6   8  19  28   1  84  87  14 
 27  27   1   3  16  30  15  72  84  82  85  82  84  81  84  81  84  81 
 83  81  83  80  83  80  83  80  82  80  82  80  82  80  82  81  83  81 
 83  82  84  82  84  83  85  84  86  86  88  87  90  89  92  92  94  95 
 97  98 101 102 105 106 110 111 115 117 121 123 128 130 135 138 143 147 
152 156 161 166 172 176 182 187 194 199 205 211 217 223 230 236 243 249 
249 242 236 230 223 217 211 205 199 193 187 181 176 171 165 160 156 151 
147 142 138 134 131 127 124 121 118 115 113 111 109 107 105 103 102 100 
100  98  98  97  97  96  96  96  96  96  96  96  97  97  97  98  98  99 
100 100 101 102 103 103 104 105 106 106 108 107  92  71  72  72  78  67 
 62  64  61  62  60  61  59  60  59  59  59  58  59  58  60  59  58  62 
 60  61  61  60  53  91 115 113 113 112 113 112 113 112 111 111 110 109 
110  94  70  71  71  60  55  55  55  56  56  57  56  56  56  56  56  57 
 56  57  54 106 109 111 110 111 109 113 111 114 112 114 111 116  90  78 
 76  80  76  47  78  75  78  72  76  73  76  72  75  73  76  72  76  73 
 78  74  77  75  78  76  79  77  85  35 112 112 111 113 109 111 108 110 
106 108 105 107 103 105 102 103 101 102  26   7   1  27  96   6  19  79 
  0  13  35  94  94  95  23  35   6   1  91  90  31  10  18  15  77  93 
 92  67  16  70  92  93  80  20  51  92  92  77  10  19   3  72  14  47 
 92  24  26  74   8  21  15  84  92  92  92  92  92  92  41  23  43  92 
 91  92  79  14   3  92  90   4  23  82  89  91  87   8  27  76  36  21 
 22  70  87  90  87   3   4  87  86  88  86  88  85  88  85  88  85  87 
 85  87  84  87  84  86  84  86  84  86  84  86  84  86  84  86  85  87 
 85  87  86  88  87  89  88  90  89  91  90  93  92  94  94  97  97 100 
100 103 103 106 107 111 112 116 117 121 123 127 130 134 137 142 145 150 
154 159 163 168 173 179 183 189 195 201 206 212 218 224 230 237 243 249 
249 243 236 230 224 218 212 206 200 194 189 183 178 173 168 163 158 154 
149 145 141 137 134 131 127 124 121 119 116 114 112 110 108 107 106 105 
103 103 102 101 100 100 100 100 100 100 100 100 100 101 101 102 102 103 
103 104 105 106 106 108 108 109 110 111 111 111  85  77  75  78  46  65 
 59  60  58  57  58  56  57  56  56  55  56  55  56  55  56  55  56  56 
 55  57  58  51  91 119 118 119 118 118 117 117 116 116 115 115 113 114 
114 101  75  75  75  68  58  59  61  60  60  60  60  60  60  60  61  60 
 61  60  62 112 113 112 115 114 116 115 117 116 117 116 119 117 119  99 
 82  81  84  78  29  75  70  73  68  71  70  71  69  72  68  73  69  73 
 70  73  70  74  71  75  71  76  75  27 119 115 117 114 116 112 114 111 
113 110 111 108 110 106 108 105 107 104   2   7   5   6  98   9   8  11 
  3  11  12  25 100  98   5  11   3  19  90   5  16   4   8  19  12  58 
 97  57  16  64  97  95  79  13  34  96  54  14  20   7   5  14  16  28 
 96  29  17  11   8   8  16   1  96  95  96  96  96  95  52  20  54  95 
 96  95  91  11  10  94  96   0  19  83  95  93  95  32  21  52   5  18 
 70  92  93  91  94  86  92  90  92  90  93  90  92  89  92  89  92  89 
 91  89  91  89  91  88  91  88  90  88  90  88  90  89  91  89  91  89 
 91  90  92  90  92  91  93  92  94  94  96  95  97  97 100 100 102 102 
105 105 108 109 112 113 117 118 122 124 127 130 134 136 141 144 149 152 
157 161 166 170 176 180 186 191 196 202 208 213 219 225 231 237 243 249 
249 243 237 231 225 219 213 207 202 196 190 185 180 175 170 165 161 156 
152 148 144 141 137 134 131 128 125 122 120 118 116 114 113 111 110 108 
108 106 106 105 105 104 104 104 104 104 104 104 105 105 106 106 107 107 
108 108 109 109 111 111 112 113 114 114 116 115  79  79  82  84   0  58 
 55  56  54  54  54  53  52  52  51  52  51  52  51  52  51  52  51  52 
 50  51  48  88 124 122 123 122 122 121 121 120 121 120 120 119 119 118 
118 108  77  79  79  72  62  63  65  64  64  65  64  64  64  65  64  65 
 64  65  68 118 116 118 118 120 119 121 119 122 120 123 121 123 122 124 
 99  86  86  87  80  39  72  67  67  67  68  66  68  65  69  64  68  65 
 69  66  69  67  70  68  71  69  72  72 120 121 118 120 117 119 116 118 
115 116 113 115 112 113 110 112 109 109 104   7  32 108 106  15   7  66 
104 105   5  14  95 104   1   3 102 103   8  10  54 102 100  82   6   7 
 95  61  11  67 101 100  82   7  39 100   4   6  76 101 100  31  11  36 
 99  34  12  29  99 101  22  17  72 100 100 101 100  47  16   9  15  18 
 21  18  18  10  12 100  98   4  16  85  94  94  83   1  17  84   9   0 
 90  98  96  97  95  98  95  97  95  97  94  97  94  96  94  96  94  96 
 93  95  93  95  93  95  93  95  93  95  93  95  93  95  93  95  93  95 
 94  96  95  96  95  97  96  98  97  99  99 101 101 103 103 105 105 107 
108 110 111 114 115 118 119 123 124 128 130 134 136 140 143 148 151 155 
159 164 168 173 177 183 187 193 198 203 209 215 220 226 232 238 243 249 
249 243 237 232 226 220 214 209 203 198 192 187 182 177 172 168 163 159 
155 151 147 144 141 137 134 132 129 126 124 122 120 118 117 115 114 113 
112 111 110 110 109 109 108 108 108 109 108 109 109 110 110 111 111 112 
112 113 113 114 115 115 116 118 118 119 120 108  80  85  82  88  42  52 
 51  51  50  49  50  48  49  48  48  47  48  47  48  46  48  48  49  47 
 49  51  99 128 126 127 126 127 126 126 125 125 124 124 123 124 123 123 
122 114  82  83  82  76  69  68  70  68  69  68  68  68  69  68  69  68 
 70  69  76 120 122 122 124 123 124 123 126 124 126 124 127 126 127 126 
129 101  93  90  94  90  41  62  61  63  60  63  61  63  61  64  61  64 
 62  65  62  65  63  66  64  67  64  73  93 123 126 122 124 121 123 120 
121 118 120 117 118 116 117 114 116 113 103   8  36 111 111  18   5 109 
110 108  55   7  87 106   5   9 107  95   0  22 106 106 105 105  44   4 
 84  66   7  73 105 105  88   3  44 104   6  18 104 104 104  99  11  39 
105  38  13  95 104 104  78  13  57 105 104 104 105  59   1   6   2   5 
  7   3   5   5  18 102   8   6   6   3   2   4   3   7  16 101   1   0 
 97 101 103 100 102  99 102 100 101  99 101  99 101  99 101  98 100  98 
100  98 100  98 100  98 100  98  99  98  99  98  99  98 100  98 100  98 
100  99 101 100 101 100 102 101 103 103 104 104 106 106 108 108 110 111 
113 114 116 117 120 121 124 126 129 131 135 137 141 143 147 150 154 158 
162 166 171 175 180 184 190 194 200 205 210 215 221 227 232 238 244 250 
250 244 238 232 227 221 216 210 205 199 194 189 185 180 175 171 166 162 
158 154 151 147 144 141 138 135 133 130 128 126 124 123 121 120 119 117 
116 115 115 114 114 113 113 113 113 113 113 113 114 114 115 115 116 116 
117 117 118 119 120 120 121 121 123 123 124  91  87  88  90  72  45  47 
 46  47  45  45  44  45  44  44  43  44  43  43  42  42  42  44  42  43 
 52  61 133 131 132 131 131 130 131 130 130 129 129 128 128 128 128 127 
127 118  86  88  87  82  73  72  73  73  73  73  73  73  73  73  73  74 
 73  74  82 125 126 128 127 129 127 129 128 129 129 131 130 132 130 133 
131 132 100  95  93  98  76  57  60  57  60  56  59  57  59  56  60  57 
 60  58  61  58  61  59  62  58  65  60  53 130 128 129 126 128 125 127 
124 125 122 124 121 122 120 120 118 119 108  14  38 117 115  24   4 115 
113 114  60   1  90 113   9  14 111  97   3  32 110 110 110 110  51   1 
 86  70   1  78 110 109  92   3  48 108   2  26 110 110 109 108   7  44 
110  43   9 104 109 110  83   9  63 110 108 110 109 110  63   5  65 110 
108 108 101   4  20 109  26   1   3  15  16  17  22  50 101 107  14   0 
 84 108 104 107 105 107 105 107 104 106 104 106 104 106 103 106 103 105 
103 105 103 105 103 105 103 104 103 104 103 104 103 104 103 105 103 105 
104 105 104 106 105 106 106 107 107 109 108 110 110 112 112 114 114 116 
117 119 120 122 123 126 128 131 132 136 138 141 143 147 150 154 157 161 
165 169 173 178 182 187 191 197 201 207 211 217 222 228 233 239 244 250 
250 244 239 233 228 222 217 212 206 201 196 192 187 182 178 174 169 166 
162 158 154 151 148 145 142 140 137 135 133 131 129 127 126 124 123 122 
121 120 120 119 119 118 118 118 118 118 118 118 119 119 119 120 120 121 
121 122 123 124 123 125 125 127 127 128 122  92  92  92  93  58  42  42 
 42  41  41  40  40  39  40  39  39  38  39  38  39  38  39  39  38  40 
 35 136 136 137 136 136 135 136 135 135 134 134 133 133 133 133 132 132 
131 121  91  93  92  87  76  77  78  78  78  77  78  77  78  77  78  78 
 79  78  88 128 132 131 133 132 134 132 135 133 135 134 136 134 137 135 
138 136 137 102 102  99 102  75  54  54  52  56  52  55  52  55  52  55 
 53  56  53  56  54  57  54  58  56  60   7 133 133 132 133 130 132 129 
131 128 129 126 128 125 125 124 125 123 116  18  39 120 122  27   3 119 
120 118  66   2  96 116  14  19 117 115  12   3 105 115 115 113  22   9 
102  91   4  56 115 115  80   4  61 113  18  10 100 113 114  56   3  49 
114  48   3 109 115 114  89   3  68 113 115 114 114 114  66   2  70 114 
114 113 102   7  27 113 113  19   1 105 113 112 114 112 112 111  60   0 
  3  99 111 110 107  36  40 109 112 109 111 109 111 109 111 109 110 108 
110 108 110 108 110 108 110 108 110 108 109 108 109 108 110 108 110 109 
110 109 111 110 111 110 112 111 113 113 114 114 116 116 118 118 120 120 
122 123 125 126 129 130 133 134 137 139 142 144 148 150 154 157 161 164 
168 172 176 180 185 189 194 198 203 208 213 218 223 228 234 239 245 250 
250 245 239 234 229 223 218 213 208 203 199 194 190 185 181 177 173 169 
165 162 158 155 152 149 147 144 142 139 137 135 134 132 131 129 128 127 
126 125 125 124 124 123 123 123 123 123 123 123 124 124 125 125 126 126 
127 127 128 129 130 130 131 131 131 133 113  96  96  97 104  12  38  38 
 37  37  36  36  35  35  34  35  34  34  34  34  33  34  33  35  33  13 
139 140 141 141 141 140 141 140 140 139 139 138 139 138 138 137 137 135 
136 124  97  97  98  91  81  82  82  84  83  83  82  83  82  83  82  83 
 83  84  94 134 135 137 136 138 137 139 138 140 138 141 139 141 140 141 
140 142 140 132 100 106 105 105  22  53  50  47  49  49  48  48  50  48 
 51  48  51  49  52  50  53  51  54  53  52 140 136 138 136 137 135 136 
133 135 132 133 131 132 129 130 128 129 127  40  15  45 123  34   6 125 
122 124  69   7 100 123  20  24 121 122  96   7  16  48  52  23   3  60 
120 113  13  12  34  36  12   5 109 119  71   4  16  31  27  10   9  54 
120  52   3 112 120 120  94   2  74 120 118 120 119 120  71   5  72 120 
119 120 108  14  31 119 118  25   4 110 117 119 116 119 117 118 116  48 
  5  11  25  30  16   7  10 112 115 117 115 117 114 116 114 116 114 116 
114 115 114 115 113 115 113 115 113 115 113 115 113 115 114 115 114 115 
114 116 115 116 115 117 116 118 117 119 119 120 120 122 122 124 124 126 
126 129 129 132 133 135 137 139 141 144 146 149 151 155 157 161 164 168 
171 175 179 183 187 192 196 201 205 210 215 220 224 230 235 240 245 250 
250 245 240 235 230 225 220 215 210 206 201 197 192 188 184 180 176 172 
169 166 162 159 156 154 151 149 146 144 142 140 139 137 136 134 133 132 
131 131 130 130 129 129 129 129 128 129 129 129 129 130 130 131 131 132 
132 133 133 134 134 135 136 136 137 136 100 101 102 103 104  38  35  33 
 33  32  32  31  31  30  30  29  30  29  30  29  29  29  29  30  28 128 
146 147 145 144 145 145 145 145 144 145 144 144 143 143 142 141 142 142 
141 123 102 103 102  96  86  87  88  88  88  88  88  87  88  87  88  88 
 89  88  99 138 142 141 143 142 143 142 144 142 145 144 145 144 147 145 
148 146 148 146 127 107 110 107 119  12  45  46  43  44  43  45  43  46 
 43  46  44  47  45  48  45  48  47  48  57  75 143 141 143 140 142 139 
140 138 139 137 138 135 137 134 135 133 133 132  59  33 132  51  32 128 
130 129  84  29 110 127  39  44 127 127 126  91  37  20  18  31  75 126 
126 126 111  38  22  20  36 104 126 124 126  87  39  31  39  97   9  61 
126  65  23 119 126 125 102  24  86 125 125 124 125 125  82  26  84 124 
125 123 115  33  50 124 125  42  28 113 125 123 124 123 123 122 123 122 
 72  30  19  14  25  45 115 121 123 120 122 120 122 120 122 120 121 120 
121 119 121 119 121 119 121 119 121 119 121 119 121 119 121 119 121 120 
121 120 122 121 122 121 123 122 124 123 125 125 126 126 128 128 130 130 
132 133 135 136 138 140 142 143 146 148 151 153 156 158 162 164 168 171 
175 178 182 186 190 194 199 203 207 212 217 221 226 231 236 240 245 250 
250 245 241 236 231 226 221 217 212 208 203 199 195 191 187 183 180 176 
173 169 166 163 161 158 156 153 151 149 147 145 144 142 141 140 139 138 
137 136 136 135 135 134 134 134 134 134 134 134 135 135 136 136 137 137 
138 138 139 139 140 140 141 142 143 117 105 106 107 108  49  33  29  28 
 27  27  26  26  25  26  25  25  24  25  24  24  25  25  25  24  85 151 
150 151 152 150 151 150 151 150 150 149 149 148 149 148 148 147 146 147 
147 121 106 107 107 101  93  93  93  95  93  93  93  93  93  93  93  94 
 93  94 101 145 145 146 146 148 147 148 148 150 148 151 149 151 150 152 
149 153 151 154 148 116 114 117 114 101  34  38  41  37  42  38  41  38 
 41  39  41  39  42  40  43  40  43  43  45  21 147 148 146 148 145 146 
144 145 143 144 141 143 140 141 139 139 137 139 136 136 136 137 132 135 
134 135 132 134 132 134 131 133 132 132 131 133 131 130 131 131 132 131 
131 132 131 131 129 130 130 131 129 131 130 108 127 130 131  76  19 102 
131 131 129 130 131 131 131 129 130 131 131 131 130 131 130 129 129 131 
130 131 129 129 129 131 129 130 127 129 128 130 129 130 128 130 128 130 
127 128 126 128 124 129 126 128 127 128 126 128 126 128 126 127 126 127 
125 127 125 127 125 127 125 127 125 126 125 126 125 126 125 127 126 127 
126 127 126 128 127 128 128 129 129 130 130 131 131 133 133 135 135 137 
137 139 140 142 143 145 146 149 150 153 155 158 160 163 165 169 172 175 
178 182 185 189 193 197 201 205 209 214 218 223 227 232 236 241 246 251 
251 246 241 237 232 228 223 219 214 210 206 202 198 194 190 187 183 180 
177 174 171 168 165 163 160 158 156 154 152 151 149 148 146 145 144 143 
143 142 141 141 141 140 140 140 140 140 140 140 141 141 141 142 142 143 
143 144 144 145 144 146 147 146 145 112 111 112 112 110   0  22  23  21 
 22  21  21  21  21  20  20  19  20  18  18  17  20  19  20   9 156 157 
156 157 156 157 156 156 155 155 155 155 154 154 153 153 152 153 151 152 
152 118 112 113 112 105  97  98  98  98  98  96  97  98  96  98 100  98 
 99  99 104 148 152 152 152 152 154 153 155 153 155 154 156 155 157 155 
158 156 158 156 159 147 119 119 121 121  52  45  34  35  33  35  33  36 
 33  36  34  37  35  37  35  38  36  39  35  36 129 151 153 151 152 150 
151 148 150 148 149 146 147 145 146 144 145 143 144 142 143 142 142 141 
142 140 141 140 140 139 140 139 139 138 139 138 138 138 138 138 138 137 
138 137 138 137 138 137 137 137 137 137 101  15  38  65  55  24  45 134 
135 137 136 137 137 136 137 137 137 137 137 137 137 136 137 136 137 136 
137 136 137 136 137 136 137 135 136 135 136 135 136 135 136 134 136 134 
135 134 135 133 135 133 135 133 134 133 134 132 134 132 134 132 133 132 
133 132 133 131 133 131 133 131 133 131 133 131 133 131 133 132 133 132 
133 132 133 133 134 133 135 134 136 135 137 136 138 138 139 140 141 142 
143 144 146 147 149 150 152 154 156 158 160 162 165 167 170 173 176 179 
182 185 189 192 196 200 204 207 212 216 220 224 229 233 237 242 246 251 
251 246 242 238 233 229 225 221 216 212 209 205 201 197 194 190 187 184 
181 178 175 172 170 168 165 163 161 159 158 156 155 153 152 151 150 149 
149 148 147 147 147 146 146 146 146 146 146 146 147 147 147 148 148 149 
149 150 150 151 152 152 153 153 128 115 117 118 118 101  19  18  17  16 
 16  17  16  16  15  15  14  15  13  13  13  14  12  15  15 150 163 162 
162 162 162 161 162 161 161 160 160 160 160 159 159 158 159 157 158 157 
157 117 118 119 118 110 104 104 105 105 103 103 104 105 102 104 104 105 
104 105 104 158 155 157 157 158 158 160 159 160 159 161 160 162 160 163 
161 163 162 164 160 164 136 125 125 127 132   1  30  29  30  29  30  28 
 30  29  31  29  32  30  32  30  32  30  34  34  54 160 156 158 156 156 
155 156 154 154 153 154 152 153 151 152 150 151 149 150 148 149 147 148 
146 147 146 147 145 146 145 146 145 145 144 145 144 144 144 144 144 144 
144 144 143 144 143 144 143 144 143 141 143 104  47  42  42  75 143 143 
143 142 143 143 143 143 143 143 143 143 143 143 143 143 143 143 142 143 
142 143 142 143 142 143 142 143 141 143 141 142 141 142 141 142 140 142 
140 142 140 141 140 141 139 141 139 141 139 140 139 140 138 140 138 140 
138 139 138 139 138 139 138 139 138 139 138 139 138 139 138 139 138 139 
139 140 139 140 139 141 140 141 141 142 142 143 143 145 145 146 147 148 
149 150 151 153 154 156 157 159 161 163 165 168 169 172 174 177 180 183 
186 189 192 196 199 203 206 210 214 218 222 226 230 234 238 243 247 251 
251 247 243 239 235 231 226 223 219 215 211 208 204 201 197 194 191 188 
185 182 180 177 175 173 170 169 167 165 163 162 160 159 158 157 156 155 
155 154 154 153 153 153 152 152 152 152 152 153 153 153 153 154 154 155 
155 156 156 156 157 157 157 147 121 122 123 124 131  16  16  12  13  11 
 11  10  11  10  10   9   9   9   9   9   8   7  10   7  58 168 166 168 
167 168 167 167 166 167 166 166 165 166 165 165 164 165 164 164 163 163 
156 124 123 122 122 113 108 109 110 109 109 115 120 121 120 110 111 109 
109 110 108 156 164 163 164 162 165 164 165 164 166 165 167 166 168 166 
168 167 168 167 170 166 162 129 132 130 133  86  24  27  23  25  23  25 
 23  25  23  26  24  26  25  27  26  29  27  28  32 158 164 161 163 161 
161 159 160 159 160 158 159 157 158 156 157 155 156 155 155 154 154 153 
154 152 153 152 153 151 152 151 152 151 151 150 151 150 151 150 150 150 
150 150 150 150 150 150 150 150 150 150 149 150 148 144 145 150 150 149 
150 150 149 149 150 149 150 149 150 149 150 149 150 149 150 149 149 149 
149 149 149 148 149 148 149 148 149 148 149 148 149 147 149 147 148 147 
148 147 148 146 148 146 147 146 147 146 147 145 147 145 147 145 146 145 
146 145 146 145 146 144 146 144 146 144 146 144 146 145 146 145 146 145 
146 145 146 146 147 146 147 147 148 148 149 149 150 150 152 152 153 154 
155 156 158 158 160 161 163 164 167 168 170 172 175 176 179 181 185 187 
190 193 196 199 202 205 209 212 216 220 224 227 231 235 239 243 247 251 
251 247 244 240 236 232 228 225 221 217 214 211 207 204 201 198 195 192 
189 187 184 182 180 178 176 174 172 171 169 168 166 165 164 163 162 162 
161 160 160 159 159 159 159 159 159 159 159 159 159 160 160 160 161 161 
162 162 163 163 164 164 165 131 128 128 129 129  98  13   7   7   6   5 
  5   5   4   5   4   4   3   4   4   2   1   3   2   8 158 171 174 173 
173 173 173 172 173 172 172 171 172 171 171 170 171 170 170 169 169 169 
158 142 145 151 160 117 119 123 131 145 161 168 157 144 135 132 124 136 
128 123 115 148 168 169 168 170 168 170 170 172 171 172 171 173 172 174 
172 174 173 174 173 175 174 148 135 137 137 143   9  19  20  17  19  17 
 19  18  20  18  20  19  22  20  23  19  23  22  26  53 168 170 168 168 
167 168 165 167 165 166 164 165 163 164 162 163 161 162 161 161 160 160 
159 160 159 159 158 159 158 158 157 158 157 158 157 157 157 157 157 157 
156 157 156 157 156 157 156 156 155 156 156 156 156 156 156 156 156 155 
156 156 156 156 156 156 156 156 156 156 156 156 156 156 156 156 155 156 
155 156 155 156 155 156 155 156 155 156 154 155 154 155 154 155 154 155 
153 155 153 155 153 154 153 154 153 154 152 154 152 153 152 153 152 153 
152 153 152 153 151 153 151 152 151 152 151 152 151 152 152 153 152 153 
152 153 152 153 153 154 153 154 154 155 155 156 156 157 158 159 159 161 
161 163 163 165 166 168 168 171 172 174 175 178 179 182 184 186 189 191 
194 197 199 203 205 209 212 215 219 222 226 229 233 237 240 244 248 252 
252 248 244 241 237 234 230 227 223 220 217 214 211 208 205 202 199 197 
194 192 189 187 185 183 181 180 178 176 175 174 172 171 170 170 169 168 
167 167 166 166 166 166 165 165 165 166 166 166 166 166 166 167 167 168 
168 169 168 169 170 170 141 133 132 135 136 136  34   3   2   0   1   1 
  0   1   1   2   1   2   2   3   4   3   1   3   1  95 179 178 179 179 
179 179 178 179 178 178 177 178 177 177 177 177 176 176 176 176 175 175 
175 175 174 174 174 173 172 174 173 173 174 174 173 174 173 173 172 171 
173 173 174 173 174 175 176 173 176 176 177 176 178 177 178 177 179 178 
180 177 180 179 180 179 180 177 144 142 144 142 132  16  11  14  12  14 
 12  14  12  14  13  15  11  15  13  15  16  18  16   9 169 174 175 174 
174 173 172 171 172 171 172 170 171 169 170 168 169 167 168 167 167 166 
167 166 166 165 166 165 165 164 165 164 164 164 164 164 164 163 164 163 
164 163 163 163 163 163 163 163 163 163 163 163 163 162 163 163 163 163 
163 162 163 162 163 163 163 163 163 163 163 163 163 162 163 162 163 162 
163 162 163 162 163 162 163 162 162 161 162 161 162 161 162 161 162 161 
162 160 162 160 161 160 161 160 161 159 161 159 160 159 160 159 160 159 
160 159 160 159 160 158 160 158 159 158 159 158 159 159 159 159 160 159 
160 159 160 160 161 160 161 161 162 162 163 163 164 164 165 165 166 167 
168 168 170 171 172 173 175 176 178 179 181 183 185 186 189 191 193 195 
198 201 204 206 209 212 215 218 221 224 228 231 234 238 241 245 248 252 
252 249 245 242 239 235 232 229 226 223 220 217 214 211 208 206 203 201 
199 196 194 192 190 189 187 185 184 182 181 180 179 178 177 176 175 175 
174 174 173 173 173 172 172 172 172 172 172 172 173 173 173 173 174 174 
175 175 176 175 176 175 158 142 138 138 142 102   1   4   3   6   7   6 
  7   7   7   7   8   8   8   8   8   8  10   9  18 171 183 184 185 185 
185 184 185 184 184 184 184 183 183 183 183 182 183 182 182 181 182 181 
181 180 181 180 179 180 179 180 180 179 180 179 179 180 179 179 180 180 
179 181 180 181 181 182 180 182 182 182 182 183 182 184 183 185 184 185 
184 186 184 185 185 187 184 186 158 149 147 149 148  32   7   6   8   6 
  8   6   8   7   9   7   9   8  10   9  11  10  12  13  42 181 180 181 
179 179 178 179 178 178 177 177 176 177 175 176 174 175 174 174 173 174 
173 173 172 173 172 172 171 172 171 172 171 171 171 171 170 171 170 171 
170 170 170 170 170 170 170 170 169 170 169 170 170 170 170 170 170 170 
170 170 169 170 170 170 170 170 170 170 170 170 170 170 169 170 169 170 
169 170 169 170 169 170 169 170 169 169 168 169 168 169 168 169 168 169 
168 169 167 169 167 168 167 168 167 168 167 168 166 168 166 167 166 167 
166 167 166 167 166 167 166 167 166 167 166 167 166 167 166 167 166 167 
166 167 167 167 167 168 168 168 168 169 169 170 170 171 171 172 173 174 
174 175 176 177 178 180 181 182 183 185 186 188 190 192 194 196 198 200 
202 205 207 210 212 215 218 221 224 227 230 233 236 239 242 246 249 252 
252 249 246 243 240 237 234 231 228 225 223 220 217 215 212 210 208 206 
203 201 199 198 196 194 193 191 190 189 187 186 185 184 183 183 182 182 
181 181 180 180 180 179 179 179 179 179 179 180 180 180 180 180 181 181 
181 182 182 183 183 182 184 184 181 170 151  12   9  13  10  11  12  12 
 11  12  12  14  13  14  14  14  14  16  11  13  61 191 191 190 191 191 
190 191 190 190 190 190 190 190 189 189 189 189 188 188 188 188 188 188 
186 187 187 186 186 186 185 186 186 186 185 185 186 185 186 186 187 186 
187 186 187 187 188 186 188 187 189 188 189 188 190 189 190 189 191 190 
191 189 192 191 191 191 193 191 183 151 156 153 155 108   6   2   0   2 
  0   2   1   2   1   3   2   3   2   4   2   7   4   6   9 127 188 186 
186 185 186 185 185 184 184 183 184 182 183 182 182 181 182 180 181 180 
180 179 180 179 179 179 179 178 179 178 178 178 178 178 178 178 178 177 
178 177 178 177 177 177 177 177 177 176 177 177 176 177 176 177 176 177 
176 177 177 176 177 177 177 177 177 177 177 177 177 177 177 177 177 176 
177 176 177 176 177 176 177 176 177 176 177 176 176 175 176 175 176 175 
176 175 176 175 176 175 176 174 175 174 175 174 175 174 175 174 175 174 
175 173 174 173 174 173 174 173 174 173 174 173 174 173 174 174 174 174 
174 174 175 174 175 175 175 175 176 176 177 177 178 178 179 179 180 180 
181 182 183 184 185 186 187 188 190 191 193 194 196 197 199 201 203 205 
207 209 212 214 216 218 221 224 227 229 232 235 238 240 243 246 249 252 
253 250 247 244 241 239 236 233 231 228 226 223 221 219 216 214 212 210 
208 206 205 203 201 200 199 197 196 195 194 193 192 191 190 190 189 188 
188 188 187 187 187 187 186 186 186 186 187 187 187 187 187 187 188 188 
188 189 189 189 190 190 191 189 192 192  95   8  14  18  18  18  19  19 
 18  18  19  18  20  20  20  20  21  20  20  10 167 197 196 196 197 197 
197 196 197 196 196 196 196 196 196 195 195 195 195 194 195 193 194 194 
194 193 193 193 193 193 193 193 193 192 193 193 193 192 193 193 193 193 
192 193 192 193 192 194 192 195 193 195 195 196 195 196 195 197 196 197 
196 198 196 198 197 198 197 199 197 166 160 162 161 167  16   4   3   5 
  3   4   3   4   2   4   2   3   2   2   1   3   0   1   6  27 192 193 
192 193 192 191 191 192 190 191 190 190 189 189 188 189 188 188 187 188 
187 187 186 187 186 186 186 186 185 186 185 186 185 185 185 185 185 185 
185 185 185 185 185 185 185 185 184 185 184 184 184 185 184 185 184 184 
184 185 183 185 184 184 184 184 184 184 184 184 184 184 184 184 184 184 
184 184 184 184 184 184 183 184 183 184 183 184 183 184 183 184 183 184 
183 183 182 183 182 183 182 183 182 183 182 183 182 182 181 182 181 182 
181 182 181 182 181 182 181 182 181 182 181 182 181 182 181 182 181 182 
181 182 182 182 182 183 183 183 183 184 184 184 185 185 185 186 187 188 
188 189 189 191 191 193 193 195 196 197 198 200 201 203 204 206 208 210 
211 214 215 218 220 222 224 227 229 232 234 237 239 242 244 247 250 253 
253 250 248 245 243 240 238 236 233 231 229 227 225 223 221 219 217 215 
213 212 210 209 207 206 205 203 202 201 200 199 199 198 197 197 196 196 
195 195 194 194 194 194 194 194 194 194 194 194 194 194 194 195 195 195 
195 196 196 197 197 197 197 198 198 198 199 173 128  90  68  55  47  45 
 43  58  50  26  27  26  25  27  28  27  27  59 202 202 203 203 203 203 
203 203 203 203 202 203 202 202 202 202 201 202 201 201 201 201 200 201 
200 200 200 200 200 200 200 200 199 199 199 199 199 199 200 199 200 199 
200 200 200 200 201 200 201 200 201 201 202 201 202 202 203 202 203 202 
204 203 204 203 204 203 205 204 205 190 166 166 167 168 107   7  11  11 
 12  10  12   9   9   8  60  38  31  28  35  59  79 115 161 200 201 197 
200 198 199 198 199 197 198 197 197 196 197 196 196 195 196 195 195 194 
195 194 194 193 194 193 194 193 193 193 193 193 193 192 193 192 192 192 
192 192 192 192 192 192 192 192 192 192 192 192 192 192 192 192 192 192 
192 192 192 192 192 192 192 192 192 192 192 192 192 192 192 191 192 191 
192 191 192 191 192 191 192 191 192 191 191 191 191 191 191 190 191 190 
191 190 191 190 191 190 191 190 190 190 190 189 190 189 190 189 190 189 
190 189 190 189 190 189 190 189 189 189 189 189 189 189 189 189 190 189 
190 189 190 190 190 190 191 190 191 191 192 192 192 192 193 193 194 194 
195 196 197 197 198 199 200 201 202 203 204 205 207 208 210 211 213 214 
216 218 220 221 224 225 228 230 232 234 236 239 241 243 246 248 250 253 
253 251 249 247 244 242 240 238 236 234 232 230 228 226 225 223 221 220 
218 217 216 214 213 212 211 210 209 208 207 206 205 205 204 204 203 203 
202 202 202 201 201 201 201 201 201 201 201 201 201 202 202 202 202 202 
203 203 203 203 204 204 205 205 205 204 205 206 204 206 207 207 208 208 
177 171 154  38  34  32  32  33  34  34  32 137 209 208 210 209 210 209 
209 209 209 209 209 209 209 208 209 208 208 208 208 207 208 207 207 207 
207 207 207 206 206 206 206 206 206 206 206 206 206 206 206 206 206 207 
206 207 206 207 207 207 207 208 207 208 208 208 208 209 208 209 209 210 
209 210 209 210 209 211 210 211 208 206 173 173 171 173 154  22  17  18 
 16  16  15  16  14  95 173 173 173 172 170 193 207 207 206 207 204 207 
206 205 205 206 205 205 204 205 204 204 203 203 203 203 202 203 202 202 
201 202 201 201 201 201 201 201 200 201 200 200 200 200 200 200 200 200 
200 200 200 200 200 200 200 200 200 200 200 200 200 200 200 200 200 200 
199 200 199 200 199 200 199 200 199 200 199 200 199 199 199 199 199 199 
199 199 199 199 199 199 199 199 199 199 199 199 198 199 198 199 198 199 
198 199 198 199 198 198 198 198 197 198 197 198 197 198 197 198 197 198 
197 198 197 198 197 197 197 197 197 197 197 197 197 197 197 197 197 198 
197 198 197 198 198 198 198 199 198 199 199 200 200 200 200 201 201 202 
202 203 203 204 205 206 206 208 208 210 210 212 213 214 215 217 218 219 
221 222 224 226 227 229 231 233 235 237 239 241 243 245 247 249 251 253 
253 252 250 248 246 244 242 240 239 237 235 234 232 231 229 228 226 225 
223 222 221 220 219 218 217 216 215 214 214 213 212 212 211 211 210 210 
210 209 209 209 209 209 209 209 209 209 209 209 209 209 209 209 210 210 
210 210 210 211 211 211 211 212 212 212 212 213 213 213 214 213 214 213 
213 188 177 149  39  39  38  39  39  40  41 188 215 216 216 216 216 216 
216 216 215 216 215 215 215 215 215 215 215 215 214 214 214 214 214 214 
214 214 213 213 213 213 213 213 213 213 213 213 213 213 213 213 213 213 
213 213 214 213 214 214 214 214 214 214 215 214 215 215 215 215 216 215 
216 215 216 216 217 216 217 216 217 215 183 178 180 178 177  38  23  23 
 23  23  23  16  85 191 192 194 202 206 211 214 214 214 215 211 214 213 
213 212 213 212 212 211 212 211 211 211 211 210 210 210 210 209 210 209 
209 209 209 208 209 208 208 208 208 208 208 208 208 208 208 208 208 207 
208 207 208 207 207 207 207 207 207 207 207 207 207 207 207 207 207 207 
207 207 207 207 207 207 207 207 207 207 207 207 207 207 207 207 207 207 
207 207 207 207 207 207 207 207 207 206 207 206 207 206 207 206 207 206 
207 206 206 206 206 206 206 206 206 205 206 205 206 205 206 205 206 205 
206 205 206 205 205 205 205 205 205 205 205 205 205 205 205 205 205 205 
206 205 206 206 206 206 206 206 207 207 207 207 208 208 208 208 209 209 
210 210 211 211 212 213 213 214 215 216 217 217 219 220 221 222 223 224 
226 227 228 230 231 233 234 236 238 239 241 243 244 246 248 250 252 253 
254 252 251 249 247 246 244 243 241 240 239 237 236 235 233 232 231 230 
229 228 227 226 225 224 223 222 222 221 220 220 219 219 218 218 218 217 
217 217 217 217 216 216 216 216 216 216 216 216 217 217 217 217 217 217 
217 218 218 218 218 218 219 219 219 219 220 220 220 220 221 221 220 220 
221 221 202 186 150  53  44  45  45  47  54 222 221 222 222 222 222 222 
222 222 222 222 222 222 222 221 222 221 221 221 221 221 221 221 221 220 
221 220 220 220 220 220 220 220 220 220 220 220 220 220 220 220 220 220 
220 220 220 221 220 221 220 221 221 221 221 222 221 222 221 222 222 222 
222 223 222 223 222 223 222 223 222 223 199 184 184 184 187  97  25  31 
 29  30  25  95 222 222 222 223 221 222 221 221 221 221 219 221 220 220 
219 219 218 219 219 219 218 219 218 218 218 218 217 218 217 217 217 217 
216 217 216 216 216 216 216 216 216 216 216 216 215 216 215 216 215 215 
215 215 215 215 215 215 215 215 215 215 215 215 215 215 215 215 215 215 
215 215 215 215 215 215 215 215 215 215 215 215 215 215 215 215 215 215 
215 215 215 215 215 215 215 215 214 215 214 215 214 215 214 215 214 215 
214 214 214 214 214 214 214 214 214 214 214 214 213 214 213 214 213 214 
213 214 213 214 213 214 213 214 213 214 213 214 213 214 213 214 213 214 
213 214 214 214 214 214 214 214 214 215 215 215 215 216 216 216 216 217 
217 218 218 219 219 220 220 221 221 222 223 224 224 226 226 227 228 229 
230 232 233 234 235 237 238 239 240 242 243 245 246 248 249 251 252 254 
254 253 251 250 249 248 247 245 244 243 242 241 240 239 238 237 236 235 
234 233 232 232 231 230 229 229 228 228 227 227 226 226 226 225 225 225 
225 224 224 224 224 224 224 224 224 224 224 224 224 224 224 224 225 225 
225 225 225 225 226 226 226 226 226 227 227 227 227 227 227 228 228 228 
228 226 228 226 196 200  75  50  52  49 118 228 229 227 229 229 229 229 
229 229 229 229 228 229 228 228 228 228 228 228 228 228 228 228 227 227 
227 227 227 227 227 227 227 227 227 227 227 227 227 227 227 227 227 227 
227 227 227 227 227 227 228 227 228 228 228 228 228 228 229 228 229 228 
229 229 229 229 229 229 230 229 229 228 225 188 192 190 192 165  27  35 
 36  33 154 229 229 229 226 228 228 228 229 228 228 228 228 226 228 226 
227 227 226 226 227 226 226 226 226 225 226 225 225 225 225 224 225 224 
224 224 224 224 224 224 224 224 224 223 224 223 223 223 223 223 223 223 
223 223 223 223 223 223 223 223 223 223 223 223 223 223 223 223 223 223 
223 223 223 223 223 223 223 223 223 223 223 223 223 223 223 223 223 223 
223 223 223 223 223 223 223 223 223 222 223 222 223 222 223 222 223 222 
223 222 223 222 222 222 222 222 222 222 222 222 222 222 222 222 222 222 
222 222 222 222 222 221 222 221 222 221 222 221 222 222 222 222 222 222 
222 222 222 222 222 222 222 222 223 223 223 223 223 223 224 224 224 224 
225 225 225 226 226 227 227 228 228 229 229 230 231 231 232 233 234 234 
235 236 237 238 239 240 241 242 243 244 246 247 248 249 250 252 253 254 
254 253 252 251 251 250 249 248 247 246 245 244 244 243 242 241 241 240 
239 239 238 237 237 236 236 235 235 235 234 234 234 233 233 233 233 232 
232 232 232 232 232 232 232 232 232 232 232 232 232 232 232 232 232 232 
232 233 233 233 233 233 233 233 234 234 234 234 234 233 233 233 235 235 
235 233 234 235 234 232 235 144  57  50 188 233 234 235 234 235 235 235 
235 235 235 235 235 235 235 235 235 235 235 235 235 235 235 234 234 234 
234 234 234 234 234 234 234 234 234 234 234 234 234 234 234 234 234 234 
234 234 234 234 234 234 234 235 234 235 235 235 235 235 235 235 235 235 
235 236 235 236 235 236 236 236 235 235 236 198 198 197 198 208  42  36 
 78 191 233 236 234 236 235 236 234 235 233 234 235 234 234 234 234 234 
234 234 234 234 233 234 233 233 233 233 233 233 232 233 232 232 232 232 
232 232 232 232 232 232 231 232 231 232 231 231 231 231 231 231 231 231 
231 231 231 231 231 231 231 231 231 231 231 231 231 231 231 231 231 231 
231 231 231 231 231 231 231 231 231 231 231 231 231 231 231 231 231 231 
231 231 231 231 231 231 231 231 231 231 231 231 231 231 230 231 230 231 
230 231 230 231 230 231 230 231 230 230 230 230 230 230 230 230 230 230 
230 230 230 230 230 230 230 230 230 230 230 230 230 230 230 230 230 230 
230 230 230 230 230 230 230 231 231 231 231 231 231 231 231 232 232 232 
232 233 233 233 233 234 234 235 235 235 236 236 237 237 238 238 239 240 
240 241 242 242 243 244 245 246 246 247 248 249 250 251 252 253 253 254 
255 254 253 253 252 252 251 250 250 249 249 248 247 247 246 246 245 245 
245 244 244 243 243 243 242 242 242 241 241 241 241 241 240 240 240 240 
240 240 240 240 240 240 240 240 240 240 240 240 240 240 240 240 240 240 
240 240 240 240 240 240 241 241 241 241 240 241 241 241 241 241 241 242 
241 241 242 241 242 240 241 242 235 101 242 241 242 242 242 242 242 242 
242 242 242 242 242 242 242 242 242 242 242 242 241 242 241 241 241 241 
241 241 241 241 241 241 241 241 241 241 241 241 241 241 241 241 241 241 
241 241 241 241 241 241 241 241 242 241 242 242 242 242 242 242 242 242 
242 242 242 242 242 242 242 242 242 242 241 211 203 204 207 242  98 160 
242 241 242 240 242 242 242 242 242 242 242 241 242 241 241 241 241 240 
239 240 241 241 241 241 241 240 241 240 240 240 240 240 240 240 240 240 
240 240 240 240 240 239 240 239 239 239 239 239 239 239 239 239 239 239 
239 239 239 239 239 239 239 239 239 239 239 239 239 239 239 239 239 239 
239 239 239 239 239 239 239 239 239 239 239 239 239 239 239 239 239 239 
239 239 239 239 239 239 239 239 239 239 239 239 239 239 239 239 239 239 
239 239 239 239 239 239 239 239 239 238 239 238 239 238 239 238 239 238 
239 238 239 238 239 238 238 238 238 238 238 238 238 238 238 238 238 238 
239 238 239 239 239 239 239 239 239 239 239 239 239 239 239 239 240 240 
240 240 240 240 241 241 241 241 242 242 242 243 243 243 244 244 244 245 
245 246 246 247 247 248 248 249 249 250 250 251 252 252 253 253 254 255 
255 255 254 254 254 253 253 253 253 252 252 252 251 251 251 251 250 250 
250 250 250 249 249 249 249 249 249 248 248 248 248 248 248 248 248 248 
248 248 248 247 247 247 247 247 247 247 247 247 247 247 248 248 248 248 
248 248 248 248 248 248 248 248 248 248 248 247 248 248 248 247 247 248 
248 248 249 249 249 249 249 248 249 249 247 249 248 248 249 249 249 249 
249 249 249 249 249 249 249 248 249 248 248 248 248 248 248 248 248 248 
248 248 248 248 248 248 248 248 248 248 248 248 248 248 248 248 248 248 
248 248 248 248 248 248 248 248 248 248 248 249 248 249 248 249 249 249 
249 249 249 249 249 249 249 249 249 249 249 226 215 238 248 249 245 248 
248 249 248 249 248 249 248 249 249 249 248 249 248 248 248 248 248 247 
248 248 247 248 248 248 248 248 248 248 248 248 248 248 248 248 248 248 
247 248 247 247 247 247 247 247 247 247 247 247 247 247 247 247 247 247 
247 247 247 247 247 247 247 247 247 247 247 247 247 247 247 247 247 247 
247 247 247 247 247 247 247 247 247 247 247 247 247 247 247 247 247 247 
247 247 247 247 247 247 247 247 247 247 247 247 247 247 247 247 247 247 
247 247 247 247 247 247 247 247 247 247 247 247 247 247 247 247 247 247 
247 247 247 247 247 247 247 247 247 247 247 247 247 247 247 247 247 247 
247 247 247 247 247 247 247 247 247 247 247 247 247 247 247 247 247 248 
248 248 248 248 248 248 248 248 248 249 249 249 249 249 249 250 250 250 
250 251 251 251 251 252 252 252 252 253 253 253 253 254 254 254 255 255 
