P2
# Written by pgmwrite
 360  240
 255
255 255 255 255 255 255 255 255 255 255 255 255 255 255 255 255 255 255 
255 255 255 255 254 254 254 254 254 254 254 254 254 254 254 254 254 254 
254 254 254 254 254 254 254 254 254 254 254 254 254 254 254 254 254 254 
254 254 254 254 254 254 254 254 254 254 254 254 254 254 254 254 254 254 
254 254 254 254 253 254 253 253 253 252 252 253 251 239 225 253 253 253 
253 252 253 253 253 253 253 253 253 253 253 253 253 253 253 253 253 253 
253 253 253 253 253 253 253 253 253 253 253 253 253 253 253 253 253 253 
253 253 253 253 253 253 253 253 253 253 253 253 253 253 253 253 253 253 
253 253 253 253 253 253 253 253 252 252 253 253 253 253 251 253 253 252 
253 253 252 253 253 253 252 253 253 253 253 252 253 252 253 253 253 253 
253 253 253 253 253 253 253 253 253 253 253 253 253 253 253 253 253 253 
253 253 253 253 253 253 253 253 253 253 253 253 253 253 253 253 253 253 
253 253 253 253 253 253 253 253 253 253 253 253 253 253 253 253 253 253 
253 253 253 253 253 253 253 253 253 253 253 253 253 253 253 253 253 253 
253 253 253 253 253 253 253 253 253 253 253 253 253 253 253 253 253 253 
253 253 253 253 253 253 253 253 253 253 253 253 253 253 253 253 253 253 
253 253 253 253 253 253 253 253 253 253 253 254 254 254 254 254 254 254 
254 254 254 254 254 254 254 254 254 254 254 254 254 254 254 254 254 254 
254 254 254 254 254 254 254 254 254 254 254 254 254 254 254 254 254 254 
255 255 255 255 255 255 255 255 255 255 255 255 255 255 255 255 255 255 
255 255 255 255 255 255 255 255 255 255 255 254 254 254 254 254 254 254 
254 254 254 254 254 254 254 254 254 254 254 254 254 254 254 253 253 253 
253 253 253 253 253 253 253 253 253 253 253 253 253 253 253 253 253 253 
253 253 253 253 253 253 252 252 252 252 252 251 252 251 252 251 252 252 
251 251 251 252 252 251 252 251 252 223 252 242 215 212 215 252 251 251 
252 252 251 252 252 252 252 252 252 252 251 251 251 251 251 251 251 251 
251 251 251 251 251 251 251 251 251 251 251 251 251 251 251 251 251 251 
251 251 251 251 251 251 251 251 251 251 251 251 251 251 251 251 251 251 
251 251 251 251 251 251 251 251 251 251 251 251 251 251 251 251 186 251 
250 250 250 251 251 250 251 251 251 250 251 251 250 250 251 251 251 251 
251 251 251 251 251 251 251 251 251 251 251 251 251 251 251 251 251 251 
251 251 251 251 251 251 251 251 251 251 251 251 251 251 251 251 251 251 
251 251 251 251 251 251 251 251 251 251 251 251 251 251 251 251 251 251 
251 251 251 251 251 251 251 251 251 251 251 251 251 251 251 251 251 251 
251 251 251 251 251 251 251 251 251 251 251 251 251 251 251 251 251 251 
251 251 251 251 251 251 251 251 251 251 251 251 251 251 252 252 252 252 
252 252 252 252 252 252 252 252 252 252 252 252 252 252 252 252 252 252 
252 252 252 252 252 252 253 253 253 253 253 253 253 253 253 253 253 253 
253 253 253 253 253 253 253 253 253 254 254 254 254 254 254 254 254 254 
254 254 254 254 254 254 254 254 254 255 255 255 255 255 255 255 255 255 
255 255 255 255 255 255 255 254 254 254 254 254 254 254 254 254 254 254 
254 254 254 253 253 253 253 253 253 253 253 253 253 253 253 253 253 253 
253 252 252 252 252 252 252 252 252 252 252 252 252 252 252 252 252 252 
251 251 251 251 251 251 251 251 251 251 250 251 251 251 251 251 251 251 
251 251 250 250 251 250 250 227 127  59 209 210 212 212 210 245 250 250 
250 250 249 250 250 249 250 250 250 250 250 250 250 250 250 250 250 250 
250 250 249 249 249 249 249 249 249 249 249 249 249 249 249 249 249 249 
249 249 249 249 249 249 249 249 249 249 249 249 249 249 249 249 249 249 
249 249 249 249 249 249 249 249 249 249 248 248 249 249 247 249  70  67 
166 249 248 249 248 248 248 249 249 249 249 248 249 249 249 249 249 249 
249 249 249 249 249 249 249 249 249 249 249 249 249 249 249 249 249 249 
249 249 249 249 249 249 249 249 249 249 249 249 249 249 249 249 249 249 
249 249 249 249 249 249 249 249 249 249 249 249 249 249 249 249 249 249 
249 249 249 249 249 249 249 249 249 249 249 249 249 249 249 249 249 249 
249 249 249 249 249 249 249 249 249 249 249 249 249 249 249 249 249 249 
249 249 249 249 249 249 249 249 250 250 250 250 250 250 250 250 250 250 
250 250 250 250 250 250 250 250 250 250 250 250 251 251 251 251 251 251 
251 251 251 251 251 251 251 251 251 251 252 252 252 252 252 252 252 252 
252 252 252 252 252 252 253 253 253 253 253 253 253 253 253 253 253 253 
254 254 254 254 254 254 254 254 254 254 254 254 255 255 255 255 255 255 
255 255 255 255 255 254 254 254 254 254 254 254 254 254 254 254 253 253 
253 253 253 253 253 253 253 253 253 252 252 252 252 252 252 252 252 252 
252 252 252 251 251 251 251 251 251 251 251 251 251 251 251 251 250 250 
250 250 250 250 250 250 250 250 250 250 250 249 250 249 249 248 249 249 
249 247 249 248 248 248 182  64  73  69 147 213 210 212 211 229 248 248 
248 248 248 248 248 248 248 248 248 248 248 248 248 248 248 248 248 248 
248 248 248 248 248 248 248 248 247 247 247 247 247 247 247 247 247 247 
247 247 247 247 247 247 247 247 247 247 247 247 247 247 247 247 247 247 
247 247 247 247 247 247 247 247 247 247 247 247 246 247 247 243  40  53 
 50  82 232 211 241 246 246 246 245 246 246 246 247 247 247 247 247 247 
246 246 246 246 246 246 246 246 246 246 246 246 246 246 246 246 246 246 
246 246 246 246 246 246 246 246 246 246 246 246 246 246 246 246 246 246 
246 246 246 246 246 246 246 246 246 246 246 246 246 246 246 246 246 246 
246 246 246 246 247 247 247 247 247 247 247 247 247 247 247 247 247 247 
247 247 247 247 247 247 247 247 247 247 247 247 247 247 247 247 247 247 
247 247 247 247 248 248 248 248 248 248 248 248 248 248 248 248 248 248 
248 248 248 248 248 249 249 249 249 249 249 249 249 249 249 249 249 249 
250 250 250 250 250 250 250 250 250 250 250 250 251 251 251 251 251 251 
251 251 251 251 252 252 252 252 252 252 252 252 252 252 253 253 253 253 
253 253 253 253 253 254 254 254 254 254 254 254 254 254 255 255 255 255 
255 255 255 255 254 254 254 254 254 254 254 254 253 253 253 253 253 253 
253 253 253 252 252 252 252 252 252 252 252 252 251 251 251 251 251 251 
251 251 251 251 250 250 250 250 250 250 250 250 250 250 250 249 249 249 
249 249 249 249 249 249 249 249 248 248 248 248 248 248 248 247 248 247 
247 248 247 248 247 119  71  71  72  71  89 214 208 209 208 212 247 246 
247 247 247 247 245 246 246 246 246 246 246 246 246 246 246 246 246 246 
246 246 246 246 246 246 246 246 246 246 246 246 245 245 245 245 245 245 
245 245 245 245 245 245 245 245 245 245 245 245 245 245 245 245 245 245 
245 245 245 245 245 245 245 245 245 245 245 245 245 245 245 168  45  52 
 50  51  60 164 207 221 245 244 243 244 244 242 244 244 244 244 244 244 
244 244 244 244 244 244 244 244 244 244 244 244 244 244 244 244 244 244 
244 244 244 244 244 244 244 244 244 244 244 244 244 244 244 244 244 244 
244 244 244 244 244 244 244 244 244 244 244 244 244 244 244 244 244 244 
244 244 244 244 244 244 244 244 244 244 245 245 245 245 245 245 245 245 
245 245 245 245 245 245 245 245 245 245 245 245 245 245 245 245 245 245 
245 245 246 246 246 246 246 246 246 246 246 246 246 246 246 246 246 246 
247 247 247 247 247 247 247 247 247 247 247 247 248 248 248 248 248 248 
248 248 248 248 249 249 249 249 249 249 249 249 249 250 250 250 250 250 
250 250 250 251 251 251 251 251 251 251 251 252 252 252 252 252 252 252 
252 253 253 253 253 253 253 253 254 254 254 254 254 254 254 255 255 255 
255 255 255 254 254 254 254 254 254 254 253 253 253 253 253 253 253 253 
252 252 252 252 252 252 252 251 251 251 251 251 251 251 251 250 250 250 
250 250 250 250 250 249 249 249 249 249 249 249 249 249 248 248 248 248 
248 248 248 248 248 247 247 247 247 247 247 247 246 246 247 247 242 238 
235 229 229 230 115  68  69  69  71  69  70 195 208 207 206 207 242 244 
245 245 245 245 245 245 245 245 245 244 244 244 244 244 244 244 244 244 
244 244 244 244 244 244 244 244 244 244 244 244 244 244 244 243 243 243 
243 243 243 243 243 243 243 243 243 243 243 243 243 243 243 243 243 243 
243 243 243 243 243 243 243 243 243 242 243 243 242 243 243  90  48  51 
 49  49  50  49 167 204 210 237 241 241 242 241 242 242 242 242 242 242 
242 242 242 242 242 242 242 242 242 242 242 242 242 242 242 242 242 242 
242 242 242 242 242 242 242 242 242 242 242 242 242 242 242 242 242 242 
242 242 242 242 242 242 242 242 242 242 242 242 242 242 242 242 242 242 
242 242 242 242 242 242 242 242 242 242 242 242 242 242 243 243 243 243 
243 243 243 243 243 243 243 243 243 243 243 243 243 243 243 243 243 243 
244 244 244 244 244 244 244 244 244 244 244 244 244 244 245 245 245 245 
245 245 245 245 245 245 245 246 246 246 246 246 246 246 246 246 247 247 
247 247 247 247 247 247 248 248 248 248 248 248 248 248 249 249 249 249 
249 249 249 250 250 250 250 250 250 251 251 251 251 251 251 251 252 252 
252 252 252 252 253 253 253 253 253 253 254 254 254 254 254 255 255 255 
255 255 255 254 254 254 254 254 254 253 253 253 253 253 253 252 252 252 
252 252 252 251 251 251 251 251 251 251 250 250 250 250 250 250 249 249 
249 249 249 249 249 249 248 248 248 248 248 248 248 247 247 247 247 247 
247 247 247 246 246 246 246 246 246 246 245 245 245 245 240 208 207 207 
207 206 208  94  67  67  67  68  68  70  69 169 204 206 206 206 230 243 
242 243 243 243 243 242 243 243 243 243 243 243 243 243 242 242 242 242 
242 242 242 242 242 242 242 242 242 242 242 242 242 242 242 242 242 241 
241 241 241 241 241 241 241 241 241 241 241 241 241 241 241 241 241 241 
241 241 241 241 241 241 241 241 241 240 241 241 240 241 227  60  46  48 
 48  47  47  46  47 168 201 202 237 240 240 240 239 239 240 240 240 240 
240 240 240 240 240 240 240 240 240 240 240 240 240 240 240 240 240 240 
240 240 240 240 240 240 240 240 240 240 240 240 240 240 240 240 240 240 
240 240 240 240 240 240 240 240 240 240 240 240 240 240 240 240 240 240 
240 240 240 240 240 240 240 240 240 240 240 240 240 240 240 240 241 241 
241 241 241 241 241 241 241 241 241 241 241 241 241 241 241 241 241 242 
242 242 242 242 242 242 242 242 242 242 242 242 243 243 243 243 243 243 
243 243 243 243 244 244 244 244 244 244 244 244 245 245 245 245 245 245 
245 246 246 246 246 246 246 246 247 247 247 247 247 247 248 248 248 248 
248 248 249 249 249 249 249 249 250 250 250 250 250 251 251 251 251 251 
251 252 252 252 252 252 253 253 253 253 253 254 254 254 254 254 255 255 
255 255 254 254 254 254 254 254 253 253 253 253 253 252 252 252 252 252 
251 251 251 251 251 251 250 250 250 250 250 250 249 249 249 249 249 249 
248 248 248 248 248 248 247 247 247 247 247 247 247 246 246 246 246 246 
246 246 245 245 245 245 245 245 245 244 244 244 243 210 182 143 127 125 
133 149 132  66  67  66  66  67  67  66  64 118 207 205 204 203 216 242 
241 242 242 241 241 241 241 241 241 241 241 241 241 241 241 241 241 240 
240 240 240 240 240 240 240 240 240 240 240 240 240 240 240 240 240 240 
240 239 239 239 239 239 239 239 239 239 239 239 239 239 239 239 239 239 
239 239 239 239 239 239 239 239 239 239 238 238 239 237 193  43  44  45 
 46  44  46  44  45  64 156 130 125 140 147 166 196 235 238 238 238 238 
238 238 238 238 238 238 238 238 238 238 238 238 238 238 238 238 238 238 
238 238 238 238 238 238 238 238 238 238 238 238 238 238 238 238 238 238 
238 238 238 238 238 238 238 238 238 238 238 238 238 238 238 238 238 238 
238 238 238 238 238 238 238 238 238 238 238 238 238 238 238 238 238 238 
239 239 239 239 239 239 239 239 239 239 239 239 239 239 239 239 240 240 
240 240 240 240 240 240 240 240 240 241 241 241 241 241 241 241 241 241 
241 242 242 242 242 242 242 242 243 243 243 243 243 243 243 244 244 244 
244 244 244 245 245 245 245 245 245 246 246 246 246 246 246 247 247 247 
247 247 248 248 248 248 248 249 249 249 249 249 250 250 250 250 251 251 
251 251 251 252 252 252 252 253 253 253 253 253 254 254 254 254 255 255 
255 255 254 254 254 254 254 253 253 253 253 252 252 252 252 252 251 251 
251 251 251 250 250 250 250 250 249 249 249 249 249 248 248 248 248 248 
248 247 247 247 247 247 246 246 246 246 246 246 245 245 245 245 245 245 
244 244 244 244 244 244 244 243 243 243 209 115  60  62  61  65  67  67 
 65  64  64  65  65  65  65  65  67  65  64  63 205 203 202 201 201 239 
240 240 240 240 240 240 240 239 239 239 239 239 239 239 239 239 239 239 
239 239 238 238 238 237 238 237 238 238 237 238 237 238 238 237 238 238 
237 238 237 237 237 236 236 237 237 236 237 237 237 237 237 237 237 237 
237 237 237 237 237 237 237 237 237 237 236 236 235 235  99  42  42  43 
 42  43  43  42  43  42  38  40  42  42  40  39  36  33  78 169 236 236 
236 236 235 236 236 236 236 236 236 236 236 236 236 236 236 236 236 236 
236 236 236 236 236 236 236 236 236 236 236 236 236 236 236 236 236 236 
236 236 236 236 236 236 236 236 236 236 236 236 236 236 236 236 236 236 
236 236 236 236 236 236 236 236 236 236 236 236 236 236 236 236 236 236 
236 237 237 237 237 237 237 237 237 237 237 237 237 237 237 238 238 238 
238 238 238 238 238 238 238 238 239 239 239 239 239 239 239 239 240 240 
240 240 240 240 240 241 241 241 241 241 241 241 242 242 242 242 242 242 
243 243 243 243 243 244 244 244 244 244 245 245 245 245 245 246 246 246 
246 246 247 247 247 247 248 248 248 248 249 249 249 249 249 250 250 250 
250 251 251 251 251 252 252 252 252 253 253 253 253 254 254 254 255 255 
255 255 254 254 254 254 253 253 253 253 252 252 252 252 252 251 251 251 
251 250 250 250 250 249 249 249 249 249 248 248 248 248 248 247 247 247 
247 247 246 246 246 246 246 245 245 245 245 245 244 244 244 244 244 243 
243 243 243 243 243 242 242 242 242 242 199  65  65  64  67  67  66  64 
 65  64  64  64  64  65  64  63  63  62  62  60 132 203 200 201 200 217 
238 237 238 238 237 238 238 238 238 238 237 237 237 237 237 237 237 237 
237 237 237 237 237 236 236 236 236 235 236 236 236 235 236 235 236 235 
236 235 236 235 234 235 235 235 234 234 235 235 235 235 235 235 235 235 
235 235 235 235 235 235 235 235 234 234 234 232 234 212  33  41  40  41 
 41  42  41  40  40  38  40  40  41  40  41  38  41  39  39 116 230 234 
234 234 232 234 234 234 234 234 234 234 234 234 234 234 234 234 234 234 
233 233 233 233 233 233 233 233 233 233 233 233 233 233 233 233 233 233 
233 233 233 233 233 233 233 233 233 234 234 234 234 234 234 234 234 234 
234 234 234 234 234 234 234 234 234 234 234 234 234 234 234 234 234 234 
234 235 235 235 235 235 235 235 235 235 235 235 235 235 235 236 236 236 
236 236 236 236 236 236 237 237 237 237 237 237 237 237 238 238 238 238 
238 238 238 239 239 239 239 239 239 240 240 240 240 240 241 241 241 241 
241 241 242 242 242 242 243 243 243 243 243 244 244 244 244 245 245 245 
245 246 246 246 246 247 247 247 247 248 248 248 248 249 249 249 249 250 
250 250 251 251 251 251 252 252 252 252 253 253 253 254 254 254 254 255 
255 255 254 254 254 253 253 253 253 252 252 252 252 251 251 251 251 250 
250 250 250 249 249 249 249 248 248 248 248 248 247 247 247 247 246 246 
246 246 245 245 245 245 245 244 244 244 244 244 243 243 243 243 243 242 
242 242 242 242 241 241 241 241 241 241 240 123  60  63  64  63  62  62 
 62  62  62  62  61  63  62  62  61  63  63  62  75 194 199 199 199 202 
234 237 236 236 236 236 236 236 236 236 236 236 236 235 235 235 235 235 
235 235 235 235 234 234 235 233 234 234 233 233 233 234 234 234 233 234 
234 234 234 234 233 233 232 233 231 233 233 233 233 233 233 233 233 233 
233 233 233 233 233 233 233 233 233 232 231 231 232 117  38  38  39  39 
 39  39  39  39  39  39  39  38  38  38  40  40  38  39  44 189 190 194 
207 217 229 231 232 232 232 232 232 231 231 231 231 231 231 231 231 231 
231 231 231 231 231 231 231 231 231 231 231 231 231 231 231 231 231 231 
231 231 231 231 231 231 231 231 231 231 231 231 231 231 231 231 232 232 
232 232 232 232 232 232 232 232 232 232 232 232 232 232 232 232 232 232 
232 232 233 233 233 233 233 233 233 233 233 233 233 233 234 234 234 234 
234 234 234 234 234 235 235 235 235 235 235 235 236 236 236 236 236 236 
236 237 237 237 237 237 238 238 238 238 238 238 239 239 239 239 239 240 
240 240 240 241 241 241 241 242 242 242 242 243 243 243 243 244 244 244 
244 245 245 245 245 246 246 246 247 247 247 247 248 248 248 249 249 249 
249 250 250 250 251 251 251 252 252 252 253 253 253 253 254 254 254 255 
255 254 254 254 254 253 253 253 252 252 252 252 251 251 251 251 250 250 
250 249 249 249 249 248 248 248 248 247 247 247 247 246 246 246 246 245 
245 245 245 244 244 244 244 243 243 243 243 243 242 242 242 242 241 241 
241 241 241 240 240 240 240 240 239 239 238 238  75  61  61  63  63  63 
 62  61  61  61  61  61  61  61  61  60  60  60  58 167 200 196 197 196 
225 235 235 235 235 235 234 234 234 234 234 234 234 234 234 233 233 233 
233 233 233 233 232 232 232 233 233 226 231 232 231 232 231 232 232 231 
232 232 232 232 230 232 230 230 231 230 231 231 231 231 231 231 231 231 
231 231 231 231 231 231 231 231 230 228 229 230 228  52  37  37  37  37 
 37  37  37  37  37  37  37  37  37  37  36  39  36  32 163 193 192 191 
191 190 223 229 229 229 229 229 229 229 229 229 229 229 229 229 229 229 
229 229 229 229 229 229 229 229 229 229 229 229 229 229 229 229 229 229 
229 229 229 229 229 229 229 229 229 229 229 229 229 229 229 229 229 229 
229 230 230 230 230 230 230 230 230 230 230 230 230 230 230 230 230 230 
230 230 231 231 231 231 231 231 231 231 231 231 231 232 232 232 232 232 
232 232 232 232 233 233 233 233 233 233 233 234 234 234 234 234 234 235 
235 235 235 235 236 236 236 236 236 237 237 237 237 237 238 238 238 238 
239 239 239 239 240 240 240 240 241 241 241 241 242 242 242 242 243 243 
243 244 244 244 245 245 245 245 246 246 246 247 247 247 248 248 248 249 
249 249 250 250 250 251 251 251 252 252 252 253 253 253 254 254 254 255 
255 254 254 254 253 253 253 253 252 252 252 251 251 251 250 250 250 250 
249 249 249 248 248 248 248 247 247 247 246 246 246 246 245 245 245 245 
244 244 244 243 243 243 243 242 242 242 242 241 241 241 241 241 240 240 
240 240 239 239 239 239 239 238 238 238 238 237 158  60  61  62  62  61 
 61  60  60  60  60  59  59  59  59  59  60  57  57  72 200 197 197 194 
199 232 233 232 233 233 233 233 232 232 232 232 232 232 232 232 232 232 
231 231 231 231 231 189 188 192 204 195 193 194 203 209 224 230 230 214 
198 191 186 200 221 210 206 208 226 229 229 229 229 229 229 229 229 229 
229 229 229 229 229 229 229 229 228 227 227 227 130  29  35  34  35  35 
 35  35  35  35  34  34  35  36  36  37  34  33  34  65 190 189 190 189 
188 215 226 226 227 227 227 227 227 227 227 227 227 227 227 227 227 227 
227 227 227 227 227 227 227 227 227 227 227 227 227 227 227 227 227 227 
227 227 227 227 227 227 227 227 227 227 227 227 227 227 227 227 227 227 
227 227 227 227 228 228 228 228 228 228 228 228 228 228 228 228 228 228 
228 228 229 229 229 229 229 229 229 229 229 229 229 230 230 230 230 230 
230 230 230 231 231 231 231 231 231 232 232 232 232 232 232 233 233 233 
233 233 234 234 234 234 234 235 235 235 235 235 236 236 236 236 237 237 
237 237 238 238 238 239 239 239 239 240 240 240 241 241 241 241 242 242 
242 243 243 243 244 244 244 245 245 245 246 246 246 247 247 247 248 248 
248 249 249 250 250 250 251 251 251 252 252 252 253 253 254 254 254 255 
255 254 254 254 253 253 253 252 252 252 251 251 251 250 250 250 250 249 
249 249 248 248 248 247 247 247 246 246 246 245 245 245 245 244 244 244 
243 243 243 243 242 242 242 241 241 241 241 240 240 240 240 239 239 239 
239 238 238 238 238 238 237 237 237 237 236 235 236  63  59  61  59  59 
 59  59  58  58  58  58  58  58  58  58  57  57  56  54 142 192 194 194 
193 217 231 231 231 231 231 231 231 231 231 230 230 230 230 230 230 230 
230 229 229 229 229 191 176 176 176 174 177 185 189 189 187 189 173 174 
175 177 175 185 188 189 190 199 227 227 227 227 227 227 227 227 227 227 
227 227 227 227 227 227 227 227 226 225 225 209  27  32  32  33  33  33 
 33  33  33  33  33  34  33  33  34  34  34  32  27 147 188 186 186 186 
194 224 224 225 225 225 225 225 225 225 225 225 225 225 225 225 225 225 
225 225 225 225 225 225 225 225 225 225 225 225 225 225 225 225 225 225 
225 225 225 225 225 225 225 225 225 225 225 225 225 225 225 225 225 225 
225 225 225 225 225 225 226 226 226 226 226 226 226 226 226 226 226 226 
226 226 227 227 227 227 227 227 227 227 227 227 228 228 228 228 228 228 
228 228 229 229 229 229 229 229 230 230 230 230 230 230 231 231 231 231 
231 232 232 232 232 233 233 233 233 234 234 234 234 235 235 235 235 236 
236 236 236 237 237 237 238 238 238 239 239 239 239 240 240 240 241 241 
241 242 242 242 243 243 244 244 244 245 245 245 246 246 246 247 247 248 
248 248 249 249 250 250 250 251 251 251 252 252 253 253 253 254 254 255 
255 254 254 254 253 253 253 252 252 252 251 251 250 250 250 249 249 249 
248 248 248 247 247 247 246 246 246 245 245 245 244 244 244 244 243 243 
243 242 242 242 241 241 241 241 240 240 240 239 239 239 239 238 238 238 
238 237 237 237 237 236 236 236 236 235 234 235 233 174  53  57  60  59 
 56  57  57  57  57  56  56  56  56  56  55  55  54  54  71 197 193 192 
192 197 230 228 230 229 229 229 229 229 229 229 229 228 228 228 228 228 
228 228 228 228 227 198 174 175 174 175 173 174 175 179 173 171 174 172 
173 174 172 188 188 188 187 204 225 225 225 225 225 225 225 225 225 225 
225 225 225 225 225 225 225 225 222 224 224 119  30  31  31  32  31  31 
 31  31  31  31  31  31  31  31  31  31  32  30  64 192 185 185 184 183 
221 223 222 222 223 223 223 223 223 223 223 223 223 223 223 223 223 223 
223 223 223 223 223 223 223 223 223 223 223 223 223 223 223 223 223 223 
223 223 223 223 223 223 223 223 223 223 223 223 223 223 223 223 223 223 
223 223 223 223 223 223 223 224 224 224 224 224 224 224 224 224 224 224 
224 224 225 225 225 225 225 225 225 225 225 225 226 226 226 226 226 226 
226 227 227 227 227 227 227 228 228 228 228 228 229 229 229 229 229 230 
230 230 230 231 231 231 231 231 232 232 232 233 233 233 233 234 234 234 
235 235 235 235 236 236 236 237 237 237 238 238 238 239 239 239 240 240 
240 241 241 242 242 242 243 243 243 244 244 245 245 245 246 246 247 247 
247 248 248 249 249 250 250 250 251 251 252 252 252 253 253 254 254 255 
255 254 254 254 253 253 252 252 252 251 251 251 250 250 249 249 249 248 
248 248 247 247 247 246 246 246 245 245 244 244 244 243 243 243 242 242 
242 241 241 241 241 240 240 240 239 239 239 238 238 238 238 237 237 237 
236 236 236 236 235 235 235 235 234 234 234 234 231 227  72  59  55  57 
 56  56  56  55  55  55  55  55  54  55  54  54  52  53  49 119 195 192 
191 188 209 228 228 227 228 227 227 227 227 227 227 227 227 226 226 226 
226 226 226 226 226 202 172 173 173 173 173 174 173 172 174 172 173 172 
173 172 171 186 186 186 184 210 224 224 223 223 223 223 223 223 223 223 
223 223 223 223 223 223 223 223 221 222 197  23  29  29  28  29  29  29 
 29  29  29  29  29  29  29  29  30  29  29  27 145 183 183 182 182 202 
220 221 221 221 221 221 221 221 221 221 221 221 221 221 221 221 221 221 
221 221 221 221 221 221 221 221 221 221 221 221 221 221 221 221 221 221 
221 221 221 221 221 221 221 221 221 221 221 221 221 221 221 221 221 221 
221 221 221 221 221 221 221 221 222 222 222 222 222 222 222 222 222 222 
222 222 223 223 223 223 223 223 223 223 223 224 224 224 224 224 224 224 
225 225 225 225 225 225 226 226 226 226 226 227 227 227 227 227 228 228 
228 228 229 229 229 229 230 230 230 230 231 231 231 232 232 232 233 233 
233 233 234 234 234 235 235 236 236 236 237 237 237 238 238 238 239 239 
240 240 240 241 241 242 242 242 243 243 244 244 244 245 245 246 246 247 
247 247 248 248 249 249 250 250 251 251 251 252 252 253 253 254 254 255 
255 254 254 253 253 253 252 252 251 251 251 250 250 250 249 249 248 248 
248 247 247 246 246 246 245 245 245 244 244 243 243 243 242 242 242 241 
241 241 240 240 240 239 239 239 238 238 238 237 237 237 236 236 236 236 
235 235 235 234 234 234 234 233 233 233 233 232 231 232 114  53  54  56 
 55  54  54  54  54  53  53  53  53  53  53  52  51  51  52  51 165 189 
188 189 189 218 226 226 226 226 225 226 225 225 225 225 225 225 225 224 
224 224 224 224 223 206 171 170 171 171 171 172 171 171 171 171 171 170 
170 170 170 183 184 184 182 214 222 222 222 221 221 221 221 221 221 221 
221 221 220 221 221 220 220 220 219 217  50  27  27  28  27  27  27  27 
 27  27  27  27  27  27  27  27  27  27  24  36 174 180 181 180 181 216 
217 219 218 219 219 219 219 219 219 219 219 219 219 219 219 219 219 219 
219 219 219 219 219 219 219 219 219 219 219 219 219 219 219 219 219 219 
219 219 219 219 219 219 219 219 219 219 219 219 219 219 219 219 219 219 
219 219 219 219 219 219 219 219 219 220 220 220 220 220 220 220 220 220 
220 220 221 221 221 221 221 221 221 221 222 222 222 222 222 222 222 223 
223 223 223 223 223 224 224 224 224 224 225 225 225 225 226 226 226 226 
227 227 227 227 228 228 228 228 229 229 229 230 230 230 231 231 231 232 
232 232 233 233 233 234 234 234 235 235 235 236 236 237 237 237 238 238 
239 239 239 240 240 241 241 242 242 242 243 243 244 244 245 245 246 246 
246 247 247 248 248 249 249 250 250 251 251 252 252 253 253 254 254 255 
255 254 254 253 253 253 252 252 251 251 250 250 250 249 249 248 248 248 
247 247 246 246 246 245 245 244 244 244 243 243 242 242 242 241 241 241 
240 240 239 239 239 238 238 238 237 237 237 236 236 236 235 235 235 234 
234 234 234 233 233 233 232 232 232 232 230 231 230 229 207  40  53  53 
 53  53  53  52  52  52  52  52  51  51  51  51  49  49  49  49  77 194 
187 187 186 194 225 222 224 224 224 224 224 223 223 223 223 223 223 223 
223 222 222 222 222 206 168 170 171 169 169 169 169 169 169 169 169 169 
168 168 168 181 181 182 179 217 220 220 220 220 219 219 219 219 219 219 
218 219 219 219 218 219 219 218 217 136  24  24  27  25  25  25  25  25 
 25  25  25  25  25  25  25  25  24  24  20  86 183 178 179 176 196 216 
217 217 217 217 217 217 217 217 217 217 217 217 217 217 217 217 217 217 
217 217 217 217 217 217 217 217 217 216 216 216 216 216 216 216 216 216 
216 217 217 217 217 217 217 217 217 217 217 217 217 217 217 217 217 217 
217 217 217 217 217 217 217 217 217 218 218 218 218 218 218 218 218 218 
218 218 219 219 219 219 219 219 219 219 220 220 220 220 220 220 221 221 
221 221 221 221 222 222 222 222 222 223 223 223 223 224 224 224 224 225 
225 225 225 226 226 226 227 227 227 228 228 228 228 229 229 229 230 230 
231 231 231 232 232 232 233 233 234 234 234 235 235 236 236 236 237 237 
238 238 239 239 239 240 240 241 241 242 242 243 243 244 244 245 245 246 
246 246 247 247 248 248 249 249 250 250 251 251 252 252 253 254 254 255 
255 254 254 253 253 252 252 251 251 251 250 250 249 249 248 248 248 247 
247 246 246 245 245 245 244 244 243 243 243 242 242 241 241 241 240 240 
239 239 239 238 238 238 237 237 236 236 236 235 235 235 234 234 234 233 
233 233 232 232 232 231 231 231 231 230 230 230 229 229 229  84  50  53 
 52  52  51  51  51  51  50  50  50  50  49  49  49  49  49  47  43 108 
186 185 184 183 204 222 222 222 222 222 222 221 222 221 221 221 221 221 
221 221 220 220 220 206 166 169 169 168 167 167 167 167 167 167 167 167 
167 167 168 179 180 180 177 218 218 218 218 218 218 217 217 217 217 217 
217 217 217 217 217 217 215 216 182  12  23  23  23  23  25  24  23  23 
 23  23  23  23  23  23  24  23  22  22  15 166 177 177 177 178 215 215 
215 215 215 214 215 215 215 215 215 215 215 215 215 215 215 215 215 215 
215 215 215 214 214 214 214 214 214 214 214 214 214 214 214 214 214 214 
214 214 214 214 214 214 214 215 215 215 215 215 215 215 215 215 215 215 
215 215 215 215 215 215 215 215 215 215 216 216 216 216 216 216 216 216 
216 216 217 217 217 217 217 217 217 218 218 218 218 218 218 218 219 219 
219 219 219 220 220 220 220 220 221 221 221 221 222 222 222 222 223 223 
223 224 224 224 224 225 225 225 226 226 226 227 227 227 228 228 228 229 
229 230 230 230 231 231 232 232 232 233 233 234 234 234 235 235 236 236 
237 237 238 238 239 239 240 240 241 241 241 242 242 243 243 244 244 245 
246 246 247 247 248 248 249 249 250 250 251 251 252 252 253 253 254 254 
255 254 254 253 253 252 252 251 251 250 250 249 249 249 248 248 247 247 
246 246 245 245 245 244 244 243 243 242 242 241 241 241 240 240 239 239 
239 238 238 237 237 237 236 236 235 235 235 234 234 234 233 233 233 232 
232 232 231 231 231 230 230 230 229 229 228 228 227 227 227 158  50  51 
 50  49  50  50  49  49  49  49  48  48  48  48  47  47  47  46  48  46 
159 184 184 185 182 213 221 221 221 220 219 220 220 220 220 219 219 219 
219 219 219 219 217 204 164 166 167 167 166 166 165 165 165 165 165 165 
165 165 167 177 178 177 175 216 214 216 216 216 216 216 215 215 215 215 
214 213 215 215 215 214 214 213  45  21  19  21  21  22  22  21  21  21 
 21  21  21  21  21  21  22  20  21  18  52 178 175 174 174 191 213 211 
213 212 213 213 213 213 213 213 213 213 213 213 213 213 213 213 213 212 
212 212 212 212 212 212 212 212 212 212 212 212 212 212 212 212 212 212 
212 212 212 212 212 212 212 212 212 213 213 213 213 213 213 213 213 213 
213 213 213 213 213 213 213 213 213 213 214 214 214 214 214 214 214 214 
214 214 215 215 215 215 215 215 215 216 216 216 216 216 216 217 217 217 
217 217 218 218 218 218 218 219 219 219 219 220 220 220 221 221 221 221 
222 222 222 223 223 223 224 224 224 225 225 225 226 226 226 227 227 227 
228 228 229 229 229 230 230 231 231 232 232 233 233 233 234 234 235 235 
236 236 237 237 238 238 239 239 240 240 241 241 242 242 243 243 244 244 
245 246 246 247 247 248 248 249 249 250 251 251 252 252 253 253 254 254 
255 254 254 253 253 252 252 251 251 250 250 249 249 248 248 247 247 246 
246 245 245 244 244 244 243 243 242 242 241 241 240 240 240 239 239 238 
238 237 237 237 236 236 235 235 235 234 234 233 233 233 232 232 231 231 
231 230 230 230 229 229 229 228 228 228 227 227 226 226 226 196  55  48 
 48  48  48  48  48  48  47  47  47  47  46  46  46  46  44  44  43  44 
 48 165 182 180 181 182 217 219 219 219 219 218 218 218 218 218 218 217 
217 217 217 217 216 202 162 163 164 164 164 164 164 163 163 163 163 163 
163 163 165 176 176 175 177 214 214 214 214 214 214 214 214 213 213 213 
213 213 212 213 213 212 213  74  15  18  21  19  18  21  18  19  19  19 
 19  19  19  19  19  19  19  20  17  18  96 174 172 173 172 201 211 211 
211 211 211 211 211 211 211 211 211 211 211 211 211 211 211 210 210 210 
210 210 210 210 210 210 210 210 210 210 210 210 210 210 210 210 210 210 
210 210 210 210 210 210 210 210 210 210 210 211 211 211 211 211 211 211 
211 211 211 211 211 211 211 211 211 211 212 212 212 212 212 212 212 212 
212 213 213 213 213 213 213 213 214 214 214 214 214 214 215 215 215 215 
215 216 216 216 216 216 217 217 217 217 218 218 218 219 219 219 219 220 
220 220 221 221 221 222 222 222 223 223 223 224 224 225 225 225 226 226 
227 227 227 228 228 229 229 230 230 230 231 231 232 232 233 233 234 234 
235 235 236 236 237 237 238 238 239 240 240 241 241 242 242 243 243 244 
245 245 246 246 247 247 248 249 249 250 250 251 251 252 253 253 254 254 
255 254 253 253 252 252 251 251 250 250 249 249 248 248 247 247 246 246 
245 245 244 244 244 243 243 242 242 241 241 240 240 239 239 238 238 237 
237 237 236 236 235 235 234 234 234 233 233 232 232 232 231 231 230 230 
230 229 229 229 228 228 228 227 227 226 226 226 224 225 223 219  56  50 
 47  46  47  47  46  46  46  46  45  45  45  45  44  44  44  44  44  42 
 42  64 178 181 180 181 187 217 217 216 216 217 217 216 216 216 216 216 
216 215 215 215 215 198 162 162 162 163 162 162 162 162 162 161 161 161 
161 161 162 174 176 173 176 212 212 212 212 212 212 212 212 212 211 211 
211 210 210 211 208 211 109  17  18  17  17  17  17  18  18  17  17  17 
 17  17  17  17  17  17  18  17  15  13 130 171 171 170 173 209 209 209 
209 209 209 209 209 209 209 209 209 209 209 209 209 209 208 208 208 208 
208 208 208 208 208 208 208 208 208 208 208 208 208 208 208 208 208 208 
208 208 208 208 208 208 208 208 208 208 208 208 209 209 209 209 209 209 
209 209 209 209 209 209 209 209 209 209 210 210 210 210 210 210 210 210 
210 211 211 211 211 211 211 211 212 212 212 212 212 213 213 213 213 213 
214 214 214 214 214 215 215 215 215 216 216 216 217 217 217 217 218 218 
218 219 219 219 220 220 220 221 221 222 222 222 223 223 224 224 224 225 
225 226 226 227 227 227 228 228 229 229 230 230 231 231 232 232 233 233 
234 234 235 236 236 237 237 238 238 239 239 240 241 241 242 242 243 243 
244 245 245 246 246 247 248 248 249 249 250 251 251 252 253 253 254 254 
254 254 253 253 252 252 251 251 250 250 249 249 248 248 247 247 246 246 
245 245 244 244 243 243 242 242 241 241 240 240 239 239 238 238 237 237 
236 236 235 235 234 234 234 233 233 232 232 231 231 231 230 230 229 229 
229 228 228 227 227 227 226 226 226 225 224 224 224 224 224 222  91  44 
 45  45  46  45  45  45  44  44  44  44  43  43  43  43  42  42  42  41 
 41  39  67 179 177 179 176 187 215 214 215 215 214 215 214 214 214 214 
214 214 213 213 212 193 160 160 161 160 160 160 160 160 160 160 159 159 
159 159 159 172 173 173 172 210 210 209 210 210 210 210 210 210 210 209 
209 209 208 209 209 114  12  18  16  17  16  16  15  16  14  15  15  15 
 15  15  15  15  15  15  15  15  13   8 162 170 168 167 191 207 207 207 
207 207 207 207 207 207 207 207 207 207 207 207 207 206 206 206 206 206 
206 206 206 206 206 206 206 206 206 206 206 206 206 206 206 206 206 206 
206 206 206 206 206 206 206 206 206 206 206 206 206 207 207 207 207 207 
207 207 207 207 207 207 207 207 207 207 208 208 208 208 208 208 208 208 
209 209 209 209 209 209 209 210 210 210 210 210 210 211 211 211 211 212 
212 212 212 212 213 213 213 213 214 214 214 215 215 215 216 216 216 216 
217 217 218 218 218 219 219 219 220 220 221 221 221 222 222 223 223 224 
224 224 225 225 226 226 227 227 228 228 229 229 230 230 231 231 232 232 
233 234 234 235 235 236 236 237 238 238 239 239 240 241 241 242 242 243 
244 244 245 245 246 247 247 248 249 249 250 251 251 252 252 253 254 254 
254 254 253 253 252 252 251 251 250 249 249 248 248 247 247 246 246 245 
245 244 244 243 243 242 241 241 240 240 239 239 238 238 237 237 236 236 
235 235 235 234 234 233 233 232 232 231 231 230 230 230 229 229 228 228 
227 227 227 226 226 225 225 225 224 224 224 223 223 223 222 221 156  38 
 44  44  44  44  44  43  43  43  42  42  42  42  41  41  41  41  40  39 
 39  40  39  81 178 178 175 175 191 214 213 213 213 213 213 213 212 212 
212 212 212 212 211 187 158 157 159 159 158 159 158 158 158 158 158 158 
157 157 155 171 171 172 167 209 208 207 208 208 208 208 208 208 208 208 
206 206 207 206 144  11  13  13  14  15  14  15  14  13  14  13  13  13 
 13  13  13  13  13  13  13  12  14  31 175 168 167 167 203 205 205 205 
205 205 205 204 205 205 205 205 205 205 205 205 205 204 204 204 204 204 
204 204 204 204 204 204 204 204 204 204 204 204 204 204 204 204 204 204 
204 204 204 204 204 204 204 204 204 204 204 204 204 205 205 205 205 205 
205 205 205 205 205 205 205 205 205 206 206 206 206 206 206 206 206 206 
207 207 207 207 207 207 208 208 208 208 208 208 209 209 209 209 209 210 
210 210 210 211 211 211 211 212 212 212 213 213 213 214 214 214 215 215 
215 216 216 216 217 217 217 218 218 219 219 220 220 220 221 221 222 222 
223 223 224 224 225 225 226 226 227 227 228 228 229 229 230 230 231 232 
232 233 233 234 234 235 236 236 237 237 238 239 239 240 241 241 242 242 
243 244 244 245 246 246 247 248 248 249 250 250 251 252 252 253 254 254 
254 254 253 253 252 252 251 250 250 249 249 248 248 247 246 246 245 245 
244 244 243 243 242 241 241 240 240 239 239 238 238 237 237 236 236 235 
235 234 234 233 233 232 232 231 231 230 230 229 229 229 228 228 227 227 
226 226 226 225 225 224 224 224 223 223 222 222 222 220 220 221 214  34 
 43  42  43  43  42  42  43  41  41  42  40  41  40  40  40  40  39  38 
 39  37  40  37  68 175 174 175 173 186 212 212 212 211 210 210 211 211 
209 209 209 210 210 180 155 156 157 158 157 157 156 156 156 156 156 156 
156 155 153 166 170 168 167 203 206 207 206 205 206 206 206 206 205 206 
206 205 204 123   8  12  11  12  12  12  13  11  12  10  13  11  12  11 
 11  13  12  11  11  11  12  11   7  85 169 165 164 171 202 203 203 203 
203 203 203 203 203 203 203 203 203 203 203 203 203 202 202 202 202 202 
202 202 202 202 202 202 202 202 202 202 202 202 202 202 202 202 202 202 
202 202 202 202 202 202 202 202 202 202 202 202 202 203 203 203 203 203 
203 203 203 203 203 203 203 203 203 204 204 204 204 204 204 204 204 205 
205 205 205 205 205 205 206 206 206 206 206 207 207 207 207 207 208 208 
208 208 209 209 209 209 210 210 210 211 211 211 212 212 212 213 213 213 
214 214 214 215 215 216 216 216 217 217 218 218 219 219 219 220 220 221 
221 222 222 223 223 224 224 225 226 226 227 227 228 228 229 229 230 231 
231 232 232 233 234 234 235 235 236 237 237 238 239 239 240 241 241 242 
243 243 244 245 245 246 247 247 248 249 249 250 251 252 252 253 254 254 
254 254 253 253 252 251 251 250 250 249 248 248 247 247 246 246 245 244 
244 243 243 242 242 241 240 240 239 239 238 238 237 237 236 235 235 234 
234 233 233 232 232 231 231 230 230 229 229 228 228 228 227 227 226 226 
225 225 224 224 224 223 223 222 222 222 221 220 220 220 220 219 218  53 
 41  41  42  41  41  40  41  40  40  40  40  38  39  39  39  37  37  37 
 37  35  35  36  36  72 170 173 173 172 188 210 210 209 209 209 209 208 
209 208 208 208 208 171 156 154 155 155 156 155 155 154 154 154 154 154 
154 154 152 161 167 168 165 197 205 204 204 204 203 203 203 203 204 202 
203 203 117  10  10  10  10  10  12  10  11  10  10  10   9  10   8   9 
  9   9   9   8   9   9   9   9   3 127 166 163 163 174 201 201 201 201 
201 201 201 201 201 201 201 201 201 201 201 201 201 200 200 200 200 200 
200 200 200 200 200 200 200 200 200 200 200 200 200 200 200 200 200 200 
200 200 200 200 200 200 200 200 200 200 200 200 200 201 201 201 201 201 
201 201 201 201 201 201 201 201 202 202 202 202 202 202 202 202 202 203 
203 203 203 203 203 204 204 204 204 204 205 205 205 205 205 206 206 206 
206 207 207 207 207 208 208 208 209 209 209 210 210 210 211 211 211 212 
212 213 213 213 214 214 215 215 215 216 216 217 217 218 218 219 219 220 
220 221 221 222 222 223 223 224 224 225 226 226 227 227 228 228 229 230 
230 231 232 232 233 233 234 235 235 236 237 237 238 239 239 240 241 241 
242 243 244 244 245 246 246 247 248 249 249 250 251 251 252 253 254 254 
254 254 253 253 252 251 251 250 249 249 248 248 247 246 246 245 245 244 
243 243 242 242 241 240 240 239 239 238 238 237 236 236 235 235 234 234 
233 233 232 232 231 231 230 229 229 228 228 227 227 227 226 226 225 225 
224 224 223 223 222 222 222 221 221 220 219 219 219 219 218 217 218  76 
 41  39  40  40  39  39  39  37  38  38  38  36  36  35  36  37  37  35 
 34  34  34  34  35  34  55 164 171 169 170 180 207 208 208 208 207 207 
207 207 207 205 206 157 153 153 154 153 153 153 153 153 153 152 152 152 
152 152 150 157 165 165 163 189 202 202 202 203 202 202 201 202 200 201 
201  99   5   8   8   8   8   8   7   8   8   9   6   9   9   6   7   7 
  7   7   7   7   8   7   7   8   3 158 160 164 159 187 199 199 199 199 
199 199 199 199 199 199 199 199 199 199 199 199 199 199 198 198 198 198 
198 198 198 198 198 198 198 198 198 198 198 198 198 198 198 198 198 198 
198 198 198 198 198 198 198 198 198 198 198 198 199 199 199 199 199 199 
199 199 199 199 199 199 199 199 200 200 200 200 200 200 200 200 201 201 
201 201 201 201 202 202 202 202 202 202 203 203 203 203 204 204 204 204 
205 205 205 205 206 206 206 207 207 207 208 208 208 209 209 209 210 210 
211 211 211 212 212 213 213 213 214 214 215 215 216 216 217 217 218 218 
219 219 220 220 221 222 222 223 223 224 224 225 226 226 227 227 228 229 
229 230 231 231 232 233 233 234 235 235 236 237 237 238 239 240 240 241 
242 242 243 244 245 245 246 247 248 248 249 250 251 251 252 253 254 254 
254 254 253 252 252 251 251 250 249 249 248 247 247 246 245 245 244 244 
243 242 242 241 241 240 239 239 238 238 237 236 236 235 235 234 234 233 
232 232 231 231 230 230 229 229 228 228 227 227 226 226 225 225 224 224 
223 223 222 222 221 221 220 220 220 219 219 218 218 217 217 216 216  98 
 40  38  39  38  38  38  37  35  38  36  41  33  34  35  35  35  34  33 
 34  35  31  32  32  32  32  43 143 170 169 167 174 204 205 204 206 206 
205 205 204 205 204 151 151 151 152 153 150 151 151 151 151 151 151 150 
150 150 148 150 164 164 161 180 201 201 201 199 201 201 200 200 199 197 
 55   3   7   6   6   7   6   8   6   8   5   5   6   5   3  11   4   5 
  6   5   5   5   6   5   7   5  13 157 160 160 157 195 197 197 197 197 
197 197 197 197 197 197 197 197 197 197 197 197 197 197 197 196 196 196 
196 196 196 196 196 196 196 196 196 196 196 196 196 196 196 196 196 196 
196 196 196 196 196 196 196 196 196 196 196 197 197 197 197 197 197 197 
197 197 197 197 197 197 197 198 198 198 198 198 198 198 198 199 199 199 
199 199 199 200 200 200 200 200 200 201 201 201 201 202 202 202 202 203 
203 203 203 204 204 204 205 205 205 206 206 206 207 207 207 208 208 209 
209 209 210 210 211 211 212 212 213 213 213 214 214 215 215 216 217 217 
218 218 219 219 220 220 221 222 222 223 223 224 225 225 226 227 227 228 
228 229 230 231 231 232 233 233 234 235 235 236 237 238 238 239 240 241 
241 242 243 244 244 245 246 247 247 248 249 250 250 251 252 253 253 254 
254 254 253 252 252 251 250 250 249 248 248 247 246 246 245 245 244 243 
243 242 241 241 240 239 239 238 238 237 236 236 235 235 234 233 233 232 
232 231 230 230 229 229 228 228 227 227 226 226 225 225 224 224 223 223 
222 222 221 221 220 220 219 219 218 218 217 217 217 216 216 215 215 115 
 37  37  37  37  37  36  36  35  34  33 104 100  31  34  33  34  33  33 
 32  33  33  32  30  32  30  30  29 119 168 168 167 169 197 203 203 204 
204 203 202 203 185 148 150 150 149 151 150 150 149 149 149 149 149 149 
148 148 147 146 161 162 163 171 197 199 199 199 199 198 198 199 171  33 
  2   4   5   5   6   5   4   4   4   3   4   3   5   1  38 151   6   3 
  3   3   3   4   5   3   2   4  22 154 158 157 160 195 195 195 195 195 
195 195 195 195 195 195 195 195 195 195 195 195 195 195 195 195 194 194 
194 194 194 194 194 194 194 194 194 194 194 194 194 194 194 194 194 194 
194 194 194 194 194 194 194 194 194 194 195 195 195 195 195 195 195 195 
195 195 195 195 195 195 196 196 196 196 196 196 196 196 197 197 197 197 
197 197 197 198 198 198 198 198 199 199 199 199 200 200 200 200 201 201 
201 201 202 202 202 203 203 203 204 204 204 205 205 205 206 206 207 207 
207 208 208 209 209 210 210 211 211 212 212 213 213 214 214 215 215 216 
216 217 217 218 219 219 220 220 221 222 222 223 224 224 225 226 226 227 
228 228 229 230 230 231 232 233 233 234 235 235 236 237 238 238 239 240 
241 242 242 243 244 245 245 246 247 248 249 249 250 251 252 253 253 254 
254 254 253 252 252 251 250 250 249 248 248 247 246 246 245 244 244 243 
242 242 241 240 240 239 238 238 237 236 236 235 235 234 233 233 232 231 
231 230 230 229 229 228 227 227 226 226 225 225 224 224 223 222 222 221 
221 220 220 219 219 219 218 218 217 217 216 216 214 215 215 214 213 128 
 36  35  36  37  35  35  35  33  35  27 121 174 136  32  32  31  31  31 
 31  29  32  30  31  29  31  28  29  27  65 169 165 163 165 185 202 202 
202 202 202 201 160 148 149 150 148 148 149 148 148 148 147 147 147 147 
147 147 145 146 154 159 160 164 198 197 197 196 197 196 197 126   6   2 
  2   2   3   3   3   2   4   5   1   2   2   2   0  69 157 166   8   2 
  3   2   1   1   2   1   1   1  30 154 156 155 168 194 194 193 193 193 
193 193 193 193 193 193 193 193 193 193 193 193 193 193 193 193 193 193 
192 192 192 192 192 192 192 192 192 192 192 192 192 192 192 192 192 192 
192 192 192 192 192 192 192 192 192 193 193 193 193 193 193 193 193 193 
193 193 193 193 193 194 194 194 194 194 194 194 194 194 195 195 195 195 
195 195 196 196 196 196 196 197 197 197 197 198 198 198 198 199 199 199 
199 200 200 200 201 201 201 202 202 202 203 203 203 204 204 205 205 206 
206 206 207 207 208 208 209 209 210 210 211 211 212 212 213 213 214 215 
215 216 216 217 217 218 219 219 220 221 221 222 223 223 224 225 225 226 
227 227 228 229 230 230 231 232 233 233 234 235 236 236 237 238 239 240 
240 241 242 243 244 244 245 246 247 248 248 249 250 251 252 253 253 254 
254 254 253 252 251 251 250 249 249 248 247 247 246 245 245 244 243 242 
242 241 240 240 239 238 238 237 236 236 235 235 234 233 233 232 231 231 
230 230 229 228 228 227 227 226 225 225 224 224 223 223 222 222 221 220 
220 219 219 218 218 217 217 216 216 216 215 215 213 214 213 212 211 140 
 35  34  35  35  34  34  33  31  31  27 143 169 172 156  61  28  32  28 
 29  31  27  29  27  28  27  27  26  28  23  40 117 170 162 162 170 197 
200 199 199 197 150 147 148 147 147 148 147 146 146 146 146 145 145 145 
145 145 145 146 148 159 157 159 194 196 196 195 195 174  56   6   2   2 
  0   1   2   2   2   1   2   0   2   1   0   2  97 158 154 162  11   0 
  0   1   1   1   1   1   1   0  32 153 152 155 173 192 192 192 192 191 
191 191 191 191 191 191 191 191 191 191 191 191 191 191 191 191 191 191 
191 191 190 190 190 190 190 190 190 190 190 190 190 190 190 190 190 190 
190 190 190 190 190 190 190 191 191 191 191 191 191 191 191 191 191 191 
191 191 191 191 192 192 192 192 192 192 192 192 192 193 193 193 193 193 
193 194 194 194 194 194 195 195 195 195 196 196 196 196 197 197 197 197 
198 198 198 199 199 199 200 200 200 201 201 201 202 202 203 203 204 204 
204 205 205 206 206 207 207 208 208 209 209 210 210 211 212 212 213 213 
214 214 215 216 216 217 218 218 219 220 220 221 222 222 223 224 224 225 
226 227 227 228 229 230 230 231 232 233 233 234 235 236 237 237 238 239 
240 241 242 242 243 244 245 246 247 247 248 249 250 251 252 252 253 254 
254 254 253 252 251 251 250 249 249 248 247 246 246 245 244 243 243 242 
241 241 240 239 239 238 237 237 236 235 235 234 233 233 232 231 231 230 
229 229 228 227 227 226 226 225 225 224 223 223 222 222 221 220 220 219 
219 218 218 217 217 216 216 215 215 214 214 213 212 212 212 212 210 147 
 33  33  33  34  33  32  32  30  33  24 168 168 166 189 205  82  29  29 
 28  26  26  27  27  27  26  26  26  24  25  23  22  68 153 162 161 157 
183 197 197 187 146 146 145 145 145 145 145 144 144 144 144 144 144 143 
143 143 144 144 144 155 157 153 182 194 193 187 122   6   0   1   0   0 
  1   1   0   1   1   1   1   0   1   2  16 139 155 152 152 160  32   2 
  2   3   2   1   2   4   3   2  34 149 153 151 178 190 190 190 190 190 
190 189 189 189 189 189 189 189 189 189 189 189 189 189 189 189 189 189 
189 189 189 189 189 188 188 188 188 188 188 188 188 188 188 188 188 188 
188 188 188 188 188 189 189 189 189 189 189 189 189 189 189 189 189 189 
189 189 189 190 190 190 190 190 190 190 190 190 191 191 191 191 191 191 
192 192 192 192 192 193 193 193 193 194 194 194 194 195 195 195 195 196 
196 196 197 197 197 198 198 198 199 199 200 200 200 201 201 202 202 202 
203 203 204 204 205 205 206 206 207 207 208 209 209 210 210 211 211 212 
213 213 214 215 215 216 216 217 218 219 219 220 221 221 222 223 223 224 
225 226 226 227 228 229 230 230 231 232 233 234 234 235 236 237 238 239 
239 240 241 242 243 244 245 245 246 247 248 249 250 251 252 252 253 254 
254 254 253 252 251 251 250 249 248 248 247 246 245 245 244 243 242 242 
241 240 240 239 238 237 237 236 235 235 234 233 233 232 231 231 230 229 
229 228 227 227 226 225 225 224 224 223 222 222 221 220 220 220 218 218 
216 217 217 216 216 215 215 214 214 213 213 212 212 211 211 210 210 145 
 32  32  32  32  31  31  30  29  30  35 169 167 165 198 204 202 161  31 
 25  25  26  24  25  26  24  24  25  22  22  23  23  21  29  83 167 158 
158 164 189 168 142 145 144 145 143 143 143 143 143 141 141 142 143 142 
142 141 141 142 139 150 155 153 161 192 140  24   4   2   3   3   3   1 
  2   1   1   2   4   4   4   3  13  79 149 153 150 151 157 188  67   4 
  4   4   3   4   4   3   3   5  38 149 151 149 180 187 188 188 188 188 
188 188 187 187 187 187 187 187 187 187 187 187 187 187 187 187 187 187 
187 187 187 187 187 187 187 187 187 187 187 187 186 186 186 186 187 187 
187 187 187 187 187 187 187 187 187 187 187 187 187 187 187 187 187 187 
187 187 188 188 188 188 188 188 188 188 188 189 189 189 189 189 189 190 
190 190 190 190 191 191 191 191 192 192 192 192 193 193 193 193 194 194 
194 195 195 195 196 196 196 197 197 198 198 198 199 199 200 200 201 201 
201 202 202 203 203 204 204 205 206 206 207 207 208 208 209 210 210 211 
211 212 213 213 214 215 215 216 217 217 218 219 220 220 221 222 223 223 
224 225 226 226 227 228 229 230 231 231 232 233 234 235 236 236 237 238 
239 240 241 242 242 243 244 245 246 247 248 249 250 251 251 252 253 254 
254 253 253 252 251 250 250 249 248 247 247 246 245 244 244 243 242 241 
241 240 239 238 238 237 236 236 235 234 233 233 232 231 231 230 229 229 
228 227 227 226 225 225 224 223 223 222 222 221 220 220 219 219 217 217 
217 215 216 215 214 214 214 213 213 212 212 211 211 210 210 208 209 144 
 31  30  32  30  30  30  29  28  27  52 167 164 168 200 202 201 200 200 
 89  24  24  24  25  22  22  24  23  22  22  21  21  22  21  17  27 107 
152 158 156 142 142 141 143 142 142 142 141 141 140 146 140 140 140 141 
139 141 140 140 139 141 153 156 119  46  14   6   2   3   3   3   4   4 
  3   5   2   5   4   4  10  27 123 155 151 149 152 169 188 186  95   6 
  6   6   5   7   6   5   6   6  37 147 148 149 179 186 186 186 186 186 
186 186 186 186 186 185 185 185 185 185 185 185 185 185 185 185 185 185 
185 185 185 185 185 185 185 185 185 185 185 185 185 185 185 185 185 185 
185 185 185 185 185 185 185 185 185 185 185 185 185 185 185 185 185 185 
185 186 186 186 186 186 186 186 186 187 187 187 187 187 187 187 188 188 
188 188 188 189 189 189 189 190 190 190 190 191 191 191 191 192 192 192 
193 193 193 194 194 194 195 195 196 196 196 197 197 198 198 199 199 199 
200 200 201 201 202 203 203 204 204 205 205 206 206 207 208 208 209 210 
210 211 212 212 213 214 214 215 216 216 217 218 219 219 220 221 222 222 
223 224 225 226 226 227 228 229 230 231 232 232 233 234 235 236 237 238 
239 239 240 241 242 243 244 245 246 247 248 249 249 250 251 252 253 254 
254 253 253 252 251 250 250 249 248 247 246 246 245 244 243 243 242 241 
240 239 239 238 237 236 236 235 234 234 233 232 231 231 230 229 229 228 
227 227 226 225 224 224 223 223 222 221 221 220 219 218 218 217 216 216 
215 214 214 214 214 213 212 212 211 210 210 210 209 208 208 208 206 143 
 28  29  31  29  29  28  28  26  26  68 166 164 168 200 201 200 198 200 
199 179  40  20  21  21  21  20  21  22  21  20  18  21  19  20  19  19 
 22  98 148 140 140 142 141 140 140 141 142 139 143 151 139 139 138 138 
139 139 138 138 136 138 125  18   4   5   5   5   4   6   4   3   6   4 
  5   7   6   7   7   8  97 149 148 148 146 159 186 186 185 186 124   8 
 10   7   7   7   8   8   8   8  35 147 147 148 178 184 184 184 184 184 
184 184 184 184 184 184 184 183 183 183 183 183 183 183 183 183 183 183 
183 183 183 183 183 183 183 183 183 183 183 183 183 183 183 183 183 183 
183 183 183 183 183 183 183 183 183 183 183 183 183 183 183 183 183 184 
184 184 184 184 184 184 184 184 185 185 185 185 185 185 185 186 186 186 
186 186 187 187 187 187 188 188 188 188 189 189 189 189 190 190 190 191 
191 191 192 192 192 193 193 194 194 194 195 195 196 196 197 197 198 198 
199 199 200 200 201 201 202 202 203 203 204 205 205 206 206 207 208 208 
209 210 210 211 212 212 213 214 215 215 216 217 218 218 219 220 221 222 
222 223 224 225 226 227 227 228 229 230 231 232 233 234 234 235 236 237 
238 239 240 241 242 243 244 245 246 246 247 248 249 250 251 252 253 254 
254 253 253 252 251 250 249 249 248 247 246 245 245 244 243 242 241 241 
240 239 238 238 237 236 235 234 234 233 232 231 231 230 229 229 228 227 
226 226 225 224 224 223 222 222 221 220 220 219 218 218 217 216 214 192 
214 214 214 213 212 212 211 211 210 210 209 209 207 207 207 207 206 142 
 26  27  28  28  27  27  27  25  26  87 163 160 175 200 199 199 199 198 
196 195 197 144  51  14  20  20  18  21  18  19  18  17  17  15  17  16 
 16  12  26  66 119 144 139 139 139 136 138 136 150 150 144 135 138 136 
136 135 142 137  72  21  11   8   6   6   6   7   7   7   5   7   7   8 
  8   7  12   2  75 140 150 146 144 159 176 183 183 183 184 184 148  10 
 10   9  10  10  10  10  10  11  28 144 144 146 178 181 182 182 182 182 
182 182 182 182 182 182 182 182 182 182 181 181 181 181 181 181 181 181 
181 181 181 181 181 181 181 181 181 181 181 181 181 181 181 181 181 181 
181 181 181 181 181 181 181 181 181 181 181 181 181 181 181 182 182 182 
182 182 182 182 182 182 182 183 183 183 183 183 183 184 184 184 184 184 
184 185 185 185 185 186 186 186 186 187 187 187 187 188 188 188 189 189 
189 190 190 190 191 191 192 192 192 193 193 194 194 195 195 196 196 197 
197 198 198 199 199 200 200 201 201 202 203 203 204 205 205 206 206 207 
208 209 209 210 211 211 212 213 214 214 215 216 217 218 218 219 220 221 
222 222 223 224 225 226 227 228 228 229 230 231 232 233 234 235 236 237 
238 239 240 241 241 242 243 244 245 246 247 248 249 250 251 252 253 254 
254 253 253 252 251 250 249 248 248 247 246 245 244 244 243 242 241 240 
239 239 238 237 236 236 235 234 233 232 232 231 230 229 229 228 227 226 
226 225 224 224 223 222 222 221 220 220 219 218 218 217 216 216 197 174 
196 213 212 212 211 211 210 209 209 209 208 208 207 205 205 205 205 128 
 26  26  27  27  26  26  25  24  21 116 161 159 190 197 198 196 197 194 
185 177 183 190 194 134  38  18  16  18  18  17  16  14  15  16  14  15 
 16  17  15  13   9  39 106 127 138 137 134 141 148 150 154 141 134 137 
130 115  52  14  10   7   7   7   6   8  10   7  10   6  10  10   8  10 
 12   1  55 148 146 144 145 151 176 183 182 180 181 182 182 182 172  12 
 10  10  11  10  12  11  12  12  20 141 143 144 178 181 181 181 180 180 
180 180 180 180 180 180 180 180 180 180 180 180 180 180 179 179 179 179 
179 179 179 179 179 179 179 179 179 179 179 179 179 179 179 179 179 179 
179 179 179 179 179 179 179 179 179 179 179 179 180 180 180 180 180 180 
180 180 180 180 180 181 181 181 181 181 181 181 182 182 182 182 182 182 
183 183 183 183 184 184 184 184 185 185 185 185 186 186 186 187 187 187 
188 188 188 189 189 190 190 190 191 191 192 192 193 193 194 194 195 195 
196 196 197 197 198 198 199 200 200 201 201 202 203 203 204 205 205 206 
207 207 208 209 210 210 211 212 213 213 214 215 216 217 217 218 219 220 
221 222 222 223 224 225 226 227 228 229 230 231 232 232 233 234 235 236 
237 238 239 240 241 242 243 244 245 246 247 248 249 250 251 252 253 254 
254 253 252 252 251 250 249 248 247 247 246 245 244 243 242 242 241 240 
239 238 237 237 236 235 234 233 233 232 231 230 230 229 228 227 227 226 
225 224 224 223 222 221 221 220 219 219 218 217 216 216 215 201 175 177 
174 210 212 210 210 210 209 209 208 207 207 206 206 205 205 204 203 116 
 26  25  26  25  25  24  24  22  18 144 160 160 197 196 196 196 166 161 
160 156 155 157 166 193 191 168  78   5  13  17  15  16  14  14  15  12 
 13  11  11  13  10  12   9  19  35  93 140 152 148 148 185 181 112  40 
  4   7   9   9  10   9  10   9   9  10  11  10  10  11  11   9  19  11 
104 138 144 144 142 161 177 181 180 173 175 181 181 181 180 180 180  14 
 14  13  11  12  13  13  13  14  12 139 142 142 175 179 179 179 179 179 
179 178 178 178 178 178 178 178 178 178 178 178 178 178 178 178 178 178 
177 177 177 177 177 177 177 177 177 177 177 177 177 177 177 177 177 177 
177 177 177 177 177 177 177 177 177 178 178 178 178 178 178 178 178 178 
178 178 178 179 179 179 179 179 179 179 179 180 180 180 180 180 181 181 
181 181 181 182 182 182 182 183 183 183 183 184 184 184 185 185 185 186 
186 186 187 187 188 188 188 189 189 190 190 191 191 192 192 193 193 194 
194 195 195 196 196 197 198 198 199 199 200 201 201 202 203 203 204 205 
206 206 207 208 208 209 210 211 212 212 213 214 215 216 216 217 218 219 
220 221 222 223 223 224 225 226 227 228 229 230 231 232 233 234 235 236 
237 238 239 240 241 242 243 244 245 246 247 248 249 250 251 252 253 254 
254 253 252 252 251 250 249 248 247 246 245 245 244 243 242 241 240 240 
239 238 237 236 235 235 234 233 232 231 231 230 229 228 227 227 226 225 
224 224 223 222 221 221 220 219 218 218 217 216 215 199 159 182 175 173 
173 177 209 210 209 209 208 208 206 206 206 205 205 204 204 203 203  99 
 24  24  24  24  24  23  23  21  29 167 158 173 196 184  80   7   9   9 
 52 122 159 154 153 161 191 191 191 185 116  65  26   5   9  13  14  12 
 11  11  13  10  12  10  10  10  10   4   6  43  90 114  49   6  17  11 
 10  10  10  10   9  10  11  10  12  11  12  15  18  11  20  60 117 152 
143 142 153 164 180 178 174  85   3  28  29  12 121 178 178 178 178  87 
 21  16  15  15  15  15  14  14   1 137 140 141 172 177 177 177 177 177 
177 177 177 177 176 176 176 176 176 176 176 176 176 176 176 176 176 176 
176 176 176 176 176 176 175 175 175 175 175 175 175 175 175 175 175 175 
175 175 175 176 176 176 176 176 176 176 176 176 176 176 176 176 176 176 
176 177 177 177 177 177 177 177 177 178 178 178 178 178 178 179 179 179 
179 179 180 180 180 180 181 181 181 181 182 182 182 183 183 183 184 184 
185 185 185 186 186 186 187 187 188 188 189 189 190 190 191 191 192 192 
193 193 194 194 195 196 196 197 198 198 199 199 200 201 202 202 203 204 
204 205 206 207 207 208 209 210 211 211 212 213 214 215 216 216 217 218 
219 220 221 222 223 224 225 226 227 227 228 229 230 231 232 233 234 235 
236 237 238 239 240 241 243 244 245 246 247 248 249 250 251 252 253 254 
254 253 252 251 251 250 249 248 247 246 245 244 244 243 242 241 240 239 
238 237 237 236 235 234 233 232 232 231 230 229 228 228 227 226 225 224 
224 223 222 221 221 220 219 218 218 217 216 216 215 137 127 160 174 172 
173 172 184 209 208 208 207 206 206 205 204 204 203 203 201 202 201  80 
 23  23  23  23  22  22  20  18  79 162 159 184 189  37  16  18  18  18 
 17  12 104 154 153 151 165 188 189 188 188 188 188 162  91  33  13  12 
 10   9   8   9   9   8   9   9   8  10  32  92 146 160 142  62   4   9 
 10  12  10  12  12  11  12  11  12  11   7  45 100 143 142 141 142 154 
169 179 178 176 177 177   9  17  15  16  15  16  16  97 148 172 177 166 
 24  17  17  17  18  16  16  17  10 134 137 139 169 175 175 175 175 175 
175 175 175 175 175 175 175 174 174 174 174 174 174 174 174 174 174 174 
174 174 174 174 174 174 174 174 174 174 174 174 174 174 174 174 174 174 
174 174 174 174 174 174 174 174 174 174 174 174 174 174 174 174 174 175 
175 175 175 175 175 175 175 176 176 176 176 176 176 177 177 177 177 177 
178 178 178 178 178 179 179 179 180 180 180 180 181 181 181 182 182 183 
183 183 184 184 184 185 185 186 186 187 187 188 188 189 189 190 190 191 
191 192 193 193 194 194 195 196 196 197 198 198 199 200 200 201 202 202 
203 204 205 206 206 207 208 209 210 210 211 212 213 214 215 216 216 217 
218 219 220 221 222 223 224 225 226 227 228 229 230 231 232 233 234 235 
236 237 238 239 240 241 242 243 244 245 246 248 249 250 251 252 253 254 
254 253 252 251 250 250 249 248 247 246 245 244 243 242 241 241 240 239 
238 237 236 235 234 234 233 232 231 230 229 229 228 227 226 225 225 224 
223 222 221 221 219 219 218 218 217 215 215 215 155 123 127 126 168 173 
172 171 167 184 206 206 206 205 205 204 204 202 202 202 201 201 200  61 
 23  21  23  22  22  21  20  18 136 157 156 194 137  16  15  16  15  15 
 15  16  10 110 150 150 150 184 188 187 186 187 186 185 185 186 182 134 
109 103  96  95  95  95  99 106 118 140 149 145 179 180 180 181 181 155 
102  95  89  88  87  86  93  98 107 130 146 142 157 166 169 172 177 177 
177 176 176 176 171  15  21  18  17  16  17  17  17   0 145 138 165 175 
  6  18  19  18  19  18  19  18  24 129 137 137 168 174 174 173 173 173 
173 173 173 173 173 173 173 173 173 173 173 172 172 172 172 172 172 172 
172 172 172 172 172 172 172 172 172 172 172 172 172 172 172 172 172 172 
172 172 172 172 172 172 172 172 172 172 172 172 172 172 173 173 173 173 
173 173 173 173 173 174 174 174 174 174 174 174 175 175 175 175 175 176 
176 176 176 177 177 177 177 178 178 178 179 179 179 180 180 180 181 181 
181 182 182 183 183 183 184 184 185 185 186 186 187 187 188 188 189 189 
190 191 191 192 192 193 194 194 195 196 196 197 198 198 199 200 201 201 
202 203 204 204 205 206 207 208 209 209 210 211 212 213 214 215 216 217 
218 218 219 220 221 222 223 224 225 226 227 228 229 230 231 232 233 234 
236 237 238 239 240 241 242 243 244 245 246 247 248 250 251 252 253 254 
254 253 252 251 250 249 249 248 247 246 245 244 243 242 241 240 239 239 
238 237 236 235 234 233 232 231 231 230 229 228 227 226 226 225 224 223 
222 221 221 220 219 218 218 217 215 215 215 201 127 126 127 125 127 171 
171 169 170 169 189 206 204 204 203 202 202 202 200 201 199 200 198  31 
 21  21  21  20  19  18  21  30 149 155 172 192  58  16  16  15  14  14 
 14  13  14  19 151 149 149 159 186 186 186 184 185 185 184 184 175 130 
129 131 130 129 129 129 129 125 138 143 142 174 180 180 180 178 177 179 
151 126 125 125 125 125 123 125 123 125 138 140 149 176 175 176 176 175 
175 175 174 174 101  20  19  17  18  18  19  20  21  28 111 136 141 172 
 46  21  21  20  21  20  18  20  27  92 136 134 166 171 172 172 172 172 
172 171 171 171 171 171 171 171 171 171 171 171 171 171 171 171 170 170 
170 170 170 170 170 170 170 170 170 170 170 170 170 170 170 170 170 170 
170 170 170 170 170 170 170 170 170 170 171 171 171 171 171 171 171 171 
171 171 171 172 172 172 172 172 172 172 173 173 173 173 173 174 174 174 
174 174 175 175 175 175 176 176 176 177 177 177 178 178 178 179 179 179 
180 180 181 181 181 182 182 183 183 184 184 185 185 186 186 187 187 188 
189 189 190 190 191 192 192 193 194 194 195 196 196 197 198 199 199 200 
201 202 203 203 204 205 206 207 208 208 209 210 211 212 213 214 215 216 
217 218 219 220 221 222 223 224 225 226 227 228 229 230 231 232 233 234 
235 236 237 238 239 241 242 243 244 245 246 247 248 249 251 252 253 254 
254 253 252 251 250 249 248 247 247 246 245 244 243 242 241 240 239 238 
237 236 235 235 234 233 232 231 230 229 228 228 227 226 225 224 223 222 
222 221 220 219 218 218 216 215 215 214 213 148 124 124 123 124 122 131 
170 169 169 168 166 182 203 203 202 202 201 201 199 200 199 197 192  12 
 21  19  21  20  19  19  18  52 155 154 191 190  23  14  13  14  12  12 
 11  13  10   7  77 149 147 146 185 184 183 184 183 182 181 183 136 129 
131 130 127 130 130 128 127 135 142 138 165 179 178 178 177 177 178 176 
176 131 123 125 124 124 125 123 123 122 126 138 136 166 174 173 173 174 
174 173 173 174  21  21  21  20  21  20  19  22  22  28  76 135 132 170 
109  28  23  22  22  22  22  22  24  44 137 130 160 170 170 170 170 170 
170 170 170 170 169 169 169 169 169 169 169 169 169 169 169 169 169 169 
169 169 169 169 169 168 168 168 168 168 168 168 168 168 168 168 168 168 
168 168 168 168 169 169 169 169 169 169 169 169 169 169 169 169 169 169 
169 170 170 170 170 170 170 170 171 171 171 171 171 171 172 172 172 172 
173 173 173 173 174 174 174 174 175 175 175 176 176 176 177 177 177 178 
178 179 179 179 180 180 181 181 182 182 183 183 184 184 185 186 186 187 
187 188 189 189 190 190 191 192 192 193 194 195 195 196 197 198 198 199 
200 201 202 202 203 204 205 206 207 208 208 209 210 211 212 213 214 215 
216 217 218 219 220 221 222 223 224 225 226 227 228 229 230 231 233 234 
235 236 237 238 239 240 241 243 244 245 246 247 248 249 250 252 253 254 
254 253 252 251 250 249 248 247 246 245 244 243 243 242 241 240 239 238 
237 236 235 234 233 232 231 230 230 229 228 227 226 225 224 223 223 222 
221 220 219 218 218 216 215 215 214 205 184 121 122 125 123 123 121 121 
133 167 168 166 167 166 178 202 202 200 200 199 199 198 198 196 137  14 
 21  17  18  19  17  17   9 114 153 166 189 190  20  12  14  13  13  11 
 12  10   9  11  24 145 146 145 178 183 183 182 181 181 182 151 127 128 
128 128 128 127 126 125 130 142 138 162 177 152 129 124 133 136 135 143 
161 173 129 122 121 125 121 123 123 122 122 130 134 134 170 173 172 172 
172 171 171 111  27  22  22  22  22  21  22  22  21  28  62 133 133 154 
170  23  22  25  22  23  24  24  26   7 140 130 152 169 168 168 168 168 
168 168 168 168 168 168 168 168 168 167 167 167 167 167 167 167 167 167 
167 167 167 167 167 167 167 167 167 167 167 167 167 167 167 167 167 167 
167 167 167 167 167 167 167 167 167 167 167 167 167 167 167 167 168 168 
168 168 168 168 168 168 169 169 169 169 169 169 170 170 170 170 170 171 
171 171 171 172 172 172 172 173 173 173 174 174 174 175 175 176 176 176 
177 177 178 178 178 179 179 180 180 181 181 182 182 183 184 184 185 185 
186 187 187 188 188 189 190 191 191 192 193 193 194 195 196 196 197 198 
199 200 200 201 202 203 204 205 206 207 207 208 209 210 211 212 213 214 
215 216 217 218 219 220 221 222 223 224 226 227 228 229 230 231 232 233 
234 235 237 238 239 240 241 242 243 245 246 247 248 249 250 252 253 254 
254 253 252 251 250 249 248 247 246 245 244 243 242 241 240 239 238 238 
237 236 235 234 233 232 231 230 229 228 227 226 225 225 224 223 222 221 
220 219 219 217 216 215 215 212 185 174 147 124 122 122 122 121 121 118 
119 124 165 166 164 165 163 171 200 200 198 199 196 197 196 196  75  17 
 18  18  18  18  16  14  24 160 149 181 188 188  35  13  11  11  11  10 
 10  11   7   9  17 134 145 144 176 182 181 181 181 181 168 127 126 126 
126 129 124 125 125 129 139 139 153 176 144 124 123 121 122 122 130 135 
135 160 168 121 119 120 120 121 120 120 119 119 133 134 147 171 171 171 
171 169 169  55  26  24  23  22  23  23  25  24  25  31  84 131 128 154 
168  72  28  25  27  25  25  25  26  30 120 128 144 167 167 167 167 167 
166 166 166 166 166 166 166 166 166 166 166 166 166 166 165 165 165 165 
165 165 165 165 165 165 165 165 165 165 165 165 165 165 165 165 165 165 
165 165 165 165 165 165 165 165 165 165 165 165 166 166 166 166 166 166 
166 166 166 166 167 167 167 167 167 167 168 168 168 168 168 169 169 169 
169 170 170 170 170 171 171 171 172 172 172 173 173 173 174 174 174 175 
175 176 176 177 177 177 178 178 179 179 180 181 181 182 182 183 183 184 
185 185 186 187 187 188 189 189 190 191 191 192 193 194 194 195 196 197 
198 199 199 200 201 202 203 204 205 206 207 208 208 209 210 211 212 213 
214 215 216 217 219 220 221 222 223 224 225 226 227 228 229 231 232 233 
234 235 236 237 239 240 241 242 243 244 246 247 248 249 250 251 253 254 
254 253 252 251 250 249 248 247 246 245 244 243 242 241 240 239 238 237 
236 235 234 233 232 231 231 230 229 228 227 226 225 224 223 222 221 220 
220 219 218 216 214 214 198 177 177 164 133 124 123 123 121 119 120 118 
117 117 124 160 165 165 163 161 164 191 198 197 197 194 194 195  30  17 
 16  16  16  16  15  13  90 152 164 186 188 186  99   8  11   8   8  11 
  8   9   6   9  12 129 144 142 179 179 178 178 179 169 126 126 127 127 
126 124 126 123 126 136 138 158 175 161 120 121 123 123 124 120 120 133 
133 135 167 166 122 119 118 119 120 119 119 119 119 131 132 153 170 169 
169 169 169  31  24  24  25  26  25  25  23  25  29  34 129 129 127 157 
167 147  21  28  28  26  27  27  27  30  92 126 135 165 165 165 165 165 
165 165 165 165 164 164 164 164 164 164 164 164 164 164 164 164 164 164 
164 164 164 163 163 163 163 163 163 163 163 163 163 163 163 163 163 163 
163 163 163 163 163 163 164 164 164 164 164 164 164 164 164 164 164 164 
164 165 165 165 165 165 165 165 166 166 166 166 166 167 167 167 167 167 
168 168 168 168 169 169 169 170 170 170 171 171 171 172 172 173 173 173 
174 174 175 175 176 176 177 177 178 178 179 179 180 180 181 181 182 183 
183 184 185 185 186 187 187 188 189 190 190 191 192 193 193 194 195 196 
197 198 198 199 200 201 202 203 204 205 206 207 208 209 210 211 212 213 
214 215 216 217 218 219 220 221 222 223 224 226 227 228 229 230 231 232 
234 235 236 237 238 239 241 242 243 244 245 247 248 249 250 251 253 254 
254 253 252 251 250 249 248 247 246 245 244 243 242 241 240 239 238 237 
236 235 234 233 232 231 230 229 228 227 226 225 224 224 223 222 221 220 
219 218 217 215 215 201 170 152 128 121 122 123 121 121 119 123 119 119 
116 118 116 118 152 164 162 161 158 156 181 196 195 194 193 171  22  17 
 16  16  13  15  13  15 134 151 185 187 185 186 161  10   8   8   8   7 
  8   7   6   6  12 129 141 143 179 176 179 178 176 131 124 123 126 124 
123 124 121 124 136 138 157 174 173 127 120 119 121 121 119 119 120 124 
133 133 151 168 160 120 119 116 118 116 118 117 115 118 129 130 162 168 
167 167 166  39  28  27  26  26  27  27  27  27  28  20 132 127 126 161 
164 163  10  30  28  28  29  29  29  30  56 125 125 164 164 163 163 163 
163 163 163 163 163 163 163 163 163 162 162 162 162 162 162 162 162 162 
162 162 162 162 162 162 162 162 162 162 162 162 162 162 162 162 162 162 
162 162 162 162 162 162 162 162 162 162 162 162 162 162 162 163 163 163 
163 163 163 163 163 163 164 164 164 164 164 165 165 165 165 165 166 166 
166 166 167 167 167 167 168 168 168 169 169 169 170 170 171 171 171 172 
172 173 173 174 174 175 175 176 176 177 177 178 178 179 180 180 181 181 
182 183 183 184 185 185 186 187 188 188 189 190 191 191 192 193 194 195 
196 196 197 198 199 200 201 202 203 204 205 206 207 208 209 210 211 212 
213 214 215 216 217 218 219 220 222 223 224 225 226 227 228 230 231 232 
233 234 236 237 238 239 240 242 243 244 245 246 248 249 250 251 253 254 
254 253 252 251 250 249 248 247 246 245 244 243 242 241 240 239 238 237 
236 235 234 233 232 231 230 229 228 227 226 225 224 223 222 221 220 219 
218 217 217 215 215 167 127 124 124 123 123 123 121 121 121 119 119 118 
115 116 117 115 115 134 163 158 160 158 157 159 189 194 194 144  16  14 
 16  12  13  14  11  55 152 164 187 185 186 184 185  42   7   8   7   7 
  8   6   3   6  16 135 140 169 177 177 177 175 129 123 124 123 123 121 
122 121 125 137 136 166 173 171 167 122 119 118 119 119 118 118 118 119 
132 130 141 168 169 165 119 115 115 117 116 116 114 115 120 129 129 166 
166 166 165  81  34  28  28  28  28  28  29  29  29  89 127 126 133 164 
163 162 130  43  31  30  30  30  31  30  10 127 123 156 162 162 162 162 
162 161 161 161 161 161 161 161 161 161 161 161 161 161 161 160 160 160 
160 160 160 160 160 160 160 160 160 160 160 160 160 160 160 160 160 160 
160 160 160 160 160 160 160 160 160 160 160 161 161 161 161 161 161 161 
161 161 161 162 162 162 162 162 162 163 163 163 163 163 164 164 164 164 
165 165 165 165 166 166 166 167 167 167 168 168 168 169 169 170 170 170 
171 171 172 172 173 173 174 174 175 175 176 176 177 178 178 179 179 180 
181 181 182 183 183 184 185 186 186 187 188 189 189 190 191 192 193 194 
195 195 196 197 198 199 200 201 202 203 204 205 206 207 208 209 210 211 
212 213 214 215 217 218 219 220 221 222 223 224 226 227 228 229 230 232 
233 234 235 236 238 239 240 241 243 244 245 246 248 249 250 251 253 254 
254 253 252 251 250 249 248 247 246 244 243 242 241 240 239 238 237 236 
235 234 233 232 231 230 229 228 227 226 225 224 223 222 221 221 218 218 
218 216 216 201 144 124 126 124 124 123 122 122 120 119 119 118 117 116 
115 115 114 112 114 111 123 149 160 158 157 156 154 169 191  82  14  16 
 14  13  12  11  15 144 152 186 185 185 184 183 183 173  19   7   3   5 
  5   4   3   1  59 139 154 177 176 177 175 136 122 123 124 122 122 123 
120 126 133 145 171 172 170 170 164 121 118 119 119 117 117 117 117 116 
130 130 137 167 167 167 164 129 110 115 115 114 114 113 112 118 126 133 
164 163 164 157  33  30  30  30  30  30  31  36  38 128 124 122 150 160 
159 161 162  27  32  33  31  32  32  32  34 128 122 142 160 159 160 160 
160 160 160 160 160 160 159 159 159 159 159 159 159 159 159 159 159 159 
159 159 159 159 159 159 158 158 158 158 158 158 158 158 158 158 158 158 
158 158 158 159 159 159 159 159 159 159 159 159 159 159 159 159 159 160 
160 160 160 160 160 160 160 161 161 161 161 161 162 162 162 162 163 163 
163 163 164 164 164 164 165 165 165 166 166 167 167 167 168 168 169 169 
169 170 170 171 171 172 172 173 173 174 175 175 176 176 177 177 178 179 
179 180 181 181 182 183 184 184 185 186 187 188 188 189 190 191 192 193 
194 194 195 196 197 198 199 200 201 202 203 204 205 206 207 208 209 210 
211 213 214 215 216 217 218 219 220 222 223 224 225 226 228 229 230 231 
232 234 235 236 237 239 240 241 242 244 245 246 247 249 250 251 252 254 
254 253 252 251 250 249 248 246 245 244 243 242 241 240 239 238 237 236 
235 234 233 232 231 230 229 228 227 226 225 224 223 222 220 218 219 217 
217 216 205 125 125 126 125 123 125 122 122 120 119 119 118 117 116 115 
115 114 114 114 111 111 108 107 130 154 156 154 154 154 158  13  14  13 
 13  13  11  12  70 149 176 185 184 184 183 181 181 180 155  12   5   3 
  3   3   2  20 152 165 176 176 176 173 134 120 120 122 121 120 120 120 
128 136 159 171 170 169 170 168 162 119 118 117 116 118 117 115 115 117 
130 127 137 165 165 166 164 164 135 111 112 112 113 111 111 110 117 124 
137 162 162 162  94  32  32  30  32  32  32  23 127 122 121 134 161 159 
160 158 160 123  31  34  33  34  35  34  39  64 122 132 159 159 158 158 
158 158 158 157 158 158 158 158 158 158 158 158 157 157 157 157 157 157 
157 157 157 157 157 157 157 157 157 157 157 157 157 157 157 157 157 157 
157 157 157 157 157 157 157 157 157 157 157 157 157 158 158 158 158 158 
158 158 158 158 159 159 159 159 159 159 160 160 160 160 160 161 161 161 
161 162 162 162 163 163 163 164 164 164 165 165 165 166 166 167 167 168 
168 168 169 169 170 170 171 172 172 173 173 174 174 175 176 176 177 178 
178 179 180 180 181 182 182 183 184 185 186 186 187 188 189 190 191 192 
192 193 194 195 196 197 198 199 200 201 202 203 204 205 206 207 209 210 
211 212 213 214 215 216 218 219 220 221 222 223 225 226 227 228 230 231 
232 233 235 236 237 238 240 241 242 243 245 246 247 249 250 251 252 254 
254 253 252 251 250 248 247 246 245 244 243 242 241 240 239 238 237 236 
235 233 232 231 230 229 228 227 226 225 224 223 222 221 220 218 218 217 
216 215 212 184 122 125 123 123 122 122 121 121 119 118 117 116 115 115 
114 113 112 110 111 108 109 107 107 111 129 157 154 154 103   9  12  13 
 11  12  11  10 139 165 184 183 182 182 181 181 180 179 179 168  94  11 
  9   3  72 165 175 175 175 175 173 130 120 121 123 119 119 119 123 129 
152 166 170 170 169 169 168 168 166 119 116 116 115 115 115 113 113 115 
128 126 139 165 164 164 163 162 162 153 117 108 109 112 110 110 107 114 
123 139 161 159 160 106  14  47  46   5  83 123 120 120 131 158 158 159 
159 159 158 158  33  40  35  35  35  37  36  12 121 125 156 157 157 157 
157 157 156 157 156 156 156 156 156 156 156 156 156 156 156 156 156 156 
156 156 155 155 155 155 155 155 155 155 155 155 155 155 155 155 155 155 
155 155 155 155 155 155 155 156 156 156 156 156 156 156 156 156 156 156 
157 157 157 157 157 157 157 158 158 158 158 158 159 159 159 159 159 160 
160 160 161 161 161 161 162 162 163 163 163 164 164 164 165 165 166 166 
167 167 168 168 169 169 170 170 171 171 172 172 173 174 174 175 176 176 
177 178 178 179 180 181 181 182 183 184 185 185 186 187 188 189 190 191 
192 192 193 194 195 196 197 198 199 200 201 202 203 204 206 207 208 209 
210 211 212 213 215 216 217 218 219 220 222 223 224 225 227 228 229 230 
232 233 234 235 237 238 239 241 242 243 245 246 247 248 250 251 252 254 
254 253 252 251 249 248 247 246 245 244 243 242 241 240 239 237 236 235 
234 233 232 231 230 229 228 227 226 225 224 223 222 221 219 219 217 216 
215 215 214 213 204 138 121 121 121 121 120 120 118 117 116 115 115 114 
113 112 113 110 110 109 109 107 106 107 104 102 132 146  45  14  12  11 
 10  10  10 107 157 184 182 181 181 181 180 180 179 179 179 177 178 177 
174 176 175 174 174 173 174 167 128 119 120 120 118 118 119 131 148 168 
169 167 169 168 168 167 167 166 167 126 114 114 114 113 114 111 111 120 
126 125 149 162 163 162 162 162 162 162 161 137 113 107 110 108 109 108 
113 119 137 160 158 159 159 153 136 132 119 119 123 139 158 158 157 156 
157 157 156 157 156  21  35  35  38  37  38  32 102 117 154 156 156 155 
155 155 154 155 155 155 155 155 155 155 154 154 154 154 154 154 154 154 
154 154 154 154 154 154 154 154 154 154 154 154 154 154 154 154 154 154 
154 154 154 154 154 154 154 154 154 154 154 154 154 154 155 155 155 155 
155 155 155 155 156 156 156 156 156 156 157 157 157 157 157 158 158 158 
159 159 159 159 160 160 160 161 161 161 162 162 163 163 163 164 164 165 
165 166 166 167 167 168 168 169 169 170 171 171 172 172 173 174 174 175 
176 176 177 178 179 179 180 181 182 183 183 184 185 186 187 188 189 190 
190 191 192 193 194 195 196 197 198 199 200 202 203 204 205 206 207 208 
209 210 212 213 214 215 216 218 219 220 221 222 224 225 226 227 229 230 
231 233 234 235 236 238 239 240 242 243 244 246 247 248 250 251 252 254 
254 253 252 251 249 248 247 246 245 244 243 242 240 239 238 237 236 235 
234 233 232 231 230 229 227 226 225 224 223 222 221 220 219 218 217 216 
215 214 212 211 211 211 147 122 122 119 120 118 117 116 115 115 114 113 
112 111 110 112 109 108 107 107 107 104 103 105 105  97  17  13  11  11 
 11   8  41 144 147 152 166 181 181 180 180 178 179 178 177 175 176 176 
175 175 174 174 174 173 164 121 120 117 117 119 118 139 161 167 169 168 
167 168 166 167 167 166 166 166 165 159 109 113 112 111 110 111 110 123 
124 127 161 162 162 160 161 161 161 159 160 160 159 137 106 107 105 105 
106 107 120 135 157 158 157 157 156 156 155 154 156 157 155 155 155 155 
155 156 156 153 154  91  43  39  37  37  39  38  56 116 139 154 154 154 
154 154 154 154 153 153 153 153 153 153 153 153 153 153 153 153 153 153 
152 152 152 152 152 152 152 152 152 152 152 152 152 152 152 152 152 152 
152 152 152 152 152 152 152 152 153 153 153 153 153 153 153 153 153 153 
153 154 154 154 154 154 154 155 155 155 155 155 156 156 156 156 157 157 
157 157 158 158 158 159 159 159 160 160 160 161 161 162 162 162 163 163 
164 164 165 165 166 166 167 168 168 169 169 170 171 171 172 172 173 174 
175 175 176 177 178 178 179 180 181 181 182 183 184 185 186 187 188 189 
190 190 191 192 193 194 195 196 198 199 200 201 202 203 204 205 206 207 
209 210 211 212 213 215 216 217 218 219 221 222 223 224 226 227 228 230 
231 232 234 235 236 237 239 240 242 243 244 246 247 248 250 251 252 254 
254 253 252 250 249 248 247 246 245 244 243 241 240 239 238 237 236 235 
234 232 231 230 229 228 227 226 225 224 223 222 221 220 219 218 216 215 
215 214 212 212 210 209 208 158 116 117 119 117 116 115 115 114 113 112 
111 110 111 109 109 107 106 107 106 105 102 102 105  66  11  10   9   9 
  7  19 142 147 143 142 142 139 146 150 153 158 162 164 167 169 171 171 
171 169 166 166 162 150 118 116 115 120 139 155 168 168 168 167 167 166 
166 166 166 166 164 165 164 164 162 164 141 107 109 110 108 109 119 123 
125 157 161 159 160 160 158 158 159 158 159 159 157 158 157 140 126 108 
104 104 105 113 131 156 155 156 156 155 156 155 154 155 154 155 155 154 
154 153 154 154 153 154  43  45  41  41  41  41  27 123 119 153 153 152 
151 152 152 152 152 152 152 152 152 152 151 151 151 151 151 151 151 151 
151 151 151 151 151 151 151 151 151 151 151 151 151 151 151 151 151 151 
151 151 151 151 151 151 151 151 151 151 151 151 151 151 152 152 152 152 
152 152 152 152 153 153 153 153 153 153 154 154 154 154 155 155 155 155 
156 156 156 157 157 157 158 158 158 159 159 159 160 160 161 161 162 162 
163 163 164 164 165 165 166 166 167 167 168 169 169 170 171 171 172 173 
173 174 175 176 176 177 178 179 180 180 181 182 183 184 185 186 187 188 
189 190 191 192 193 194 195 196 197 198 199 200 201 202 203 204 206 207 
208 209 210 212 213 214 215 216 218 219 220 221 223 224 225 227 228 229 
231 232 233 235 236 237 239 240 241 243 244 245 247 248 250 251 252 254 
254 253 252 250 249 248 247 246 245 243 242 241 240 239 238 237 235 234 
233 232 231 230 229 228 227 226 224 223 222 221 220 219 218 217 215 215 
214 213 212 210 210 209 208 207 157 117 118 118 116 115 114 113 112 111 
110 110 109 109 107 107 106 105 105 103 102 103 103  13  10  11  10   8 
 10  80  94 111 124 136 138 138 139 139 139 140 138 136 136 135 134 133 
131 131 130 127 126 122 131 145 164 168 167 168 167 167 166 167 165 166 
165 165 165 164 164 164 162 162 163 162 162 151 117 113 119 126 125 135 
160 160 158 158 159 159 158 158 158 157 157 157 157 156 157 156 155 155 
150 123 111 104 111 123 153 155 153 154 153 153 153 154 153 153 153 153 
153 153 153 151 152 151 148  10  44  42  41  43  48  64 112 145 150 151 
151 151 151 151 150 150 150 150 150 150 150 150 150 150 150 150 150 150 
149 149 149 149 149 149 149 149 149 149 149 149 149 149 149 149 149 149 
149 149 149 149 149 149 149 149 150 150 150 150 150 150 150 150 150 150 
151 151 151 151 151 151 151 152 152 152 152 152 153 153 153 153 154 154 
154 155 155 155 155 156 156 156 157 157 158 158 158 159 159 160 160 161 
161 162 162 163 163 164 164 165 166 166 167 167 168 169 169 170 171 171 
172 173 174 174 175 176 177 178 179 179 180 181 182 183 184 185 186 187 
188 189 190 191 192 193 194 195 196 197 198 199 200 201 203 204 205 206 
207 208 210 211 212 213 215 216 217 218 220 221 222 224 225 226 228 229 
230 232 233 234 236 237 238 240 241 242 244 245 247 248 249 251 252 254 
254 253 251 250 249 248 247 246 244 243 242 241 240 239 238 236 235 234 
233 232 231 230 228 227 226 225 224 223 222 221 220 219 218 217 216 214 
214 212 211 210 210 208 207 207 205 152 114 116 115 114 113 112 111 110 
110 109 109 107 106 106 106 106 104 102 100 102  69   9   8   9   8   3 
 66  95  94  94  92  93  92  95  97  97  97  98  98  98  97  95  94  92 
 90  90  84 110 153 168 168 169 167 167 167 166 166 165 166 165 165 164 
164 164 162 163 163 161 162 162 160 161 160 160 160 159 159 159 158 159 
159 156 157 158 158 156 157 157 156 156 155 156 155 155 154 155 154 155 
153 154 152 149 143 130 127 151 153 152 153 153 150 151 152 152 152 151 
152 151 151 151 149 151 151 143  27  44  44  43  45   8 112 132 150 149 
149 149 149 149 149 149 149 149 149 149 149 148 148 148 148 148 148 148 
148 148 148 148 148 148 148 148 148 148 148 148 148 148 148 148 148 148 
148 148 148 148 148 148 148 148 148 148 148 148 148 148 149 149 149 149 
149 149 149 150 150 150 150 150 150 151 151 151 151 152 152 152 152 153 
153 153 153 154 154 154 155 155 156 156 156 157 157 158 158 158 159 159 
160 160 161 161 162 163 163 164 164 165 166 166 167 168 168 169 170 170 
171 172 173 173 174 175 176 177 177 178 179 180 181 182 183 184 185 186 
187 188 189 190 191 192 193 194 195 196 197 198 200 201 202 203 204 205 
207 208 209 210 211 213 214 215 217 218 219 221 222 223 224 226 227 229 
230 231 233 234 235 237 238 240 241 242 244 245 247 248 249 251 252 254 
254 253 251 250 249 248 247 246 244 243 242 241 240 238 237 236 235 234 
233 232 230 229 228 227 226 225 224 223 221 220 219 218 217 216 215 214 
213 212 211 210 209 208 205 205 203 204 141 115 113 113 113 111 110 111 
108 109 107 106 104 104 103 103 101 101  99 101  32   9   6   7   6  54 
 98  94  94  94  92  92  91  90  89  90  89  88  89  86  87  84  87  85 
 82  88 131 166 169 167 168 167 167 167 166 166 165 165 164 164 164 163 
163 163 162 162 161 161 161 160 160 160 159 159 159 159 158 158 158 157 
157 157 157 156 156 156 156 155 155 155 155 155 154 154 154 154 153 153 
153 153 153 153 152 152 152 152 152 152 151 151 151 151 151 151 150 150 
150 150 150 150 150 149 148 149 124  37  46  45  45  44  95 117 148 146 
147 147 148 148 148 148 147 147 147 147 147 147 147 147 147 147 147 147 
147 147 146 146 146 146 146 146 146 146 146 146 146 146 146 146 146 146 
146 146 146 146 146 146 147 147 147 147 147 147 147 147 147 147 147 148 
148 148 148 148 148 148 149 149 149 149 149 150 150 150 150 151 151 151 
151 152 152 152 153 153 153 154 154 155 155 155 156 156 157 157 158 158 
159 159 160 160 161 161 162 162 163 164 164 165 166 166 167 168 168 169 
170 171 171 172 173 174 175 176 176 177 178 179 180 181 182 183 184 185 
186 187 188 189 190 191 192 193 194 195 196 198 199 200 201 202 204 205 
206 207 208 210 211 212 213 215 216 217 219 220 221 223 224 225 227 228 
230 231 232 234 235 236 238 239 241 242 244 245 246 248 249 251 252 254 
254 253 251 250 249 248 247 245 244 243 242 241 239 238 236 236 234 234 
232 231 230 229 228 227 225 224 223 222 221 220 219 218 217 216 215 213 
212 211 210 209 207 207 205 205 201 203 202 122 114 113 112 112 111 108 
109 108 107 105 105 104 104 103 103  99 100  86   6   9   8   5  61  96 
 94  92  91  92  91  89  89  90  87  89  87  88  84  85  86  84  84  82 
119 169 167 167 167 167 167 166 166 165 165 164 164 164 163 163 162 162 
162 161 161 160 160 160 160 159 159 158 158 158 158 157 157 157 156 156 
156 156 155 155 155 155 154 154 154 154 153 153 153 153 153 152 152 152 
152 152 151 151 151 151 151 150 150 150 150 150 150 149 149 149 149 149 
149 149 149 148 148 148 148 146 148 131  42  46  46  49   2 113 142 147 
147 146 146 146 146 146 146 146 146 146 146 146 146 145 145 145 145 145 
145 145 145 145 145 145 145 145 145 145 145 145 145 145 145 145 145 145 
145 145 145 145 145 145 145 145 145 145 145 145 146 146 146 146 146 146 
146 146 147 147 147 147 147 147 148 148 148 148 148 149 149 149 150 150 
150 150 151 151 151 152 152 153 153 153 154 154 155 155 155 156 156 157 
157 158 158 159 160 160 161 161 162 163 163 164 164 165 166 167 167 168 
169 170 170 171 172 173 174 175 175 176 177 178 179 180 181 182 183 184 
185 186 187 188 189 190 191 192 193 195 196 197 198 199 200 202 203 204 
205 207 208 209 210 212 213 214 216 217 218 220 221 222 224 225 226 228 
229 231 232 233 235 236 238 239 241 242 243 245 246 248 249 251 252 254 
254 253 251 250 249 248 246 245 244 243 242 240 238 238 237 236 234 233 
232 231 229 229 227 226 225 224 223 222 221 219 218 217 216 215 214 213 
212 211 210 209 207 207 206 205 203 201 202 191 114 113 109 111 109 109 
107 106 105 107 103 105 101  99  99 100 100  22   7   8   1  60  96  94 
 93  91  92  90  90  91  88  89  88  86  87  86  85  84  82  80 120 156 
169 166 166 167 164 166 166 165 165 164 164 163 163 163 162 162 161 161 
160 160 160 159 159 159 158 158 158 157 157 157 156 156 156 155 155 155 
155 154 154 154 154 153 153 153 153 152 152 152 152 151 151 151 151 151 
150 150 150 150 150 150 149 149 149 149 149 149 148 148 148 148 148 148 
147 147 147 147 147 147 146 145 145 146 120  27  50  47  53  77 117 144 
145 145 145 144 145 145 145 145 144 144 144 144 144 144 144 144 144 144 
144 144 144 144 144 144 144 144 143 143 143 143 143 143 143 143 143 143 
143 143 144 144 144 144 144 144 144 144 144 144 144 144 144 144 145 145 
145 145 145 145 145 146 146 146 146 146 147 147 147 147 148 148 148 148 
149 149 149 150 150 150 151 151 152 152 152 153 153 154 154 155 155 156 
156 157 157 158 158 159 160 160 161 161 162 163 163 164 165 165 166 167 
168 168 169 170 171 172 173 173 174 175 176 177 178 179 180 181 182 183 
184 185 186 187 188 189 190 192 193 194 195 196 197 198 200 201 202 203 
205 206 207 208 210 211 212 214 215 216 218 219 220 222 223 225 226 227 
229 230 232 233 235 236 237 239 240 242 243 245 246 248 249 251 252 254 
254 253 251 250 249 248 246 245 244 242 239 229 238 238 236 235 233 233 
232 231 229 228 227 226 225 224 222 221 220 219 218 217 216 215 213 212 
211 210 209 208 206 206 205 204 202 201 200 200 166 109 109 109 108 107 
106 105 105 104 104 113 149 128 109 106  78   8   6  11  73  97  93  94 
 92  90  90  90  89  87  88  88  85  85  85  82  86  92 126 169 169 166 
168 166 166 166 165 164 165 164 164 163 163 162 162 161 161 160 160 160 
159 159 159 158 158 157 157 157 156 156 156 155 155 155 155 154 154 154 
153 153 153 153 152 152 152 152 151 151 151 151 150 150 150 150 150 149 
149 149 149 149 148 148 148 148 148 147 147 147 147 147 147 146 146 146 
146 146 146 146 146 145 145 144 145 145 145 144   9  52  49   2 109 139 
143 144 144 144 143 143 143 143 143 143 143 143 143 143 143 143 143 142 
142 142 142 142 142 142 142 142 142 142 142 142 142 142 142 142 142 142 
142 142 142 142 142 142 142 142 142 143 143 143 143 143 143 143 143 143 
143 144 144 144 144 144 144 145 145 145 145 146 146 146 146 147 147 147 
147 148 148 148 149 149 149 150 150 151 151 152 152 152 153 153 154 154 
155 155 156 157 157 158 158 159 160 160 161 162 162 163 164 164 165 166 
167 167 168 169 170 171 172 173 173 174 175 176 177 178 179 180 181 182 
183 184 185 186 187 189 190 191 192 193 194 195 197 198 199 200 201 203 
204 205 207 208 209 211 212 213 215 216 217 219 220 221 223 224 226 227 
229 230 231 233 234 236 237 239 240 242 243 245 246 248 249 251 252 254 
254 253 251 250 249 248 246 245 244 243 233 202 210 236 236 235 234 233 
230 230 229 228 227 226 224 223 222 221 220 219 217 216 215 214 213 212 
211 210 209 208 205 204 204 203 202 200 199 197 198 142 109 108 107 106 
108 106 104 101 100 103 147 151 149 184  34   3  44 104  92  90  90  90 
 90  90  88  87  85  84  84  82  81  92 115 146 160 167 169 167 167 167 
166 166 164 165 164 164 163 163 162 162 161 161 161 160 160 159 159 159 
158 158 157 157 157 156 156 156 155 155 154 154 154 154 153 153 153 152 
152 152 152 151 151 151 150 150 150 150 150 149 149 149 149 149 148 148 
148 148 147 147 147 147 147 147 146 146 146 146 146 146 145 145 145 145 
145 145 144 144 144 144 143 144 144 144 142 141 142  60  56  55  75 127 
142 141 141 142 142 142 142 142 142 142 142 142 141 141 141 141 141 141 
141 141 141 141 141 141 141 141 141 141 141 141 141 141 141 141 141 141 
141 141 141 141 141 141 141 141 141 141 141 141 141 142 142 142 142 142 
142 142 142 143 143 143 143 143 144 144 144 144 145 145 145 145 146 146 
146 146 147 147 148 148 148 149 149 149 150 150 151 151 152 152 153 153 
154 154 155 155 156 157 157 158 158 159 160 160 161 162 163 163 164 165 
166 166 167 168 169 170 171 171 172 173 174 175 176 177 178 179 180 181 
182 183 184 185 187 188 189 190 191 192 194 195 196 197 198 200 201 202 
203 205 206 207 209 210 211 213 214 215 217 218 220 221 222 224 225 227 
228 230 231 233 234 236 237 239 240 241 243 244 246 247 249 250 252 254 
254 252 251 250 249 247 246 245 244 241 220 201 199 200 220 234 233 232 
231 230 229 228 226 225 224 223 222 220 219 218 217 216 215 214 212 211 
210 209 208 207 206 204 203 202 201 201 200 199 196 188 109 109 107 105 
105 105 104 103 101  98 132 149 148  88  17 110 182 181 179 169 160 151 
141 138 139 137 137 140 147 156 170 171 169 168 167 167 168 166 166 165 
165 164 163 163 162 162 162 162 161 161 160 160 160 159 159 158 158 157 
157 157 156 156 155 155 155 154 154 154 153 153 153 152 152 152 152 151 
151 151 150 150 150 150 149 149 149 149 148 148 148 148 147 147 147 147 
147 146 146 146 146 146 145 145 145 145 145 145 144 144 144 144 144 144 
143 143 143 143 143 143 143 142 142 142 141 141 141 141  97  13  39 101 
140 141 141 141 141 141 141 140 140 140 140 140 140 140 140 140 140 140 
140 140 140 140 140 139 139 139 139 139 139 139 139 139 139 139 139 139 
139 139 139 140 140 140 140 140 140 140 140 140 140 140 140 140 141 141 
141 141 141 141 141 142 142 142 142 143 143 143 143 143 144 144 144 145 
145 145 146 146 146 147 147 147 148 148 149 149 150 150 150 151 151 152 
153 153 154 154 155 155 156 157 157 158 159 159 160 161 161 162 163 164 
165 165 166 167 168 169 170 171 171 172 173 174 175 176 177 178 179 180 
181 182 184 185 186 187 188 189 190 192 193 194 195 196 198 199 200 202 
203 204 205 207 208 209 211 212 214 215 216 218 219 221 222 224 225 226 
228 229 231 232 234 235 237 238 240 241 243 244 246 247 249 250 252 253 
254 252 251 250 249 247 246 245 242 242 206 201 201 199 197 198 224 231 
231 230 228 227 226 225 224 222 221 220 219 218 216 215 214 213 212 211 
210 209 207 206 205 203 200 201 201 200 199 198 197 195 161 105 107 104 
105 103 104 100 102 100 109 148 135  96 177 182 180 178 179 177 170 166 
174 174 175 174 172 172 172 170 170 169 168 168 168 165 167 166 164 165 
163 164 163 163 162 162 161 161 160 160 159 159 158 158 157 157 157 156 
156 155 155 155 154 154 154 153 153 153 152 152 151 151 151 151 150 150 
150 149 149 149 149 148 148 148 148 147 147 147 147 146 146 146 146 146 
145 145 145 145 145 144 144 144 144 144 143 143 143 143 143 143 142 142 
142 142 142 142 142 141 141 141 141 141 141 140 141 139 140 129  83  81 
119 140 140 139 139 139 139 139 139 139 139 139 139 139 139 139 139 138 
138 138 138 138 138 138 138 138 138 138 138 138 138 138 138 138 138 138 
138 138 138 138 138 138 138 138 138 139 139 139 139 139 139 139 139 139 
140 140 140 140 140 140 141 141 141 141 141 142 142 142 142 143 143 143 
144 144 144 145 145 145 146 146 147 147 147 148 148 149 149 150 150 151 
151 152 153 153 154 154 155 156 156 157 158 158 159 160 160 161 162 163 
164 164 165 166 167 168 169 170 171 171 172 173 174 175 176 177 178 179 
181 182 183 184 185 186 187 188 190 191 192 193 195 196 197 198 200 201 
202 204 205 206 208 209 210 212 213 215 216 217 219 220 222 223 225 226 
228 229 231 232 234 235 237 238 240 241 243 244 246 247 249 250 252 253 
254 252 251 250 249 247 246 245 243 241 199 203 199 199 198 195 192 201 
216 229 228 225 226 224 223 222 221 220 218 217 216 215 214 213 211 210 
209 208 207 206 205 203 202 200 201 198 198 197 196 195 193 120 106 103 
104 103 102 101 100 103  92  46  19 154 182 179 180 179 163 142 136 136 
135 139 157 172 171 172 171 170 170 169 168 168 167 166 166 164 165 163 
163 163 162 162 161 160 160 160 159 159 158 158 157 157 156 156 156 155 
155 154 154 153 153 153 152 152 152 151 151 151 150 150 150 149 149 149 
149 148 148 148 147 147 147 147 146 146 146 146 145 145 145 145 145 144 
144 144 144 143 143 143 143 143 143 142 142 142 142 142 142 141 141 141 
141 141 141 140 140 140 140 140 140 140 140 138 139 139 138 138 135 113 
100 138 138 137 138 138 138 138 138 138 138 138 138 137 137 137 137 137 
137 137 137 137 137 137 137 137 137 137 137 137 137 137 137 137 137 137 
137 137 137 137 137 137 137 137 137 137 137 137 138 138 138 138 138 138 
138 138 139 139 139 139 139 140 140 140 140 140 141 141 141 142 142 142 
142 143 143 143 144 144 145 145 145 146 146 147 147 148 148 149 149 150 
150 151 151 152 153 153 154 154 155 156 156 157 158 159 159 160 161 162 
162 163 164 165 166 167 168 169 170 171 171 172 173 174 175 177 178 179 
180 181 182 183 184 185 187 188 189 190 191 193 194 195 196 198 199 200 
202 203 204 206 207 208 210 211 213 214 216 217 218 220 221 223 224 226 
227 229 230 232 233 235 236 238 239 241 243 244 246 247 249 250 252 253 
254 252 251 249 248 247 246 245 174  96 189 203 200 199 198 194 195 194 
192 192 211 221 224 224 223 221 220 219 218 217 216 214 213 212 211 209 
209 208 206 205 204 201 202 201 199 199 198 197 196 195 194 160 102 104 
104 102 101 100  91  48  13  14 121 148 180 180 178 172 130 131 131 137 
136 135 134 151 170 170 170 168 169 168 167 167 166 165 165 164 163 163 
162 162 161 161 160 160 159 159 158 158 157 157 156 156 155 155 154 154 
154 153 153 152 152 152 151 151 151 150 150 150 149 149 149 148 148 148 
147 147 147 147 146 146 146 146 145 145 145 145 144 144 144 144 143 143 
143 143 142 142 142 142 142 142 141 141 141 141 141 141 140 140 140 140 
140 140 139 139 139 139 139 139 139 138 138 138 138 138 138 138 138 137 
125 123 137 137 137 137 137 137 137 137 136 136 136 136 136 136 136 136 
136 136 136 136 136 136 136 136 136 136 136 136 135 135 136 136 136 136 
136 136 136 136 136 136 136 136 136 136 136 136 136 136 137 137 137 137 
137 137 137 138 138 138 138 138 139 139 139 139 140 140 140 140 141 141 
141 142 142 142 143 143 143 144 144 145 145 146 146 146 147 147 148 149 
149 150 150 151 151 152 153 153 154 155 155 156 157 158 158 159 160 161 
162 162 163 164 165 166 167 168 169 170 171 172 173 174 175 176 177 178 
179 180 181 182 183 185 186 187 188 189 191 192 193 194 196 197 198 200 
201 202 204 205 207 208 209 211 212 214 215 217 218 219 221 222 224 225 
227 229 230 232 233 235 236 238 239 241 242 244 246 247 249 250 252 253 
254 252 251 249 248 247 246 243  83  48  52 117 207 199 196 195 195 195 
192 191 190 189 191 206 221 221 219 217 218 216 214 214 213 211 211 208 
208 207 205 205 204 203 202 200 199 198 197 196 194 194 193 187 109 103 
101 103  98  35   2   8   9  60 146 140 180 177 150  92  92  90  89  94 
125 135 135 133 152 170 167 167 168 167 166 166 165 164 164 163 163 162 
161 161 160 160 159 159 158 158 157 157 156 156 155 155 154 154 153 153 
153 152 152 151 151 151 150 150 150 149 149 148 148 148 148 147 147 147 
146 146 146 145 145 145 145 144 144 144 144 143 143 143 143 142 142 142 
142 142 141 141 141 141 141 140 140 140 140 140 140 139 139 139 139 139 
139 138 138 138 138 138 138 137 137 137 137 137 137 137 137 136 136 136 
135 135 136 136 136 136 136 135 135 135 135 135 135 135 135 135 135 135 
135 135 135 134 134 134 134 134 134 134 134 134 134 134 134 134 134 134 
134 134 134 134 134 135 135 135 135 135 135 135 135 135 135 135 136 136 
136 136 136 136 136 137 137 137 137 138 138 138 138 139 139 139 139 140 
140 140 141 141 141 142 142 143 143 144 144 144 145 145 146 146 147 147 
148 149 149 150 150 151 152 152 153 154 154 155 156 157 157 158 159 160 
161 161 162 163 164 165 166 167 168 169 170 171 172 173 174 175 176 177 
178 179 180 182 183 184 185 186 187 189 190 191 193 194 195 196 198 199 
200 202 203 205 206 207 209 210 212 213 215 216 218 219 221 222 224 225 
227 228 230 231 233 234 236 238 239 241 242 244 245 247 249 250 252 253 
254 251 251 249 248 247 246 239  46  51  49  44  60 135 192 198 195 192 
190 192 189 189 186 183 181 188 199 206 206 212 215 214 211 210 210 209 
208 207 205 203 203 202 200 200 199 197 192 183 176 166 156 151 142 107 
 77  36   6   8   6   9   1 111 142 139 175 170  88  90  90  88  88  87 
 85 111 134 132 132 166 168 166 167 166 165 165 164 164 163 162 162 161 
160 160 159 159 158 158 157 157 156 156 155 155 154 154 153 153 152 152 
151 151 151 150 150 150 149 149 148 148 148 147 147 147 146 146 146 145 
145 145 145 144 144 144 143 143 143 143 142 142 142 142 141 141 141 141 
141 140 140 140 140 140 139 139 139 139 139 139 138 138 138 138 138 138 
137 137 137 137 137 137 136 136 136 136 136 136 136 136 135 135 135 135 
135 135 134 135 135 134 134 134 134 134 134 134 134 134 134 134 134 133 
133 133 133 133 133 133 133 133 133 133 133 133 133 133 133 133 133 133 
133 133 133 133 133 133 133 133 134 134 134 134 134 134 134 134 134 134 
135 135 135 135 135 135 136 136 136 136 137 137 137 137 138 138 138 139 
139 139 140 140 140 141 141 142 142 142 143 143 144 144 145 145 146 146 
147 147 148 149 149 150 151 151 152 153 153 154 155 156 156 157 158 159 
160 160 161 162 163 164 165 166 167 168 169 170 171 172 173 174 175 176 
177 178 180 181 182 183 184 186 187 188 189 191 192 193 195 196 197 199 
200 201 203 204 206 207 208 210 211 213 214 216 217 219 220 222 223 225 
226 228 230 231 233 234 236 237 239 241 242 244 245 247 249 250 252 253 
254 252 251 249 247 247 246 210  49  49  48  47  47  44  42 119 188 192 
193 189 189 187 185 185 184 183 181 180 178 177 174 182 189 194 196 194 
200 199 200 194 191 185 179 169 161 158 157 156 156 156 154 150  98   5 
  6   5   6   7   7   7  88 106 143 138 175 119  90  89  87  86  86  86 
 84  83 107 132 129 144 167 167 166 165 165 164 163 163 162 161 161 160 
160 159 158 158 157 157 156 156 155 155 154 154 153 153 152 152 151 151 
151 150 150 149 149 148 148 148 147 147 147 146 146 146 145 145 145 144 
144 144 144 143 143 143 142 142 142 142 141 141 141 141 140 140 140 140 
140 139 139 139 139 138 138 138 138 138 138 137 137 137 137 137 137 136 
136 136 136 136 136 135 135 135 135 135 135 135 134 134 134 134 134 134 
134 134 134 133 133 133 133 133 133 133 133 133 133 133 132 132 132 132 
132 132 132 132 132 132 132 132 132 132 132 132 132 132 132 132 132 132 
132 132 132 132 132 132 132 132 132 132 132 133 133 133 133 133 133 133 
133 134 134 134 134 134 135 135 135 135 135 136 136 136 137 137 137 137 
138 138 138 139 139 140 140 140 141 141 142 142 143 143 144 144 145 145 
146 147 147 148 148 149 150 150 151 152 152 153 154 155 155 156 157 158 
159 160 160 161 162 163 164 165 166 167 168 169 170 171 172 173 174 175 
177 178 179 180 181 182 184 185 186 187 189 190 191 193 194 195 197 198 
199 201 202 204 205 207 208 209 211 212 214 215 217 218 220 221 223 225 
226 228 229 231 232 234 236 237 239 240 242 244 245 247 249 250 252 253 
254 251 251 250 248 246 244 186  50  51  47  48  45  45  43  38  46  75 
128 190 196 188 187 184 184 184 181 179 178 177 176 175 173 171 170 168 
167 166 164 163 162 163 161 160 161 160 159 164 147  86  36   5   7   4 
  4   6   6   6  16  62  94  99 142 140 172 104  89  89  86  86  86  85 
 84  84  84 127 128 131 165 166 165 164 164 163 162 162 161 160 160 159 
159 158 157 157 156 156 155 155 154 154 153 153 152 152 151 151 150 150 
149 149 149 148 148 147 147 147 146 146 146 145 145 145 144 144 144 143 
143 143 142 142 142 142 141 141 141 141 140 140 140 140 139 139 139 139 
138 138 138 138 137 137 137 137 137 137 136 136 136 136 136 136 135 135 
135 135 135 135 134 134 134 134 134 134 134 133 133 133 133 133 132 133 
133 133 132 132 132 132 132 132 132 132 132 132 131 131 131 131 131 131 
131 131 131 131 131 131 131 131 131 131 131 131 131 131 131 131 131 131 
131 131 131 131 131 131 131 131 131 131 131 131 132 132 132 132 132 132 
132 132 133 133 133 133 133 134 134 134 134 135 135 135 135 136 136 136 
137 137 137 138 138 138 139 139 140 140 141 141 142 142 143 143 144 144 
145 145 146 147 147 148 149 149 150 151 151 152 153 154 154 155 156 157 
158 159 160 160 161 162 163 164 165 166 167 168 169 170 171 172 174 175 
176 177 178 179 181 182 183 184 186 187 188 189 191 192 193 195 196 197 
199 200 202 203 205 206 208 209 210 212 214 215 217 218 220 221 223 224 
226 227 229 231 232 234 235 237 239 240 242 244 245 247 248 250 252 253 
254 252 251 250 248 246 244 171  51  50  48  47  45  45  43  41  41  38 
 34  30  78 136 162 176 185 185 182 180 178 176 176 174 172 172 169 168 
167 166 165 165 165 163 164 157 142 128  88  31   7   3   0   3   2   4 
  6   7   7   9  53  98  95  91 143 138 169 117  88  86  87  87  85  85 
 82  83  82 104 130 131 164 165 164 163 163 162 162 161 160 159 159 158 
158 157 157 156 155 155 154 154 153 153 152 152 151 151 150 150 149 149 
149 148 148 147 147 146 146 146 145 145 145 144 144 143 143 143 143 142 
142 142 141 141 141 140 140 140 140 139 139 139 139 138 138 138 138 137 
137 137 137 137 136 136 136 136 136 135 135 135 135 135 135 134 134 134 
134 134 134 133 133 133 133 133 133 133 132 132 132 132 132 132 132 132 
131 131 131 131 131 131 131 131 131 131 131 130 130 130 130 130 130 130 
130 130 130 130 130 130 130 130 130 130 130 130 130 130 130 130 130 130 
130 130 130 130 130 130 130 130 130 130 130 130 130 131 131 131 131 131 
131 131 131 132 132 132 132 133 133 133 133 133 134 134 134 135 135 135 
136 136 136 137 137 137 138 138 139 139 140 140 141 141 142 142 143 143 
144 144 145 146 146 147 148 148 149 150 150 151 152 153 153 154 155 156 
157 158 159 160 160 161 162 163 164 165 166 167 168 170 171 172 173 174 
175 176 177 179 180 181 182 184 185 186 187 189 190 191 193 194 196 197 
198 200 201 203 204 206 207 209 210 212 213 215 216 218 219 221 222 224 
226 227 229 230 232 234 235 237 239 240 242 243 245 247 248 250 252 253 
254 252 251 249 247 246 244 170  50  49  49  47  46  44  41  41  40  38 
 37  37  34  32  35  38  45  87 119 159 185 182 179 176 176 174 173 172 
173 172 171 153 120  85  39  16  11   5   1   1   0   0   2   4   4   4 
  6   6  14  52  98  95  93  90 137 137 165 151  82  88  85  86  83  85 
 81  81  79  84 130 131 165 164 163 163 162 161 161 160 159 159 158 157 
157 156 156 155 154 154 153 153 152 152 151 151 150 150 149 149 148 148 
147 147 147 146 146 145 145 145 144 144 144 143 143 143 142 142 141 141 
141 141 140 140 140 139 139 139 139 138 138 138 138 137 137 137 137 136 
136 136 136 136 135 135 135 135 135 134 134 134 134 134 133 133 133 133 
133 133 132 132 132 132 132 132 132 132 131 131 131 131 131 130 131 130 
130 130 130 130 130 130 130 130 130 129 129 129 129 129 129 129 129 129 
129 129 129 129 129 129 129 129 128 128 128 128 128 128 128 128 128 128 
128 129 129 129 129 129 129 129 129 129 129 129 129 129 130 130 130 130 
130 130 130 131 131 131 131 131 132 132 132 132 133 133 133 134 134 134 
135 135 135 136 136 136 137 137 138 138 139 139 140 140 141 141 142 142 
143 143 144 145 145 146 147 147 148 149 150 150 151 152 153 153 154 155 
156 157 158 159 160 161 162 162 164 164 166 167 168 169 170 171 172 173 
174 176 177 178 179 180 182 183 184 186 187 188 190 191 192 194 195 196 
198 199 201 202 204 205 207 208 210 211 213 214 216 217 219 221 222 224 
225 227 229 230 232 233 235 237 238 240 242 243 245 247 248 250 252 253 
254 252 251 249 248 247 234 147  50  50  48  47  46  44  43  42  40  39 
 38  35  35  34  32  31  28  24  22  17  15  27  35  43  43  51  45  38 
 30  22   6   1   3   3   5   6   4   3   3   2   0   1   3   4   6   7 
  6  11  56 100  95  94  94  90 129 136 166 174 101  86  84  83  83  82 
 82  80  80  76 129 155 163 163 163 162 161 160 160 159 158 158 157 156 
156 155 155 154 154 153 153 152 151 151 150 150 149 149 148 148 148 147 
147 146 146 145 145 144 144 144 143 143 143 142 142 141 141 141 141 140 
140 140 139 139 139 138 138 138 138 137 137 137 137 136 136 136 136 135 
135 135 135 134 134 134 134 134 134 133 133 133 133 133 132 132 132 132 
132 132 131 131 131 131 131 131 131 130 130 130 130 130 130 130 130 129 
129 129 129 129 129 129 129 129 128 128 128 128 128 128 128 128 128 128 
128 128 128 128 128 127 127 127 127 127 127 127 127 127 127 127 127 127 
127 127 127 128 128 128 128 128 128 128 128 128 128 128 128 129 129 129 
129 129 129 130 130 130 130 130 131 131 131 131 132 132 132 133 133 133 
133 134 134 135 135 135 136 136 137 137 138 138 139 139 140 140 141 141 
142 143 143 144 144 145 146 146 147 148 149 149 150 151 152 153 153 154 
155 156 157 158 159 160 161 162 163 164 165 166 167 168 169 170 171 173 
174 175 176 177 179 180 181 182 184 185 186 188 189 190 192 193 194 196 
197 199 200 202 203 205 206 208 209 211 212 214 215 217 219 220 222 223 
225 227 228 230 232 233 235 237 238 240 242 243 245 247 248 250 252 253 
254 252 251 248 247 241 207 155  50  49  47  47  46  44  43  42  40  39 
 37  35  34  32  30  29  28  27  26  24  23  22  20  19  18  16  15  14 
 13  12  10   9   7   7   6   6   3   2   1   1   0   3   3   4   4   6 
  0  82  96  94  93  91  92  88 124 136 167 174 150  84  83  84  81  83 
 80  81  78  86 148 164 163 162 162 161 160 160 159 158 158 157 156 156 
155 155 154 153 153 152 151 151 150 150 149 149 148 148 147 147 146 146 
146 145 145 144 144 144 143 143 142 142 142 141 141 141 140 140 139 139 
139 139 138 138 138 137 137 137 137 136 136 136 136 135 135 135 135 134 
134 134 134 134 133 133 133 133 132 132 132 132 132 132 131 131 131 131 
131 131 130 130 130 130 130 130 129 129 129 129 129 129 129 129 128 128 
128 128 128 128 128 128 128 127 127 127 127 127 127 127 127 127 127 127 
127 127 127 126 126 126 126 126 126 126 126 126 126 126 126 126 126 126 
126 126 126 126 126 127 127 127 127 127 127 127 127 127 127 127 128 128 
128 128 128 128 129 129 129 129 130 130 130 130 131 131 131 131 132 132 
132 133 133 134 134 134 135 135 136 136 137 137 138 138 139 139 139 140 
141 142 142 143 143 144 145 145 146 147 148 148 149 150 151 152 153 153 
154 155 156 157 158 159 160 161 162 163 164 165 166 167 168 169 171 172 
173 174 175 177 178 179 180 182 183 184 186 187 188 190 191 193 194 195 
197 198 200 201 203 204 206 207 209 210 212 214 215 217 218 220 222 223 
225 226 228 230 231 233 235 236 238 240 241 243 245 247 248 250 252 253 
254 252 251 249 248 211 207 169  50  49  47  47  46  44  43  41  40  39 
 37  36  34  33  32  30  29  28  26  25  24  22  21  20  19  17  16  14 
 14  12  11  10  10   7   5   5   6   2   3   0   0   2   4   4  11  48 
162  97  96  94  93  91  90  88 124 134 168 172 172 150  83  82  83  81 
 80  78  77 141 164 160 161 162 161 160 160 159 158 157 157 156 156 155 
154 154 153 152 152 151 151 150 150 149 149 148 148 147 147 146 146 145 
145 144 144 143 143 143 142 142 141 141 141 140 140 140 139 139 139 138 
138 138 137 137 137 136 136 136 136 135 135 135 135 134 134 134 134 133 
133 133 133 132 132 132 132 132 132 131 131 131 131 130 130 130 130 130 
130 129 129 129 129 129 129 129 128 128 128 128 128 128 128 127 127 127 
127 127 127 127 127 127 127 126 126 126 126 126 126 126 126 126 126 126 
126 126 125 125 125 125 125 125 125 125 125 125 125 125 125 125 125 125 
125 125 125 125 125 125 126 126 126 126 126 126 126 126 126 126 127 127 
127 127 127 127 128 128 128 128 128 129 129 129 130 130 130 130 131 131 
131 132 132 133 133 133 134 134 135 135 136 136 137 137 138 138 139 138 
140 141 141 142 143 143 144 145 145 146 147 148 148 149 150 151 152 153 
153 154 155 156 157 158 159 160 161 162 163 164 165 167 168 169 170 171 
172 174 175 176 177 179 180 181 182 184 185 187 188 189 191 192 193 195 
196 198 199 201 202 204 205 207 208 210 212 213 215 216 218 220 221 223 
225 226 228 230 231 233 235 236 238 240 241 243 245 246 248 250 252 253 
254 251 250 249 220 209 163  52  50  50  48  47  45  44  43  41  40  38 
 37  36  34  33  31  30  29  27  26  25  23  22  21  20  18  16  16  15 
 13  11  11   9   8   7   6   5   2   3   1   0   0   3   5   7  94 185 
182  99  95  94  91  90  89  87 122 134 172 172 171 171 158 107  84  77 
 76  85 118 164 160 163 162 160 160 160 159 158 157 157 156 155 155 154 
153 153 152 152 151 150 150 149 149 148 148 147 147 146 146 145 145 144 
144 143 143 143 142 142 141 141 140 140 140 139 139 139 138 138 138 137 
137 137 136 136 136 136 135 135 135 134 134 134 134 133 133 133 133 132 
132 132 132 132 131 131 131 131 130 130 130 130 130 130 129 129 129 129 
129 129 128 128 128 128 128 128 127 127 127 127 127 127 127 127 126 126 
126 126 126 126 126 126 125 125 125 125 125 125 125 125 125 125 125 125 
125 125 124 124 124 124 124 124 124 124 124 124 124 124 124 124 124 124 
124 124 124 124 124 124 125 125 125 125 125 125 125 125 125 125 126 126 
126 126 126 126 127 127 127 127 128 128 128 128 129 129 129 129 130 130 
131 131 131 132 132 132 133 133 134 134 135 135 136 136 137 136 138 138 
139 140 140 141 142 142 143 144 144 145 146 147 148 148 149 150 151 152 
153 154 155 155 156 157 158 159 160 161 163 164 165 166 167 168 169 170 
172 173 174 175 177 178 179 181 182 183 185 186 187 189 190 192 193 194 
196 197 199 200 202 203 205 207 208 210 211 213 215 216 218 219 221 223 
224 226 228 229 231 233 234 236 238 240 241 243 245 246 248 250 252 253 
254 251 251 241 213 150  53  51  50  49  48  47  45  44  42  41  40  38 
 37  35  34  33  31  30  29  27  26  24  23  22  20  19  18  17  16  14 
 13  12  10   8   8   7   6   3   3   2   1   1   3   7  54 176 185 184 
182 126  93  93  91  90  90  87 122 136 173 169 170 170 169 168 165 163 
160 163 162 161 163 162 161 160 159 159 158 157 157 156 155 154 154 153 
153 152 151 151 150 150 149 148 148 147 147 146 146 145 145 144 144 143 
143 142 142 142 141 141 140 140 140 139 139 138 138 138 137 137 137 136 
136 136 136 135 135 134 134 134 134 133 133 133 133 132 132 132 132 131 
131 131 131 130 130 130 130 130 130 129 129 129 129 129 128 128 128 128 
128 127 127 127 127 127 127 127 126 126 126 126 126 126 126 125 125 125 
125 125 125 125 125 125 125 124 124 124 124 124 124 124 124 124 124 124 
124 123 123 123 123 123 123 123 123 123 123 123 123 123 123 123 123 123 
123 123 123 123 123 123 124 124 124 124 124 124 124 124 124 124 125 125 
125 125 125 125 126 126 126 126 127 127 127 127 128 128 128 129 129 129 
129 130 130 131 131 132 132 132 133 133 134 134 135 135 136 136 136 138 
137 139 139 140 141 142 142 143 144 144 145 146 147 148 148 149 150 151 
152 153 154 155 156 157 158 159 160 161 162 163 164 165 166 168 169 170 
171 172 173 175 176 177 179 180 181 183 184 185 187 188 190 191 193 194 
195 197 198 200 202 203 205 206 208 209 211 213 214 216 217 219 221 222 
224 226 227 229 231 233 234 236 238 239 241 243 245 246 248 250 252 253 
253 251 250 224 151  47  54  53  51  49  48  47  45  44  42  41  39  38 
 37  35  34  32  31  30  28  27  25  24  23  21  20  19  17  17  15  14 
 12  11  10   9   7   4   4   3   1   0   3  10  55 148 187 186 184 183 
181 150  91  94  90  89  89  86 124 143 171 171 169 170 168 167 167 166 
165 162 162 162 162 160 158 160 159 158 157 157 156 155 154 154 153 153 
152 151 150 150 149 149 148 148 147 147 146 146 145 145 144 144 143 143 
142 142 141 141 140 140 139 139 139 138 138 138 137 137 136 136 136 136 
135 135 134 134 134 134 133 133 133 133 132 132 132 132 131 131 131 131 
130 130 130 130 129 129 129 129 129 128 128 128 128 128 127 127 127 127 
127 127 126 126 126 126 126 126 125 125 125 125 125 125 125 125 124 124 
124 124 124 124 124 124 124 123 123 123 123 123 123 123 123 123 123 123 
123 123 122 122 122 122 122 122 122 122 122 122 122 122 122 122 122 122 
122 122 122 122 122 122 123 123 123 123 123 123 123 123 123 122 124 124 
124 124 124 124 125 125 125 125 126 126 126 126 127 127 127 128 128 128 
129 129 129 130 130 131 131 131 132 132 133 133 134 134 134 136 136 136 
137 138 139 139 140 141 141 142 143 144 144 145 146 147 148 148 149 150 
151 152 153 154 155 156 157 158 159 160 161 162 163 164 166 167 168 169 
170 172 173 174 175 177 178 179 181 182 184 185 186 188 189 191 192 194 
195 197 198 200 201 203 204 206 207 209 211 212 214 216 217 219 221 222 
224 226 227 229 231 232 234 236 238 239 241 243 245 246 248 250 252 253 
254 252 251 227  60  54  54  51  51  49  48  46  45  43  42  41  39  38 
 36  35  34  32  31  29  28  27  25  24  23  21  20  18  17  16  15  14 
 12  10  10   7   7   5   5   2   1   5  45 163 188 186 186 185 183 183 
182 173  89  92  90  89  90  83 129 151 172 171 169 169 168 167 165 163 
164 163 163 162 160 160 160 158 158 157 157 156 155 154 154 153 152 152 
151 150 150 149 149 148 147 147 146 146 145 145 144 144 143 143 142 142 
141 141 140 140 140 139 139 138 138 137 137 137 136 136 136 135 135 135 
134 134 134 133 133 133 133 132 132 132 131 131 131 131 130 130 130 130 
129 129 129 129 129 128 128 128 128 127 127 127 127 127 127 126 126 126 
126 126 126 125 125 125 125 125 125 124 124 124 124 124 124 124 124 123 
123 123 123 123 123 123 123 122 122 122 122 122 122 122 122 122 122 122 
122 122 122 121 121 121 121 121 121 121 121 121 121 121 121 121 121 121 
121 121 121 121 121 122 122 122 122 122 122 122 122 121 122 123 123 123 
123 123 123 124 124 124 124 124 125 125 125 125 126 126 126 127 127 127 
128 128 128 129 129 130 130 131 131 132 132 133 133 134 134 134 135 136 
136 137 138 138 139 140 140 141 142 143 143 144 145 146 147 148 149 149 
150 151 152 153 154 155 156 157 158 159 160 162 163 164 165 166 167 169 
170 171 172 174 175 176 177 179 180 182 183 184 186 187 189 190 192 193 
195 196 198 199 201 202 204 206 207 209 210 212 214 215 217 219 220 222 
224 225 227 229 230 232 234 236 237 239 241 243 244 246 248 250 251 253 
254 250 246  69  56  54  52  53  51  49  48  46  45  43  42  40  39  38 
 36  35  33  32  30  29  28  26  25  24  22  21  19  18  17  16  14  13 
 11  10   9   7   4   2   7  25 120 172 190 189 187 186 186 185 183 181 
179 180  94  92  90  89  87  85 135 163 170 170 169 167 166 165 165 165 
164 162 162 161 160 160 159 158 157 157 156 155 154 154 153 152 152 151 
150 150 149 148 148 147 147 146 145 145 144 144 143 143 142 142 141 141 
140 140 139 139 139 138 138 137 137 137 136 136 135 135 135 134 134 134 
133 133 133 133 132 132 132 131 131 131 130 130 130 130 129 129 129 129 
128 128 128 128 128 127 127 127 127 127 126 126 126 126 126 125 125 125 
125 125 125 124 124 124 124 124 124 124 123 123 123 123 123 123 123 122 
122 122 122 122 122 122 122 122 121 121 121 121 121 121 121 121 121 121 
121 121 121 121 120 120 120 120 120 120 120 120 120 120 120 120 120 120 
120 120 120 120 121 121 121 121 121 121 121 121 121 121 121 122 122 122 
122 122 122 123 123 123 123 123 124 124 124 125 125 125 125 126 126 126 
127 127 128 128 128 129 129 130 130 131 131 132 131 133 133 134 134 135 
136 136 137 138 138 139 140 140 141 142 143 144 144 145 146 147 148 149 
150 151 152 152 154 154 156 157 158 159 160 161 162 163 164 166 167 168 
169 170 172 173 174 176 177 178 180 181 183 184 185 187 188 190 191 193 
194 196 197 199 200 202 204 205 207 208 210 212 213 215 217 218 220 222 
223 225 227 229 230 232 234 236 237 239 241 243 244 246 248 250 251 253 
253 252 147  57  57  54  54  52  51  49  48  46  45  43  42  40  39  37 
 36  34  33  32  30  29  27  26  25  23  22  20  19  18  16  14  15  12 
 10   5   2  13  44  87 160 193 192 191 189 188 188 186 185 184 182 182 
181 180 100  89  90  88  88  88 137 167 170 169 169 167 166 166 165 164 
163 161 161 159 160 159 157 157 157 156 155 154 154 153 152 151 151 150 
150 149 148 148 147 146 146 145 145 144 144 143 143 142 142 141 141 140 
140 139 139 138 138 137 137 137 136 136 135 135 135 134 134 134 133 133 
133 132 132 132 131 131 131 130 130 130 130 129 129 129 129 128 128 128 
128 127 127 127 127 126 126 126 126 126 126 125 125 125 125 124 124 124 
124 124 124 123 123 123 123 123 123 123 122 122 122 122 122 122 122 121 
121 121 121 121 121 121 121 121 121 120 120 120 120 120 120 120 120 120 
120 120 120 120 120 120 120 119 119 119 119 119 119 119 119 119 119 119 
119 119 120 120 120 120 120 120 120 120 120 120 119 120 120 115 121 121 
121 121 122 122 122 122 122 123 123 123 123 124 124 124 125 125 125 126 
126 126 127 127 127 128 128 129 129 130 130 131 131 132 119 133 134 134 
135 136 136 137 137 138 139 140 140 141 142 143 144 145 145 146 147 148 
149 150 151 152 153 154 155 156 157 158 159 160 161 163 164 165 166 167 
169 170 171 173 174 175 176 178 179 181 182 183 185 186 188 189 191 192 
194 195 197 198 200 202 203 205 206 208 210 211 213 215 216 218 220 222 
223 225 227 228 230 232 234 235 237 239 241 243 244 246 248 250 251 253 
254 249  56  58  55  54  53  52  50  50  47  46  45  42  42  40  39  36 
 36  34  33  31  30  29  27  26  24  22  22  19  18  17  16  13  11   9 
 26  89 162 197 195 196 191 178 171 173 183 188 187 185 185 183 182 180 
180 179 106  90  89  87  87  95 139 170 170 169 168 167 166 165 164 163 
162 162 161 160 159 158 157 157 156 155 154 154 153 152 151 151 150 150 
149 148 147 147 146 146 145 145 144 144 143 141 141 130  88  58  26   3 
  2   1   3   4  26  50  84 128 135 135 135 134 133 134 133 133 131 132 
132 132 131 131 130 130 130 130 129 129 129 129 128 128 128 128 127 127 
127 127 126 126 126 126 125 125 125 125 124 124 122 124 124  99  64  42 
 42  43  42  41  65  85 119 122 122 122 122 121 121 121 121 121 121 121 
121 120 120 120 120 120 120 120 120 120 119 119 119 119 119 119 119 119 
119 119 119 119 119 119 119 119 119 119 119 119 118 118 119 119 119 119 
119 118 119 119 119 119 119 119 119 119 119 117 119  79 114  93 120 120 
120 120 121 121 121 121 122 122 122 122 123 123 123 123 124 123 124 124 
125 125 125 126 127 127 128 128 129 129 129 130 120  75  45 132 133 133 
133 135 135 136 137 137 138 139 140 140 141 142 143 144 145 145 146 147 
148 149 150 151 152 153 154 155 156 157 159 160 161 162 163 164 166 167 
168 169 171 172 173 175 176 177 179 180 182 183 184 186 187 189 190 192 
193 195 197 198 200 201 203 204 206 208 209 211 213 214 216 218 220 221 
223 225 226 228 230 232 234 235 237 239 241 242 244 246 248 250 251 253 
253 207 127  85  45  48  51  51  49  47  45  46  44  43  41  39  39  37 
 36  33  32  32  29  28  27  25  24  25  36  51  67  84 123 147 169 193 
202 200 198 198 193 164 153 152 152 150 149 152 164 184 184 182 181 181 
179 178 112  90  87  86  87 105 153 170 169 168 167 166 166 164 164 163 
162 161 160 159 159 158 157 156 155 153 154 153 152 151 151 150 150 149 
148 147 146 146 145 145 144 143  80  23  18  47  78  93  92  91  89  91 
 89  90  91  90  92  94  96 100  83  58  29   6  58 118 131 131 132 131 
131 131 130 129 130 129 129 129 129 128 128 128 127 127 127 127 126 126 
126 126 125 125 125 124 125 123 114  54   1  37  65  90 110 111 107 108 
107 109 109 108 109 112 112  95  73  45   9  42 102 119 120 119 120 120 
120 120 119 119 119 119 118 119 119 118 119 119 118 118 118 118 118 118 
118 118 118 118 118 118 118 118 118 118 118 118 118 118 118 118 118 118 
118 118 117 118 117 118 118 118 118 117 118 101  47 134 128  92 119 119 
119 120 120 120 120 120 121 121 121 121 122 122 122 123 122 123 123 124 
123 125 125 126 126 125 127 127 128 127 129   1 112 125  44 132 132 133 
133 133 135 135 136 137 137 138 139 140 141 141 142 143 144 145 146 147 
148 149 149 151 151 153 154 155 156 157 158 159 160 161 163 164 165 166 
167 169 170 171 173 174 175 177 178 180 181 183 184 185 187 188 190 191 
193 195 196 198 199 201 202 204 206 207 209 211 212 214 216 218 219 221 
223 225 226 228 230 232 233 235 237 239 241 242 244 246 248 250 251 253 
252 252 250 248 244 165  83  62  47  48  47  44  43  44  41  40  38  37 
 35  34  33  30  31  28  27  24  24  19 133 181 174 172 177 203 204 203 
200 200 199 196 159 156 157 154 154 153 149 149 147 149 179 182 181 180 
177 178 113  90  87  87  86 115 170 170 169 168 167 166 165 164 163 162 
161 160 159 159 158 157 156 156 154 154 153 152 152 151 149 150 149 148 
147 146 145 146 130  85  16  93  88  83  82  82  83  85  84  84  86  86 
 86  86  88  88  90  90  89  90  89  90  90  91  97 101  51  47 108 128 
130 130 129 129 129 129 128 127 128 128 127 127 127 126 126 126 126 124 
125 124 125 124 120 103  43  60 111 106 101 100 100 102 100 101 102 102 
103 102 102 102 103 101 104 104 103 103 104 109 116  79  26  96 113 119 
119 118 119 119 117 118 118 117 118 118 118 118 118 118 117 117 117 117 
117 117 117 117 117 117 117 117 117 117 117 117 117 117 117 117 117 117 
117 117 117 117 117 116 117 116 117 109  18 137 130 131 130  91 118 118 
119 119 119 119 119 120 120 120 120 121 121 121 121 122 122 121 123 123 
124 124 123 125 125 126 125 126 126  69 114 124 119 123  44 131 131 132 
132 133 134 135 135 136 137 137 138 139 140 141 142 142 143 144 145 146 
147 148 149 150 151 152 153 154 155 156 157 158 160 161 162 163 165 166 
167 168 170 171 172 174 175 176 178 179 181 182 184 185 187 188 190 191 
193 194 196 197 199 201 202 204 206 207 209 211 212 214 216 217 219 221 
223 224 226 228 230 231 233 235 237 239 240 242 244 246 248 250 251 253 
253 252 249 248 247 245 244 226 187  70  39  44  44  43  41  40  38  38 
 35  34  31  32  29  28  26  25  24  21  20 130 171 168 167 193 204 202 
200 199 197 180 161 145 103  93 110 151 157 149 147 146 146 176 180 180 
179 178 116  87  86  85  84 138 170 168 168 167 166 165 164 163 163 162 
161 160 159 158 157 156 156 155 154 153 153 152 150 150 150 149 148 147 
147 146 117  21  66  82  82  81  82  82  81  83  83  83  83  85  86  86 
 86  87  87  87  88  89  89  90  91  89  92  91  93  92  93  96  87  60 
 47 129 129 127 127 128 128 127 126 127 126 126 125 126 125 125 125 125 
123 124 124  32  72  94 104 101 100 102 101 101 100 101 102 102 102 102 
102 103 103 103 102 103 103 104 104 105 104 104 104 105 108 102  77  14 
117 118 116 118 118 117 117 117 117 117 116 117 117 117 117 117 117 116 
116 116 116 116 116 116 116 116 116 116 116 116 116 116 116 116 116 116 
116 116 116 115 116 116 115 115  57 106 133 130 132 131 130  90 117 118 
118 118 118 118 119 119 119 119 120 120 120 120 121 121 121 121 122 122 
123 123 123 124 124 124 125 111  76 121 123 121 120 125  43 130 131 130 
132 133 133 134 135 135 136 137 138 138 139 140 141 142 143 144 144 145 
146 147 148 149 150 151 152 153 154 156 157 158 159 160 161 163 164 165 
166 168 169 170 172 173 174 176 177 179 180 182 183 185 186 188 189 191 
192 194 195 197 199 200 202 204 205 207 209 210 212 214 215 217 219 221 
222 224 226 228 230 231 233 235 237 239 240 242 244 246 248 250 251 253 
252 251 250 249 246 246 243 241 241 240 192 105  45  40  40  40  39  36 
 34  34  32  31  29  28  25  25  22  22  19  26 159 172 167 166 200 201 
200 197 198 149  42   8   6   6   9  11  32 104 150 146 144 151 179 177 
178 177 113  88  87  86  86 164 167 169 168 167 166 165 164 163 162 161 
160 159 158 158 157 156 155 154 153 153 152 150 150 149 149 146 147 147 
 95  16  91  81  79  81  81  83  81  83  83  83  83  85  85  85  86  86 
 87  87  88  88  89  89  90  90  91  91  90  93  92  92  95  93  95  96 
102  73  38 124 127 125 127 126 126 126 126 125 125 125 125 124 122 124 
 96  14  92 110 100 102 101 102 102 101 102 102 102 103 101 103 103 103 
102 103 103 105 103 103 104 104 104 105 107 104 106 105 105 105 106 114 
105   4  93 116 117 117 117 115 116 114 116 116 116 116 116 116 116 116 
116 116 115 115 115 115 115 115 115 115 115 115 115 115 115 115 115 115 
115 115 115 115 115 116  86  46 139 134 131 133 132 132 132  91 117 117 
117 117 117 118 118 118 118 119 119 119 119 120 120 120 121 121 121 122 
122 122 123 122 124 117   2 129 124 124 120 121 121 127  44 129 130 130 
130 132 133 133 134 135 135 136 137 138 139 139 140 141 142 143 144 145 
146 147 148 149 150 151 152 153 154 155 156 157 159 160 161 162 163 165 
166 167 169 170 171 173 174 175 177 178 180 181 183 184 186 187 189 190 
192 193 195 197 198 200 202 203 205 207 208 210 212 213 215 217 219 220 
222 224 226 228 229 231 233 235 237 238 240 242 244 246 248 249 251 253 
253 251 248 249 247 245 244 243 241 239 237 236 221  87  38  38  38  35 
 34  33  31  30  28  27  27  25  23  21  20  18  30 165 169 166 180 202 
200 199 181   3   3   4   1   0   2   3   4   6  31 148 146 141 168 178 
177 176 113  89  85  82 121 169 169 167 167 166 165 164 163 162 161 160 
160 159 158 157 156 155 155 154 153 152 151 150 149 149 147 146 136  26 
 80  78  79  80  80  81  81  82  83  83  84  85  85  85  86  86  87  88 
 88  88  89  89  88  89  90  92  90  92  92  93  92  93  94  94  94  94 
 95  96  98  93  74 125 126 126 125 125 125 125 124 124 123 124 122   3 
 99 101 101 101 101 101 101 102 102 102 101 103 103 103 104 103 103 103 
104 104 104 104 104 106 105 104 105 106 105 106 106 106 107 106 105 105 
107 108 113  17 110 116 116 116 116 115 114 115 115 115 115 115 115 115 
115 115 115 115 115 115 115 115 114 114 114 114 114 114 114 114 114 114 
115 115 114 115 112   4 140 134 133 133 133 133 133 132 131  89 116 116 
116 117 117 117 117 117 118 118 118 118 119 119 119 120 120 120 120 121 
121 121 122 122  60 127 124 125 123 123 123 121 121 127  41 129 129 130 
130 131 132 133 133 134 135 136 136 137 138 139 140 140 141 142 143 144 
145 146 147 148 149 150 151 152 153 155 156 157 158 159 160 162 163 164 
165 167 168 170 171 172 174 175 176 178 179 181 182 184 185 187 188 190 
192 193 195 196 198 200 201 203 205 206 208 210 211 213 215 217 218 220 
222 224 226 227 229 231 233 235 237 238 240 242 244 246 248 249 251 253 
252 251 250 248 247 246 242 243 241 239 236 236 234 232 192  82  31  35 
 33  32  32  31  29  27  26  23  23  21  20  17  16  80 174 166 163 194 
198 199  33   4   2   2   1   1   4   3   4   5  11  26 148 142 157 179 
177 176 112  86  86  89 167 169 169 168 167 166 165 164 163 162 161 160 
159 158 157 157 155 155 154 153 152 152 150 150 149 148 147  34  70  79 
 78  79  80  80  81  81  82  82  83  85  84  85  86  86  85  88  87  88 
 87  89  89  90  90  90  90  90  92  92  93  93  93  94  94  95  96  95 
 96  97  97  96 105  41 108 124 125 125 124 124 124 121 123  24  82 107 
102 102 101 102 103 101 103 102 103 103 103 103 104 104 105 104 104 104 
105 104 105 105 105 105 106 107 106 105 105 107 107 107 107 107 108 107 
107 106 108 111  91  11 115 114 115 114 115 115 114 114 114 114 114 114 
114 114 114 114 114 114 114 114 114 114 114 114 114 114 114 114 114 114 
114 113 114  35  98 141 135 135 135 134 133 135 133 133 133  89 115 115 
116 116 116 116 116 117 117 117 117 118 118 118 119 119 119 118 120 120 
121 121  86  65 133 126 126 124 124 123 123 122 122 128  41 128 129 129 
130 129 131 132 133 133 134 135 136 136 137 138 139 140 141 142 143 143 
145 145 147 147 149 150 151 152 153 154 155 156 158 159 160 161 162 164 
165 166 168 169 170 172 173 175 176 177 179 180 182 183 185 186 188 190 
191 193 194 196 198 199 201 203 204 206 208 209 211 213 215 217 218 220 
222 224 225 227 229 231 233 235 236 238 240 242 244 246 248 249 251 253 
253 252 250 249 247 245 244 242 241 238 237 236 234 233 231 230 141  42 
 34  32  31  29  29  27  26  25  23  21  20  17  17   6 122 166 163 167 
200 184  14   4   2   3   1   1   2   4   5   7   8  14  58 146 152 178 
177 176 111  88  86 112 169 168 168 167 166 165 164 163 162 161 160 159 
159 158 157 156 155 154 153 152 152 151 150 148 149 134  15  82  77  79 
 78  79  80  81  81  82  82  83  84  84  85  85  86  87  87  88  88  89 
 90  90  90  91  91  91  92  92  93  93  93  94  94  95  95  95  96  96 
 96  97  98  97 103  10 125 124 124 124 124 122 123 100  57 108 101 101 
102 102 102 103 102 103 103 103 103 104 104 104 104 104 105 105 105 105 
104 106 105 107 106 106 106 106 107 107 107 107 108 107 106 109 107 109 
108 110 107 108 108 115  64  91 114 113 114 114 114 114 114 114 114 113 
113 113 113 113 113 113 113 113 113 113 113 113 113 113 113 113 113 113 
113  85  65 142 136 136 135 135 134 134 135 132 134 134 132  87 115 115 
115 115 115 115 116 116 116 116 117 117 117 118 118 118 117 119 117 120 
105   7 134 128 127 126 126 125 125 124 124 123 124 128  41 127 127 129 
129 130 131 131 132 133 133 134 135 136 137 138 138 139 140 141 142 143 
144 145 146 147 148 149 150 151 152 154 155 156 157 158 159 161 162 163 
165 166 167 169 170 171 173 174 176 177 178 180 181 183 185 186 188 189 
191 193 194 196 197 199 201 202 204 206 208 209 211 213 215 216 218 220 
222 224 225 227 229 231 233 235 236 238 240 242 244 246 248 249 251 253 
253 252 250 249 247 246 244 242 241 239 238 236 235 233 232 230 227 211 
 70  27  31  31  28  27  25  24  22  21  20  17  16  13  26 162 164 164 
189 184  14   3   2   2   0   1   2   3   5   6   8   9   9 121 163 178 
177 175 107  84  81 160 170 169 168 167 166 165 164 163 162 161 160 159 
158 156 156 154 154 154 153 152 151 150 149 149 125  58  78  77  78  78 
 79  80  81  81  82  82  83  84  84  85  86  86  87  87  88  88  89  89 
 90  90  91  91  92  92  92  93  93  94  94  94  95  96  96  96  96  96 
 97  96  98 100  15 123 123 124 123 123 122 123  36  94 103 101 103 102 
102 102 103 103 103 103 104 104 104 104 105 105 105 105 105 105 106 106 
106 106 106 106 107 107 107 107 107 107 108 108 108 108 108 108 108 109 
109 109 109 109 109 110 110 105  19 112 112 113 113 113 113 112 113 113 
113 113 113 113 112 112 112 112 112 112 112 112 112 112 112 112 112 112 
 33 130 138 137 135 136 134 135 135 135 135 135 135 135 133  87 114 113 
114 114 115 115 115 115 115 116 116 116 117 117 117 117 118 117 118  32 
117 130 129 128 127 127 126 126 125 125 124 124 123 129  40 127 127 128 
129 129 130 131 131 132 133 134 135 135 136 137 138 139 140 140 142 142 
143 144 145 146 148 148 150 151 152 153 154 155 157 158 159 160 162 163 
164 165 167 168 170 171 172 174 175 177 178 180 181 183 184 186 187 189 
191 192 194 195 197 199 200 202 204 206 207 209 211 213 214 216 218 220 
222 223 225 227 229 231 233 234 236 238 240 242 244 246 247 249 251 253 
253 252 250 249 247 246 244 242 241 239 238 236 235 233 231 230 228 227 
225 130  25  29  26  27  25  23  22  21  19  17  16  15  10  63 169 161 
167 198  26   3   1   1   0   1   3   4   3   6   8   9  11 107 179 177 
176 175 103  86 124 171 169 167 167 166 165 164 163 162 161 160 160 158 
158 157 156 155 154 153 152 151 151 149 149 107  71  79  77  79  78  79 
 80  81  81  82  82  83  84  84  85  86  86  87  87  88  88  89  89  90 
 90  91  91  91  92  93  93  94  94  94  95  95  95  96  95  98  97  98 
 99  98 102   9 123 122 123 123 122 122 121  20 113 102 102 103 102 103 
103 103 103 104 104 104 104 105 105 105 105 105 105 106 106 106 106 107 
107 107 107 107 107 108 108 108 108 108 108 108 109 109 109 109 109 109 
109 109 110 110 109 111 110 110 118  24 112 112 112 112 111 112 112 111 
112 112 112 112 112 112 111 112 112 112 112 112 112 112 112 112  32 105 
143 135 136 136 136 136 136 136 136 136 136 135 135 135 134  86 112 113 
113 113 114 114 114 115 115 115 115 116 116 116 116 117 117  69  65 137 
130 130 130 128 128 127 127 126 126 125 125 124 124 129  39 126 127 127 
128 129 129 130 131 132 132 133 134 135 135 136 137 138 139 140 141 142 
143 144 145 146 147 148 149 150 151 153 154 155 156 157 159 160 161 162 
164 165 166 168 169 171 172 173 175 176 178 179 181 182 184 186 187 189 
190 192 193 195 197 199 200 202 204 205 207 209 211 212 214 216 218 220 
221 223 225 227 229 231 232 234 236 238 240 242 244 246 247 249 251 253 
253 252 250 249 247 245 244 242 241 239 238 236 234 233 231 230 227 227 
223 224 189  37  28  26  24  24  23  20  20  17  17  15  13  10 117 162 
159 188 140   3   1   0   0   2   3   3   8   7   9  10  10 120 177 176 
176 175  96  93 165 170 168 167 167 166 165 164 163 162 161 160 159 158 
157 156 154 153 153 152 152 151 150 149 127  69  76  78  78  78  79  80 
 80  81  82  82  83  83  84  85  85  86  87  87  88  88  89  89  90  90 
 91  91  92  92  93  93  94  94  95  95  95  96  95  96  98  96  98  99 
 98 101  28 123 121 123 123 121 121 117  78 104 104 102 102 103 103 104 
104 104 104 104 105 105 105 105 105 105 106 106 106 106 107 107 107 107 
107 107 108 108 108 108 108 108 109 109 109 109 109 109 109 110 110 110 
110 110 110 110 110 111 110 111 112 112  78 101 112 112 112 112 111 111 
111 111 111 111 111 111 111 111 111 111 110 110 111 110  92  97 141 137 
138 137 137 138 137 137 137 137 136 136 136 136 136 136 135  85 113 112 
113 113 112 112 114 114 114 114 115 115 115 115 116 109  36 137 132 129 
130 130 128 129 128 128 127 127 126 126 125 125 124 130  39 125 126 127 
127 128 129 129 130 131 132 133 133 134 135 136 137 138 139 139 140 141 
142 143 144 145 147 148 149 150 151 152 153 154 156 157 158 159 161 162 
163 165 166 167 169 170 172 173 175 176 177 179 181 182 184 185 187 188 
190 192 193 195 197 198 200 202 203 205 207 209 210 212 214 216 218 219 
221 223 225 227 229 230 232 234 236 238 240 242 244 246 247 249 251 253 
253 252 250 249 247 245 244 242 241 239 238 236 234 233 231 230 228 227 
225 222 222 199  54  25  24  22  21  20  19  17  16  14  13  12  32 169 
159 166 196  75   2   1   1   3   4   6   7   9   9  11  12 146 178 177 
175 172  86 152 171 169 169 167 167 165 165 163 163 161 161 159 159 157 
157 156 155 154 151 152 151 150 149 129  64  78  76  78  78  79  79  80 
 81  82  82  83  83  84  85  85  86  87  87  88  88  89  89  90  90  91 
 91  92  92  93  93  94  94  95  95  96  96  96  97  97  96  99  99  98 
103  31 124 123 123 122 122 122 101  78 104 103 103 103 103 104 103 104 
104 104 105 105 105 105 105 106 106 106 106 107 107 107 107 107 107 108 
108 108 108 108 109 109 109 109 109 109 109 110 110 110 110 110 110 111 
111 111 111 111 111 111 112 112 110 112 115  87  86 110 111 111 111 111 
111 111 110 111 111 110 110 110 110 110 110 109 110  39 131 139 139 139 
138 139 137 137 136 137 137 138 137 137 137 137 137 136 135  85 112 111 
112 113 113 113 112 113 114 114 114 114 115 115   8 108 137 133 133 131 
131 130 130 129 129 128 128 127 127 126 126 125 125 130  38 125 126 126 
127 128 128 129 130 131 131 132 133 134 134 135 136 137 138 139 140 141 
142 143 144 145 146 147 148 149 150 152 153 154 155 156 158 159 160 162 
163 164 166 167 168 170 171 173 174 176 177 179 180 182 183 185 186 188 
190 191 193 195 196 198 200 201 203 205 207 208 210 212 214 216 217 219 
221 223 225 227 228 230 232 234 236 238 240 242 244 245 247 249 251 253 
253 252 250 249 247 245 244 242 241 239 237 236 234 233 231 230 227 226 
225 222 222 220 209  58  22  22  23  19  19  16  16  13  12  11   3  94 
164 158 190 193  61   1   3   2   4   7   6   7   9  15  46 178 175 175 
172 139 126 172 170 170 167 167 166 165 164 163 162 161 160 159 158 157 
156 155 154 154 153 152 151 150 149  15  76  75  80  80  80  79  80  81 
 81  82  83  83  84  85  85  86  87  87  88  88  89  89  90  90  91  91 
 92  92  93  93  94  94  95  95  96  96  96  97  97  98  99  98  99 102 
 66 118 122 123 122 121 122  89 103 103 103 104 103 103 104 103 105 104 
105 105 105 105 106 106 106 106 107 107 107 107 107 108 108 108 108 108 
109 109 109 109 109 109 110 110 110 110 110 110 110 111 111 111 111 111 
111 111 111 112 112 112 111 112 114 113 113 112  89  92 109 110 110 109 
110 110 110 110 110 110 110 110 109 110 109  40 132 141 138 138 139 138 
139 138 138 138 139 138 138 138 138 138 137 137 137 137 136  84 110 112 
111 112 111 112 113 113 113 113 114 114  70  91 140 133 134 133 132 132 
132 131 130 130 129 129 129 128 128 127 126 126 125 131  38 124 125 126 
126 127 128 128 129 130 131 131 132 133 134 135 136 137 138 138 139 140 
141 142 144 144 146 147 148 149 150 151 152 154 155 156 157 159 160 161 
163 164 165 167 168 169 171 172 174 175 177 178 180 181 183 185 186 188 
189 191 193 194 196 198 200 201 203 205 207 208 210 212 214 215 217 219 
221 223 225 226 228 230 232 234 236 238 240 242 244 245 247 249 251 253 
253 252 250 249 247 245 244 242 241 239 237 236 234 233 231 229 228 226 
225 223 222 219 219 213  67  21  21  21  18  17  15  15  13  12   8  14 
147 159 173 194 193 147  12   9   5   5   5  10  17  66 175 178 177 175 
145  86 156 171 170 169 167 167 165 165 164 163 162 161 160 159 158 157 
156 155 154 152 152 151 151 150  42  83  74  77  77  78  79  80  80  81 
 82  83  83  84  84  85  86  86  87  88  88  89  89  90  90  91  91  92 
 92  93  93  94  94  95  95  96  96  97  97  97  98  98  97  99  99  88 
122 123 122 122 122 120 111  91 102 103 103 103 104 104 104 105 105 105 
105 106 106 106 106 107 107 107 107 107 107 108 108 108 108 109 109 109 
109 109 109 110 110 110 110 110 110 111 111 111 111 111 111 111 111 112 
112 112 112 112 113 112 113 113 113 114 113 113 113 103  87 109 109 110 
109 109 109 109 109 109 108 107 109  86 108 140 140 139 139 139 138 140 
139 139 140 139 138 139 137 138 138 138 138 138 138 138 137  84 111 111 
111 111 112 112 111 112 112 112 113  63 133 135 135 134 133 133 133 132 
131 131 131 130 130 130 129 129 128 128 127 126 126 131  37 124 124 125 
126 127 127 128 129 130 130 131 132 133 133 134 135 136 137 138 139 140 
141 142 143 144 145 146 147 149 150 151 152 153 154 156 157 158 159 161 
162 164 165 166 168 169 171 172 173 175 176 178 180 181 183 184 186 188 
189 191 192 194 196 198 199 201 203 205 206 208 210 212 213 215 217 219 
221 223 225 226 228 230 232 234 236 238 240 242 243 245 247 249 251 253 
253 252 250 249 247 245 244 242 240 239 237 236 234 233 231 229 228 226 
224 223 220 220 218 215 210  68  17  19  16  18  15  13  12  11   9   7 
 95 159 156 194 191 190 189 144  98  76  76  98 151 181 178 177 175 147 
108  63 164 170 169 169 168 167 165 163 163 162 161 160 159 158 157 156 
155 155 153 153 151 151 149 130  71  75  76  78  78  80  78  80  81  81 
 82  83  84  84  85  85  86  87  88  88  89  90  91  91  92  92  92  93 
 94  93  94  94  96  96  97  96  97  97  98  98  98 100  99  98 106  75 
122 121 121 121 120 112  81 104 105 102 104 104 105 103 105 105 105 105 
106 106 106 106 107 107 107 107 108 108 108 108 109 109 109 109 109 109 
110 110 110 110 110 110 111 111 111 111 111 111 112 112 112 112 112 112 
112 112 113 113 112 113 113 113 113 113 114 112 115 114  79 103 109 109 
109 108 109 109 108 108 109 102  29 145 140 140 140 139 138 138 140 138 
139 139 139 139 139 138 140 138 139 139 139 138 138 138 137  83 110 110 
111 110 111 111 111 112 112  11 123 140 136 136 134 134 134 133 133 133 
132 131 132 131 130 130 130 129 129 128 127 127 126 132  37 123 124 125 
125 126 127 127 128 129 130 131 131 132 133 134 135 136 137 138 139 139 
141 142 143 144 145 146 147 148 149 150 152 153 154 155 157 158 159 160 
162 163 165 166 167 169 170 172 173 175 176 178 179 181 182 184 186 187 
189 191 192 194 196 197 199 201 203 204 206 208 210 211 213 215 217 219 
221 223 224 226 228 230 232 234 236 238 240 242 243 245 247 249 251 253 
253 252 250 249 247 245 244 242 240 239 237 236 234 232 231 229 227 226 
225 223 221 219 217 217 214 209  47  18  17  16  15  15  12  11   8   7 
  7 164 156 180 191 191 188 188 187 184 184 183 182 179 178 177 147 124 
 56  83 171 171 168 168 167 166 165 164 163 162 161 160 159 158 157 156 
155 154 153 152 151 149 150  33  77  76  77  78  78  79  80  81  81  82 
 83  83  84  85  85  86  87  87  88  89  90  91  91  92  90  88  85  84 
 83  85  87  91  96  97  97  98  97  98  98  98  99  99 100 105   5 122 
122 122 121 120 121  57 106 103 104 104 104 105 105 105 105 106 105 106 
106 107 107 107 107 108 108 108 108 108 109 109 109 109 109 110 110 110 
110 110 110 111 111 111 111 111 111 112 112 112 112 112 112 113 113 113 
113 113 113 113 113 114 114 114 114 114 114 114 116 114 116  76 105 109 
108 108 107 107 108 104  34 147 141 141 140 140 140 140 141 141 140 140 
140 140 140 140 140 140 139 139 139 139 139 139 139 139 138  83 110 110 
110 110 110 111 109  75 117 140 136 136 136 135 135 135 134 134 134 133 
133 132 132 131 131 131 130 130 129 129 128 127 127 132  36 123 124 124 
125 126 126 127 128 129 129 130 131 132 133 134 134 135 136 137 138 139 
140 141 142 143 144 145 147 148 149 150 151 152 154 155 156 158 159 160 
161 163 164 166 167 169 170 171 173 174 176 177 179 181 182 184 185 187 
189 190 192 194 195 197 199 201 202 204 206 208 209 211 213 215 217 219 
221 222 224 226 228 230 232 234 236 238 240 241 243 245 247 249 251 253 
253 252 250 248 247 245 244 242 240 239 237 236 234 232 231 229 227 226 
224 223 221 220 218 217 215 214 201  35  18  15  15  14  12  11   9   7 
  0  83 157 170 192 190 189 188 186 185 183 183 181 180 178 147 132  65 
 59 115 171 170 169 168 167 166 165 164 163 162 160 160 158 158 156 156 
155 153 153 152 151 150 140  82  77  76  77  78  79  79  80  81  82  82 
 84  83  85  85  86  86  87  89  88  90  94 101  32  45  85  99 108 115 
120 119 108  94  72  16  66 111 104 100 100  99  99 100 101  61 122 121 
121 121 120 121  10 107 104 105 104 104 105 105 105 105 106 106 106 106 
107 107 107 106 109 107 108 108 109 110 110 110 110 110 110 111 110 112 
115 116 116 114 110 111 112 113 112 112 113 112 113 113 113 112 113 112 
114 112 115 114 114 115 114 114 114 114 114 115 115 116 115 117  26 107 
107 108 108 108 108  93 144 141 140 141 140 140 140 140 140 140 140 140 
140 140 140 140 140 140 140 140 140 140 140 140 139 139 138  82 109 109 
109 110 110 110  29 137 139 137 138 136 136 136 135 135 135 134 134 134 
133 133 132 132 131 131 131 130 129 129 128 128 127 133  36 122 123 124 
125 125 126 127 127 128 129 130 131 131 132 133 134 135 136 137 138 139 
140 141 142 143 144 145 146 147 149 150 151 152 153 155 156 157 159 160 
161 162 164 165 167 168 170 171 173 174 176 177 179 180 182 183 185 187 
188 190 192 193 195 197 199 200 202 204 206 208 209 211 213 215 217 219 
220 222 224 226 228 230 232 234 236 238 240 241 243 245 247 249 251 253 
253 252 250 248 247 245 244 242 240 239 237 235 234 232 231 229 227 226 
224 223 221 220 218 216 215 213 210 177  19  15  14  13  12  11   9   6 
  6  26 154 161 191 189 189 187 185 185 184 181 180 175 144 133  68  60 
 57 162 171 170 169 168 167 165 165 163 162 161 160 159 158 157 156 155 
153 153 152 151 151 149  36  79  77  77  77  78  79  80  80  81  82  83 
 83  85  84  85  86  87  87  87  93  73  13 122 132 131 130 130 129 129 
129 128 128 126 127 126 126 105  16  55  96 103 101 100 108  74 121 121 
121 121 120  69 110 104 106 104 104 104 105 106 106 106 106 107 107 107 
107 108 108 107 107 110 109 109 110 109 109 111 113 118 101  75  58  30 
  8   7   6  21  54  69  91 114 117 114 112 114 113 113 113 113 114 115 
113 114 114 115 115 113 117 114 116 115 115 115 117 115 116 115 129  26 
106 107 107 107 106 138 141 141 142 141 141 141 141 141 141 141 141 141 
141 141 141 141 141 141 140 140 140 140 140 140 140 140 139  82 109 108 
109 109 108 110  67 141 140 137 138 137 137 136 136 135 135 135 134 134 
134 133 133 132 132 131 131 130 130 129 129 128 128 133  35 122 123 123 
124 125 125 126 127 128 128 129 130 131 132 133 134 135 135 136 137 138 
139 140 141 143 144 145 146 147 148 149 150 152 153 154 155 157 158 160 
161 162 164 165 166 168 169 171 172 174 175 177 178 180 182 183 185 187 
188 190 192 193 195 197 198 200 202 204 206 207 209 211 213 215 217 218 
220 222 224 226 228 230 232 234 236 238 239 241 243 245 247 249 251 253 
253 252 250 248 247 245 244 242 240 239 237 235 234 232 231 229 227 226 
224 223 221 219 218 216 215 211 211 210 156   8  13  14  11  10   9   7 
  5   2 139 154 191 190 187 187 185 185 181 182 171 141 140  74  62  62 
 73 171 171 170 168 168 166 165 164 163 162 161 160 159 158 157 156 155 
154 152 152 151 150 146  29  75  77  77  78  79  80  80  81  82  83  83 
 84  84  85  86  87  88  88  88  23 130 131 132 130 131 130 130 129 129 
128 128 127 127 126 126 125 125 124 120 109   5 103 104   2 120 121 121 
121 119 103 101 104 104 104 105 105 105 106 106 106 106 107 107 107 107 
108 108 108 109 109 109 108 109 111 110 110 116  45  69 104 108 111 112 
110 111 111 111 111 108 105  97   3 108 119 113 113 114 114 114 114 114 
114 115 116 114 114 116 115 115 115 115 115 115 116 117 117 119  68 104 
106 107 107 107 107 139 141 141 140 142 141 141 141 141 141 141 141 141 
141 141 141 141 141 141 141 141 141 141 141 140 140 140 139  81 108 107 
109 109 109 109  67 141 139 138 137 137 137 137 136 136 136 135 135 135 
134 134 133 133 132 132 131 131 130 130 129 129 128 134  35 122 122 123 
124 124 125 126 127 127 128 129 130 131 132 132 133 134 135 136 137 138 
139 140 141 142 143 144 146 147 148 149 150 151 153 154 155 156 158 159 
161 162 163 165 166 168 169 171 172 174 175 177 178 180 182 183 185 186 
188 190 191 193 195 197 198 200 202 204 205 207 209 211 213 215 216 218 
220 222 224 226 228 230 232 234 236 237 239 241 243 245 247 249 251 253 
253 252 250 248 247 245 244 242 240 239 237 235 234 232 230 229 227 226 
224 222 221 219 218 216 215 213 211 208 208  90  13  13  12  10  10   6 
  7   0  60 159 178 190 188 187 185 184 182 163 142 137  78  64  63  62 
 97 171 171 169 168 167 166 165 164 163 162 161 160 158 158 156 156 154 
154 153 152 151 150 142  62  76  77  77  78  79  80  81  81  82  83  84 
 84  84  86  85  87  89  94   8 134 132 132 131 131 130 130 129 129 128 
128 127 127 126 126 125 124 124 124 124 123 122 111  32 114 120 120 120 
119 120  14 105 105 105 106 105 106 106 106 106 107 107 107 107 108 108 
108 108 108 110 109 110 111 109 119  91  14  95 111 112 110 111 110 111 
111 111 111 110 110 110 110 110 110 109  48  47 123 114 114 114 115 115 
115 115 114 116 115 115 115 117 115 116 116 117 116 116 122   2 106 106 
106 107 106 105 105 138 142 142 142 141 142 142 142 142 142 142 142 142 
142 142 142 142 142 141 141 141 141 141 141 141 141 141 139  81 108 108 
108 107 109 109  68 142 139 138 138 138 137 137 137 136 136 136 135 135 
135 134 134 133 133 132 132 131 131 130 130 129 129 134  35 121 122 123 
123 124 125 125 126 127 128 129 129 130 131 132 133 134 135 136 137 138 
139 140 141 142 143 144 145 146 147 149 150 151 152 154 155 156 158 159 
160 162 163 165 166 167 169 170 172 173 175 177 178 180 181 183 184 186 
188 190 191 193 195 196 198 200 202 204 205 207 209 211 213 215 216 218 
220 222 224 226 228 230 232 234 235 237 239 241 243 245 247 249 251 253 
253 252 250 248 247 245 243 242 240 239 237 235 234 232 230 229 227 226 
224 222 221 219 218 216 214 212 210 210 208 207  27  12  12   9   8   8 
  5   2   4 154 167 190 187 185 185 182 153 142 138  75  65  64  63  55 
143 171 170 169 168 167 166 165 163 163 161 160 159 158 157 156 155 154 
152 152 151 151 149 126  85  76  78  78  79  79  80  81  82  82  83  84 
 85  85  86  87  89  88  43 134 131 133 131 131 131 130 130 129 128 128 
127 127 126 126 125 125 125 124 124 123 122 123 121 122 121 121 120 120 
120  80 118 104 106 105 105 105 106 107 106 107 107 107 108 108 108 108 
109 108 110 109 109 111 112 104   1 111 112 112 112 111 111 110 111 109 
111 110 109 110 110 110 110 109 108 109 109 109  60  99 117 115 115 116 
115 114 116 114 116 116 116 115 116 116 117 116 120 105  62 106 105 106 
105 106 106 105 106 138 144 141 143 142 142 142 142 142 142 142 142 142 
142 142 142 142 142 142 142 142 142 141 141 141 141 141 140  80 108 107 
107 108 108 108  68 142 140 139 138 138 138 137 137 137 136 136 136 135 
135 135 134 134 133 133 132 132 131 131 130 130 129 134  34 121 122 122 
123 124 124 125 126 127 127 128 129 130 131 132 133 133 134 135 136 137 
138 139 141 141 143 144 145 146 147 148 150 151 152 153 155 156 157 159 
160 161 163 164 166 167 169 170 172 173 175 176 178 179 181 183 184 186 
188 189 191 193 195 196 198 200 202 203 205 207 209 211 213 214 216 218 
220 222 224 226 228 230 232 233 235 237 239 241 243 245 247 249 251 253 
253 252 250 248 247 245 243 242 240 238 237 235 234 232 230 229 227 225 
224 222 221 219 218 216 214 211 211 210 207 207 179  16  10   9   9   6 
  4   3   0 111 156 189 188 187 169 148 145 134  74  63  66  64  63  76 
173 170 170 169 168 167 166 164 163 162 161 160 159 158 157 156 155 154 
153 151 151 149 149  69  81  75  78  78  79  80  80  81  82  83  83  84 
 85  86  86  88  88  96  74 133 133 132 132 131 130 130 128 129 128 127 
127 127 126 126 125 125 124 124 123 123 123 121 122 121 121 119 120 119 
116  71 104 104 105 105 105 106 106 107 107 107 107 108 108 108 108 109 
109 109 109 109 111 114  60  85 111 112 111 111 111 111 111 111 110 110 
110 110 110 110 110 109 109 109 109 109 108 107 108 102  10 127 115 115 
116 117 115 116 116 116 117 117 116 117 117 123  54  91 106 104 106 105 
106 106 106 106 104 140 141 143 143 143 143 143 143 143 143 143 143 143 
143 142 142 142 142 142 142 142 142 142 142 142 142 141 140  80 107 107 
107 107 108 108  69 142 140 139 139 138 138 138 138 137 137 136 136 136 
135 135 134 134 134 133 133 132 132 131 130 130 129 135  34 121 121 122 
123 123 124 125 125 126 127 128 129 130 130 131 132 133 134 135 136 137 
138 139 140 141 142 144 145 146 147 148 149 151 152 153 154 156 157 158 
160 161 163 164 165 167 168 170 171 173 174 176 178 179 181 183 184 186 
187 189 191 193 194 196 198 200 201 203 205 207 209 211 212 214 216 218 
220 222 224 226 228 230 231 233 235 237 239 241 243 245 247 249 251 253 
253 252 250 248 247 245 243 242 240 238 237 235 233 232 230 229 227 225 
224 222 221 219 217 216 214 213 210 210 208 207 204  87   6  10   8   6 
  4   4   1  71 152 189 181 159 144 147 124  67  67  67  63  63  59 143 
172 171 170 169 167 166 165 164 163 162 161 160 159 158 157 156 155 154 
153 152 151 150 149  31  81  79  79  78  79  80  81  81  82  83  85  84 
 86  86  88  87  89  93 134 133 132 132 131 130 130 130 129 128 128 127 
127 126 126 125 125 124 124 124 123 122 121 122 121 121 120 120 120 120 
 70 103 106 106 106 106 106 107 107 107 107 107 108 108 108 108 109 109 
109 110 110 111 111  17 112 111 112 111 111 111 111 111 110 110 110 110 
110 110 109 109 109 109 109 109 108 108 108 108 108 106 107  25 117 116 
116 117 116 116 116 116 117 117 117 117 117   4 106 104 106 106 106 105 
104 105 105 105 104 140 144 143 143 143 143 143 143 143 143 143 143 143 
143 143 143 143 143 143 142 142 142 142 142 142 142 142 141  80 106 107 
106 107 108 108  69 144 141 139 139 139 138 138 138 138 137 137 136 136 
136 135 135 134 134 133 133 132 132 131 131 130 130 135  34 120 121 122 
122 123 124 124 125 126 127 128 128 129 130 131 132 133 134 135 136 137 
138 139 140 141 142 143 144 145 147 148 149 150 152 153 154 155 157 158 
160 161 162 164 165 167 168 170 171 173 174 176 178 179 181 182 184 186 
187 189 191 192 194 196 198 199 201 203 205 207 209 210 212 214 216 218 
220 222 224 226 228 229 231 233 235 237 239 241 243 245 247 249 251 253 
253 252 250 248 247 245 243 242 240 238 237 235 233 232 230 229 227 225 
224 222 221 219 217 216 214 212 211 209 208 204 204 203  26   8   8   7 
  6   3   2  38 156 161 149 146 148 109  66  68  67  66  63  62  76 170 
171 170 170 168 167 166 165 164 163 162 161 159 159 157 157 155 155 153 
153 151 151 150 149   0  80  78  79  79  79  80  81  82  82  83  84  85 
 85  86  87  87  89  55 132 132 132 131 131 130 130 129 129 128 128 127 
127 126 126 125 124 124 124 123 123 122 122 121 120 121 120 120 118 118 
 78 107 106 105 106 106 107 107 107 107 107 108 108 108 109 109 109 109 
110 111 109 119  17 111 112 112 112 111 111 111 111 110 110 110 110 110 
110 109 109 109 109 109 108 108 108 108 108 107 108 107 107 107  67 114 
116 117 116 117 118 117 117 119 116 111  78 106 104 105 104 105 105 105 
105 105 105 105 104 140 143 143 143 144 143 143 143 143 143 143 143 143 
143 143 143 143 143 143 143 143 143 143 142 142 142 142 141  79 106 107 
107 107 107 107  70 143 141 140 139 139 139 138 138 138 137 137 137 136 
136 135 135 135 134 134 133 133 132 132 131 130 130 135  33 120 121 121 
122 123 123 124 125 126 126 127 128 129 130 131 132 133 133 135 135 137 
137 139 140 141 142 143 144 145 146 148 149 150 151 153 154 155 157 158 
159 161 162 164 165 167 168 170 171 173 174 176 177 179 180 182 184 186 
187 189 191 192 194 196 198 199 201 203 205 207 208 210 212 214 216 218 
220 222 224 226 227 229 231 233 235 237 239 241 243 245 247 249 251 253 
253 252 250 248 247 245 243 242 239 238 237 235 233 232 230 229 227 225 
224 222 220 219 217 216 214 213 211 209 208 206 204 203 149   9   8   6 
  5   3   1  10 157 150 150 143  92  69  68  68  66  66  63  56 148 173 
171 171 169 168 167 166 165 164 162 162 160 159 158 157 156 155 154 153 
152 151 150 150 148   1  79  77  78  79  80  80  81  82  83  84  84  85 
 86  86  87  89  90  89 132 133 132 131 130 130 129 129 128 128 127 127 
126 126 125 125 124 124 123 123 122 122 121 121 121 120 120 120 119  54 
114 106 105 106 106 106 107 107 107 107 108 108 108 109 110 108 111 111 
111 110 116  37 112 111 111 111 111 111 111 111 110 110 110 110 109 109 
109 109 109 109 108 108 108 108 108 108 107 107 107 107 107 106 106  46 
128 119 118 118 119 118 117 127  42  94 105 104 105 105 105 105 105 105 
105 105 105 105 104 141 144 144 144 144 144 144 144 144 144 145 144 144 
143 143 143 143 143 143 143 143 143 143 143 143 142 142 141  79 106 106 
107 107 107 107  70 143 141 139 140 139 139 138 139 138 138 137 137 137 
136 136 135 136 134 134 133 133 132 132 131 131 130 136  33 120 120 121 
122 122 123 124 125 125 126 127 128 129 130 130 131 132 133 134 135 136 
137 138 139 140 142 143 144 145 146 147 149 150 151 152 154 155 156 158 
159 160 162 163 165 166 168 169 171 172 174 175 177 179 180 182 184 185 
187 189 190 192 194 196 198 199 201 203 205 207 208 210 212 214 216 218 
220 222 224 225 227 229 231 233 235 237 239 241 243 245 247 249 251 253 
253 252 250 248 247 245 243 242 240 238 236 235 233 231 230 227 227 225 
224 221 219 219 217 216 214 212 211 209 206 206 205 203 202  33   7   5 
  5   1   2  11 146 151 131  72  72  72  70  67  66  66  63 105 173 172 
171 170 169 168 167 166 165 163 162 161 160 159 158 157 156 155 154 153 
152 151 150 149 147  16  81  78  78  79  80  81  81  82  83  84  85  86 
 85  87  88  87  90  98  72 132 132 131 129 130 129 128 128 127 127 126 
126 124 125 124 124 123 123 122 122 122 121 121 121 120 120 119 118  39 
105 106 105 106 106 107 107 107 107 108 108 108 110 109 108 111 110 110 
110 116   5 112 111 111 111 111 111 111 110 110 110 110 110 109 109 109 
109 109 109 108 108 108 108 108 108 107 107 107 107 107 107 106 105 106 
 29 118 118 118 118 119 113   2 105 104 105 105 105 105 105 105 105 104 
104 104 104 104 103 141 144 144 144 144 143 144 144 143 144 144 144 144 
144 144 144 144 144 144 143 143 143 143 143 143 143 143 142  79 106 106 
106 106 107 107  70 144 142 140 140 141 139 139 138 138 138 138 137 137 
137 136 137 135 135 134 134 133 133 132 132 131 131 136  33 119 120 121 
121 122 123 124 124 125 126 127 128 129 129 130 131 132 133 134 135 136 
137 138 139 140 141 143 144 145 146 147 148 150 151 152 153 155 156 158 
159 160 162 163 165 166 168 169 171 172 174 175 177 179 180 182 183 185 
187 189 190 192 194 196 197 199 201 203 205 206 208 210 212 214 216 218 
220 222 223 225 227 229 231 233 235 237 239 241 243 245 247 249 251 253 
253 252 250 248 247 245 243 242 240 238 237 235 232 232 229 228 227 225 
223 222 220 219 217 216 214 211 210 209 208 206 205 203 202 168   2   4 
  5   3   0   6 103  96  72  72  71  70  68  68  67  66  65 169 173 173 
170 169 169 168 167 166 164 163 162 161 160 159 158 157 156 155 154 153 
151 151 150 149 148  37  82  78  79  79  80  81  82  82  83  84  85  87 
 86  86  88  88  89  91  76 121 130 131 130 130 129 128 128 127 127 126 
125 125 125 124 124 122 123 122 122 121 121 121 120 120 119 117 118 100 
105 106 106 106 107 107 107 107 108 108 108 109 109 110 110 111 109 111 
112  24 112 111 111 111 111 111 110 110 110 110 110 110 109 109 109 109 
109 108 108 108 108 108 107 107 107 107 107 107 107 107 106 106 106 104 
106  50 123 117 119 103  71 104 105 104 105 105 105 105 104 104 104 104 
104 104 104 104 103 141 144 144 144 144 143 144 144 145 144 144 144 144 
144 144 144 144 144 144 144 144 144 143 143 143 143 143 142  78 106 106 
106 106 106 107  70 144 142 142 140 139 140 139 140 139 138 138 137 137 
137 136 136 135 135 135 134 134 133 132 132 131 131 136  33 119 120 120 
121 122 123 123 124 125 126 127 127 128 129 130 131 132 133 134 135 136 
137 138 139 140 141 142 144 145 146 147 148 149 151 152 153 155 156 157 
159 160 162 163 165 166 168 169 171 172 174 175 177 178 180 182 183 185 
187 188 190 192 194 195 197 199 201 203 205 206 208 210 212 214 216 218 
220 221 223 225 227 229 231 233 235 237 239 241 243 245 247 249 251 253 
253 252 250 248 247 245 243 242 240 237 237 235 233 216 221 224 227 224 
223 222 220 218 217 215 213 211 211 209 202 197 192 180 167 162  56   6 
  4   2   2   4  34  76  74  74  71  69  70  67  66  65 154 175 172 172 
171 170 169 168 167 165 164 163 162 161 160 159 158 157 156 154 154 152 
152 151 150 149 148  72  84  78  79  80  80  81  82  83  83  84  85  86 
 86  87  88  90  90  90  92  91  40 116 130 128 129 128 128 127 127 126 
125 124 124 124 123 123 122 122 122 121 121 120 120 119 119 119  36 114 
106 106 106 107 107 107 107 108 108 108 110 109 109 111 110 110 110 113 
 95 107 110 111 110 111 111 110 110 110 110 110 110 109 109 109 109 108 
108 108 108 108 108 107 107 107 107 107 107 106 106 106 106 105 106 105 
105 105  91 124  48 102 105 105 105 105 105 103 104 104 104 104 104 104 
104 104 104 104 103 141 144 144 144 144 144 143 144 144 144 145 144 144 
144 144 144 144 144 144 144 144 144 144 144 143 143 143 142  78 105 106 
106 106 106 106  70 144 142 141 140 141 140 139 139 139 139 137 139 137 
136 136 136 136 135 135 134 134 133 133 132 131 131 136  32 119 120 120 
121 122 122 123 124 125 125 126 127 128 129 130 131 132 133 134 135 136 
137 138 139 140 141 142 143 145 146 147 148 149 151 152 153 155 156 157 
159 160 161 163 164 166 167 169 170 172 173 175 177 178 180 182 183 185 
187 188 190 192 194 195 197 199 201 203 204 206 208 210 212 214 216 218 
219 221 223 225 227 229 231 233 235 237 239 241 243 245 247 249 251 253 
253 252 250 248 247 245 243 242 240 238 237 235 232 194 191 189 187 192 
197 200 201 204 201 194 191 187 177 169 170 167 165 165 164 160 121   3 
  3   2   1   3  24  78  74  74  71  71  69  67  64 126 175 174 174 173 
171 170 169 168 166 165 164 163 162 161 160 159 157 157 155 154 153 152 
151 151 149 149 147 122  86  77  79  80  81  81  82  83  84  84  85  86 
 87  87  88  88  90  91  90  90  93  93  17  93 125 126 125 127 126 125 
125 124 124 123 123 123 122 122 120 121 120 120 120 119 119 119  83 107 
106 105 106 107 107 107 108 108 108 109 109 109 110 110 110 111 112 112 
 85 112 111 110 111 111 110 110 110 110 110 109 109 109 109 109 108 108 
108 108 108 108 107 107 107 107 107 107 106 106 106 106 106 106 106 106 
105 103  44  19 104 104 105 105 104 104 104 104 104 104 104 104 104 104 
104 104 104 104 102 142 145 145 145 145 146 145 146 146 146 145 145 145 
145 145 144 144 144 144 144 144 144 144 144 144 143 143 142  78 105 105 
106 106 106 106  71 144 141 142 141 140 139 141 139 140 140 138 138 139 
137 137 136 136 135 135 134 134 133 133 132 132 131 137  32 119 119 120 
121 121 122 123 124 124 125 126 127 128 129 130 131 131 133 133 135 135 
137 137 139 140 141 142 143 144 146 147 148 149 151 152 153 154 156 157 
159 160 161 163 164 166 167 169 170 172 173 175 177 178 180 181 183 185 
187 188 190 192 194 195 197 199 201 202 204 206 208 210 212 214 216 218 
219 221 223 225 227 229 231 233 235 237 239 241 243 245 247 249 251 253 
253 252 250 248 247 245 243 242 240 238 237 235 233 201 191 191 189 186 
183 183 181 178 177 176 176 175 173 170 168 168 166 164 164 167 151  18 
  1   2   2   1  16  76  75  72  73  69  68  64 121 177 176 173 174 171 
170 170 169 167 166 165 164 163 162 160 160 158 157 156 155 154 153 152 
151 150 149 148 148 139  67  78  79  80  81  82  82  83  84  85  85  87 
 87  88  89  90  89  91  91  92  93  94  97 104  82  49  18  25  63 103 
124 124 123 123 123 122 122 121 121 121 119 120 120 118 119  95 109 106 
107 106 106 107 107 108 108 108 108 109 109 109 110 110 111 111 113  51 
111 110 111 111 110 110 110 109 110 110 109 109 109 109 109 108 108 108 
108 108 108 107 107 107 107 107 107 106 106 106 106 106 105 105 105 105 
105 105 105 105 104 105 104 104 104 103 104 104 104 104 104 104 104 104 
103 103 103 103 102 142 145 145 145 145 145 146 146 151 116 142 144 145 
145 145 145 145 145 144 144 144 144 144 144 144 144 144 142  78 105 105 
105 106 106 106  71 145 142 140 142 143 141 140 146 132 126 139 137 138 
138 137 137 136 136 135 135 134 134 133 133 132 131 137  32 119 119 120 
121 121 122 123 124 124 125 126 127 128 129 130 130 131 132 133 134 135 
136 137 138 140 141 142 143 144 145 147 148 149 150 152 153 154 156 157 
158 160 161 163 164 166 167 169 170 172 173 175 176 178 180 181 183 185 
186 188 190 192 193 195 197 199 201 203 204 206 208 210 212 214 216 218 
219 221 223 225 227 229 231 233 235 237 239 241 243 245 247 249 251 253 
253 252 250 248 247 245 243 242 240 238 236 235 233 210 191 190 189 187 
185 184 182 180 179 177 176 173 171 171 170 168 164 157 137  95  81  71 
  3   1   0   1  11  78  73  73  72  70  66 102 178 176 174 175 173 171 
171 169 168 167 166 165 164 163 161 161 159 158 157 156 155 154 153 152 
151 150 148 148 147 143  39  78  79  80  81  82  83  83  84  85  86  86 
 87  88  89  89  90  90  90  92  93  93  94  94  96  95  96 101 105 110 
110  76  36   3  43  77  91  99 110 119 120 120 118 119 117  52 105 107 
106 106 107 107 108 108 108 108 109 109 109 109 109 110 111 112 122  83 
111 111 111 111 110 110 110 110 110 110 109 109 109 109 108 108 108 108 
108 108 107 107 107 107 107 107 106 106 106 106 106 106 105 105 105 105 
105 105 104 105 104 104 104 104 103 104 104 104 104 104 104 103 103 103 
103 103 103 103 102 142 145 145 145 145 145 148 138  26  89 139 145 145 
145 145 145 145 145 145 145 144 144 144 144 144 144 144 143  78 105 105 
105 105 106 106  71 145 143 141 141 140 143 143  68 108 104 138 138 138 
137 137 137 136 136 135 135 134 134 133 133 132 131 137  32 118 119 120 
121 121 122 123 124 124 125 126 127 128 129 129 130 131 132 133 134 135 
136 137 138 139 141 142 143 144 145 146 148 149 150 151 153 154 156 157 
158 160 161 163 164 165 167 168 170 172 173 175 176 178 180 181 183 185 
186 188 190 192 193 195 197 199 201 202 204 206 208 210 212 214 216 217 
219 221 223 225 227 229 231 233 235 237 239 241 243 245 247 249 251 253 
253 252 250 248 247 245 243 241 240 238 236 235 232 226 192 191 189 187 
185 184 182 180 179 177 177 175 175 168 142 114  97  91  86  86  85  81 
 14   3   0   1  10  76  74  73  71  68 116 180 177 176 175 175 173 172 
171 170 168 167 166 165 164 162 162 160 159 158 157 156 155 154 153 152 
150 149 149 148 147 146  12  82  79  80  81  82  83  84  84  85  86  87 
 87  87  89  90  90  91  91  92  92  94  95  95  95  97  97  97  98  98 
100  99 101 102 104 104  99  92  87  81  54   2  55 118 118   9 105 108 
107 107 107 107 107 108 108 109 109 109 109 110 110 109 111 112  38 112 
110 111 111 111 110 110 110 110 110 109 109 109 109 108 108 108 108 108 
108 107 107 107 107 107 107 106 106 106 106 106 106 105 105 105 105 105 
105 105 105 104 104 103 104 104 104 103 104 104 104 103 103 103 103 103 
103 103 103 103 102 142 145 145 145 145 149 109  80 103  72 139 145 145 
145 145 145 145 145 145 145 145 145 144 144 144 144 144 143  77 105 105 
105 105 105 106  71 145 143 141 141 143 134  56 106 101 106 139 139 138 
138 137 137 136 136 135 135 134 134 133 133 132 132 137  32 118 119 120 
120 121 122 123 123 124 125 126 127 128 128 129 130 131 132 133 134 135 
136 137 138 139 140 142 143 144 145 146 148 149 150 151 153 154 155 157 
158 160 161 163 164 165 167 169 170 172 173 175 176 178 180 181 183 185 
186 188 190 192 193 195 197 199 200 202 204 206 208 210 212 214 215 217 
219 221 223 225 227 229 231 233 235 237 239 241 243 245 247 249 251 253 
253 252 250 248 247 245 243 241 240 238 236 235 205 117 132 141 149 153 
154 156 154 148 145 137 128 116 102  93  92  93  92  90  89  86  87  82 
 37   2   0   2  12  76  73  72  68 118 180 180 176 173 173 173 173 171 
170 170 168 167 166 165 163 163 161 160 159 158 157 156 155 154 153 152 
151 150 149 148 147 146 111  93  80  80  82  82  83  84  85  86  86  87 
 88  88  89  89  90  91  92  92  93  93  94  95  95  96  97  98  99  99 
100 100 100 100 101 101 103 103 103 103 105 110 114 117  79  83 106 107 
106 106 107 107 108 108 108 109 109 109 110 110 110 110 113 110  61 112 
111 111 111 111 110 110 110 110 109 109 109 109 108 108 108 108 108 108 
107 107 107 107 107 107 106 106 106 106 106 106 105 105 105 105 105 105 
105 105 104 104 104 104 104 104 104 104 104 104 103 103 103 103 103 103 
103 103 103 103 103 142 145 146 146 145  25 103 103 102  72 140 145 145 
145 145 145 145 145 145 145 145 145 145 144 144 144 144 143  77 104 105 
105 104 105 105  71 145 143 143 148  63  93 108 107 101 106 139 139 138 
138 137 137 137 136 136 135 135 134 134 133 132 132 137  32 118 119 119 
120 121 122 122 123 124 125 126 127 127 128 129 130 131 132 133 134 135 
136 137 138 139 140 141 143 144 145 146 148 149 150 151 153 154 155 157 
158 159 161 162 164 165 167 168 170 171 173 175 176 178 180 181 183 185 
186 188 190 191 193 195 197 199 201 202 204 206 208 210 212 214 215 217 
219 221 223 225 227 229 231 233 235 237 239 241 243 245 247 249 251 253 
253 252 250 248 247 245 243 241 240 238 236 234 216 119 117 115 114 111 
109 106 105 105 104 101 100  97  97  95  93  94  92  90  89  87  86  83 
 77   3   1   2  20  77  73  70 133 182 170 149 139 137 138 135 152 171 
171 169 168 167 166 165 164 162 161 160 159 158 157 156 155 154 153 152 
151 150 149 148 147 145 145  19  80  83  81  82  83  84  85  85  86  87 
 87  88  89  90  90  91  92  92  93  94  94  95  95  96  96  97  97  98 
 99  99 100 100 101 101 101 102 102 103 103 105 104 106 105 106 106 107 
106 107 107 108 108 108 108 109 109 110 110 110 111 111 113 102  97 111 
111 111 111 110 110 110 110 109 109 109 109 109 108 108 108 108 108 107 
107 107 107 107 107 106 106 106 106 106 106 105 105 105 105 105 105 105 
105 104 104 104 104 104 104 104 104 104 103 103 103 103 103 103 103 103 
103 103 103 103 103 142 146 145 127  77 103 103 103 102  73 138 145 145 
145 145 145 145 145 145 145 145 145 145 145 144 144 144 143  77 104 105 
105 104 105 105  72 145 144 142  38 107 106 108 107 101 106 139 139 138 
138 137 137 137 136 136 135 135 134 133 133 132 132 137  31 118 119 120 
120 121 122 122 123 124 125 126 126 127 128 129 130 131 132 133 134 135 
136 137 138 139 140 141 143 144 145 146 147 149 150 151 153 154 155 157 
158 160 161 162 164 165 167 168 170 171 173 175 176 178 179 181 183 185 
186 188 190 192 193 195 197 199 200 202 204 206 208 210 212 214 215 217 
219 221 223 225 227 229 231 233 235 237 239 241 243 245 247 249 251 253 
253 252 250 248 247 245 243 241 240 238 235 235 231 115 117 115 113 111 
111 109 107 107 104 101  99  99  97  96  94  93  92  91  89  88  85  85 
 85  23   1   3  33  75  76 158 183 153 141 141 139 138 139 135 135 137 
157 169 168 167 166 165 163 162 161 160 159 158 157 156 155 154 153 152 
150 150 149 148 147 146 145 105  78  80  82  84  83  83  86  85  86  87 
 88  88  89  90  91  91  92  92  93  94  94  95  96  96  97  97  98  98 
 99  99 100 100 101 101 102 102 103 103 104 105 104 105 106 106 106 105 
107 106 107 108 108 108 109 109 109 109 109 110 111 110 115  65 111 111 
111 111 110 110 110 110 109 109 109 109 109 109 108 108 108 108 107 107 
107 107 107 107 106 106 106 106 106 106 105 105 105 105 105 105 105 105 
104 104 104 104 104 104 104 104 104 103 103 103 103 103 103 103 103 103 
103 103 103 103 101 143 152  15 100 102 101 102 101 102  70 140 145 145 
145 145 145 145 145 145 145 145 145 145 145 145 144 144 143  77 104 104 
105 105 105 104  70 149  56  86 107 107 107 107 108 101 106 139 139 138 
138 138 137 137 136 136 135 135 134 134 133 133 132 137  31 118 119 119 
120 121 122 122 123 124 125 125 126 127 128 129 130 131 132 133 134 135 
136 137 138 139 140 141 143 144 145 146 147 149 150 151 153 154 155 157 
158 159 161 162 164 165 167 168 170 171 173 175 176 178 180 181 183 184 
186 188 190 191 193 195 197 199 200 202 204 206 208 210 212 213 215 217 
219 221 223 225 227 229 231 233 235 237 239 241 243 245 247 249 251 253 
253 252 250 248 247 245 243 241 240 238 236 235 233 139 117 114 114 113 
112 109 108 106 105 103 101 100  98  97  95  93  92  89  89  87  86  83 
 81  57   1   3  46  99 182 185 163 144 143 142 132 130 128 131 136 134 
132 164 168 167 166 164 163 162 161 160 159 158 157 156 155 153 153 151 
151 149 149 148 147 146 145 144  20  85  80  83  83  85  84  86  86  87 
 88  89  89  90  90  91  92  93  93  94  94  95  95  96  97  97  98  98 
 99  99 100 100 100 101 102 102 103 103 103 104 104 106 105 105 107 106 
107 107 107 108 108 108 109 109 109 110 110 110 110 111 118  16 111 111 
111 111 110 110 110 110 110 109 109 109 109 108 108 108 108 108 107 107 
107 107 107 106 106 106 106 106 106 106 105 105 105 105 105 105 105 104 
104 104 104 104 104 104 104 104 103 103 103 103 103 103 103 103 103 103 
103 103 102 103 101 111  61 102 101 102 102 101 102 101  72 140 146 146 
146 145 145 145 145 145 145 145 145 145 145 145 144 144 143  77 104 104 
105 105 104 105  57   5 106 106 106 106 106 107 108 100 107 139 139 138 
138 138 137 137 136 136 135 135 134 134 133 132 132 137  31 118 119 119 
120 121 121 122 123 124 125 126 126 127 128 129 130 131 132 133 134 135 
136 137 138 139 140 141 142 144 145 146 147 149 150 151 152 154 155 157 
158 159 161 162 164 165 167 168 170 171 173 175 176 178 179 181 183 185 
186 188 190 191 193 195 197 199 200 202 204 206 208 210 212 214 215 217 
219 221 223 225 227 229 231 233 235 237 239 241 243 245 247 249 251 253 
253 252 250 248 247 245 243 241 240 238 236 235 233 190 112 116 113 114 
111 109 107 106 105 103 101 100  98  96  94  93  92  91  90  86  85  83 
 82  73   3   9 143 188 185 185 146 145 115  73  67  66  64  66  76 126 
131 138 168 167 166 165 163 162 161 160 159 158 157 156 154 154 152 152 
150 150 148 148 147 146 145 144 142  58  81  84  83  83  85  85  86  87 
 88  88  89  90  91  91  92  92  93  94  95  95  96  96  97  97  98  98 
 99  99 100 100 101 101 102 102 103 103 104 104 106 104 106 106 106 107 
107 107 108 108 108 108 109 109 109 110 110 110 111 111 122  78 111 111 
111 111 110 110 110 110 109 109 109 109 108 108 108 108 108 108 107 107 
107 107 107 107 106 106 106 106 106 106 105 105 105 105 105 105 104 104 
104 104 104 104 104 104 104 104 103 103 103 103 103 103 103 103 103 103 
103 103 103 103 101  96 102 101 102 102 101 102 102 102  71 140 145 147 
146 146 145 145 145 145 145 145 145 145 145 145 144 144 143  77 104 103 
105 104 105 104  99 106 106 105 107 107 107 107 108 101 107 139 139 139 
138 138 137 137 136 136 135 135 134 134 133 133 132 137  31 118 119 119 
120 121 122 122 123 124 125 125 126 127 128 129 130 131 132 133 134 135 
136 137 138 139 140 141 143 144 145 146 147 148 150 151 153 154 155 156 
158 159 161 162 164 165 167 168 170 171 173 174 176 178 179 181 183 184 
186 188 190 191 193 195 197 199 200 202 204 206 208 210 212 213 215 217 
219 221 223 225 227 229 231 233 235 237 239 241 243 245 247 249 251 253 
253 252 250 248 247 245 243 241 240 237 236 235 231 229 120 115 115 113 
111 108 107 106 105 103 101 100  97  97  95  94  92  89  88  87  85  83 
 80  80  16   8 189 187 186 184 141  88  64  65  66  67  64  62  59  54 
100 129 168 167 166 164 163 162 161 160 159 158 157 155 155 153 153 151 
151 149 149 147 147 145 145 144 142 105  84  84  82  84  85  86  86  87 
 88  89  89  90  91  91  92  93  93  94  94  95  96  96  97  97  98  99 
 99 100 100 101 101 102 102 102 103 103 104 104 104 105 105 106 106 107 
107 107 107 108 108 109 109 109 109 110 110 110 111 111 120 111 110 111 
111 110 110 110 110 110 109 109 109 109 109 108 108 108 108 107 107 107 
107 107 107 106 106 106 106 106 106 105 105 105 105 105 105 105 105 104 
104 104 104 104 104 104 104 103 103 103 103 103 103 103 103 103 103 103 
103 103 103 101 102 102 102 102 102 102 102 102 101 102  72 140 146 146 
146 145 145 145 145 145 145 145 145 145 145 145 145 144 143  77 104 104 
104 105 105 105 105 105 106 106 106 106 107 107 107 101 107 139 139 138 
138 138 137 137 136 136 135 135 134 134 133 132 132 137  31 118 119 119 
120 121 121 122 123 124 124 125 126 127 128 129 130 131 132 133 134 135 
136 137 138 139 140 141 142 144 145 146 147 149 150 151 152 154 155 157 
158 159 161 162 164 165 167 168 170 171 173 175 176 178 179 181 183 185 
186 188 190 191 193 195 197 199 200 202 204 206 208 210 212 214 215 217 
219 221 223 225 227 229 231 233 235 237 239 241 243 245 247 249 251 253 
253 252 250 248 247 245 243 241 239 238 236 235 233 227 140 115 114 113 
110 109 108 106 104 103 101 100  98  97  94  94  91  89  88  86  87  83 
 84 156 104  45 188 187 186 184 108  68  67  67  66  63  62  60  60  58 
 53 122 168 167 165 164 163 162 161 160 159 158 156 156 154 154 152 152 
150 150 148 148 147 146 145 144 143 141 109  79  84  84  86  86  86  87 
 88  88  89  90  91  91  92  93  93  94  95  95  96  96  97  97  98  98 
 99  99 100 100 101 101 102 102 103 103 104 104 105 104 105 106 105 106 
107 107 108 108 108 108 109 109 110 110 109 110 111 110  99 112 111 110 
111 111 110 110 110 110 109 109 109 109 108 108 108 108 108 108 107 107 
107 107 107 106 106 106 106 106 106 106 105 105 105 105 105 105 104 104 
104 104 104 104 104 104 104 104 103 103 103 103 103 103 103 103 103 103 
103 103 103 102 102 102 101 102 102 101 102 102 102 102  71 139 147 146 
146 146 145 145 145 145 145 145 145 145 145 145 144 144 143  77 104 104 
104 105 105 105 105 106 106 106 107 106 107 107 108 101 107 139 139 139 
138 138 137 137 136 136 135 135 134 134 133 133 132 137  31 118 119 119 
120 121 122 122 123 124 125 125 126 127 128 129 130 131 132 133 134 135 
136 137 138 139 140 141 143 144 145 146 147 148 150 151 153 154 155 156 
158 159 161 162 164 165 167 168 170 171 173 174 176 178 179 181 183 184 
186 188 190 191 193 195 197 199 200 202 204 206 208 210 212 213 215 217 
219 221 223 225 227 229 231 233 235 237 239 241 243 245 247 249 251 253 
253 252 250 248 247 245 243 241 239 238 236 233 233 205 183 113 113 113 
111 110 108 106 105 103 101 100  98  98  95  93  92  90  89  85  93 133 
155 155 150  82 189 187 186 185  72  68  69  66  66  64  64  62  59  60 
 57  72 168 167 166 164 163 162 161 160 159 158 157 155 155 153 153 151 
151 149 149 147 146 146 144 144 143 141 140 107  69  86  85  87  86  87 
 88  89  89  90  91  91  92  93  93  94  94  95  96  96  97  98  98  99 
 99 100 100 101 101 102 102 102 103 104 105 104 104 105 105 106 106 106 
108 107 107 108 108 109 109 109 109 110 111 110 111 111  94 111 110 111 
111 110 110 110 110 109 109 109 109 109 109 108 108 108 108 107 107 107 
107 107 107 106 106 106 106 106 106 105 105 105 105 105 105 105 105 104 
104 104 104 104 104 104 104 103 103 103 103 103 103 103 103 103 103 103 
103 103 103 103 102 102 102 102 102 102 102 102 102 102  71 140 146 146 
146 145 145 145 145 145 145 145 145 145 145 145 144 144 143  77 104 103 
105 105 105 105 105 106 106 106 106 107 107 107 108 101 107 139 139 138 
138 138 137 137 136 136 135 135 134 134 133 132 132 137  31 118 119 119 
120 121 121 122 123 124 125 126 126 127 128 129 130 131 132 133 134 135 
136 137 138 139 140 141 142 144 145 146 147 149 150 151 152 154 155 157 
158 159 161 162 164 165 167 168 170 171 173 175 176 178 179 181 183 185 
186 188 190 191 193 195 197 199 200 202 204 206 208 210 212 214 215 217 
219 221 223 225 227 229 231 233 235 237 239 241 243 245 247 249 251 253 
253 252 250 248 247 245 243 241 240 238 236 235 231 191 188 114 112 111 
111 109 108 106 103 103 102  99  97  96  95  94  92  89  88  85 112 146 
157 156 156 112 177 188 185 185  62  70  69  67  65  64  63  62  62  60 
 58  54 168 167 165 164 163 162 161 160 159 158 156 156 154 154 152 152 
150 150 148 148 147 146 145 144 143 142 140 141 136  23  88  87  87  87 
 88  88  90  89  92  91  92  93  93  94  94  95  96  96  97  97  99  98 
 99  99 100 100 100 101 102 102 103 103 104 104 105 105 105 106 106 106 
107 107 108 108 108 108 109 109 110 110 109 110 111 110  94 112 111 111 
111 111 110 110 110 110 109 109 109 109 108 108 108 108 108 108 107 107 
107 107 107 107 106 106 106 106 106 106 105 105 105 105 105 105 105 104 
104 104 104 104 104 104 104 104 103 103 103 103 103 103 103 103 103 103 
103 103 103 103 103 102 102 102 102 102 102 102 102 102  71 140 146 146 
145 145 145 145 145 145 145 145 145 145 145 145 144 144 143  77 104 104 
105 105 105 105 106 106 106 106 107 107 107 107 108 101 106 139 139 138 
138 138 137 137 136 136 135 135 134 134 133 133 132 137  31 118 119 119 
120 121 122 122 123 124 125 125 126 127 128 129 130 131 132 133 134 135 
136 137 138 139 140 141 143 144 145 146 147 149 150 151 153 154 155 157 
158 159 161 162 164 165 167 168 170 171 173 175 176 178 180 181 183 184 
186 188 190 191 193 195 197 199 200 202 204 206 208 210 212 213 215 217 
219 221 223 225 227 229 231 233 235 237 239 241 243 245 247 249 251 253 
253 252 250 248 247 245 243 241 240 238 236 235 225 192 142 114 112 112 
111 109 107 106 105 103 100 100  98  97  94  93  92  90  88  86  84  84 
106 156 113  49 152 162 186 185  83  71  69  67  64  64  64  61  62  59 
 55  83 168 167 166 164 163 162 161 160 159 158 157 155 155 153 153 151 
151 149 149 147 147 146 145 144 143 141 142 139 140 136  87  82  87  87 
 88  90  89  91  90  91  92  92  94  94  93  96  95  96  97  97  98  99 
100 100 100 101 101 102 102 102 103 103 104 104 104 105 105 106 106 107 
107 107 107 108 108 109 109 109 109 110 110 110 110 111  93 112 111 111 
111 110 110 110 110 110 109 109 109 109 109 108 108 108 108 107 107 107 
107 107 107 106 106 106 106 106 106 106 105 105 105 105 105 105 105 104 
104 104 104 104 104 104 104 104 104 103 103 103 103 103 103 103 103 103 
103 103 103 103 103 103 103 102 102 102 102 102 102 102  71 139 146 145 
145 145 145 145 145 145 145 145 145 145 145 144 144 144 143  77 104 105 
105 105 105 105 105 106 106 106 107 107 107 108 108 101 107 139 139 138 
138 137 137 137 136 136 135 135 134 133 133 132 132 137  31 118 119 120 
120 121 122 122 123 124 125 126 126 127 128 129 130 131 132 133 134 135 
136 137 138 139 140 142 143 144 145 146 147 149 150 151 153 154 155 157 
158 160 161 162 164 165 167 168 170 172 173 175 176 178 179 181 183 185 
186 188 190 192 193 195 197 199 200 202 204 206 208 210 212 214 215 217 
219 221 223 225 227 229 231 233 235 237 239 241 243 245 247 249 251 253 
253 252 250 248 247 245 243 241 240 238 236 233 220 190 119 115 113 113 
112 108 107 106 105 103 100  99  97  98  95  94  92  89  89  87  86  83 
 80  87  36  17 154 148 157 183 139  64  67  67  66  65  64  61  58  60 
 57 157 168 167 165 165 163 162 161 160 159 158 157 156 154 154 152 152 
150 150 148 148 147 146 145 144 143 142 141 141 139 138 138 137  45  51 
 98  90  89  91  92  92  92  93  92  93  96  95  96  96  97  97  98  97 
 99  99 101 100 101 101 102 102 103 103 104 104 105 105 105 105 106 106 
107 107 108 108 108 108 109 109 109 110 110 110 110 112 115 111 111 111 
111 111 110 110 110 110 109 109 109 109 109 108 108 108 108 108 107 107 
107 107 107 107 106 106 106 106 106 106 105 105 105 105 105 105 105 105 
104 104 104 104 104 104 104 104 104 104 103 103 103 103 103 103 103 103 
103 103 103 103 103 103 103 103 103 103 103 103 103 103  72 139 145 145 
145 145 145 145 145 145 145 145 145 145 144 144 144 144 143  77 104 105 
105 105 105 105 106 106 106 106 107 107 107 108 108 101 106 139 139 138 
138 137 137 137 136 136 135 135 134 134 133 132 132 137  32 118 119 119 
120 121 122 122 123 124 125 126 127 127 128 129 130 131 132 133 134 135 
136 137 138 139 140 141 143 144 145 146 148 149 150 151 153 154 155 157 
158 159 161 162 164 165 167 168 170 171 173 175 176 178 180 181 183 185 
186 188 190 191 193 195 197 199 201 202 204 206 208 210 212 214 216 217 
219 221 223 225 227 229 231 233 235 237 239 241 243 245 247 249 251 253 
253 252 250 248 247 245 243 241 240 238 235 235 216 168 114 116 114 113 
111 109 109 106 105 103 101  99  98  96  95  94  93  90  89  87  85  81 
 82  76   4   7 145 150 148 146 183 133  69  65  64  63  63  61  60  62 
138 168 168 167 166 164 163 162 161 160 159 158 157 155 155 153 153 151 
151 149 149 148 147 146 145 144 143 142 142 141 140 138 138 136 137 136 
 86  41  80  91  90  92  93  93  95  94  94  94  97  97  99  98  99  98 
 99  99 101 100 101 101 103 102 104 103 103 104 104 105 105 106 106 106 
107 107 107 108 108 108 109 109 109 110 110 109 110 111 125 100 111 111 
111 111 111 110 110 110 110 109 109 109 109 108 108 108 108 108 108 107 
107 107 107 107 107 106 106 106 106 106 106 105 105 105 105 105 105 105 
105 104 104 104 104 104 104 104 104 104 104 103 103 103 103 103 103 103 
103 103 103 103 103 103 103 103 103 103 103 103 103 103  72 139 145 145 
145 145 145 145 145 145 145 145 145 144 144 144 144 144 143  77 104 105 
105 105 105 106 106 106 106 107 107 107 107 108 108 101 106 139 139 138 
138 137 137 136 136 135 135 134 134 133 133 132 132 137  32 118 119 120 
120 121 122 123 123 124 125 126 127 128 128 129 130 131 132 133 134 135 
136 137 138 139 140 142 143 144 145 146 148 149 150 152 153 154 155 157 
158 160 161 163 164 166 167 169 170 172 173 175 176 178 180 181 183 185 
186 188 190 192 193 195 197 199 200 202 204 206 208 210 212 214 215 217 
219 221 223 225 227 229 231 233 235 237 239 241 243 245 247 249 251 253 
253 252 250 248 247 245 243 241 240 237 236 235 233 133 116 117 113 113 
110 110 108 105 104 102 100 100  98  96  94  93  92  91  88  88  86  84 
 81  67   0   4  59 111 151 147 146 180 168 134  92  73  76  92 135 165 
169 167 168 167 166 165 163 162 161 160 159 158 157 156 155 154 152 152 
150 150 149 148 147 146 145 144 143 143 141 141 140 139 138 137 137 135 
135 135 116  83   7  75 107  99  94  95  94  96  96  97  97  96  99  99 
 99  99 101  99 101 101 102 102 103 103 104 104 104 105 105 105 106 106 
107 107 107 107 108 108 109 109 109 109 110 110 110 111 120  37 112 110 
111 111 111 110 110 110 110 110 109 109 109 109 108 108 108 108 108 108 
107 107 107 107 107 107 106 106 106 106 106 106 105 105 105 105 105 105 
105 105 104 104 104 104 104 104 104 104 104 104 103 103 103 103 103 103 
103 103 103 103 103 103 103 103 103 103 103 103 103 103  72 139 145 145 
145 145 145 145 145 145 145 145 144 144 144 144 144 144 143  77 105 105 
105 105 106 106 106 106 106 107 107 107 108 108 108 101 106 139 138 138 
137 137 137 136 136 135 135 134 134 133 133 132 131 137  32 118 119 120 
121 121 122 123 124 124 125 126 127 128 129 129 130 131 132 133 134 135 
136 137 138 139 141 142 143 144 145 146 148 149 150 151 153 154 156 157 
158 160 161 163 164 165 167 168 170 172 173 175 176 178 180 181 183 185 
186 188 190 192 193 195 197 199 201 202 204 206 208 210 212 214 216 217 
219 221 223 225 227 229 231 233 235 237 239 241 243 245 247 249 251 253 
253 252 250 248 247 245 243 241 240 237 235 234 229 115 118 114 113 113 
111 109 108 106 105 103 102 100  98  96  95  94  92  89  90  87  85  82 
 83  40   1   3  38  72  92 142 147 142 176 179 178 177 176 174 173 171 
170 169 168 167 166 164 164 162 161 160 159 158 157 156 155 154 153 152 
151 150 149 148 147 146 145 144 142 142 142 141 140 139 138 138 137 136 
136 135 134 133 133 131 111  49  10  41  67  88 104 103 101  99  97  97 
 99  99  99 100 101 101 100 102 103 103 103 104 104 105 105 105 106 106 
106 107 107 108 108 108 108 109 109 109 110 110 110 111 115  41 111 111 
111 111 111 110 110 110 110 110 109 109 109 109 109 108 108 108 108 108 
107 107 107 107 107 107 106 106 106 106 106 106 106 105 105 105 105 105 
105 105 105 104 104 104 104 104 104 104 104 104 104 104 103 103 103 103 
103 103 103 103 103 103 103 103 103 103 103 103 103 103  72 139 145 145 
145 145 145 145 145 145 145 144 144 144 144 144 144 144 143  78 105 105 
105 105 106 106 106 106 107 107 107 107 108 108 108 102 106 139 138 138 
137 137 137 136 136 135 135 134 134 133 133 132 131 137  32 119 119 120 
121 121 122 123 124 124 125 126 127 128 129 130 130 131 132 133 134 135 
136 138 138 140 141 142 143 144 145 147 148 149 150 152 153 154 156 157 
158 160 161 163 164 166 167 169 170 172 173 175 176 178 180 182 183 185 
186 188 190 192 193 195 197 199 201 203 204 206 208 210 212 214 216 218 
219 221 223 225 227 229 231 233 235 237 239 241 243 245 247 249 251 253 
253 252 250 248 247 245 243 241 240 237 236 235 212 116 116 115 113 113 
111 110 107 106 104 103 101  99  98  96  94  94  91  90  89  86  87  84 
 87   2   0   2  24  76  72  71 133 143 144 176 178 177 176 173 173 171 
171 170 168 167 166 165 163 162 161 160 159 158 157 156 155 154 153 152 
151 150 149 148 147 146 145 144 143 143 142 141 140 139 138 137 137 136 
135 135 134 134 132 131 131 131 130 128 126 122 112  57   8  45  93 102 
101 102 102 100 102 103 103 104 102 104 104 103 104 104 105 105 106 106 
106 107 107 107 108 108 108 109 109 109 110 110 110 111 111  97 107 112 
111 111 111 111 110 110 110 110 109 109 109 109 109 109 108 108 108 108 
108 107 107 107 107 107 107 106 106 106 106 106 106 106 105 105 105 105 
105 105 105 105 104 104 104 104 104 104 104 104 104 104 104 104 104 103 
103 103 103 103 103 103 103 103 103 103 103 103 103 103  72 139 145 145 
145 145 145 145 144 144 144 144 144 144 144 144 144 144 142  78 105 105 
105 106 106 106 106 106 107 107 107 108 108 108 109 102 106 138 138 138 
137 137 136 136 135 135 134 134 133 133 132 132 131 137  32 119 120 120 
121 121 122 123 124 124 125 126 127 128 129 130 131 131 133 133 135 135 
137 137 139 140 141 142 143 144 146 147 148 149 151 152 153 154 156 157 
159 160 161 163 164 166 167 169 170 172 173 175 177 178 180 181 183 185 
187 188 190 192 194 195 197 199 201 202 204 206 208 210 212 214 216 218 
220 221 223 225 227 229 231 233 235 237 239 241 243 245 247 249 251 253 
253 252 250 248 247 245 243 241 239 237 236 235 200 110 117 132 142 151 
156 155 153 151 140 131 117  99  89  92  93  92  90  90  88  88  86  84 
 55   1   0   1  16  76  74  72  73 120 145 147 179 176 175 174 173 172 
171 169 168 167 166 165 164 162 161 160 159 158 157 156 155 154 153 152 
151 150 149 148 147 146 145 144 144 143 142 141 140 139 139 138 136 136 
136 135 133 133 133 132 132 131 130 129 128 127 128 127 127 126 126 118 
 96  73  48  20  12  49  89 115 111 105 103 103 104 104 105 105 105 106 
106 107 107 107 107 108 108 109 109 109 109 110 110 109 111 107  76 111 
112 111 111 111 111 110 110 110 110 109 109 109 109 109 109 108 108 108 
108 108 107 107 107 107 107 107 107 106 106 106 106 106 106 105 105 105 
105 105 105 105 105 105 105 104 104 104 104 104 104 104 104 104 104 104 
104 104 104 103 103 103 103 103 103 103 103 103 103 103  72 139 145 145 
145 144 144 144 144 144 144 144 144 144 144 144 143 143 142  78 105 105 
106 106 106 106 106 107 107 107 107 108 108 108 109 102 106 138 138 137 
137 137 136 136 135 135 134 134 133 133 132 131 131 136  32 119 120 120 
121 122 122 123 124 125 125 126 127 128 129 130 131 132 133 134 135 136 
137 138 139 140 141 142 143 145 146 147 148 149 151 152 153 155 156 157 
159 160 161 163 164 166 167 169 170 172 173 175 177 178 180 182 183 185 
187 188 190 192 194 195 197 199 201 203 204 206 208 210 212 214 216 218 
219 221 223 225 227 229 231 233 235 237 239 241 243 245 247 249 251 253 
253 252 250 248 247 245 243 242 239 238 236 235 220 217 229 228 226 225 
223 222 220 218 217 215 214 211 201 170 130 104  96  87  87  88  86  83 
 20   3   0   2  10  77  73  72  71  68 117 142 149 177 175 175 173 171 
171 170 168 167 166 165 164 163 161 160 159 158 157 156 155 154 153 152 
151 150 149 148 147 146 145 145 144 143 142 141 140 140 139 138 137 137 
136 135 134 134 132 133 132 131 130 130 129 129 128 128 127 126 126 125 
125 124 124 123 123 122 122 109  37  43  87 100 107 105 105 106 106 106 
106 106 107 107 107 108 108 108 109 109 109 109 110 110 109 112   4 112 
111 112 110 111 111 111 110 110 110 110 109 109 109 109 109 109 108 108 
108 108 108 108 107 107 107 107 107 107 106 106 106 106 106 106 106 106 
105 104 105 105 104 105 105 105 105 104 104 104 104 104 104 104 104 104 
104 104 104 104 104 104 104 104 104 104 104 104 104 104  73 138 144 144 
144 144 144 144 144 144 144 144 144 144 143 143 143 143 142  78 105 106 
106 106 106 106 107 107 107 107 108 108 108 109 109 102 105 138 138 137 
137 136 136 136 135 135 134 134 133 133 132 131 131 136  33 119 120 120 
121 122 123 123 124 125 126 126 128 128 129 130 131 132 133 134 135 136 
137 138 139 140 141 142 144 145 146 147 148 149 151 152 153 155 156 157 
159 160 162 163 165 166 168 169 171 172 174 175 177 178 180 182 183 185 
187 188 190 192 194 195 197 199 201 203 205 206 208 210 212 214 216 218 
220 221 223 225 227 229 231 233 235 237 239 241 243 245 247 249 251 253 
253 252 250 248 247 245 243 242 240 238 236 235 232 230 230 228 227 225 
223 222 220 218 217 215 214 211 210 208 207 205 191 175 121  84  84  79 
  6   1   1   1  12  76  73  72  71  71  66 108 141 158 176 174 174 172 
169 170 169 167 166 165 164 163 162 160 160 158 157 156 155 154 153 152 
151 150 149 148 148 146 146 145 144 143 142 141 141 140 139 138 138 137 
136 135 135 134 133 132 132 131 131 130 130 129 128 128 127 126 126 125 
125 124 124 123 123 122 121 122 121 121 111  90   0 118 107 105 106 105 
107 106 106 107 107 108 108 108 108 109 109 109 109 109 111 111 114 110 
112 112 112 111 111 110 111 110 110 110 110 109 109 109 109 109 109 108 
108 108 108 108 108 107 107 107 107 107 107 106 106 106 106 106 106 106 
106 105 105 105 105 105 105 105 105 105 105 104 104 104 104 104 104 104 
104 104 104 104 104 104 104 104 104 104 104 104 104 104  73 138 144 144 
144 144 144 144 144 144 144 144 143 143 143 143 143 143 142  79 106 106 
106 106 106 107 107 107 107 108 108 108 109 109 109 103 105 138 137 137 
137 136 136 135 135 134 134 133 133 132 132 131 131 136  33 119 120 121 
121 122 123 124 124 125 126 127 128 129 129 130 131 132 133 134 135 136 
137 138 139 140 141 143 144 145 146 147 148 150 151 152 153 155 156 158 
159 160 162 163 165 166 168 169 171 172 174 175 177 179 180 182 183 185 
187 189 190 192 194 196 197 199 201 203 205 207 208 210 212 214 216 218 
220 222 223 225 227 229 231 233 235 237 239 241 243 245 247 249 251 253 
253 252 250 248 247 245 243 242 240 238 236 235 233 232 229 228 227 225 
223 222 220 219 217 215 214 211 210 208 207 206 203 203 201 165 130  43 
  1   4   1   2  12  77  75  73  71  68  68  66 120 142 170 174 173 172 
171 170 169 168 166 165 164 163 162 161 159 159 157 156 155 154 153 152 
151 150 149 149 147 147 146 145 144 143 142 142 140 140 139 139 138 137 
136 135 135 134 133 133 132 132 131 130 129 129 128 128 127 127 126 126 
125 125 124 124 123 123 122 122 121 121 120 120 119 105  42 113 105 106 
105 106 106 106 107 107 108 108 108 108 109 110 109 109 110 110 115   8 
112 111 112 112 110 111 111 111 110 110 110 110 109 109 109 109 109 109 
108 108 108 108 108 108 107 107 107 107 107 107 107 107 105 106 105 106 
106 106 106 106 105 104 105 105 105 104 105 105 105 105 105 105 104 104 
104 104 104 104 104 104 104 104 104 104 104 104 104 104  73 138 144 144 
144 144 144 144 143 143 143 143 143 143 143 143 143 143 141  79 106 106 
106 106 107 107 107 107 108 108 108 108 109 109 110 103 105 138 137 137 
136 136 135 135 134 134 133 133 132 132 131 131 130 136  33 120 120 121 
122 122 123 124 125 125 126 127 128 129 130 130 132 132 133 134 135 136 
137 138 140 140 142 143 144 145 146 147 149 150 151 152 154 155 157 158 
159 160 162 163 165 166 168 169 171 172 174 175 177 179 180 182 184 185 
187 189 191 192 194 196 198 199 201 203 205 207 208 210 212 214 216 218 
220 222 224 225 227 229 231 233 235 237 239 241 243 245 247 249 251 253 
253 252 250 248 247 245 243 242 240 238 237 235 233 232 230 227 227 225 
223 222 220 218 217 215 214 212 211 208 208 206 204 203 187 162 150   1 
  4   1   2   2  21  76  72  74  72  69  68  67  63 122 143 174 174 172 
171 169 169 168 167 165 164 163 162 161 160 159 158 156 156 154 154 152 
152 150 150 149 148 147 146 145 143 143 143 141 141 140 138 138 137 137 
137 136 135 133 134 133 132 132 131 130 130 129 129 128 128 127 127 126 
126 125 125 124 123 122 123 121 122 121 121 120 119 119 119  24 104 106 
105 106 106 106 107 107 107 108 108 108 108 109 109 109 110 109 110  95 
101 112 112 112 112 111 111 111 111 110 110 110 110 110 109 109 109 109 
109 108 108 108 108 108 108 108 107 107 107 107 107 107 107 106 106 106 
106 106 106 106 105 106 106 105 105 105 105 104 105 105 105 105 105 105 
105 105 105 104 104 104 104 104 104 104 104 104 104 104  73 138 144 143 
144 143 143 143 143 143 143 143 143 143 143 142 142 142 141  79 106 106 
107 107 107 107 107 108 108 108 108 109 109 110 110 103 105 137 137 136 
136 135 135 135 134 134 133 133 132 132 131 130 130 135  33 120 121 121 
122 123 123 124 125 126 126 127 128 129 130 131 132 133 133 135 135 137 
137 139 140 141 142 143 144 145 146 148 149 150 151 153 154 155 157 158 
159 161 162 164 165 167 168 170 171 173 174 176 177 179 180 182 184 186 
187 189 191 192 194 196 198 199 201 203 205 207 208 210 212 214 216 218 
220 222 224 226 227 229 231 233 235 237 239 241 243 245 247 249 251 253 
253 252 250 248 247 245 243 242 239 238 237 235 232 230 230 228 227 225 
223 222 220 219 217 215 213 211 211 209 207 206 204 201 164 162  83   5 
  4   3   1   1  29  77  75  74  70  71  70  67  66  71 134 161 174 173 
171 170 169 168 167 166 164 163 162 161 160 159 158 157 156 155 154 153 
152 151 150 149 148 147 146 145 144 143 143 141 141 139 134  19 112 136 
136 135 135 135 134 132 132 132 131 131 130 130 129 128 128 127 127 126 
126 125 125 124 124 123 123 122 122 122 121 121 119 120 118  88 107 105 
106 105 106 106 106 107 107 107 108 108 109 107 109 109 109 109 111 114 
 45 113 112 112 112 112 111 111 111 111 110 110 110 110 110 110 109 109 
109 109 109 109 108 108 108 108 108 108 107 107 107 107 107 107 107 106 
106 105  72  64  89 106 104 106 106 105 105 105 105 105 105 105 105 105 
105 105 105 105 105 105 105 105 105 105 105 105 105 105  74 137 143 143 
143 143 143 143 143 143 143 143 143 142 142 142 142 142 141  79 107 107 
107 107 107 108 108 108 108 109 109 109 110 110 110 103 104 137 136 136 
136 135 135 134 134 134 133 133 132 131 131 130 130 135  34 120 121 121 
122 123 124 124 125 126 127 127 129 129 130 131 132 133 134 135 136 137 
138 139 140 141 142 143 144 145 147 148 149 150 152 153 154 155 157 158 
160 161 162 164 165 167 168 170 171 173 174 176 178 179 181 182 184 186 
187 189 191 192 194 196 198 199 201 203 205 207 209 210 212 214 216 218 
220 222 224 226 228 229 231 233 235 237 239 241 243 245 247 249 251 253 
253 252 250 248 247 245 243 242 240 238 237 233 233 232 230 228 227 225 
224 222 220 219 217 215 214 212 210 209 208 206 205 175 163 163  19   5 
  5   3   1   7  88  88  73  73  73  71  70  67  65  64  77 142 173 173 
172 170 169 168 167 166 165 163 162 161 160 159 158 157 156 155 154 153 
152 151 150 149 148 147 147 145 144 144 143 141 141 129  37  86  60 130 
137 136 136 135 133 133 133 132 132 131 130 130 129 128 128 127 127 126 
126 125 125 124 124 123 122 122 122 122 121 121 121 120 120 119 105 105 
104 105 105 106 106 107 107 107 107 108 108 108 108 109 108 111 109 110 
117  28 112 112 112 112 112 111 111 111 111 111 110 110 110 110 110 109 
109 109 109 109 109 108 108 108 108 108 108 108 108 107 107 107 106 107 
107 106  68 119 123  51 106 106 106 106 106 106 106 106 105 105 105 105 
105 105 105 105 105 105 105 105 105 105 105 105 105 105  74 137 143 143 
143 143 143 143 143 142 142 142 142 142 142 142 142 142 140  80 107 107 
107 108 108 108 108 108 109 109 109 110 110 110 110 104 104 136 136 136 
135 135 135 134 134 133 133 132 132 131 131 130 129 135  34 121 121 122 
122 123 124 125 125 126 127 128 129 130 130 131 132 133 134 135 136 137 
138 139 140 141 142 144 145 146 147 148 149 151 152 153 154 156 157 159 
160 161 163 164 165 167 168 170 171 173 174 176 178 179 181 183 184 186 
187 189 191 193 194 196 198 200 201 203 205 207 209 211 212 214 216 218 
220 222 224 226 228 230 231 233 235 237 239 241 243 245 247 249 251 253 
253 252 250 248 247 245 243 242 240 237 237 234 233 232 230 228 227 225 
224 222 220 219 217 216 213 213 211 209 208 205 194 165 166  68   5   4 
  6   3   3  10 161 187 126  71  71  69  68  68  67  65  62 106 155 173 
172 171 169 168 167 166 165 164 162 161 160 159 158 157 156 155 154 153 
152 151 150 149 148 148 146 146 145 143 141 143 125  62  84  85  86  60 
131 136 135 134 134 134 133 133 132 131 130 130 129 129 128 128 127 127 
126 126 125 125 123 124 123 123 121 122 122 121 121 121 120 120 105 103 
106 105 105 105 106 106 107 107 107 107 108 106 109 108 109 109 110 109 
109 110  86 113 112 112 112 112 111 111 111 111 111 111 110 110 110 110 
110 110 109 109 109 109 109 109 108 108 108 108 108 108 108 107 107 105 
107  46 120 116 117 117  46 106 104 106 106 106 106 106 106 106 106 106 
106 106 106 105 105 105 105 105 105 105 105 105 105 105  74 137 143 143 
142 142 142 142 142 142 142 142 142 142 142 142 141 141 140  80 107 107 
108 108 108 108 109 109 109 109 110 110 110 110 111 104 103 136 136 135 
135 135 134 134 133 133 132 132 131 131 130 130 129 134  34 121 122 122 
123 123 124 125 126 126 127 128 129 130 131 132 133 133 134 135 136 137 
138 139 141 141 143 144 145 146 147 148 150 151 152 153 155 156 157 159 
160 161 163 164 166 167 169 170 172 173 175 176 178 179 181 183 184 186 
188 189 191 193 195 196 198 200 202 203 205 207 209 211 213 214 216 218 
220 222 224 226 228 230 232 233 235 237 239 241 243 245 247 249 251 253 
253 252 250 248 247 245 243 242 240 238 237 235 233 232 229 228 227 225 
224 222 220 219 217 216 214 212 211 209 207 201 166 165 147   9   8   5 
  5   3   1   1 189 188 188 154  84  68  68  67  67  65  65  62 138 173 
171 171 170 168 167 166 165 164 163 161 161 159 158 157 156 155 154 153 
152 151 151 149 149 148 147 146 144 142 144  98  75  84  84  84  85  87 
 59 107 136 135 134 134 133 133 132 131 131 130 130 129 129 128 128 127 
127 126 126 125 125 124 124 123 123 122 122 121 121 121 120 109 105 104 
104 105 105 105 105 106 106 106 107 107 107 108 108 108 108 109 110 109 
109 112 103  89 112 111 112 112 112 112 112 111 111 111 111 110 110 110 
110 110 110 109 109 109 109 109 109 109 109 108 108 108 108 108 106 108 
  6 120 115 117 117 116 120  85  63 107 107 106 106 106 106 106 106 106 
106 106 106 106 106 106 106 106 106 106 106 106 106 106  75 136 142 142 
142 142 142 142 142 142 142 142 142 141 141 141 141 141 140  81 108 108 
108 108 108 109 109 109 109 110 110 110 110 111 111 105 103 136 136 135 
135 134 134 133 133 132 132 131 131 130 130 129 129 134  34 121 122 123 
123 124 125 125 126 127 128 129 129 130 131 132 133 134 135 136 137 138 
139 140 141 142 143 144 145 146 147 149 150 151 152 154 155 156 157 159 
160 162 163 165 166 167 169 170 172 173 175 177 178 180 181 183 184 186 
188 190 191 193 195 196 198 200 202 204 205 207 209 211 213 215 216 218 
220 222 224 226 228 230 232 234 235 237 239 241 243 245 247 249 251 253 
253 252 250 248 247 245 243 242 240 238 237 235 233 232 230 229 226 225 
224 222 220 219 217 216 214 213 211 210 207 177 167 171  69   9   9   6 
  4   4   1  33 190 189 188 185 183  90  68  68  66  66  64  62  79 167 
172 170 170 169 167 166 165 164 163 162 161 160 158 158 156 156 154 154 
152 152 151 150 149 148 147 146 144 144  99  78  82  83  83  83  84  85 
 85  82 105 136 135 134 134 133 132 132 131 131 130 130 129 128 128 127 
127 126 126 125 125 124 124 123 123 123 122 122 121 121 121  63 104 102 
104 104 105 105 105 105 106 106 106 107 107 107 108 108 108 108 109 109 
109 110 111 101 104 113 112 113 112 112 112 112 111 111 111 111 111 111 
110 110 110 110 109 110 109 109 109 109 109 109 109 108 108 108 108   4 
121 115 116 115 116 116 116 116 117  16 107 107 106 107 107 107 106 106 
106 106 106 106 106 106 106 106 106 106 106 106 106 106  75 136 142 142 
142 142 142 142 141 141 141 141 141 141 141 141 141 140 139  81 108 108 
108 109 109 109 109 109 110 110 110 111 111 111 112 105 103 135 135 135 
134 134 133 133 132 132 131 131 130 130 129 129 128 134  35 122 122 123 
124 124 125 126 127 127 128 129 130 130 132 132 133 134 135 136 137 138 
139 140 141 142 143 144 146 147 148 149 150 151 153 154 155 156 158 159 
161 162 163 165 166 168 169 171 172 174 175 177 178 180 182 183 185 186 
188 190 191 193 195 197 198 200 202 204 206 207 209 211 213 215 217 218 
220 222 224 226 228 230 232 234 236 237 239 241 243 245 247 249 251 253 
253 252 250 248 247 245 243 242 240 238 237 235 234 232 230 229 227 225 
224 222 221 219 217 216 213 213 211 210 182 167 167 120   3  10   7   7 
  5   3   1  69 191 189 187 186 184 184 125  59  68  64  65  64  64 144 
171 171 170 169 168 166 165 164 163 162 161 160 159 158 157 156 155 154 
153 152 151 150 149 147 148 144 146  57  81  81  81  81  82  84  84  86 
 85  87  90  16 135 134 133 133 132 132 132 130 130 130 129 129 128 128 
127 127 126 126 124 125 123 124 124 123 123 122 122 120 119  43 104 103 
104 104 104 105 105 105 105 106 106 106 106 107 107 107 108 108 108 108 
109 108 110 111  97  68 113 112 113 112 112 111 112 112 112 111 111 110 
111 110 110 109 110 110 110 110 110 109 109 109 109 108 108 109  16 118 
114 116 114 115 116 116 116 115 118 123  61  98 107 107 107 106 107 107 
107 107 107 107 107 107 107 107 107 107 107 107 107 107  76 135 141 141 
141 141 141 141 141 141 141 141 141 140 140 140 140 140 139  81 108 109 
109 109 109 110 110 110 110 111 111 111 111 112 112 105 102 135 135 134 
134 133 133 132 132 132 131 131 130 129 129 128 128 133  35 122 123 123 
124 125 125 126 127 128 128 129 130 131 132 133 133 135 135 136 137 138 
139 140 141 143 143 145 146 147 148 149 150 152 153 154 155 157 158 160 
161 162 164 165 166 168 169 171 172 174 175 177 178 180 182 183 185 187 
188 190 192 193 195 197 198 200 202 204 206 207 209 211 213 215 217 218 
220 222 224 226 228 230 232 234 236 238 239 241 243 245 247 249 251 253 
253 252 250 248 247 245 243 242 240 239 237 235 234 232 230 229 227 226 
224 222 221 219 218 216 213 213 210 194 168 169 164  28  11   9   8   7 
  5   4   0 117 191 190 188 186 184 184 182 140  68  64  65  64  63  85 
172 171 170 169 168 167 165 165 163 162 161 160 159 158 157 156 155 154 
153 152 151 150 149 148 146 147  43  92  80  80  80  81  82  82  82  86 
 86  85  86  93  54  99 133 134 132 133 132 131 131 130 129 129 128 128 
127 126 125 126 125 125 125 124 123 124 122 122 121 121   4 113 101 105 
102 104 104 104 104 105 105 105 106 106 106 106 107 107 107 107 108 108 
107 108 108 109 110 122  22 112 112 113 112 112 112 112 112 112 110 111 
110 111 110 111 110 110 110 110 109 110 110 110 108 109  90  51 118 114 
114 115 116 115 115 115 115 115 114 115 116 120  51 108 107 107 106 107 
107 107 107 107 107 107 107 107 107 107 107 107 107 107  76 135 141 141 
141 141 141 141 141 141 140 140 140 140 140 140 140 140 138  82 109 109 
109 109 110 110 110 110 111 111 111 111 112 112 112 106 102 135 134 134 
133 133 132 132 132 131 131 130 130 129 128 128 127 133  36 122 123 124 
124 125 126 126 127 128 129 130 131 131 132 133 134 135 136 137 138 139 
140 141 142 143 144 145 146 147 149 150 151 152 153 154 156 157 159 160 
161 162 164 165 167 168 170 171 173 174 176 177 179 180 182 183 185 187 
189 190 192 193 195 197 199 200 202 204 206 208 209 211 213 215 217 219 
220 222 224 226 228 230 232 234 236 238 240 241 243 245 247 249 251 253 
253 252 250 248 247 245 243 242 240 239 237 235 234 232 230 229 227 226 
224 222 221 219 218 216 214 213 199 171 169 176  78  10  10   8  10   7 
  6   5   4 169 191 190 188 187 186 183 183 182 158  64  66  62  61  55 
155 172 171 169 168 167 166 165 164 162 162 160 160 158 157 156 156 154 
154 152 152 151 149 149 147   6  79  77  79  78  81  81  80  82  84  85 
 83  87  86  87  88  83  19 132 134 132 132 132 131 130 130 129 129 128 
128 127 127 126 126 125 125 125 124 124 123 123 122  23 103 102 102 103 
103 103 103 104 104 104 104 105 105 106 106 106 106 107 107 107 107 108 
108 108 108 109 109 109 109  77  94 112 112 113 112 112 112 112 112 112 
112 111 111 111 111 111 110 110 110 110 110 110 110  36 102 115 115 113 
115 114 114 115 114 114 114 115 115 115 115 116 116  43 108 107 108 108 
107 108 108 108 108 108 107 108 107 108 107 108 107 108  76 134 140 140 
140 140 140 140 140 140 140 140 140 140 140 139 139 139 138  82 109 110 
110 110 110 110 111 111 111 111 112 112 112 113 113 106 102 134 134 133 
133 132 132 132 131 131 130 130 129 129 128 127 127 132  36 123 123 124 
125 126 126 127 128 129 129 130 131 132 132 134 134 135 136 137 138 139 
140 141 142 143 144 146 146 148 149 150 151 153 154 155 156 158 159 160 
161 163 164 166 167 169 170 171 173 174 176 178 179 181 182 184 185 187 
189 190 192 194 195 197 199 201 202 204 206 208 209 211 213 215 217 219 
221 222 224 226 228 230 232 234 236 238 240 241 243 245 247 249 251 253 
253 252 250 248 247 245 243 242 240 239 237 235 234 232 230 229 227 226 
224 223 221 219 217 216 215 203 174 172 169 123   5  13  10  10   9   8 
  5   3  33 193 191 190 188 186 186 184 183 180 180 151  65  63  61  61 
113 171 171 170 168 167 166 165 164 163 162 161 160 159 158 157 156 155 
154 153 151 151 150 148  14  84  75  78  78  80  80  80  81  82  83  83 
 84  86  84  87  87  87  92  91   6  91 131 132 131 131 130 130 129 129 
128 128 127 126 126 125 125 125 125 124 124  45  70 107 100 103 103 101 
102 102 103 103 104 104 104 104 105 105 105 105 106 106 106 107 107 107 
106 108 109 108 109 108 109 109 116  16  77 112 113 112 113 113 112 112 
112 112 112 111 111 110 111 111 110 111 110  41  65 125 113 114 114 114 
113 113 114 114 113 115 114 114 114 114 114 114 114 120  76  66 108 106 
108 108 108 108 108 108 108 108 108 108 108 108 108 108  77 134 140 140 
140 140 140 140 140 140 139 139 139 139 139 139 139 139 137  83 110 110 
110 110 111 111 111 111 112 112 112 112 113 113 113 107 101 134 133 133 
132 132 132 131 131 130 130 129 129 128 128 127 126 132  37 123 124 124 
125 126 127 127 128 129 130 130 131 132 133 134 135 136 137 137 139 139 
141 141 143 144 145 146 147 148 149 150 152 153 154 155 157 158 159 160 
162 163 165 166 167 169 170 172 173 175 176 178 179 181 182 184 186 187 
189 190 192 194 196 197 199 201 203 204 206 208 210 211 213 215 217 219 
221 223 224 226 228 230 232 234 236 238 240 242 243 245 247 249 251 253 
253 252 250 248 247 245 244 242 240 239 237 235 234 232 231 229 227 226 
224 223 220 218 218 215 205 172 175 171 168  24  15  13  12   9   7   7 
  7   0 137 193 191 189 189 187 186 185 182 182 180 178 163  64  63  61 
 84 170 171 170 169 167 167 165 164 163 162 161 160 159 158 157 156 155 
154 153 151 151 144  54  74  74  76  77  77  79  79  80  81  82  81  84 
 82  84  86  85  86  87  87  89  90  95  62  50 122 127 129 130 130 129 
129 128 128 127 127 126 124 119 107  11  97 101  99 101 101 102 100 103 
102 102 102 103 103 103 104 104 104 105 105 105 105 106 106 106 106 107 
107 107 107 109 107 108 107 109 109 109 115  60  73 106 111 113 113 113 
113 111 112 112 111 112 112 107 102  16 103 113 113 113 112 113 115 112 
114 113 113 112 113 113 113 114 114 114 114 114 114 113 114 116  33 109 
109 109 109 109 109 109 108 109 108 109 108 109 108 109  77 133 139 139 
139 139 139 139 139 139 139 139 139 139 139 138 138 138 137  83 110 111 
111 111 111 111 112 112 112 112 113 113 113 114 114 107 101 133 133 132 
132 131 131 131 130 130 129 129 128 128 127 127 126 131  37 124 124 125 
126 127 127 128 129 129 130 131 132 133 133 134 135 136 137 138 139 140 
141 142 143 144 145 146 147 149 149 151 152 153 154 156 157 158 159 161 
162 164 165 166 168 169 170 172 173 175 176 178 179 181 183 184 186 188 
189 191 192 194 196 198 199 201 203 205 206 208 210 212 213 215 217 219 
221 223 224 226 228 230 232 234 236 238 240 242 243 245 247 249 251 253 
253 252 250 248 247 245 244 242 240 239 237 235 234 232 231 229 227 226 
224 223 221 220 216 204 177 175 174 168  39  14  14  12  11  11   9   7 
  6  18 187 192 192 190 189 182 177 176 184 182 180 177 178 150  58  60 
 62 172 171 170 169 168 167 166 164 164 162 161 160 159 158 157 156 156 
154 153 152 132  47  75  74  75  77  76  77  78  79  79  80  80  83  81 
 84  85  84  85  86  86  88  88  90  90  92  95  89  62  39   3  32  55 
 70  71  54  34   9  31  52  75 101 102  99  99 100 100 100 100 102 100 
101 103 102 102 103 103 103 103 104 104 104 105 105 105 105 106 106 106 
106 107 107 106 108 107 110 108 108 110 110 110 115  91  64  19  29  64 
 83 104  86  78  44   3  47  77 108 116 112 113 111 112 113 113 112 112 
112 112 113 114 113 112 113 112 113 112 114 113 113 114 114 114 124   0 
108 109 109 109 109 109 109 109 109 109 109 109 109 109  78 133 139 139 
139 139 139 139 139 139 138 138 138 138 138 138 138 138 136  84 111 111 
111 111 112 112 112 112 113 113 113 113 114 114 114 108 100 133 132 132 
131 131 131 130 130 129 129 128 128 127 127 126 125 131  38 124 125 125 
126 127 128 128 129 130 131 131 132 133 134 135 136 136 138 138 139 140 
141 142 143 144 146 146 148 149 150 151 152 153 155 156 157 158 160 161 
163 164 165 166 168 169 171 172 174 175 177 178 180 181 183 184 186 188 
189 191 193 194 196 198 200 201 203 205 207 208 210 212 214 215 217 219 
221 223 225 226 228 230 232 234 236 238 240 242 244 245 247 249 251 253 
253 252 250 248 247 245 244 242 240 239 237 236 234 232 231 229 228 226 
224 223 220 219 204 176 177 174 176  84  17  16  14  14  12  11   9   7 
  4  64 194 193 185 167 150 147 148 145 143 154 176 180 178 177 145  62 
 55 144 172 170 169 168 167 166 165 164 163 162 161 160 159 158 157 156 
155 154 112  68  72  73  74  75  75  76  77  78  78  79  80  81  81  82 
 83  84  84  85  85  86  87  87  88  90  89  91  90  91  91  95  98 102 
103 105 101 102 100  97  96  97  97  97  98  98  99  99  99 100 100 101 
101 100 101 102 102 103 103 103 103 104 104 104 104 105 105 105 105 106 
106 106 106 107 108 106 107 107 108 108 108 109 108 109 109 111 116 119 
122 123 123 121 118 115 111 111 111 112 110 112 111 111 111 113 112 112 
112 112 113 112 112 112 112 113 113 113 112 113 113 113 113 115  83 110 
110 110 110 110 110 110 110 110 110 110 110 110 110 110  79 132 138 138 
138 138 138 138 138 138 138 138 138 137 137 137 137 137 136  84 111 112 
112 112 112 113 113 113 113 114 114 114 114 115 115 108  99 132 132 131 
131 130 130 130 129 129 128 128 127 127 126 126 125 130  38 125 125 126 
127 128 128 129 129 130 131 132 133 134 134 135 136 137 138 139 140 141 
142 143 144 145 146 147 148 149 150 152 153 154 155 156 158 159 160 162 
163 164 165 167 168 170 171 173 174 176 177 179 180 182 183 185 186 188 
190 191 193 195 196 198 200 201 203 205 207 208 210 212 214 216 217 219 
221 223 225 227 228 230 232 234 236 238 240 242 244 245 247 249 251 253 
253 252 250 249 247 245 244 242 240 239 237 236 234 232 231 228 228 226 
223 222 220 196 180 178 176 177  86  18  18  16  14  14  12  10   8   8 
  6 172 194 174 154 152 150 150 150 147 145 144 142 171 178 176 176 123 
 53 110 171 171 170 168 167 166 165 163 163 162 161 160 159 158 157 156 
155 153  91  72  72  72  75  75  75  76  77  77  78  79  81  80  81  82 
 82  83  84  84  85  86  86  87  88  88  89  89  90  90  92  92  93  93 
 94  94  95  95  95  95  96  96  97  97  97  98  98  98  99  99 100 100 
100 101 101 101 101 103 102 102 103 103 103 104 103 104 103 105 105 105 
105 106 106 106 106 106 107 107 107 107 109 109 109 109 108 108 109 110 
110 109 109 110 111 110 110 110 110 110 110 110 111 111 111 111 111 111 
111 111 111 112 112 112 112 111 113 111 112 112 113 112 112 103  89 110 
109 110 110 110 110 110 110 110 110 110 110 110 110 110  79 132 138 138 
138 138 138 138 137 137 137 137 137 137 137 137 137 136 135  85 112 112 
113 113 113 113 113 113 114 114 114 115 115 115 116 109  99 132 131 131 
130 130 129 129 129 128 128 127 127 126 126 125 124 130  39 125 126 126 
127 128 129 129 130 131 132 132 133 134 135 136 137 137 139 139 140 141 
142 143 144 145 146 147 149 150 151 152 153 154 156 157 158 159 161 162 
163 164 166 167 169 170 172 173 175 176 177 179 181 182 184 185 187 188 
190 191 193 195 197 198 200 202 203 205 207 209 210 212 214 216 218 219 
221 223 225 227 229 230 232 234 236 238 240 242 244 246 247 249 251 253 
253 252 250 249 247 245 244 242 241 239 237 236 234 231 231 228 228 225 
225 219 194 182 180 178 184 112  20  20  17  17  16  14  13  12   8   8 
 71 195 168 155 153 152 153 159 140 126 119 138 151 152 179 178 177 175 
105  81 172 170 170 169 167 167 166 164 164 162 162 160 160 158 158 156 
156 154 154  63  76  72  74  75  74  75  77  76  78  78  79  80  80  81 
 82  83  83  84  84  85  86  87  87  88  88  89  89  90  90  91  91  92 
 92  93  93  94  94  95  95  96  96  97  97  97  98  98  98  99  99 100 
100 100 100 101 101 100 102 102 102 103 103 103 103 104 105 104 104 105 
105 105 105 106 106 106 106 106 106 107 107 107 107 107 108 108 108 108 
108 108 109 109 109 109 109 109 109 110 110 110 110 110 110 110 110 111 
111 111 111 111 111 111 112 111 111 112 111 112 112 113 114  62 109 111 
111 110 111 111 111 111 111 111 111 111 111 111 111 111  80 131 137 137 
137 137 137 137 137 137 137 136 137 136 136 136 136 136 135  86 113 113 
113 113 113 114 114 114 114 115 115 115 115 116 116 110  98 131 131 130 
130 129 129 128 128 127 127 127 126 125 125 124 124 129  39 126 126 127 
128 129 129 130 131 131 132 133 134 135 135 136 137 138 139 140 141 142 
143 144 145 146 147 148 149 150 151 153 153 155 156 157 158 160 161 162 
164 165 166 168 169 171 172 173 175 176 178 179 181 182 184 185 187 189 
190 192 193 195 197 199 200 202 204 205 207 209 211 212 214 216 218 220 
221 223 225 227 229 231 232 234 236 238 240 242 244 246 247 249 251 253 
253 252 250 249 247 245 244 242 241 239 237 236 234 233 231 229 227 226 
218 185 186 180 180 179 115  16  20  20  18  17  16  14  13  11  10  11 
167 185 157 155 153 149 108  14  11  10  12  13  24 123 180 179 176 175 
166  76 161 172 168 169 168 167 165 164 164 163 162 161 160 159 158 157 
156 155 152 153  53  71  72  73  74  76  76  77  77  78  80  79  80  81 
 82  82  83  83  84  85  85  86  87  87  88  88  89  89  90  90  91  91 
 92  92  93  93  94  94  95  95  96  96  96  97  97  97  98  98  99  99 
 99  99 100  99 101 102 101 101 102 102 102 102 103 104 103 102 103 104 
104 104 105 105 105 105 106 106 106 106 106 106 107 107 107 107 107 107 
108 108 108 108 108 108 109 109 109 109 109 109 109 109 110 110 110 110 
110 110 110 110 110 112 110 111 111 111 111 111 112 110  46 111 112 111 
112 112 112 111 111 111 111 111 111 111 111 111 111 111  80 131 136 137 
136 136 136 136 136 136 136 136 136 136 136 136 135 135 134  86 113 113 
114 114 114 114 115 115 115 115 116 116 116 116 117 110  98 130 130 130 
129 129 128 128 127 127 126 126 125 125 124 124 123 129  40 126 127 128 
128 129 130 130 131 132 133 133 134 135 136 137 138 138 140 140 141 142 
143 144 145 146 147 148 150 150 152 153 154 155 157 158 159 160 162 163 
164 165 167 168 170 171 172 174 175 177 178 179 181 183 184 186 187 189 
191 192 194 195 197 199 200 202 204 205 207 209 211 212 214 216 218 220 
222 223 225 227 229 231 233 234 236 238 240 242 244 246 247 249 251 253 
253 252 250 249 247 245 244 242 241 239 237 236 233 233 231 230 227 199 
185 184 182 181 186 104  23  21  22  19  19  16  16  14  13  12   6  52 
198 160 158 159 128  18   7   3   4   6   7   6   9  11 127 179 178 176 
168 129 125 172 170 169 169 166 166 165 164 163 162 161 160 159 158 157 
157 155 155 152 153  83  77  73  73  74  76  75  77  78  78  79  79  80 
 81  82  82  83  83  84  85  86  86  87  87  88  88  89  89  90  90  91 
 91  92  92  93  93  94  94  95  95  95  96  96  96  97  97  98  98  98 
 99  99  98 101 100 100  99 102 101 101 102 101 102 103 103 102 104 102 
104 104 104 104 104 105 105 105 105 106 106 105 105 106 106 107 107 107 
107 107 107 108 108 108 108 108 108 108 108 109 109 109 109 109 109 109 
109 110 110 110 110 109 111 110 110 110 111 110 118  41 112 111 112 112 
112 111 112 112 112 112 112 112 112 112 112 112 112 112  81 130 136 136 
136 136 136 136 136 135 135 135 135 135 135 135 135 134 133  87 114 114 
114 115 115 115 115 115 116 116 116 117 117 117 117 111  97 130 129 129 
129 128 128 127 127 126 126 125 125 124 124 123 123 128  40 127 128 128 
129 130 130 131 132 133 133 134 135 136 136 137 138 139 140 141 142 143 
144 145 146 147 148 149 150 151 152 153 154 156 157 158 159 161 162 163 
164 166 167 169 170 171 173 174 175 177 178 180 181 183 184 186 188 189 
191 192 194 196 197 199 201 202 204 206 207 209 211 213 214 216 218 220 
222 224 225 227 229 231 233 234 236 238 240 242 244 246 248 249 251 253 
253 252 250 249 247 245 244 242 241 239 237 236 234 232 231 217 190 187 
187 187 184 185 107  22  26  22  22  21  19  18  16  14  12  12  10 191 
193 158 157 118   7   1   0   3   3   4   6   6   8   9  14 167 178 177 
170 136  87 149 171 169 169 168 167 166 165 164 162 162 161 160 159 158 
157 156 155 153 152 153  74  68  74  75  76  77  76  78  78  78  79  80 
 81  81  82  82  83  84  84  85  86  86  87  87  88  88  89  89  90  90 
 91  91  92  92  93  93  94  94  94  95  95  95  96  96  97  97  97  98 
 98  98 100  99 100 100 100 100 102 102 101 102 103 103 104 102 103 104 
103 103 104 104 104 104 104 104 105 105 105 105 105 106 106 106 106 106 
106 107 107 107 107 107 107 107 108 108 108 108 108 108 108 108 109 109 
109 109 109 109 109 109 109 109 111 111 111 113  28 113 112 113 113 113 
113 113 113 113 113 113 113 113 113 113 113 113 113 113  82 129 135 135 
135 135 135 135 135 135 135 135 134 134 134 134 134 134 133  87 115 115 
115 115 115 115 116 116 116 116 117 117 117 118 118 111  96 129 129 128 
128 128 127 127 126 126 125 125 124 124 123 123 122 128  41 128 128 129 
130 130 131 132 132 133 134 134 136 136 137 138 139 140 141 141 142 143 
144 145 146 147 148 149 151 151 153 154 155 156 157 158 160 161 162 163 
165 166 168 169 170 172 173 174 176 177 179 180 182 183 185 186 188 189 
191 193 194 196 198 199 201 203 204 206 208 209 211 213 215 216 218 220 
222 224 225 227 229 231 233 235 236 238 240 242 244 246 248 249 251 253 
253 252 250 249 247 245 244 242 241 239 238 235 234 227 195 192 188 188 
188 185 183  72  25  24  24  23  22  20  19  18  15  15  13  11 103 200 
190 157 157   6   0   2   0   4   2   4   4   8   8  10  11 128 177 177 
169 136  90  96 169 169 169 168 167 166 165 164 163 162 161 160 159 158 
157 155 156 155 154 152 152 123  68  74  74  75  76  78  77  78  78  79 
 80  81  81  82  82  83  84  84  85  86  86  87  87  88  88  89  89  90 
 90  91  91  92  92  93  93  93  94  94  94  95  95  96  96  97  97  97 
 97  98  98  98  99 100  99  99 100  79 106 100 101 101 100 103 102 102 
102 103 103 103 103 104 104 104 104 104 104 105 105 105 105 105 105 106 
106 106 106 106 106 107 107 107 107 107 107 107 107 108 108 108 108 108 
108 108 108 108 108 108 109 110 109 110 106  67 114 113 114 114 113 114 
113 114 113 113 113 113 113 113 113 113 113 113 113 113  82 129 135 134 
134 134 134 134 134 134 134 134 134 134 134 133 133 133 132  88 115 116 
116 116 116 116 116 117 117 117 117 118 118 118 119 112  96 128 128 128 
127 127 127 126 126 125 125 124 124 123 123 122 122 127  42 128 129 130 
130 131 131 132 133 134 134 135 136 137 138 139 139 140 141 142 143 144 
145 146 147 148 149 150 151 152 153 154 155 157 158 159 160 162 163 164 
165 167 168 169 171 172 173 175 176 178 179 181 182 184 185 187 188 190 
191 193 195 196 198 200 201 203 204 206 208 210 211 213 215 217 218 220 
222 224 226 227 229 231 233 235 236 238 240 242 244 246 248 249 251 253 
253 252 250 249 247 246 244 242 241 239 238 223 204 193 193 192 190 187 
188 168  62  26  28  26  25  24  21  21  20  17  17  15  13  21 198 200 
199 162  51   2   2   0   0   1   3   4   5   6   7  11  10 122 178 178 
172 137  92  86 147 170 170 169 166 167 165 165 163 163 161 161 160 159 
158 157 156 155 153 154 151 152 139   8  83  73  75  75  78  77  78  79 
 80  80  81  81  82  82  83  84  85  85  86  86  87  87  88  88  89  89 
 90  90  91  91  92  92  92  93  93  93  94  94  95  95  96  96  96  96 
 97  97  98  99  98  97 101 105  57 110  80  86 102 100 101 101 101 101 
102 102 102 102 103 103 103 103 103 104 104 104 104 104 105 105 105 105 
105 105 105 106 106 106 106 106 106 106 107 107 107 107 107 107 107 107 
107 108 108 108 108 108 109 108 110  84  76 115 114 115 113 114 114 114 
114 114 114 114 114 114 114 114 114 114 114 114 114 114  83 128 134 134 
134 134 134 134 133 133 133 133 133 133 133 133 133 133 131  89 116 116 
116 116 117 117 117 117 118 118 118 118 119 119 119 113  95 128 127 127 
126 126 126 125 125 125 124 124 123 123 122 122 121 126  42 129 130 130 
131 131 132 133 134 134 135 136 137 137 138 139 140 141 142 142 144 144 
146 146 147 148 150 150 152 153 154 155 156 157 158 159 161 162 163 164 
166 167 169 170 171 172 174 175 177 178 180 181 183 184 186 187 189 190 
192 193 195 196 198 200 202 203 205 206 208 210 212 213 215 217 219 220 
222 224 226 227 229 231 233 235 237 238 240 242 244 246 248 249 251 253 
253 252 250 249 247 246 244 242 238 226 202 197 197 195 194 192 191 189 
152  35  31  30  27  27  25  24  24  21  20  17  17  14  11 172 201 201 
199 173  13   4   2   2   1   2   2   4   7   6   7   7   9 143 178 177 
171 137  96  86  87 170 170 169 168 166 166 165 164 163 162 161 160 159 
158 157 157 156 155 154 153 152 151 151  42  71  74  75  76  77  77  78 
 79  80  80  81  81  82  83  83  84  84  85  86  86  87  87  88  88  89 
 89  90  90  91  91  91  92  92  92  93  93  94  94  95  95  95  95  96 
 96  97  97  97  97  99 100  38 125 123 124 123  56 102 100 100 101 101 
101 101 101 102 102 102 102 103 103 103 103 103 103 104 104 104 104 104 
104 105 105 105 105 105 105 105 106 106 106 106 106 106 106 106 106 107 
107 107 107 107 107 108 107 109  69 111 113 115 115 115 115 115 115 114 
115 114 115 115 115 115 115 115 115 115 115 115 115 115  84 127 133 133 
133 133 133 133 133 133 133 132 132 132 132 132 132 132 131  90 117 117 
117 117 117 118 118 118 118 119 119 119 119 120 120 113  94 127 127 126 
126 125 125 125 124 124 123 123 122 122 121 121 120 125  43 130 130 131 
131 132 133 134 134 135 136 137 137 138 139 140 140 141 142 143 144 145 
146 147 148 149 150 151 152 153 154 156 156 158 159 160 161 163 164 165 
166 168 169 170 171 173 174 176 177 179 180 182 183 184 186 188 189 191 
192 194 195 197 198 200 202 203 205 207 208 210 212 214 215 217 219 221 
222 224 226 228 229 231 233 235 237 239 240 242 244 246 248 250 251 253 
253 252 249 249 247 246 231 214 205 201 199 198 196 195 192 193 193  79 
 33  32  31  28  28  27  26  24  23  20  20  17  17  13  80 204 200 201 
199 183  14   3   1   2   1   0   1   3   3   5   8   9   9 181 179 177 
170 138  99  88  85 130 170 170 168 168 166 166 164 164 162 162 160 160 
159 158 157 156 155 155 154 153 152 149 150 125  24  81  76  77  77  77 
 77  79  80  80  81  81  82  83  83  83  84  86  86  86  87  88  88  88 
 89  89  89  90  90  91  91  90  92  92  93  93  94  94  94  95  94  95 
 96  97  97  97  97 104  44 124 124 124 124 123 123  47 108 100 100 101 
100  99 101 101 101 101 102 103 102 102 102 102 103 103 103 103 103 103 
104 104 104 104 104 104 105 105 105 105 105 105 105 105 107 106 106 106 
106 106 107 106 106 106 121  30 115 116 115 115 116 116 116 116 116 116 
116 116 116 116 116 116 116 116 116 116 116 115 116 116  85 126 132 132 
132 132 132 132 132 132 132 132 131 132 131 131 131 131 130  90 118 118 
118 118 118 118 119 119 119 119 120 120 120 120 121 114  93 126 126 126 
125 125 124 124 123 123 122 122 121 121 120 120 119 125  43 130 131 131 
132 133 134 134 135 135 136 137 138 139 140 140 141 142 143 144 145 146 
147 147 149 149 151 151 153 154 155 156 157 158 159 160 162 163 164 165 
167 168 169 171 172 173 175 176 178 179 180 182 183 185 186 188 189 191 
193 194 196 197 199 200 202 204 205 207 209 210 212 214 216 217 219 221 
223 224 226 228 230 231 233 235 237 239 240 242 244 246 248 250 251 253 
251 246 240 230 219 207 204 204 202 202 201 198 197 197 195 140  42  32 
 36  33  30  30  29  27  26  25  23  20  18  18  15  38 206 203 202 200 
199 195  18   5   3   1   1   1   3   4   5   6   6   6 158 181 179 179 
170 138  99  88  86  97 169 168 169 168 167 166 165 164 163 162 161 160 
159 158 158 157 156 155 154 153 153 152 150 149 150  57  53  82  78  76 
 80  77  80  80  80  81  81  81  82  84  84  83  85  85  87  85  87  87 
 88  88  89  89  89  90  90  90  91  92  93  92  93  93  93  95  94  95 
 96  96  97 102  53  88 126 125 126 124 125 125 125 123  93  43 103 100 
100 100 100 100 100 100 101 101 101 102 102 102 102 103 102 103 103 103 
103 103 102 103 103 105 104 104 104 104 104 104 105 105 105 105 107 106 
105 105 105 106 113  51  92 117 116 117 117 117 117 117 117 117 117 117 
117 117 116 116 116 116 116 116 116 116 116 116 116 116  86 127 132 131 
131 131 131 131 131 131 131 131 131 131 132 130 130 130 130  91 118 118 
119 119 119 119 119 120 120 120 120 121 121 121 121 115  94 125 125 126 
124 124 124 123 123 122 122 121 121 120 120 119 119 125  43 131 130 131 
133 134 134 135 135 136 137 138 138 139 140 141 142 143 143 145 145 146 
147 148 149 150 151 152 153 154 155 157 158 159 160 161 162 164 165 166 
167 169 170 171 172 174 175 177 178 179 181 182 184 185 187 188 190 191 
193 194 196 198 199 201 202 204 206 207 209 211 212 214 216 218 219 221 
223 224 226 228 230 232 233 235 237 239 240 242 244 246 248 250 251 253 
220 214 212 211 207 207 206 204 203 203 201 198 199 171  56  39  37  36 
 34  33  31  29  29  29  27  24  24  21  20  18  21 177 206 204 202 201 
200 199 112   1   4   2   1   1   0   3   4   6  12 130 182 181 179 177 
169 139 100  90  85  83 158 171 168 166 167 166 165 165 163 163 162 161 
160 159 158 157 156 156 155 154 153 151 151 151 149 150 148  47  75  76 
 76  79  77  80  79  81  81  81  83  82  82  84  84  85  84  87  86  87 
 87  88  87  88  89  89  91  90  91  91  90  93  92  92  93  93  94  96 
 95  95  92  59 128 126 126 127 125 126 125 126 124 125 125 125  70  90 
101  99 100 100 100 100 100 101 101 101 101 101 100 101 102 103 102 102 
102 102 104 102 104 103 103 103 103 103 104 104 104 104 104 103 104 104 
104 106 106  99  63 118 118 117 118 117 118 118 118 118 118 117 117 117 
117 117 117 117 117 117 117 117 117 117 117 117 117 117  86 124 131 132 
131 131 130 131 130 130 130 130 130 130 130 131 129 129 127  93 119 119 
119 120 120 120 120 120 121 121 121 121 122 122 122 116  92 126 124 124 
122 123 124 122 122 122 121 121 120 120 119 119 118 124  45 132 132 133 
134 134 135 135 136 137 138 138 139 140 141 142 143 143 144 145 146 147 
148 149 150 151 152 153 154 155 156 157 158 159 161 162 163 164 165 166 
168 169 170 172 173 174 176 177 179 180 181 183 184 186 187 189 190 192 
193 195 196 198 200 201 203 204 206 208 209 211 213 214 216 218 219 221 
223 225 226 228 230 232 233 235 237 239 241 242 244 246 248 250 251 253 
239 213 212 211 211 207 206 205 204 203 206 156  84  37  39  39  38  37 
 33  35  32  31  29  27  26  26  22  21  21  10 117 187 189 197 203 202 
201 198 198  91   8   0   2   0   2   7  17  47 158 184 181 182 181 179 
167 139 100  87  86  84 109 170 168 168 168 167 166 165 164 163 162 161 
160 159 159 158 157 156 155 154 154 153 152 151 151 150 147 148 133  53 
 56  87  80  77  79  80  79  82  80  82  82  83  83  84  84  85  85  86 
 86  86  88  88  89  89  88  91  90  90  90  91  91  91  93  91  95 102 
 77  35 118 129 127 128 128 127 127 127 127 126 126 126 126 124 125 123 
 49  66 108 100 101  98  99 100  99 100 100 100 100 101 101 101 101 102 
101 102 101 103 102 102 102 102 103 103 103 103 103 103 102 104 101 105 
115  79  34 115 118 118 118 119 119 119 118 119 118 118 118 118 118 118 
118 118 118 118 118 118 118 118 118 118 118 118 118 118  87 124 130 130 
130 130 130 130 130 129 129 129 128 129 129 130 128 129 128  93 120 120 
120 120 121 121 121 121 120 122 122 122 122 123 123 117  90 125 124 123 
123 122 122 121 121 121 120 120 119 119 118 118 117 122  46 133 133 134 
134 135 136 136 137 138 138 139 140 141 141 142 143 144 145 146 147 148 
148 150 150 152 152 154 154 156 156 158 159 160 161 162 163 165 166 167 
168 170 171 172 173 175 176 178 179 180 182 183 185 186 187 189 190 192 
193 195 197 198 200 201 203 205 206 208 209 211 213 215 216 218 220 221 
223 225 227 228 230 232 234 235 237 239 241 242 244 246 248 250 251 253 
250 217 211 210 207 209 208 206 191 160  67  40  44  42  41  39  37  37 
 35  33  30  31  29  29  26  25  25  22  18  83 175 170 167 166 164 176 
188 197 196 196 170  62  27  24  27  72 165 187 186 185 183 182 181 179 
163 141 101  89  86  87  82 169 170 169 168 168 166 166 164 164 163 162 
161 160 159 158 157 157 156 155 153 154 153 152 150 151 150 149 148 148 
146  75  40  69  82  81  80  80  82  82  82  82  83  84  84  84  85  85 
 86  86  87  86  88  88  89  88  89  91  90  91  91  92  94  87  62  51 
130 130 129 130 129 129 129 128 128 128 127 126 127 127 126 126 126 125 
126 126  60  58  90 103 100  99  99  99 100  99 100 101 101 100 100 100 
102 102 101 100 102 101 101 102 103 102 102 102 102 102 103 107  99  70 
 46 119 120 120 120 120 120 119 120 118 119 119 119 119 119 119 119 119 
119 119 119 119 119 119 119 119 119 119 119 119 119 119  91  95 102 100 
101 101 101 101 101 101 101 101 100 100 100 100 100 100  98  95 121 121 
121 121 122 122 122 122 122 122 123 123 123 124 124 118  66  95  95  93 
 94  95  92  94  92  92  91  91  90  90  89  89  88  94  58 133 134 134 
135 136 136 137 138 138 139 140 141 141 142 143 144 145 146 146 147 148 
149 150 151 152 153 154 155 156 157 158 160 160 162 163 164 165 166 168 
169 170 171 173 174 175 177 178 179 181 182 184 185 186 188 189 191 192 
194 195 197 199 200 202 203 205 207 208 210 211 213 215 217 218 220 222 
223 225 227 228 230 232 234 235 237 239 241 243 244 246 248 250 251 253 
253 245 209 212 212 212 166  91  59  47  46  45  43  42  39  40  38  36 
 35  34  33  31  30  27  27  25  23  18  53 175 171 171 169 165 166 164 
162 163 165 174 195 195 192 189 189 190 189 186 186 185 183 183 181 180 
159 140  99  89  87  85  86 150 169 170 169 168 167 166 165 164 163 162 
162 161 160 159 158 157 157 156 155 153 154 152 152 151 151 150 149 148 
146 147 146 128  81  25  92  86  80  81  81  81  80  84  83  84  84  85 
 85  87  85  86  88  87  86  88  89  88  89  96 103  57  51 111 131 131 
131 131 131 130 130 130 129 129 128 129 128 128 128 127 127 127 126 127 
127 126 126 126 103  41  67 111 103  98  98 100  99 100  99  99  99 100 
100 100 100 100  99 101 101 101 101 101 101 100 105 111  84  28  98 119 
121 121 121 121 121 121 121 120 120 120 119 120 120 120 120 120 120 120 
120 120 120 120 120 120 120 120 120 120 120 120 120 119 119 114 114 115 
114 114 114 114 114 114 114 114 114 115 115 115 115 116 114 121 121 122 
122 122 122 123 123 123 123 124 124 124 124 125 125 123 119 120 120 119 
122 121 121 122 122 123 123 124 124 125 125 126 126 128 129 134 134 135 
136 137 137 138 138 139 140 141 141 142 143 144 144 146 146 147 148 149 
150 151 152 153 154 155 156 157 158 159 160 161 162 164 164 166 167 168 
169 171 172 173 174 176 177 179 180 181 183 184 185 187 188 190 191 193 
194 196 197 199 200 202 204 205 207 209 210 212 213 215 217 218 220 222 
223 225 227 229 230 232 234 236 237 239 241 243 244 246 248 250 251 253 
254 231 186 148 107  61  47  50  48  49  45  47  43  44  41  40  38  37 
 36  34  34  30  29  28  26  26  24  23 106 118 128 137 153 168 173 169 
166 160 162 159 157 166 182 191 191 187 189 188 186 186 184 182 181 181 
153 140 100  89  87  87  86 133 170 171 169 169 167 167 166 165 164 163 
162 161 160 160 159 158 157 156 155 155 154 153 153 152 151 150 150 149 
148 148 147 147 146 146 142  76  18  20  51  80  93  90  89  89  88  87 
 87  88  91  90  92  95  97  89  65  34   3  56 118 134 133 132 133 132 
132 132 131 131 131 131 130 130 130 129 129 128 129 128 128 127 128 128 
127 127 127 126 126 126 126 103  36  19  54  89 108 106 105 102 102 101 
101  99  99 102 100 104 106 108 112  97  64  28  25  90 121 122 121 122 
121 122 122 122 122 121 121 121 121 121 121 121 121 121 121 121 121 121 
121 121 121 121 121 121 121 121 121 121 121 121 121 121 121 121 121 121 
121 121 121 121 121 121 121 121 121 121 122 121 122 122 122 121 123 123 
123 123 123 123 124 124 124 124 125 125 125 125 126 126 126 127 127 127 
128 127 129 129 129 130 130 131 131 131 132 133 133 133 134 135 136 135 
137 137 138 138 139 140 141 141 142 143 144 144 145 146 147 148 149 150 
151 151 153 153 155 155 157 157 159 159 161 162 163 164 165 166 168 169 
170 171 173 174 175 176 178 179 180 182 183 184 186 187 189 190 192 193 
195 196 198 199 201 202 204 206 207 209 210 212 214 215 217 219 220 222 
224 225 227 229 231 232 234 236 237 239 241 243 244 246 248 250 252 253 
253 192  50  57  56  53  52  51  51  48  47  46  45  43  42  40  39  37 
 36  35  33  31  30  28  27  25  24  21  22  19  18  15  14  12  34  77 
125 162 159 158 158 157 154 154 174 190 187 188 186 186 185 184 183 180 
146 141  97  90  88  88  87 114 172 171 170 169 168 167 166 165 165 163 
163 162 161 160 160 158 158 157 156 155 155 154 153 153 152 151 151 150 
149 149 148 147 147 146 146 145 145 144 144 143 126  78  45  10   2  25 
 26  26   3   7  36  69 112 137 136 136 136 135 135 133 134 134 133 133 
132 132 132 132 132 131 131 131 131 130 130 130 130 129 129 129 129 128 
128 127 128 127 127 127 127 127 126 126 125 126 114  62  14  23  50  67 
 88  97  97  66  58  29   5  49 102 124 124 124 122 123 123 123 123 122 
123 122 123 123 122 122 122 122 122 122 122 122 122 122 122 122 122 122 
122 122 122 122 121 122 121 122 121 122 121 122 121 122 121 121 122 122 
122 122 122 122 122 122 122 122 122 122 122 123 123 123 122 123 123 124 
124 124 124 124 124 125 125 125 125 126 126 126 126 127 127 128 128 128 
128 129 129 130 130 131 131 132 132 133 133 134 134 135 135 135 135 137 
137 138 139 140 140 141 141 142 143 144 144 145 146 147 148 149 149 150 
151 152 153 154 155 156 157 158 159 160 161 163 163 165 166 167 168 169 
170 172 173 174 176 177 178 180 181 182 184 185 186 188 189 191 192 194 
195 197 198 200 201 203 204 206 207 209 211 212 214 216 217 219 221 222 
224 226 227 229 231 232 234 236 238 239 241 243 245 246 248 250 252 253 
253 251 103  58  55  54  54  52  51  49  48  46  45  43  42  40  39  37 
 36  35  33  32  30  29  27  26  25  23  22  21  19  18  15  15  11   9 
  4   8  30  54  96 150 165 157 154 156 170 188 187 186 185 184 182 181 
141 143  95  91  89  89  87 102 172 172 171 169 168 168 166 166 165 164 
162 163 162 161 160 159 158 158 157 156 155 155 154 153 153 152 151 151 
150 149 149 148 147 147 146 146 145 145 144 144 143 143 142 142 141 141 
140 140 139 139 139 138 138 138 137 137 136 136 135 135 135 135 134 134 
134 133 133 133 132 132 132 132 131 131 131 131 130 130 130 130 129 129 
129 129 129 128 128 128 128 128 127 127 127 127 127 127 126 126 126 126 
126 126 126 125 125 125 125 125 125 125 125 124 124 124 124 124 124 124 
124 124 124 123 123 123 123 123 123 123 123 123 123 123 123 123 123 123 
123 123 123 122 122 122 122 122 122 122 122 122 122 122 123 122 123 123 
123 123 123 123 123 123 123 123 123 123 124 123 124 124 124 124 124 124 
125 125 125 125 125 126 126 126 126 127 127 127 128 128 128 128 129 129 
130 130 130 131 131 131 132 132 133 133 134 134 135 135 136 136 137 138 
138 139 140 140 141 141 142 143 144 144 145 146 147 148 149 149 150 151 
152 153 154 155 156 157 158 159 160 161 162 163 164 165 167 168 169 170 
171 172 174 175 176 177 179 180 182 183 184 185 187 188 190 191 193 194 
196 197 199 200 202 203 205 206 208 209 211 213 214 216 218 219 221 222 
224 226 228 229 231 233 234 236 238 239 241 243 245 246 248 250 252 253 
254 251 209  54  58  54  54  52  51  49  48  46  45  43  42  40  39  38 
 36  35  33  32  31  29  28  26  25  24  22  21  20  18  17  16  13  12 
 12   9   8   7   3   7  34 110 141 157 150 156 179 186 186 185 183 171 
141 142  89  92  89  88  88  88 173 172 171 170 168 168 168 166 165 165 
163 163 162 161 161 159 159 158 158 157 156 155 155 154 153 153 152 151 
151 150 150 149 148 148 147 147 146 145 145 144 144 143 143 142 142 141 
141 141 140 140 140 139 139 138 138 137 137 137 137 136 136 135 135 135 
135 134 134 133 133 133 133 132 132 132 132 131 131 131 131 130 130 130 
130 130 130 129 129 129 129 129 128 128 128 128 128 127 127 127 127 127 
127 127 127 126 126 126 126 126 126 126 126 125 125 125 125 125 125 125 
125 125 125 124 124 124 124 124 124 124 124 124 124 124 124 124 124 124 
123 124 123 123 123 123 123 123 123 123 123 123 123 123 123 124 123 124 
124 124 124 124 124 124 124 124 124 124 124 125 125 125 125 125 125 125 
125 126 126 126 126 127 127 127 127 128 128 128 128 129 129 129 130 130 
130 131 131 132 132 132 133 133 134 134 135 135 136 136 137 137 138 139 
139 140 140 141 142 143 143 144 144 145 146 147 148 149 149 150 151 152 
153 154 155 156 156 158 158 160 160 162 163 164 165 166 167 168 169 171 
172 173 174 176 177 178 179 181 182 183 185 186 187 189 190 192 193 195 
196 198 199 201 202 204 205 207 208 210 211 213 215 216 218 219 221 223 
224 226 228 229 231 233 234 236 238 240 241 243 245 246 248 250 252 253 
254 252 250 166  50  53  55  51  51  49  48  46  45  44  42  41  39  38 
 36  35  34  32  31  29  28  27  25  24  22  21  20  19  16  15  14  12 
 11   9   7   6   6   5   3   2   6  33 131 155 151 157 185 185 184 158 
144 134  91  90  90  89  88  83 174 173 171 171 169 169 168 166 166 165 
165 163 163 161 161 160 160 159 158 158 157 156 155 155 154 154 153 152 
151 151 150 150 149 149 148 147 147 146 146 145 145 144 144 143 143 143 
142 142 141 141 140 140 139 139 139 138 138 138 137 137 137 136 136 136 
135 135 135 135 134 134 134 133 133 133 133 132 132 132 132 132 131 131 
131 131 130 130 130 130 130 130 129 129 129 129 129 129 128 128 128 128 
128 128 127 127 127 127 127 127 127 127 126 126 126 126 126 126 126 126 
126 126 125 125 125 125 125 125 125 125 125 125 125 125 125 125 125 124 
125 124 124 124 124 124 124 124 124 124 124 124 124 124 124 124 125 124 
125 125 125 125 125 125 125 125 125 125 125 125 126 126 126 126 126 126 
127 127 127 127 127 127 128 128 128 128 129 129 129 130 130 130 131 131 
131 132 132 132 133 133 134 134 135 135 136 136 137 137 138 138 139 139 
140 141 141 142 143 143 144 145 145 146 147 148 149 149 150 151 152 153 
154 154 155 156 157 158 159 160 161 162 163 164 166 167 168 169 170 171 
173 174 175 176 177 179 180 181 183 184 185 186 188 189 191 192 194 195 
197 198 200 201 202 204 206 207 209 210 212 213 215 216 218 220 221 223 
225 226 228 230 231 233 235 236 238 240 241 243 245 246 248 250 252 253 
253 252 250 249 107  52  53  51  51  49  48  47  45  44  42  41  39  38 
 37  35  34  32  31  30  28  27  26  24  23  21  20  19  19  16  14  14 
 12  11  10  11   8   6   5   2   3   2   9  37 104 153 152 176 184 149 
146 122  91  92  90  89  90  83 164 173 173 171 166 149 135 126 125 132 
151 164 164 161 162 161 161 159 159 158 158 157 156 155 155 154 154 153 
152 152 151 150 150 149 149 148 148 147 147 146 146 145 145 144 144 143 
143 142 142 141 141 141 140 140 140 139 139 138 138 138 138 137 137 136 
136 136 136 135 135 135 135 134 134 134 134 133 133 133 133 132 132 132 
132 131 131 131 131 131 131 130 130 130 130 130 130 129 129 129 129 129 
129 129 128 128 128 128 128 128 128 128 127 127 127 127 127 127 127 127 
127 127 126 126 126 126 126 126 126 126 126 126 126 126 126 126 126 126 
125 125 125 125 125 125 125 125 125 125 125 125 125 125 125 125 125 126 
125 126 126 126 126 126 126 126 126 126 126 127 127 127 127 127 127 127 
127 128 128 128 128 129 129 129 129 130 130 130 130 131 131 131 131 132 
132 133 133 134 134 134 135 135 135 136 136 137 137 138 138 139 140 140 
141 142 142 143 143 144 145 146 146 147 148 149 149 150 151 152 152 154 
154 155 156 157 158 159 160 161 162 163 164 165 166 167 168 170 171 172 
173 174 175 177 178 179 180 182 183 185 186 187 188 190 191 193 194 196 
197 198 200 201 203 204 206 207 209 211 212 214 215 217 218 220 222 223 
225 227 228 230 231 233 235 236 238 240 241 243 245 247 248 250 252 253 
254 250 251 249 247  85  52  52  51  50  48  47  45  44  42  41  40  38 
 37  35  34  33  31  30  28  27  26  25  23  22  20  19  18  17  15  14 
 13  13  10   9   8   7   3   4   2   1   1   0   4  16 134 146 164 147 
146 110  92  95  90  90  91  84 160 174 171 166 131 131 130 133 128 127 
128 152 164 163 163 162 159 161 160 159 158 158 157 156 156 155 154 154 
153 153 152 151 151 150 149 149 148 148 147 147 146 146 145 145 144 144 
144 143 143 143 142 142 141 141 140 140 140 139 139 139 138 138 138 138 
137 137 136 136 136 136 135 135 135 135 134 134 134 134 133 133 133 133 
133 133 132 132 132 132 132 131 131 131 131 131 131 130 130 130 130 130 
130 130 129 129 129 129 129 129 129 129 128 128 128 128 128 128 128 128 
128 128 127 127 127 127 127 127 127 127 127 127 127 127 127 127 127 126 
127 126 126 126 126 126 126 126 126 126 126 126 126 126 126 126 127 126 
127 127 127 127 127 127 127 127 127 127 127 127 128 128 128 128 128 128 
129 129 129 129 129 129 130 130 130 130 131 131 131 131 132 132 133 133 
133 134 134 134 135 135 136 136 137 137 138 138 139 139 140 140 141 141 
142 142 143 144 144 145 146 146 147 148 149 149 150 151 152 152 154 154 
155 156 157 158 159 160 161 162 163 164 165 166 167 168 169 170 172 172 
174 175 176 177 179 180 181 182 184 185 186 188 189 190 192 193 195 196 
197 199 200 202 203 205 206 208 209 211 212 214 216 217 219 220 222 223 
225 227 228 230 232 233 235 237 238 240 242 243 245 247 248 250 252 253 
254 252 251 247 248 232  88  45  51  50  48  47  45  44  43  41  40  38 
 37  36  34  33  32  30  29  27  26  25  24  22  21  20  18  17  16  15 
 13  12  11   9   8   7   6   5   5   1   1   0   2   4   7  45 144 148 
146  96  94  93  93  90  91  84 160 175 165 133 134 133 132 103  88  84 
 84  90 143 164 163 163 162 161 161 160 159 158 158 157 157 156 155 154 
154 153 153 152 152 151 151 150 149 149 148 148 147 147 146 146 146 145 
145 144 144 143 143 142 142 142 141 141 141 140 140 140 139 139 139 138 
138 138 138 137 137 137 137 136 136 136 136 135 135 135 135 134 134 134 
134 133 133 133 133 133 133 132 132 132 132 132 132 131 131 131 131 131 
131 130 130 130 130 130 130 130 130 130 129 129 129 129 129 129 129 129 
129 129 128 128 128 128 128 128 128 128 128 128 128 128 128 128 128 128 
127 128 127 127 127 127 127 127 127 127 127 127 127 127 127 128 127 128 
128 128 128 128 128 128 128 128 128 128 128 129 129 129 129 129 129 129 
129 130 130 130 130 131 131 131 131 132 132 132 132 133 133 133 133 134 
134 135 135 135 136 136 136 137 137 138 138 139 139 140 140 141 141 142 
143 143 144 145 145 146 146 147 148 149 149 150 151 152 152 154 154 155 
156 157 158 159 159 161 161 163 163 165 165 167 168 169 170 171 172 173 
174 176 177 178 179 181 182 183 184 186 187 188 189 191 192 194 195 197 
198 199 201 202 204 205 207 208 210 211 213 214 216 217 219 221 222 224 
225 227 229 230 232 233 235 237 238 240 242 243 245 247 248 250 252 253 
254 252 251 249 248 237 217 115  50  49  47  47  46  44  43  41  40  39 
 37  36  34  33  32  30  29  28  26  25  24  23  21  20  18  17  16  15 
 14  12  11  10  10   7   6   6   3   4   1   1   0   1   4   7   4 106 
142  96  95  95  94  90  92  84 160 175 139 135 134 125  87  83  83  81 
 81  79  81 154 164 164 161 162 161 161 160 159 158 158 157 157 156 155 
155 154 153 153 152 152 151 151 150 150 149 149 148 148 147 147 146 146 
145 145 145 144 144 144 143 143 142 142 142 141 141 141 140 140 140 139 
139 139 138 138 138 138 137 137 137 137 136 136 136 136 135 135 135 135 
135 135 134 134 134 134 134 133 133 133 133 133 133 132 132 132 132 132 
132 132 131 131 131 131 131 131 131 131 130 130 130 130 130 130 130 130 
130 130 130 129 129 129 129 129 129 129 129 129 129 129 129 129 129 129 
129 129 129 128 129 128 128 128 128 128 128 128 129 128 129 129 129 129 
129 129 129 129 129 129 129 129 129 129 130 130 130 130 130 130 130 130 
131 131 131 131 131 131 132 132 132 132 133 133 133 134 134 134 135 135 
135 136 136 136 137 137 138 138 139 139 140 140 140 141 142 142 143 143 
144 144 145 145 146 147 148 148 149 149 150 151 152 153 154 154 155 156 
157 158 159 159 161 161 162 163 164 165 166 167 169 169 171 172 173 174 
175 176 178 179 180 181 182 183 185 186 188 189 190 191 193 194 196 197 
198 200 201 203 204 206 207 208 210 212 213 215 216 218 219 221 222 224 
226 227 229 230 232 234 235 237 239 240 242 243 245 247 248 250 252 253 
254 252 251 249 248 239 207 161  50  49  48  46  46  44  43  42  40  39 
 37  36  35  33  32  31  29  28  27  25  24  23  22  20  19  18  17  15 
 14  13  12  10   9   8   7   6   5   3   2   0   1   2   4   4   5   4 
 38 100  96  95  94  92  93  88 161 159 135 136 126  85  84  83  83  81 
 79  79  78 111 165 163 164 163 162 161 161 160 159 159 158 157 157 156 
156 155 154 154 153 153 152 151 151 150 150 149 149 149 148 148 147 147 
146 146 146 145 145 144 144 144 143 143 143 142 142 141 141 141 141 140 
140 140 140 139 139 139 138 138 138 138 137 137 137 137 137 136 136 136 
136 135 135 135 135 135 135 134 134 134 134 134 134 133 133 133 133 133 
133 133 132 132 132 132 132 132 132 132 132 131 131 131 131 131 131 131 
131 131 131 131 130 130 130 130 130 130 130 130 130 130 130 130 130 130 
130 130 130 130 130 130 129 130 129 130 129 130 130 130 130 130 130 130 
130 130 130 130 130 130 130 130 130 131 130 131 131 131 131 131 131 132 
132 132 132 132 132 133 133 133 133 134 134 134 134 135 135 135 136 136 
136 137 137 137 138 138 138 139 139 140 140 141 141 142 142 143 143 144 
145 145 146 147 147 148 148 149 150 151 151 152 153 154 154 155 156 157 
158 159 159 160 161 162 163 164 165 166 167 168 169 170 171 173 173 175 
176 177 178 179 180 182 183 184 185 187 188 189 191 192 193 195 196 198 
199 200 202 203 204 206 207 209 210 212 213 215 216 218 220 221 223 224 
226 227 229 231 232 234 235 237 239 240 242 244 245 247 248 250 252 253 
254 251 251 249 248 241 207 148  50  49  49  47  46  44  44  42  40  37 
 37  34  34  33  31  30  29  26  26  23  20  17  14  11   8   7   7   6 
  6   6   6   8   9   9   6   5   4   3   1   1   0   1   1   2   4   6 
  9  16  89  96  93  92  92  87 170 146 137 138  96  85  84  83  83  83 
 82  80  79  87 166 165 163 163 163 162 161 161 160 160 159 158 158 157 
156 156 155 155 154 154 153 153 152 152 151 151 150 150 149 149 148 148 
147 147 146 146 146 145 145 145 144 144 143 143 143 143 142 142 142 141 
141 141 140 140 140 140 139 139 139 139 138 138 138 138 137 137 137 137 
137 137 136 136 136 136 136 136 135 135 135 135 135 135 134 134 134 134 
134 134 134 133 133 133 133 133 133 133 133 133 132 132 132 132 132 132 
132 132 132 132 132 131 131 131 131 131 131 131 131 131 131 131 131 131 
131 131 131 131 131 131 130 131 131 131 131 131 131 131 131 131 131 131 
131 131 131 131 131 131 131 131 132 131 132 132 132 132 132 132 133 133 
133 133 133 133 134 134 134 134 134 135 135 135 136 136 136 136 137 137 
137 138 138 138 139 139 139 140 141 141 142 142 143 143 144 144 145 145 
146 146 147 147 148 149 149 150 151 151 152 153 154 154 155 156 157 158 
159 159 160 161 162 163 164 165 166 167 168 169 170 171 172 173 174 175 
177 178 179 180 181 182 183 185 186 187 189 190 191 192 194 195 197 198 
199 201 202 204 205 206 208 209 211 212 214 215 217 218 220 221 223 225 
226 228 229 231 232 234 236 237 239 240 242 244 245 247 249 250 252 253 
253 252 251 249 247 243 208 147  50  50  49  47  46  44  43  43  40  40 
 38  36  35  33  32  30  33  37  36  62  98 123 151 166 172 173 169 167 
147 121  98  61  25  18  12   8   3   3   3   3   1   0   2   2   6   5 
  7   6   5  92  95  95  94  86 178 144 139 123  86  88  86  85  84  85 
 83  83  81  93 166 166 164 164 164 163 162 162 161 160 160 159 159 158 
157 157 156 155 155 154 154 153 153 152 152 151 151 150 150 149 149 149 
148 148 148 147 147 146 146 145 145 145 145 144 144 143 143 143 143 142 
142 142 142 141 141 141 141 140 140 140 140 139 139 139 139 138 138 138 
138 138 137 137 137 137 137 136 136 136 136 136 136 136 135 135 135 135 
135 135 135 134 134 134 134 134 134 134 134 134 134 133 133 133 133 133 
133 133 133 133 133 133 132 132 132 132 132 132 132 131 132 132 132 132 
132 131 132 131 132 131 132 132 132 132 132 132 132 132 132 132 132 132 
132 132 132 132 132 132 132 133 132 133 133 133 133 133 133 133 133 134 
134 134 134 135 135 135 135 135 135 136 136 135 136 136 137 138 137 138 
137 139 139 140 140 140 141 141 141 142 142 143 143 144 144 145 145 145 
147 147 148 149 149 150 150 151 152 153 153 154 154 155 156 157 158 159 
159 160 160 162 163 164 164 166 167 168 169 170 171 172 173 173 175 176 
177 178 179 181 182 183 184 185 187 188 189 191 192 193 194 196 197 199 
200 201 202 204 205 207 207 210 211 213 214 216 217 219 220 222 223 225 
226 228 229 231 233 234 236 237 239 241 242 244 245 247 249 250 252 253 
254 252 250 250 248 246 209 146  51  50  48  48  46  45  43  42  42  40 
 37  34  24  52 118 175 193 206 218 218 216 215 214 213 211 210 209 206 
205 205 203 203 202 193 178 161 126  66   5   7   1   1   2   1   2   3 
  5   6   8   0  89  94  95  97 179 147 139 102  88  89  86  87  85  85 
 82  83  81 124 167 167 166 165 164 164 163 163 162 161 160 160 159 159 
158 158 157 157 156 155 155 154 154 153 153 152 152 152 151 151 150 150 
149 149 148 148 148 147 147 147 146 146 145 145 145 145 144 144 144 143 
143 143 142 142 142 142 141 141 141 141 140 140 140 140 140 140 139 139 
139 139 138 138 138 138 138 138 137 137 137 137 137 137 137 136 136 136 
136 136 136 136 135 135 135 135 135 135 135 135 135 135 134 134 134 134 
134 134 134 134 134 134 134 134 134 133 133 133 132 133 133 133 133 133 
133 133 133 133 133 133 133 133 133 133 133 133 133 133 133 133 133 133 
133 133 133 133 133 133 134 134 134 134 134 134 134 134 134 134 135 135 
135 135 135 135 136 136 136 136 137 136 137 137 137 138 138 137 139 139 
139 140 140 140 141 141 141 142 143 143 143 144 145 144 146 146 147 147 
147 148 149 149 150 151 151 152 153 153 154 155 156 156 157 158 159 159 
160 160 162 163 164 165 166 166 168 168 170 169 172 172 174 175 176 177 
177 179 180 181 182 184 185 186 187 188 190 191 193 194 195 196 198 199 
200 202 203 204 206 207 209 210 210 213 215 216 218 219 221 222 224 225 
227 228 230 231 233 234 236 238 239 241 242 244 245 247 249 250 252 253 
254 251 251 250 248 246 222 162  50  49  49  49  44  44  43  42  37  42 
 76 130 205 224 223 223 221 219 218 217 217 215 214 212 212 210 208 208 
207 205 205 203 202 201 200 199 198 197 195 155  83  33   1   6   4   3 
  4   5   6   9   3  89  96 107 180 167 139  91  89  88  86  88  86  86 
 83  83  85 162 168 166 166 166 166 165 164 163 163 162 162 161 160 160 
159 158 158 157 157 156 156 155 155 154 154 153 153 152 152 151 151 151 
150 150 150 149 149 148 148 148 147 147 147 146 146 146 145 145 145 144 
144 144 144 143 143 143 143 142 142 142 142 141 141 141 141 140 140 140 
140 140 140 139 139 139 139 139 139 138 138 138 138 138 138 137 137 137 
137 137 137 137 137 136 136 136 136 136 136 136 136 136 136 135 135 135 
135 135 135 135 135 135 135 135 135 135 135 134 134 134 134 134 133 134 
134 134 134 134 134 134 134 134 134 134 134 134 134 134 134 134 134 134 
134 134 134 135 134 135 135 135 135 135 135 135 135 135 135 136 136 136 
136 136 136 137 137 137 137 138 138 138 138 138 139 139 139 140 140 140 
141 140 141 142 141 143 142 143 143 144 144 145 144 146 145 147 146 148 
149 149 150 151 151 152 152 153 154 154 155 156 156 157 158 159 159 161 
161 161 163 164 165 166 165 168 168 169 169 171 172 173 174 176 176 177 
179 180 180 181 183 185 186 187 188 189 190 192 193 193 196 197 198 200 
201 202 204 205 206 208 209 211 212 213 215 216 218 219 221 222 224 225 
227 228 230 232 233 235 236 238 239 241 242 244 246 247 249 250 252 253 
254 251 251 250 247 247 245 198  50  50  47  48  48  44  43  42 133 224 
227 226 226 226 223 223 222 221 219 218 217 216 214 213 212 211 210 209 
207 206 205 204 203 201 199 198 198 197 195 195 193 174 150  85   5   6 
  2   5   7   6   8  12  95 122 180 180 167  99  89  90  88  89  87  86 
 85  83 121 170 168 167 168 167 166 166 165 164 164 163 162 162 161 161 
160 160 159 158 158 157 157 156 156 155 155 154 154 153 153 153 152 152 
151 151 150 150 150 149 149 149 148 148 148 147 147 147 146 146 146 146 
145 145 145 144 144 144 144 143 143 143 143 143 142 142 142 142 141 141 
141 141 141 141 140 140 140 140 140 140 139 139 139 139 139 139 139 138 
138 138 138 138 138 138 138 137 137 137 137 137 137 137 137 137 137 136 
136 136 136 136 136 136 136 136 136 136 136 136 136 136 136 133 135 134 
134 135 135 135 134 134 135 135 135 135 135 135 135 135 135 135 135 135 
136 135 136 136 136 136 136 136 136 136 136 136 137 137 137 137 137 137 
137 137 138 138 138 138 139 139 139 139 140 140 140 140 141 141 140 141 
142 142 143 142 143 143 144 143 145 144 146 146 147 146 148 148 149 149 
149 150 151 151 152 153 153 154 155 155 156 157 158 158 159 160 161 161 
162 163 164 165 166 166 167 167 169 170 171 172 172 174 175 176 177 178 
180 180 182 183 184 185 186 187 189 190 191 192 194 195 196 195 199 199 
202 202 204 205 207 208 210 210 213 214 215 217 218 220 221 223 224 226 
227 229 230 232 233 235 236 238 239 241 243 244 246 247 249 250 252 253 
254 251 250 250 248 247 246 224  47  50  49  47  37  78 164 230 233 231 
230 228 226 226 225 224 222 221 220 219 217 216 215 214 213 211 209 209 
208 206 206 203 203 202 201 200 199 197 197 195 194 157 155 157 143  76 
 38   7   7   6   6   9  29 140 180 179 179 152  86  91  87  88  87  87 
 83 121 172 171 169 168 168 166 167 166 166 165 165 164 163 163 162 161 
161 160 160 159 159 158 158 157 157 156 156 155 155 154 154 153 153 153 
152 152 152 151 151 150 150 150 149 149 149 148 148 148 148 147 147 147 
146 146 146 145 145 145 145 144 144 144 144 144 143 143 143 143 143 142 
142 142 142 142 142 141 141 141 141 141 141 140 140 140 140 140 140 140 
139 139 139 139 139 139 139 139 139 138 138 138 138 138 138 138 138 138 
138 138 137 137 137 137 137 137 137 137 137 137 136 137 130  50   7  38 
 51  49  37   8  44 129 136 135 136 137 136 137 136 137 136 137 137 137 
137 137 137 137 137 137 137 137 137 137 137 138 138 138 138 138 138 138 
138 139 139 139 139 140 140 140 139 140 140 141  99  32  28 116 142 143 
143 143 139  84  24  20 135 146 146 146 145  39  22  20 104 149 150 149 
151 152 152 153 153 154 154 155 156 156 157 158 158 159 160 161 161 162 
163 164 164 166 166 167 141  39  44  43 124 172 174 175 176 177 178 178 
179 181 182 184 185 186 187 188 189  70  67  67  98 196  65  74  73  76 
 77  78  80 119 207 208 210 212 213 214 216 217 219 220 222 223 224 226 
227 229 230 232 233 235 237 238 240 241 243 244 246 247 249 250 252 253 
254 251 251 249 248 247 246 243  56  50  46  59 169 237 235 233 233 231 
228 229 228 225 224 224 223 221 220 219 218 217 214 214 213 212 211 209 
208 207 206 205 203 202 200 201 199 198 196 195 167 155 154 155 110 103 
102 105  38   0   6   6   8 115 181 179 179 179 125  93  90  88  89  93 
136 172 170 171 171 168 168 169 168 167 167 166 165 165 164 164 163 163 
162 161 161 160 160 159 159 158 158 157 157 156 156 156 155 155 154 154 
153 153 153 152 152 152 151 151 150 150 150 150 149 149 148 148 148 148 
147 147 147 147 146 146 146 146 145 145 145 145 145 144 144 144 144 144 
143 143 143 143 143 143 142 142 142 142 142 142 141 141 141 141 141 141 
141 141 140 140 140 140 140 140 140 140 140 139 139 139 139 139 139 139 
139 139 139 139 139 138 138 138 138 138 138 138 138  71  85  89  86  84 
 85  85  86  85  89  97  41 132 138 138 138 138 138 138 138 138 138 138 
138 138 138 138 138 138 138 138 139 139 139 139 139 139 139 139 140 139 
140 140 140 140 141 141 141 141 141 141 142 140  72  84  93 115 143 144 
144 144 104  81  79  71 134 146 147 146 145  44  75  79  70 150 151 151 
152 152 153 154 154 155 156 156 157 157 158 159 160 160 161 162 163 163 
164 165 166 166 168 167 164  42  52  52  23 174 175 176 176 178 178 180 
156 179 183 184 185 186 188 188 135  43  31  35  99 196  40  25  23  23 
 21  21  18  28 208 209 211 212 213 215 216 218 219 220 222 223 225 226 
228 229 231 232 234 235 237 238 240 241 243 244 246 247 249 250 252 253 
254 251 251 250 248 246 246 245 135  35 153 230 238 236 235 234 232 232 
230 229 228 227 225 224 223 222 221 219 218 217 216 215 213 212 211 210 
209 208 207 205 204 202 202 200 200 199 197 189 158 156 156 136 104 103 
102 101 104  94  58   5   9   6 183 182 181 178 179 162 146 144 160 170 
175 173 173 172 172 170 170 170 169 168 168 167 167 166 165 165 164 163 
163 162 162 161 161 160 160 159 159 158 158 157 157 156 156 156 155 155 
155 154 154 153 153 152 152 152 152 151 151 151 150 150 150 149 149 149 
149 148 148 148 148 147 147 147 147 146 146 146 146 145 145 145 145 145 
145 144 144 144 144 144 144 143 143 143 143 143 143 142 142 142 142 142 
142 142 142 141 141 141 141 141 141 141 141 141 141 140 140 140 140 140 
140 140 140 140 140 140 140 140 139 139 139 139  21  87  85  86  88  94 
 96  95  90  85  84  84  87  49 122 139 139 139 139 139 139 139 139 139 
139 139 139 139 139 140 139 140 140 140 140 140 140 140 140 141 141 141 
141 141 141 142 142 142 142 142 142 143 143 142  66  79  92 113 145 144 
145 146 105  73  78  71 135 148 147 149 146  42  73  78  73 152 152 153 
153 154 154 155 155 156 156 157 158 159 159 160 160 161 162 163 163 164 
165 166 167 168 168 169 168  13  53  50  43 174 175 177 178 179 179 181 
 11 160 183 185 186 187 188 190   0  33  30  32 195 197  39  24  23  21 
 19  19  17  22  86 210 211 213 214 215 217 218 219 221 222 224 225 227 
228 230 231 233 234 235 237 238 240 241 243 244 246 247 249 250 252 254 
254 252 251 250 249 247 246 245 225 207 240 239 238 237 236 233 233 232 
231 229 228 227 226 225 223 222 221 220 218 217 216 215 214 213 211 210 
209 208 207 206 205 204 203 201 200 200 197 162 157 158 155 116 105 104 
103 102 103 101 101  99  40   1  63 180 182 179 176 173 171 171 168 166 
167 168 170 171 173 171 170 170 170 168 169 167 166 167 165 165 165 164 
164 163 163 162 161 161 161 160 160 159 159 159 158 158 157 157 156 156 
155 155 155 154 154 154 153 153 153 152 152 152 151 151 151 151 150 150 
150 150 149 149 149 149 148 148 148 148 147 147 147 147 146 146 146 146 
146 146 145 145 145 145 145 145 144 144 144 144 144 144 144 143 143 143 
143 143 143 143 143 143 142 142 142 142 142 142 142 142 141 142 141 140 
140 141 141 141 141 141 141 141 141 141 141  95  96  83  83  75  24  97 
127 116  65  18  84  84  88  32 125 140 140 140 140 139 140 140 140 140 
141 140 141 141 140 141 141 141 141 141 141 141 141 141 141 142 142 142 
142 142 143 142 143 143 143 143 143 144 144 144  63  78  91 118 146 146 
147 147 109  71  76  69 140 149 150 149 147  41  73  76  73 152 153 154 
154 155 155 156 157 155 157 158 159 159 160 160 162 162 163 164 165 165 
166 167 168 168 169 170 171 115  62  49  56  86 177 177 179 179 181 122 
 53  69 185 186 187 187 189 159  30  30  32  86 196 197  31  41  42  37 
 18  18  17  15  11 204 210 213 214 216 217 218 220 221 223 224 226 227 
228 230 231 233 234 236 237 239 240 242 243 245 246 248 249 251 252 254 
254 252 251 250 249 247 246 245 243 241 241 240 237 237 236 235 233 232 
231 230 229 227 226 225 224 222 221 220 219 218 217 215 214 213 212 211 
210 209 208 206 204 204 203 202 200 198 170 159 159 158 141 103 106 105 
104 101 102 101  99  99 121 175  59 132 149 145 142 143 140 141 141 140 
139 138 137 137 138 142 154 165 170 170 169 169 168 167 167 167 165 165 
165 162 164 161 163 162 162 161 161 160 160 159 159 159 158 158 158 157 
157 156 156 155 155 155 155 154 154 153 153 153 153 152 152 152 151 151 
151 151 150 150 150 150 149 149 149 149 149 148 148 148 148 147 147 147 
147 147 147 146 146 146 146 146 146 145 145 145 145 145 145 145 145 144 
144 144 144 144 144 144 143 144 142 143 141 143 143 142 142 143 143 143 
142 141 142 142 142 142 142 142 142 142 141  42  82  81  94 109 142 142 
142 142 141 140  97  81   0 141 141 141 141 141 142 142 141 141  90  10 
 22  21  33 124 142 140 141 142 142 142 142 143 143 142 143 112  19  22 
 21  25 124 144 132 116 119 125 145 144 126 123  64  78  88  95 120 132 
147 122  87  71  74  67 113 123 144 151 148  41  71  74  75 154 154 155 
155 156 156 157 157  96  21   8   0  65 153 162 162 163 164 165 165 166 
167 168 169 170 170 171 172 173  26  49  47  34 176 179 179 181 180  28 
 40  48 184 187 188 189 190 101  31  30  24 165 197 197 198 201 201 147 
 18  16  16  15  18 167 212 213 215 216 217 219 220 222 223 224 226 227 
229 230 232 233 234 236 237 239 240 242 243 245 246 248 249 251 252 254 
254 252 251 250 249 247 246 245 244 242 241 240 239 237 236 235 234 233 
231 230 229 228 226 225 224 223 222 221 219 218 217 216 215 214 212 211 
210 209 208 207 206 205 203 203 202 183 161 160 159 155 109 109 107 105 
104 105 103 101 101  99 135 146 150  60  68 145 146 143 144 144 141 133 
130 127 125 124 125 127 132 135 139 146 156 169 169 169 168 167 166 167 
166 166 165 163 164 163 163 163 162 162 161 161 160 160 159 159 158 158 
158 157 157 157 156 156 156 155 155 155 154 154 154 154 153 153 153 152 
152 152 152 151 151 151 151 150 150 150 150 150 149 149 149 149 149 148 
148 148 148 148 148 147 147 147 147 147 147 147 146 146 146 146 146 146 
146 146 145 145 145 145 145 145 145 145 145 144 142 144 144  79   8 123 
143 144 144 142 144 144 143 143 142 143 140  61  81  79  57 142 142 142 
143 143 143 142 143 112 142 142 142 143 143 143 142 142  44  57  90  85 
 84  83  87  83  18 122 143 143 144 144 144 143 144  98  36  87  83  81 
 80  84  83   2  28  93  87  30 146 146  15  87  76  77  74  83  85   0 
141  65  82  74  73  72  82  88 100 151 150  39  69  74  76 155 156 156 
157 156 157  39  52  73  68  66  67  68  61  18 159 164 165 166 167 167 
167 169 170 170 170 172 173 174 100  47  47  47 136 177 179 181 178  37 
 39  42  77 187 188 189 191   2  30  30   7 196 197 199 200 201 203  33 
 19  15  21  15  14  24 212 214 215 217 218 219 221 222 223 225 226 228 
229 230 232 233 235 236 238 239 240 242 243 245 246 248 249 251 252 254 
254 253 251 250 249 248 246 245 244 243 241 240 239 238 236 235 234 233 
232 230 229 228 227 226 224 223 222 221 220 219 218 216 215 214 213 212 
211 210 209 208 206 205 203 203 189 162 165 160 162 128 108 108 107 106 
108 104 105 103 103 100 149 149 148 144   5   7 102 116 103  93  90  89 
 88  88  88  86  85  85  85  83  93 105 116 125 148 167 169 168 167 166 
165 165 165 165 164 164 164 163 163 163 162 162 161 161 161 160 160 159 
159 158 158 158 158 157 157 156 156 156 156 155 155 155 154 154 154 153 
153 153 153 152 152 152 152 152 151 151 151 151 151 150 150 150 150 150 
150 149 149 149 149 149 149 148 148 148 148 148 148 147 147 147 147 147 
147 147 147 147 146 146 146 146 145 146 146 145 146 129   1  61  44 145 
145 145 145 144 145 145 145 144 145 145 143  56  79  81  88 100 144 144 
143 144 144 143 143 144 143 144 143 144 144 144 143  11  86  80  81  80 
 73  76  80  80  79  78 111 145 145 144 145 144  85  87  78  78  78  80 
 81  80  77  77  65  76  76  20 147 148  10  76  76  74  74  76  75   6 
144  57  73  71  72  72  73  77 102 154 151  37  68  74  77 156 157 157 
158 153  27  68  62  63  62  56  60  61  60  60  55 144 166 167 167 169 
169 169 171 172 172 172 174 174 156  37  45  44  62 180 180 182  65  43 
 39  37   1 187 188 191 147  45  30  38 133 197 198 199 201 202 165  33 
 20  24 120  18  13  19 167 213 215 217 218 220 221 222 224 225 226 228 
229 231 232 234 235 236 238 239 241 242 243 245 246 248 249 251 252 254 
254 253 251 250 249 248 246 245 243 243 240 240 239 238 237 235 234 233 
232 231 229 228 227 226 225 224 222 221 220 219 218 217 216 215 213 212 
211 210 209 208 206 204 205 196 164 164 163 162 146 110 110 109 107 109 
107 107 105 105 104 114 151 140 121 106  59   8   7  33  96  94  93  94 
 93  90  91  90  89  88  87  89  86  87  86  86  89 102 136 170 169 168 
168 168 167 166 166 166 165 165 164 164 163 163 162 162 162 161 161 161 
160 160 159 159 159 158 158 158 157 157 157 157 156 156 156 155 155 155 
154 154 154 154 154 153 153 153 153 153 152 152 152 152 151 151 151 151 
151 151 150 150 150 150 150 150 149 149 149 149 149 149 149 149 148 148 
148 148 148 148 148 148 148 147 146 146 146 146  76  41  48  22 147 146 
147 145 145 145 145 145 146 146 146 146 145   2  81  77  78  74  41  26 
 76 120 146 146 146 145 145 144 146 145 146 145  24  80  77  80  12 115 
122 118  30  87  76  77  60 136 144 146 146 119  71  77  77  88  10  98 
111  53  68  75  75  76  75  19 149 149  37   9  67  73  77  19  11  49 
146   4  21  70  69  70  10   9 119 155 153  37  67  71  77 157 158 158 
159  16  63  63  66  26 134 138 131  26  62  58  57  26 167 167 169 169 
170 171 172 172 173 174 175 176 177  10  46  44  39 180 181 172  36  38 
 37  36  42 147 190 191  28  31  29   2 196 198 199 200 200 201  43  20 
 17  36 208   9  12  12  77 215 216 217 218 220 222 223 224 225 227 228 
230 231 232 234 235 237 238 239 241 242 244 245 246 248 249 251 252 254 
254 253 251 250 249 248 246 245 244 242 242 240 239 238 237 236 234 233 
232 231 230 229 227 226 225 224 223 222 221 219 218 217 216 215 214 213 
212 211 210 209 207 207 199 166 166 164 164 158 116 112 110 111 109 108 
107 106 107 106 106 109 105  98  99 101  93  12   9   7  25  87  96  93 
 93  91  92  92  91  89  88  88  88  87  85  87  85  84  81  94 139 167 
169 168 166 168 167 166 166 166 165 165 165 164 164 163 163 162 162 162 
161 161 161 160 160 159 159 159 159 158 158 158 157 157 157 156 156 156 
156 155 155 155 155 155 154 154 154 154 154 153 153 153 153 153 152 152 
152 152 152 152 151 151 151 151 151 151 151 150 150 150 150 150 150 150 
150 149 149 149 149 149 149 149 149 148 148  53  50  45  47  71 146 146 
148 148 147 148 148 148 146 147 147 147 147 140  63  77  76  77  76  83 
 85  89  91  53   5  63 131 147 146 147 146 111  90  77  80  25 147 146 
147 147 147  78  83  75  80  16 148 147 148  26  77  76  78  83 148 149 
149 149 143  21  76  74  74  18 150 150 151 150  55  71  84 132 152 152 
153 152 122  66  69  62 153 154 155 156 153  35  66  70  79 159 159 159 
110  78  64  69  58 162 162 163 164 165  68  66  55  64  52 169 170 171 
171 172 172 174 174 175 176 177 177 146  56  42  51 102 183 106  38  38 
 32  37  37   3 189 180  13  30  28  89 197 199 199 201 200 191  11  16 
 19 119 209  70  12  10   1 214 217 218 219 221 222 223 225 226 227 229 
230 231 233 234 235 237 238 240 241 242 244 245 247 248 249 251 252 254 
254 253 251 250 249 248 247 245 244 243 242 241 239 238 237 236 235 234 
232 231 230 229 228 227 225 224 223 222 221 220 219 218 217 216 215 214 
212 211 210 209 208 198 165 166 167 164 165 123 113 114 111 111 111 109 
109 108 106 107 104 105 103 101 101 100 102  59   6  10   9  13  91  96 
 93  92  93  93  92  91  90  91  90  88  89  87  86  86  86  84  83  87 
152 170 169 168 168 168 167 167 166 166 166 165 165 164 164 164 163 163 
162 162 162 161 161 161 160 160 160 160 159 159 159 158 158 158 157 157 
157 157 157 156 156 156 156 156 155 155 155 155 154 154 154 154 154 154 
153 153 153 153 153 153 152 152 152 152 152 152 152 152 151 151 151 151 
151 151 151 151 150 150 150 148 150 150  21  44  44  44  42 149 149 149 
148 149 148 149 149 149 149 149 149 148 148 148 125  57  75  75  76  75 
 76  75  75  76  76  75  78  96 148 147 148  18  75  75  45 143 147 147 
147 149 147 149  13  78  73  84 137 149 104  85  76  81  66 150 150 150 
149 150 149 138  53  73  73  18 152 152 152 150  55  69  83 123 154 154 
154 154 116  64  68  62 146 156 157 157 154  34  64  69  81 160 160 161 
 21  62  62   3 164 164 164 165 165 165 167  14  55  55  42 159 171 171 
172 173 174 174 176 176 177 178 178 179   2  44  41   4 184  12  37  46 
 85  20  34  34 149 141  33  29  31 167 198 198 201 201 203  96  21  20 
 25 203 210 181  23  11  14 111 217 218 219 221 222 224 225 226 228 229 
230 232 233 234 236 237 238 240 241 243 244 245 247 248 249 251 252 254 
254 253 251 250 249 248 247 246 244 243 242 241 240 238 237 236 235 234 
233 232 230 229 228 227 226 225 224 223 222 220 219 218 217 216 215 214 
213 212 211 210 194 170 169 168 166 167 134 114 115 114 112 111 112 111 
109 109 107 106 106 104 104 102 104 101 102 102  17  10  10   8  11  82 
 96  93  94  92  91  91  91  89  89  89  90  87  88  88  86  86  85  86 
 81 108 169 170 168 168 169 168 168 167 167 166 166 165 165 165 164 164 
164 163 163 163 162 162 162 161 161 161 161 160 160 160 159 159 159 159 
158 158 158 158 157 157 157 157 157 156 156 156 156 156 155 155 155 155 
155 155 154 154 154 154 154 154 154 153 153 153 153 153 153 153 153 152 
152 152 152 152 152 152 150 152 144   8  49  42  44  48  94 151 151 150 
150 151 151 149 150 150 149 149 150 150 150 150 150 150 100  46   9  51 
 87  86  81  76  73  75  73  72 121 150 150  26  75  73  56   8   8   9 
  7  10   8   7  19  76  73  78  77 151  34  74  73  48 149 151 151 152 
152 151 152 152  14  74  72  14 152 152 153 154  55  70  82 126 155 155 
155 156 116  62  68  61 145 158 158 158 156  32  63  68  82 161 161 150 
 44  61  60  26   7   7   8   7   8  11  11  13  54  53  47 136 172 173 
173 174 175 176 176 176 178 179 180 181  89  43  40  32 126  49  35  21 
188  16  33  30  80  16  30  29  34 197 199 200 201 202 198  20  18  20 
 87 208 210 211  47  10   9   4 210 219 220 222 223 224 225 227 228 229 
231 232 233 235 236 237 239 240 241 243 244 245 247 248 250 251 252 254 
254 253 251 250 249 248 247 246 244 243 242 241 240 239 238 236 235 234 
233 232 231 230 228 227 226 225 224 223 222 221 220 219 218 216 216 215 
213 213 212 191 170 172 169 169 168 144 115 117 114 113 113 112 111 111 
110 109 109 108 106 105 106 103 103 103 101 102  54  11   9   9   9  18 
 93  95  96  94  92  92  90  92  95  97  99  99  99  96  97  96  95  93 
 89  88  83 141 159 165 169 169 167 168 168 168 166 166 165 166 165 165 
164 165 164 164 162 163 162 162 162 162 162 162 161 161 161 159 160 160 
160 159 159 158 158 159 158 158 158 158 157 157 157 157 156 155 156 155 
154 153 155 156 154 154 154 155 155 155 155 155 154 154 154 154 154 154 
153 154 152 153 153 152 152 143  23  39  41  40  41  19 146 149 152 152 
152 152 152 152 152 152 152 152 152 152 152 151 151 151 150 150 151 151 
151 124  71   6  62  73  73  74  23 151 151  45  71  72  72  71  73  73 
 72  72  71  72  72  71  71  74  48 151   0  70  72  15 152 153 152 153 
153 153 153 153  85  81  69  15 154 155 155 155  55  68  80 125 156 156 
157 157 118  62  66  60 147 159 160 160 157  31  62  67  83 162 163 143 
 48  60  58  59  57  57  57  56  56  55  56  54  54  52  51 124 172 174 
175 174 176 177 178 177 179 180 181 181 161  43  39  39  33  37  35  82 
190 138  43  32  24  32  27  30 169 199 200 200 201 203 109  23  18  14 
202 209 211 212 162   9   5   8 157 219 221 222 223 224 226 227 228 230 
231 232 234 235 236 238 239 240 242 243 244 246 247 248 250 251 252 254 
254 253 252 250 249 248 247 246 245 243 242 241 240 239 238 237 236 234 
233 232 231 230 229 228 227 226 225 223 222 221 220 219 218 217 215 212 
213 209 179 172 172 171 169 169 145 117 118 117 115 114 114 113 112 111 
111 110 109 109 107 106 107 106 105 103 102 102  93   8  10  10  10   9 
 17  93  92 103 125 148 165 171 172 173 172 174 173 173 171 171 171 169 
167 164 162 122 126 125 131 148 169 169 168 169 168 168 168 167 167 166 
166 166 165 164 165 163 163 163 162 134 128 132 130 122 136 162 161 160 
160 161 161 158 160 160 160 159 159 158 159 159 158 158 158 157 158 157 
157 148 135 125 138 157 157 156 155 156 155 156 155 156 156 155 154 155 
154 155 155 155 155 155 138  30  43  40  40  40  43  53 153 153 154 154 
154 153 153 153 153 153 153 153 153 152 152 153 153 153 153 153 153 152 
153 153 153 153 111  70  70  71  37 153 153  40  71  69  74  82  82  82 
 81  81  83  82  81  82  81  84  40 153   4  70  70  18 154 154 153 154 
153 155 155 155  67  76  67  11 156 156 155 157  52  67  80 129 158 157 
158 159 118  60  66  57 150 160 161 161 158  30  61  65  84 164 164 147 
 46  56  59  62  67  66  66  65  66  64  65  65  63  63  63 117 174 175 
176 177 177 178 179 179 180 181 182 183 183  32  40  38  36  35  36 155 
189 192   2  31  30  28  26  13 196 199 200 202 202 203  24  17  17   1 
 60  63  65  66  60   4   7   5  57 220 220 223 224 225 226 228 229 230 
231 233 234 235 236 238 239 240 242 243 244 246 247 248 250 251 252 254 
254 253 252 250 249 248 247 246 245 244 243 241 240 239 238 237 236 235 
234 233 231 230 229 228 227 226 225 224 223 222 221 220 219 218 216 216 
196 174 174 174 173 171 172 144 119 119 119 116 115 116 115 114 113 112 
111 111 111 111 108 108 107 106 107 104 103 103 108  43  11  10   9   9 
  9  56 183 183 182 181 180 181 179 179 176 177 177 177 177 175 175 175 
175 173 174 169 140 125 118 120 120 135 150 165 169 169 169 168 168 168 
167 166 167 167 165 165 164 155 125 126 121 110 110 112 110 115 158 163 
162 162 161 162 161 160 161 161 160 160 160 160 160 160 158 148 135 121 
106 103 105 136 158 158 157 157 158 158 156 156 157 157 156 157 157 157 
157 156 156 155 156 140  82  38  36  39  38  39  44 148 155 154 154 155 
155 155 155 155 155 155 154 155 155 154 154 152 144 104 154 153 153 154 
154 154 154 153 153  66  69  71  36 153 154  11  69  69  17 151 150 151 
150 151 150 149 151 153 152 153 152 155  46  72  68  60 153 155 155 156 
156 156 156 156   2  69  67  12 157 157 158 158  50  66  76 126 159 159 
159 160 120  61  64  56 149 162 162 162 159  28  60  65  87 165 166 158 
 35  57  57  50 168 166 166 167 168 167 168 172 172 169 170 173 176 176 
177 177 178 179 180 180 181 182 183 184 185 160  41  36  35  37  10 190 
192 192 103  30  28  27  30  92 198 200 201 202 203 161  29  18  15  15 
 16  15  16  14  12   7   7   5  19 192 222 223 224 225 227 228 229 230 
232 233 234 235 237 238 239 241 242 243 245 246 247 248 250 251 252 254 
254 253 252 251 249 248 247 246 245 244 243 242 241 239 238 237 236 235 
234 233 232 231 230 229 228 226 225 224 223 222 221 220 218 217 217 215 
183 175 174 173 175 173 146 124 121 118 120 118 117 116 116 115 114 113 
112 111 112 110 109 108 108 108 107 106 103 104 104  94  14  12  10  11 
 10   5 107 183 184 183 182 181 181 179 180 178 179 178 177 175 176 175 
176 175 175 174 173 140 129 120 121 119 119 117 138 167 169 170 168 169 
168 167 168 168 167 167 165 129 128 127 113 113 113 113 113 113 114 164 
162 163 163 163 163 163 161 162 162 162 161 160 151 131 108 107 109 105 
107 109 155 159 160 159 159 159 158 159 158 159 158 159 158 157 157 158 
158 158 158 158 146 109  40  37  38  35  37  39  44 156 157 156 157 157 
156 156 156 156 156 156 156 156 156 155 156 155  19  69  84 156 155 156 
155 156 156 156 107  66  66  68   2 156 156  47  69  68  59 142 156 155 
156 156 154 156 146 100 154 156 156 156 122  78  65  70   9 157 157 156 
157 157 158 131  60  65  65   8 159 158 159 159  46  65  71  83 160 160 
161 161 123  57  61  55 135 163 164 164 161  16  59  60  63 167 166 167 
 11  58  54  44 169 169 171 171 172 173 173 137 133 174 174 176 177 177 
178 179 179 180 180 182 182 183 184 185 185 184   6  36  34  43 156 192 
192 193 167  26  28  27  34 197 200 201 202 203 204  11  18  16  16  12 
 13  12  11  10  10   8   6   5   4  64 222 223 225 226 227 228 229 231 
232 233 234 236 237 238 240 241 242 243 245 246 247 249 250 251 252 254 
254 253 252 251 249 248 247 246 245 244 243 242 241 240 239 237 236 235 
234 233 232 231 230 229 228 227 226 225 224 223 222 221 219 219 217 217 
215 191 174 175 174 136 122 122 122 120 120 120 118 117 116 116 115 114 
113 112 112 111 111 110 108 107 108 105 104  98 122 138  35  13  12  12 
 12  10  18 175 183 184 182 183 182 182 179 180 179 160 147 144 144 152 
176 177 176 176 175 174 142 132 121 120 120 120 118 120 134 167 171 169 
170 169 169 169 169 169 149 129 131 116 114 116 114 116 115 113 112 147 
165 164 165 164 164 163 164 164 163 158 137 122 112 109 110 109 110 109 
116 159 160 159 161 160 161 160 161 158 159 160 159 160 160 159 160 160 
158 159 158 150 122  14  36  35  34  35  34  35 122 158 158 158 158 158 
158 158 158 158 158 157 158 157 158 157 131  37  71  66  70  17  76 155 
157 157 132  37  53  66  66  66 104 157 156 146  74  65  69  41 127 156 
157 156 157 116  47  75  27  97 158 157 157   1  66  64  68  21 159 159 
158 159 100  50  65  63  64   8 160 160 161 161   8  62  62  28 160 161 
162 163 143  54  59  59  20 163 165 165 165   6  58  57  32 152 167 169 
153  62  54  55  14 161 172 172 173 174 107  37  54   1 128 177 178 178 
173 151 152 156 180 183 183 184 185 186 187 187  84  39  34   8 192 191 
193 193 195  30  29  26  76 199 199 202 203 203 167  15  16  17  64 101 
101 101 105 104 106 109  37   3   4  12 211 224 225 226 228 229 230 231 
232 234 235 236 237 239 240 241 242 244 245 246 247 249 250 251 252 254 
254 253 252 251 250 248 247 246 245 244 243 242 241 240 239 238 237 236 
235 233 233 231 230 229 228 227 226 225 224 223 222 221 220 218 218 217 
217 215 200 165 127 124 125 122 121 121 120 121 119 118 117 116 116 115 
114 113 113 111 110 109 109 108 107 111 131 182 174 155  77  12  13  12 
 11  10   8  54 185 184 185 184 184 181 182 178 146 142 141 144 123  87 
 69  96 148 177 174 176 174 140 134 122 121 121 121 122 121 118 150 170 
171 171 170 170 170 169 133 131 129 117 116 116 114 116 115 116 115 132 
167 166 165 166 165 164 164 162 140 122 117 112 111 112 111 112 108 121 
163 162 163 163 163 148  95  40  49 107 155 162 161 160 161 161 160 160 
160 161 158 128  85  42  33  32  34  32  35  19 154 159 160 160 160 160 
159 159 159 159 159 159 158 159 159 158 143  25  70  65  65  63  72  80 
 61  75  75  68  64  66  71   2 158 159 159 159  98  67  63  64  73  24 
 83  78   9  74  63  65  61 115 159 159 158 139  54  64  64  67  64  21 
 35  17  71  64  64  63  62   5 162 162 162 161  81  67  61  62  65  80 
164 164 164  13  64  57  61  35 113 167 166 113  62  55  53  66  66 169 
170  77  55  51  52  55  48 100  90  13  55  47  46  33 152 179 179 180 
128  60  52  29 173 184 185 184 185 187 188 189 183  40  36  84 193 193 
194 195 196 167  33  20 172 201 202 203 203 205  84  17  15   8 182 211 
212 213 213 215 216 218 149   5   1   6 143 224 226 227 228 229 230 232 
233 234 235 236 238 239 240 241 242 244 245 246 247 249 250 251 253 254 
254 253 252 251 250 249 248 246 245 244 243 242 241 240 239 238 237 236 
235 234 233 232 231 230 229 228 227 226 225 224 223 222 221 220 219 217 
217 216 181 124 127 128 125 123 123 124 121 121 120 119 118 117 116 116 
115 114 114 113 113 110 109 109 127 185 193 193 179 154 144   4  13  14 
 14  15  12   8 125 186 185 185 185 184 183 148 143 144 146  60   7   3 
  4   3   5  92 178 175 176 176 141 138 123 122 122 122 121 122 120 126 
168 171 172 172 169 169 132 132 129 119 117 119 117 118 117 117 116 126 
168 168 167 167 165 166 145 128 122 113 114 114 116 114 112 111 130 164 
165 165 164 152 123  16  31  31  29  33  23 124 162 163 162 162 163 161 
162 159 132 115  28  30  32  30  31  31  36  46 161 161 161 161 161 161 
161 161 161 161 161 161 161 161 161 160 160 157  46  70  64  64  64  62 
 63  64  63  64  64  69  28 157 160 159 160 159 160  76  77  63  64  63 
 65  65  63  63  64  56 130 161 160 161 160 161 126  62  61  63  61  60 
 62  61  62  61  14  65  59   5 163 162 164 163 163  67  65  58  58   5 
166 166 165 166  11  59  56  61  55 167 169 168 103  56  53  53  32 170 
172 172  70  60  49  49  49  51  46  49  47  47  35 159 179 180 180 181 
133  47  40  18 175 185 186 186 187 188 189 188 190  61  45 186 193 194 
195 196 196 198  18   3 200 202 203 203 205 204  25  17  16  23 211 212 
213 214 215 216 217 218 219   6   2   1   6 225 226 227 228 229 231 232 
233 234 235 237 238 239 240 241 243 244 245 246 248 249 250 251 253 254 
254 253 252 251 250 249 248 247 246 244 243 242 241 240 239 238 237 236 
235 234 233 232 231 230 229 228 227 226 225 224 223 222 222 221 220 219 
217 216 216 183 127 126 124 125 124 122 123 121 121 119 119 118 117 116 
116 115 114 114 114 110 119 168 197 196 195 194 192 153 163  44  15  16 
 14  14  12  12  41 187 187 185 186 184 157 146 145 151  60   2   6   5 
  4   4   3   7 130 179 178 177 171 139 136 123 123 123 122 121 123 121 
124 155 172 173 173 168 134 134 131 118 119 119 119 119 118 119 118 123 
169 168 168 169 161 136 128 122 114 115 114 114 113 114 113 129 165 165 
166 161 134 132   2  29  29  29  29  29  29  25 126 164 163 163 164 164 
163 151 128  56  29  31  29  30  31  31  41 142 163 163 163 163 163 163 
163 162 162 162 162 162 162 162 162 162 162 161 162 124  30  39  73  71 
 70  70  73  53  11 102 162 162 162 162 162 162 160 162 125  11  57  73 
 69  70  73  42  46 153 162 162 162 163 162 162 163 139  25  55  71  68 
 68  71  21  93  65  49  42  10 165 165 165 165 165 166 110   7  71 111 
167 167 166 167 168  79  34  44 161 170 169 169 171 128   9  63  97 173 
172 173 174 122  15  50  58  53  56  56  16  72 178 180 180 181 182 181 
134  43  39  17 176 186 187 188 188 189 190 190 191 157  70 194 195 196 
196 197 198 198  82 124 202 202 202 205 205  92   3   2   7 163 210 212 
213 215 215 217 218 219 220 118  11  17  12 157 226 228 229 230 231 232 
233 235 236 237 238 239 241 242 243 244 245 247 248 249 250 251 253 254 
254 253 252 251 250 249 248 247 246 245 244 243 242 241 240 239 238 237 
236 235 234 233 232 231 230 229 228 227 226 225 224 223 222 221 220 219 
218 217 216 215 212 142 128 124 124 124 124 122 121 120 120 119 119 118 
117 117 115 114 112 137 198 198 198 197 195 195 195 157 157  97  16  16 
 15  16  12  13   6 132 188 187 187 177 147 145 148  81   3   7   6   8 
  6   7   4   6  24 180 180 178 179 172 140 136 125 123 124 124 124 124 
121 122 153 174 174 173 135 133 134 120 122 120 121 120 120 119 118 132 
171 171 170 155 131 131 119 117 117 117 117 116 116 115 126 168 167 168 
168 140 129  88  33  27  28  26  26  27  26  28  26 155 166 166 166 166 
162 126 131  28  28  28  27  28  29  28   0 165 163 163 164 164 164 164 
164 164 164 164 164 164 164 164 164 164 164 164 164 163 164 163 153 102 
 90  96 137 163 163 163 163 163 163 163 163 163 163 163 162 163 164 124 
 92  93 138 164 164 163 164 164 164 164 164 164 164 162 165 165 125  91 
 96 152 165 164 166 166 166 166 166 166 167 167 167 166 167 168 125 168 
169 169 169 168 170 170 170 130 171 171 172 172 172 171 173 140 171 174 
175 175 176 175 176 177 132 105 110 162 180 180 180 181 182 182 183 183 
135  44  37  17 181 187 188 189 190 190 191 192 193 189 193 194 196 196 
197 198 199 200 188 202 203 203 204 205 205 206 208 209 210 211 211 213 
214 215 216 217 218 219 219 221 223 224 225 226 227 228 229 230 232 233 
234 235 236 237 238 240 241 242 243 244 246 247 248 249 250 251 253 254 
254 253 252 251 250 249 248 247 246 245 244 243 242 241 240 239 238 237 
236 235 234 233 232 231 230 229 228 227 226 225 225 224 223 222 221 220 
219 217 216 215 215 214 194 146 122 123 123 121 122 122 121 119 118 117 
117 116 116 112 173 200 199 198 196 197 197 197 196 169 156 131  18  17 
 16  15  15  16  13  26 182 189 188 166 149 148 139  17  10  10   8   7 
  8   7   8   7  17 167 181 180 179 179 160 139 138 125 126 124 125 125 
124 124 122 145 176 175 142 136 135 122 123 121 122 121 122 121 121 144 
170 171 147 134 130 119 119 117 117 117 118 119 116 123 168 170 169 169 
164 128 131  42  26  27  25  25  24  26  24  26  26  75 166 165 165 167 
143 130  38  30  26  26  27  28  27  28  55 166 164 166 166 166 166 166 
166 166 166 166 165 165 165 165 165 165 165 165 165 165 165 165 164 165 
165 165 164 165 164 165 165 164 165 165 165 165 165 165 165 165 165 165 
165 165 165 164 165 165 165 166 166 166 166 166 166 166 165 165 166 167 
166 167 166 167 166 167 167 168 168 168 168 167 168 169 169 168 169 169 
169 170 169 171 171 171 170 172 170 173 172 173 174 174 173 175 174 176 
176 177 177 177 177 177 179 179 179 180 180 181 182 183 183 184 184 185 
134  45 117 186 188 189 188 190 191 191 192 193 194 193 195 196 197 197 
198 199 199 201 202 202 203 204 205 206 207 208 208 210 211 212 213 214 
215 216 217 218 218 220 221 222 223 224 225 226 227 229 230 231 232 233 
233 235 236 238 239 240 241 242 243 245 246 247 248 249 249 252 253 254 
254 253 252 251 250 249 248 247 246 245 244 243 242 241 240 239 238 237 
236 235 234 233 232 232 231 230 229 228 227 226 225 224 223 222 221 221 
220 219 218 217 216 215 215 214 172 150 126 124 122 121 122 123 121 120 
118 118 125 184 202 202 201 199 200 199 198 198 197 182 158 149  26  19 
 17  17  14  14  15  15 142 190 189 158 149 152 103   9   8   9   8   9 
 10   8   8   8  14 164 182 182 180 180 180 154 141 136 125 126 128 126 
126 127 126 122 149 175 169 137 138 130 121 122 123 124 122 122 120 165 
173 145 134 134 121 123 121 120 118 120 120 119 123 169 170 171 170 170 
151 132 132  18  22  22  23  21  24  21  24  26  24  14 169 168 169 166 
129 124  14  25  25  25  25  25  26  28 106 168 168 166 168 167 167 167 
167 167 167 167 167 167 167 166 167 167 166 167 167 166 167 166 167 167 
166 167 167 167 167 167 167 166 167 167 167 167 167 167 166 167 167 167 
167 167 167 167 167 167 167 167 167 167 166 167 168 168 168 168 168 168 
168 168 169 167 169 168 168 169 169 169 170 170 170 170 171 171 171 171 
172 172 172 172 173 173 173 172 174 174 175 175 175 174 176 176 177 176 
178 177 178 179 179 179 180 179 181 181 182 183 183 184 184 185 186 186 
161 176 188 188 189 190 191 191 192 191 193 193 195 195 196 195 198 198 
199 199 201 201 203 202 205 205 206 207 208 209 210 211 212 213 214 215 
216 217 218 219 220 221 222 222 224 225 226 227 228 229 230 231 231 233 
235 236 237 238 239 240 241 242 244 244 245 247 248 249 250 252 253 254 
254 253 252 251 250 249 248 247 246 245 244 243 242 241 240 239 239 238 
237 236 235 234 233 232 231 230 229 228 227 226 226 225 224 223 222 221 
220 219 219 218 217 216 215 214 198 174 140 124 123 124 124 120 120 121 
119 124 196 204 203 203 202 200 200 200 200 199 198 192 157 162  44  20 
 20  17  20  17  17  15  62 191 190 154 152 156  49  11  13  12  12  10 
 10   9   8   8  16 165 184 183 183 182 181 179 144 143 134 128 129 128 
128 128 127 125 125 149 177 150 140 139 127 124 124 124 124 123 144 174 
142 135 135 123 121 123 122 122 122 122 119 117 164 171 172 173 172 172 
147 134 133  33  23  20  20  22  21  21  22  23  24  31 134 171 170 138 
132  90  26  25  23  22  22  24  24  27 144 169 169 169 169 169 169 169 
169 169 169 169 169 169 168 169 169 169 168 167 168 167 168 168 168 168 
168 168 168 168 168 168 167 168 167 168 168 168 168 167 168 168 168 168 
168 168 167 169 169 169 169 169 168 169 168 169 169 169 169 170 169 170 
169 170 170 170 170 171 171 171 171 171 171 172 172 172 172 172 172 173 
172 173 173 174 173 174 175 175 175 175 176 175 177 177 177 178 178 179 
179 179 180 180 180 181 181 182 182 183 182 184 184 185 185 186 187 186 
187 189 188 190 190 191 192 191 193 193 194 195 196 197 197 198 199 200 
200 201 202 203 203 205 204 206 207 208 209 209 211 212 212 214 213 215 
216 217 218 218 220 220 222 223 223 225 226 227 228 230 231 232 233 234 
235 235 237 238 239 239 241 243 244 245 246 247 248 249 250 252 253 254 
254 253 252 251 250 249 248 247 246 245 244 244 243 242 241 240 239 238 
237 236 235 234 233 232 231 231 230 229 228 227 226 225 224 224 223 222 
221 220 219 219 218 217 216 214 213 177 159 123 124 122 123 123 123 121 
134 205 206 204 204 204 203 202 202 201 200 200 198 196 161 163  93  17 
 19  19  20  18  19  18   9 177 191 152 153 160  24  11  13  15  12  13 
 12  11   9  11  24 176 185 185 184 183 183 182 173 142 144 132 129 129 
128 130 126 127 127 126 157 178 157 144 136 133 125 122 126 149 177 146 
139 139 126 124 124 125 124 125 124 122 122 156 175 174 174 174 173 173 
147 135 136  65  23  20  20  19  20  19  21  22  21  28  97 171 166 133 
142   4  22  20  20  21  22  22  21  19 171 171 170 171 171 171 171 171 
171 170 170 170 170 170 170 170 170 170 170 170 169 170 169 170 170 168 
170 170 170 169 170 170 170 169 170 170 170 170 170 170 170 170 170 170 
170 170 170 170 169 170 170 170 171 169 171 171 171 171 171 171 170 171 
170 171 172 172 171 172 172 172 173 173 173 172 173 173 174 174 174 173 
175 174 174 175 176 176 176 176 177 177 177 178 178 178 179 179 180 180 
180 181 181 180 182 181 183 183 183 184 185 185 186 185 187 187 188 189 
189 189 190 191 191 192 192 193 194 195 196 196 197 198 199 199 200 201 
201 202 202 204 205 205 206 207 208 208 210 211 212 212 213 214 215 216 
217 218 219 220 220 222 223 223 225 226 227 228 229 230 231 232 233 234 
235 235 237 239 240 241 242 243 244 245 246 246 248 249 251 251 253 254 
254 253 252 251 250 249 248 247 247 246 245 244 243 242 241 240 239 238 
237 236 236 235 234 233 232 231 230 229 228 228 227 226 225 224 223 222 
222 221 220 219 219 218 217 216 215 206 179 130 125 127 123 123 123 130 
206 207 207 206 204 205 204 202 203 201 202 201 198 197 163 163 141  14 
 21  21  20  20  20  17  16  87 192 161 154 162  22  15  16  13  14  12 
 14  12  12   8  52 187 185 184 186 185 185 184 183 158 145 144 129 130 
132 131 130 130 129 128 128 168 180 179 179 180 178 171 179 178 149 139 
139 129 124 124 125 126 125 126 125 123 137 176 176 176 176 176 176 176 
158 134 137 119  25  19  18  19  19  19  19  18  18  25  87 174 151 137 
112  27  21  21  20  20  20  19  23  40 172 172 172 173 172 172 172 172 
172 172 172 172 172 172 172 172 172 172 172 170 172 165 150 133 149 166 
172 172 172 172 171 171 171 172 171 172 171 172 171 172 172 172 172 172 
172 172 172 172 172 172 171 172 172 172 172 172 172 172 173 173 173 172 
173 173 173 174 173 174 174 174 173 174 174 169 156 175 175 166 147 174 
175 177 177 176 177 178 178 178 178 179 179 179 179 180 180 181 179 182 
182 182 183 183 183 184 184 185 185 186 186 186 187 188 188 189 189 190 
190 191 192 192 193 194 194 195 195 196 197 198 198 199 199 200 201 202 
202 203 204 205 206 207 207 208 209 209 211 212 212 213 214 215 216 217 
218 219 220 221 222 223 224 225 225 224 192 224 229 226 219 229 234 235 
204 234 238 239 240 241 242 243 244 245 246 247 249 249 251 251 253 254 
254 253 252 251 250 249 249 248 247 246 245 244 243 242 241 240 239 239 
238 237 236 235 234 233 232 232 231 230 229 228 227 226 226 225 224 223 
222 222 221 220 218 218 218 217 216 213 191 169 126 126 124 125 128 204 
209 208 208 206 205 206 204 205 203 203 203 202 200 197 166 163 163  23 
 22  21  22  22  21  20  20  44 191 176 153 162  34  16  14  13  15  15 
 13  14  12   3 169 187 188 187 186 187 186 186 186 181 144 147 141 130 
133 132 131 132 132 130 129 131 180 182 181 181 181 180 181 159 141 142 
136 129 124 127 126 126 128 127 127 131 176 177 177 178 177 176 177 177 
172 136 139 145  32  17  17  16  16  19  15  17  17  26 121 173 136 136 
 53  19  18  20  18  18  18  17  25 100 174 174 174 173 174 174 174 174 
174 174 174 174 174 174 173 174 174 173 172 173 109  70  61  59  60  67 
 98 173 172 173 173 173 173 173 173 173 173 173 173 172 173 173 172 173 
173 172 174 173 173 174 174 174 173 174 174 174 174 174 173 174 175 174 
175 174 175 175 175 175 176 176 176 176 176  76  83 177 176 114  60 149 
178 177 178 178 179 179 179 180 180 179 181 181 181 181 181 182 183 183 
183 184 184 184 184 185 186 185 186 187 188 188 189 189 190 190 191 191 
192 192 193 192 194 194 195 196 197 197 198 199 199 200 201 201 202 203 
204 204 205 206 207 207 207 209 209 211 212 212 213 214 215 216 216 218 
219 218 220 221 222 223 223 225 226 205 112 169 230 173 120 219 234 212 
116 169 238 239 240 241 242 242 244 245 247 248 248 250 251 252 253 254 
254 253 252 251 251 250 249 248 247 246 245 244 243 242 242 241 240 239 
238 237 236 235 235 234 233 232 231 230 230 229 228 227 226 225 225 224 
223 222 222 221 220 218 218 218 216 216 214 214 139 126 127 126 197 211 
210 209 208 208 206 206 206 206 204 204 204 203 202 201 169 162 167  44 
 22  21  22  22  21  20  20  25 180 192 161 160  85  15  18  16  15  14 
 16  17  15  82 190 188 189 188 188 188 188 184 181 179 161 148 151 140 
136 132 127 126 126 127 131 134 144 183 183 182 182 182 166 141 145 144 
132 132 126 121 121 121 127 133 130 169 180 179 178 178 177 179 179 177 
179 149 139 139 122  13  16  15  16  14  15  16  17  21 176 156 137 138 
 18  16  16  16  18  15  17  18  23 151 176 175 176 176 176 176 176 176 
176 176 175 175 175 175 175 175 175 174 175 102  59  69 108 133 112  75 
 62 121 175 175 175 161 153 157 175 175 175 175 163 165 175 155 155 174 
175 175 174 163 169 170 154 157 175 174 176 175 176 176 158 154 164 176 
174 176 177 177 177 160 157 163 177 178 174  72  84 170 176 161 119 176 
178 170 172 179 160 162 180 180 180 181 182 178 163 162 179 179 171 185 
185 185 185 186 185 187 186 172 166 172 189 190 189 191 191 180 169 174 
190 194 193 195 194 195 177 177 197 199 189 179 188 201 201 203 203 203 
184 186 204 207 196 188 197 210 211 211 200 203 214 215 216 209 206 218 
219 208 212 218 202 204 225 225 227 220 166 217 227 166 123 212 228 236 
174 223 238 239 241 235 222 223 240 246 246 247 249 247 229 231 244 254 
254 253 252 251 251 250 249 248 247 246 245 244 244 243 242 241 240 239 
238 238 237 236 235 234 233 233 232 231 230 229 228 228 227 226 225 225 
224 223 222 221 221 220 219 219 217 216 215 216 208 124 128 183 211 211 
211 210 210 209 208 208 207 207 206 206 205 204 204 202 170 165 165  64 
 25  22  24  23  23  21  22  18 130 196 194 163 140  24  18  17  16  17 
 17  16  30 190 191 191 189 189 183 169 156 151 152 150 151 124  81  47 
 18  12  12  12  12  12  11  17  41  98 160 184 179 167 147 141  95  46 
 10   7   9  10   9   9  11   5  19  74 128 179 181 181 181 181 181 180 
180 168 141 141 143  98  18  13  14  14  13  14  14  76 179 145 140 142 
 14  15  14  15  14  15  15  15  11 172 178 177 178 178 178 177 177 177 
177 177 177 177 177 176 177 176 177 177 157  68  72 171 177 177 177 164 
110 177 177 177  92  68  68  68  73 157 177 177  63  85  90  68  68  74 
167 176 177  61  91  77  67  69  96 177 176 177 166  79  69  69  69 114 
178 178 178 167  77  70  70  69  95 179 105  70  72  73 163 129  70 157 
177  82  87  80  73  73  89 183 182 183 162  80  74  75  82 118  68 186 
186 187 187 187 188 185  95  81  81  82  97 188 191 192 113  83  84  85 
 90 169 196 196 197 104  89  88 106 160  87  93  91 148 203 202 204 112 
 97  98 120 171  98 100  99 165 212 213  99 121 215 216 217 143 101 214 
220 103 141 124 116 115 144 226 225 209 120 187 188 120 124 125 178 222 
120 183 238 240 194 134 134 135 139 220 247 248 235 140 143 143 145 197 
254 253 252 252 251 250 249 248 247 246 246 245 244 243 242 241 240 240 
239 238 237 236 235 235 234 233 232 231 231 230 229 228 227 227 226 225 
224 224 223 222 221 221 220 219 219 218 217 215 216 183 155 214 212 213 
211 211 211 210 210 209 208 208 207 207 206 205 204 203 173 164 165  78 
 26  24  25  24  24  22  23  20  56 198 197 196 194 138  15  15  18  15 
  7  82 189 192 192 175 164 156 151 157 153 106  65  39  15   7   9  12 
 12  10  11  11  10  11  13  10  11   7   1  11  66 100  12  17  16  11 
 10  10   9  11  10  10   8  12  12  15  17  16  13  52  99 165 181 182 
181 182 162 142 143 147 103   1  20  14  15  23  43 175 174 142 144  96 
 19  13  13  13  13  12  14  13   2 176 179 179 179 179 179 179 179 179 
179 179 179 179 179 179 178 179 178 178 116  68 125 179 177 179 177 178 
178 177 174  87  64 107 139 121  69  71 169 178  63  67  85 132 101  68 
 98 178 179  61  69 102 132  89  64 119 179 169  72  76 135 147 106  66 
111 178 164  72  69 121 142 106  65 123 145  73  78 122 173 130  71 159 
180  82  71 102 139 106  71 104 185 164  72  76 132 145  99  75  70 187 
188 187 189 189 183  89  80 126 152 128  79 105 193 114  81 115 155 144 
 90  86 175 198 129  84 127 143  87  89 111 153 101  98 194 205 135  90 
136 150  96  98 124 161 106 108 210 214  99 121 216 217 217 144 101 218 
220 107 111 147 178 138 111 162 228 211 120 186 207 143 123 167 202 221 
121 181 239 198 129 160 209 202 145 134 218 244 154 151 219 225 188 195 
254 253 252 252 251 250 249 248 247 247 246 245 244 243 242 242 241 240 
239 238 237 237 236 235 234 234 233 232 231 230 230 229 228 227 227 226 
225 224 224 223 222 222 221 220 219 219 218 216 217 216 215 214 214 214 
212 212 212 211 210 210 209 209 208 208 206 207 206 205 174 167 167  94 
 26  26  26  26  26  25  26  24  14 197 198 198 196 197 185  94  62  89 
173 195 189 169 152 157 156 152 136  73  12  12  14  15  17  15  15  13 
 15  14  15  14  13  14  10  13  17  25  77 172 165 152 155  97  24   1 
  7   9   8   8   9   9   7   7   7   8   7   8  10  10  12  18  36 135 
173 184 183 162 144 146 145 150  86  43  51 128 182 182 164 143 150  35 
 13  10  12  10  10  11  12  12  16 177 181 181 181 181 181 181 181 181 
181 181 181 181 181 181 181 180 180 180  97  66 149 180 180 179 180 180 
180 180 156  68 109 179 179 180 140  64 106 180  65  68 180 180 180  82 
 62 180 180  63  83 179 181 180  75  72 181 126  69 135 173 170 170  83 
 71 180 113  72 150 182 181 181 136 183 183  77  93 183 184 132  72 160 
180  84  90 185 185 185  93  88 182 122  77 152 188 188 186  82  71 189 
188 190 190 190 153  78 128 192 193 192 150 194 180  79 104 196 196 197 
169  86 118 199  97 101 201 201 132  88 180 203 157  90 188 206  99 106 
208 209 138 101 191 211 155  96 199 214 100 122 217 218 218 145 101 218 
222 105 124 224 225 226 120 121 229 210 119 185 232 172 124 223 236 223 
121 184 240 142 132 228 234 237 217 136 164 247 150 155 238 245 253 254 
254 253 253 252 251 250 249 248 248 247 246 245 244 244 243 242 241 240 
240 239 238 237 236 236 235 234 233 232 232 231 230 229 229 228 227 227 
226 225 224 224 223 222 222 221 220 220 219 217 217 217 214 215 215 213 
213 213 213 212 212 211 210 210 209 209 208 208 207 206 175 168 168 105 
 27  27  27  27  27  26  26  24  20 153 199 198 199 199 198 198 197 197 
183 162 159 157 158 165 101  36  20  17  17  19  17  16  18  17  15  16 
 15  15  12  14  14   9  31  96 127 136 137 164 151 150 152 139 136 128 
111  43  13   8   7   5   6   5   5   7   7   8   6   7   8   6   9   9 
  7  65 183 184 180 167 157 158 173 184 183 184 182 183 148 145 148   8 
 12   9   9   9  10  10  10  11  26 179 183 182 183 182 183 183 183 183 
183 182 182 182 182 182 181 182 182 182 110  70 139 181 182 182 182 182 
182 181 130  68 148 182 182 182 182  74  71 182  67  88 182 180 182 108 
 65 178 181  64 104 182 181 182  91  76 183  95  73  76  76  76  76  71 
 67 157 100  82 176 183 184 183 184 184 185  81  92 185 184 135  74 162 
184  85  99 186 186 186 100  90 186 106  80 177 188 188 190 125  71 191 
191 191 192 192 119  78 177 194 194 194 195 195 146  79 159 197 196 198 
198  86  92 200  99 107 202 202 145  90 185 205 163  92 178 207  98 122 
209 210 153 101 198 213 159  99 197 216 101 124 218 219 219 146 103 220 
222 106 147 225 225 226 143 122 227 211 119 186 232 172 124 221 236 223 
120 184 237 124 132 137 137 137 139 134 138 248 198 132 141 150 157 208 
254 253 253 252 251 250 249 249 248 247 246 245 245 244 243 242 241 241 
240 239 238 238 237 236 235 235 234 233 232 232 231 230 229 229 228 227 
226 226 225 224 224 223 222 222 221 221 220 219 219 217 217 217 216 216 
215 214 214 213 213 212 211 211 210 210 209 209 208 207 177 168 168 116 
 27  28  27  28  28  27  27  25  25 120 199 201 199 199 199 199 187 166 
159 160 160 154 107  34  14  19  19  19  19  18  19  18  18  20  18  16 
 18  18  15  26  65 116 146 140 138 140 139 137 150 152 144 137 140 138 
137 142 133  72  23  10   8   5   5   6   4   5   7   5   7   6   4   6 
  6  11  12  83 162 186 186 186 186 183 185 186 186 181 145 148 125   8 
  7   9   9   7   8   8   8   8  36 182 185 185 185 185 184 184 184 184 
184 184 184 184 184 184 184 184 184 184 150  74  95 184 184 182 184 182 
159 184 140  70 140 183 183 184 182  69  85 184  69  89 184 184 184 110 
 66 181 184  67 105 184 184 184  94  77 184 106  72 131 145 145 146 148 
146 175 106  78 175 186 185 186 186 186 186  79  95 187 187 135  75 164 
184  89 100 187 188 187 103  90 187 117  81 171 191 191 191 102  75 191 
193 193 193 193 132  79 164 194 196 196 196 197 160  79 141 198 198 197 
200  86 103 201 100 107 203 204 146  92 186 206 165  93 181 208  98 123 
209 211 153 102 199 214 162  98 200 216 105 117 219 218 220 141 104 219 
223 106 148 226 227 227 143 123 229 212 121 186 233 172 125 224 237 223 
122 184 240 126 134 206 204 205 207 211 209 249 249 238 204 184 153 140 
254 253 253 252 251 250 250 249 248 247 246 246 245 244 243 243 242 241 
240 239 239 238 237 236 236 235 234 234 233 232 231 231 230 229 229 228 
227 227 226 225 225 224 223 223 222 221 221 220 219 218 218 218 217 216 
216 215 215 214 214 213 213 212 212 211 211 210 210 209 177 170 170 119 
 29  29  30  29  29  28  28  27  26  89 202 200 202 201 194 166 161 161 
163 161 125  29  21  23  21  21  19  21  21  21  22  19  19  18  20  20 
 21  21 100 144 142 141 142 139 141 141 140 139 148 154 140 141 138 139 
140 139 138 139 139 123  25   4   4   4   4   2   3   6   2   5   4   3 
  3   4   6   5   6  84 188 188 188 188 188 187 187 170 148 148 107   6 
  7   6   4   5   6   6   6   5  44 185 186 186 186 186 186 186 186 186 
186 186 186 186 186 186 185 186 186 186 182  86  76  91 176 185 182 106 
 74 136 174  79  85 182 184 184 100  72 143 186  69  92 185 186 186 112 
 69 182 186  68 108 186 186 186  94  79 186 156  77 112 186 186 184  91 
148 185 137  77 102 187 186 177  78 163 188  90  74 183 189 137  77 166 
186  90 103 189 190 189 106  91 188 151  83  99 187 193 146  84  76 194 
194 195 195 195 178  86 104 195 196 192  98 158 199  92  93 184 200 201 
133  92 149 203 101 109 204 205 147  91 187 207 166  94 182 210 100 122 
211 212 154 103 200 215 163  99 201 217 137 105 179 219 202 110 117 223 
224 106 148 226 227 226 146 124 229 212 122 187 234 182 122 195 237 225 
122 185 241 164 132 207 244 243 222 151 234 249 193 230 251 252 223 141 
254 253 253 252 251 250 250 249 248 247 247 246 245 244 244 243 242 241 
241 240 239 238 238 237 236 236 235 234 233 233 232 231 231 230 229 229 
228 227 227 226 225 225 224 223 223 222 222 221 220 220 219 219 218 217 
216 215 216 215 215 214 214 213 213 212 212 211 211 209 177 171 171 120 
 30  31  31  31  30  30  29  28  30  67 204 203 203 179 163 163 162 169 
136  54  20  24  24  22  21  23  23  22  23  22  21  20  21  23  12  47 
114 158 160 143 142 142 144 141 142 141 141 142 142 151 139 143 141 142 
141 141 139 140 140 141 159 127  60   6   3   3   3   3   3   2   2   2 
  3   3   4   4   2   8  16 110 190 188 189 189 188 162 150 150  89   6 
  5   4   3   5   4   4   5   5  47 187 188 187 188 188 188 188 188 188 
188 188 188 188 188 188 188 188 188 187 188 177  97  73  75  83  74  72 
 89 171 187 136  71  79  96  86  72 107 186 187  70  91 187 187 186 113 
 68 184 187  69 110 188 188 188  95  78 187 185 116  69  92 104  85  71 
140 189 189 114  74  85  97  80  78 151 189 169  78  81 170 138  76 166 
186  89 105 190 192 191 103  92 188 192 122  77  81  85  80 109  75 195 
196 195 196 196 196 137  79  91 108  94  81 145 199 162  83  91 110 103 
 86 111 198 204 101 109 206 206 147  91 188 208 166  94 182 211  99 123 
213 213 154 102 200 216 162  98 201 218 206 112 109 123 112 110 189 224 
224 106 148 227 228 228 146 122 230 213 120 187 234 229 137 124 178 224 
120 183 241 230 138 131 155 157 134 142 230 243 144 138 166 173 144 159 
254 254 253 252 251 251 250 249 248 248 247 246 245 245 244 243 242 242 
241 240 240 239 238 237 237 236 235 235 234 233 233 232 231 231 230 229 
229 228 227 227 226 226 225 224 224 223 223 222 221 221 220 220 219 218 
218 216 217 216 216 215 215 214 214 213 213 211 212 209 177 173 172 122 
 31  32  32  32  31  31  31  29  29  47 205 194 166 165 166 164 161 101 
 23  26  27  26  24  25  25  25  24  25  24  24  22  24  21  37 129 197 
160 160 160 147 143 146 144 144 146 145 144 144 142 141 143 142 143 143 
142 142 142 142 140 171 161 153 159 134  31   0   0   1   0   0   0   1 
  1   0   1   0   0   0   3   6  49 174 190 189 190 159 151 155  65   1 
  1   2   3   2   2   3   3   4  50 189 190 188 190 190 190 190 190 190 
190 190 190 190 190 190 188 189 189 189 189 187 189 145 104  96 102 142 
189 189 188 189 169 106  96 100 144 189 189 189 121 132 189 189 189 145 
118 187 189 118 143 190 189 190 136 126 189 189 190 155 104  97 111 178 
190 190 190 191 152 104  99 112 175 191 190 192 179 113 188 161 125 178 
190 133 140 194 194 193 142 134 191 195 195 168 130 133 183 117  86 197 
197 198 198 198 198 199 170 115 108 116 177 201 202 201 188 124 110 113 
155 205 205 204 146 150 207 208 173 140 199 210 185 142 195 212 147 159 
214 214 180 150 208 216 185 148 209 219 220 209 143 129 139 199 224 224 
226 156 180 228 229 230 180 168 231 220 169 206 234 235 237 165 215 231 
170 207 241 241 243 181 154 153 186 247 248 249 250 189 161 159 182 251 
254 254 253 252 251 251 250 249 249 248 247 246 246 245 244 244 243 242 
241 241 240 239 239 238 237 237 236 235 235 234 233 233 232 231 231 230 
229 229 228 228 227 226 226 225 225 224 223 223 222 222 221 221 220 220 
219 219 218 218 217 216 216 216 215 215 214 214 213 211 176 174 172 122 
 32  33  34  33  33  33  32  31  30  29 181 166 167 168 169 150  45  27 
 28  28  28  26  28  27  26  26  26  26  24  24  26  19 124 195 200 200 
170 161 161 155 145 145 146 146 147 146 146 145 144 144 145 145 144 144 
143 143 144 145 147 195 194 180 155 158 156 130  17   1   0   0   0   0 
  2   1   0   2   0   2   2   0   1   6 117 193 192 156 154 160  40   0 
  0   1   1   1   1   1   1   1  51 191 192 192 192 192 192 192 192 192 
192 191 191 191 191 191 191 191 191 191 191 191 191 191 191 190 191 191 
191 191 191 190 191 191 190 191 190 190 191 191 190 191 190 190 190 191 
191 191 190 191 191 190 191 190 192 191 192 192 190 192 191 191 192 192 
191 192 192 192 193 193 192 193 193 192 193 193 194 194 193 194 194 194 
195 195 195 195 195 196 196 196 196 195 150 121 197 197 151  88 129 199 
199 199 200 200 200 199 201 201 201 201 202 202 203 202 203 204 204 205 
206 206 207 207 207 208 208 209 209 210 210 211 212 212 213 213 214 213 
214 214 216 217 217 217 218 219 220 219 220 222 222 222 224 223 224 225 
227 227 228 228 229 230 231 232 232 233 234 235 236 236 237 238 239 239 
240 241 242 243 243 244 245 246 247 248 248 249 250 251 252 253 253 254 
254 254 253 252 252 251 250 249 249 248 247 247 246 245 245 244 243 242 
242 241 240 240 239 238 238 237 237 236 235 235 234 233 233 232 231 231 
230 230 229 228 228 227 227 226 225 225 224 224 223 223 222 222 221 221 
220 220 219 219 218 218 217 217 216 216 215 215 214 212 176 175 174 120 
 34  34  35  35  34  34  34  32  34  24 153 171 168 176 108  26  29  29 
 29  28  30  28  29  29  29  26  28  26  28  20  76 182 202 201 201 200 
181 162 164 159 147 149 148 149 147 147 147 147 147 147 146 145 145 146 
146 146 146 142 166 197 195 197 192 167 157 159 159  76   5   2   4   1 
  4   3   3   2   3   2   1   2   3   1   7  64 183 156 158 162  21   1 
  1   1   0   1   1   1   0   2  45 190 192 194 193 194 194 193 193 193 
193 193 193 193 193 193 193 193 192 193 193 193 193 192 193 192 193 193 
193 193 192 193 193 192 193 193 193 193 193 193 193 193 192 193 192 193 
193 193 193 192 193 193 193 193 193 193 193 194 194 194 194 194 194 194 
193 194 194 194 194 195 195 195 195 195 195 195 194 196 196 195 195 196 
195 197 197 197 197 196 197 198 198 194 116  84  82  84  81 109 190 199 
200 201 200 202 201 202 202 202 203 204 204 204 205 205 205 206 206 207 
207 208 208 208 209 209 210 210 211 211 212 212 213 213 214 214 215 215 
216 217 217 218 218 219 219 220 221 221 222 223 223 224 225 225 225 227 
227 228 229 229 230 231 232 232 233 234 235 235 236 237 238 238 239 240 
241 241 242 243 244 245 245 246 247 248 249 249 250 251 252 253 253 254 
254 254 253 252 252 251 250 250 249 248 248 247 246 246 245 244 244 243 
242 242 241 240 240 239 238 238 237 236 236 235 235 234 233 233 232 232 
231 230 230 229 229 228 227 227 226 226 225 225 224 224 223 223 222 222 
221 221 220 220 219 219 218 218 217 217 216 216 216 208 176 176 177 116 
 36  36  36  36  36  35  35  34  33  29 130 173 166  63  30  31  30  33 
 30  32  31  31  28  29  28  28  29  30  25 135 203 202 202 203 203 203 
191 162 163 164 150 151 149 150 149 149 149 149 148 148 148 148 148 148 
148 147 146 146 182 198 199 199 196 198 181 160 159 159 144  17   2   6 
  4   6   4   5   5   4   6   4   3   5   2   3   5 139 158 166   5   4 
  3   3   3   3   2   3   3   4  40 193 195 196 195 195 195 195 195 195 
195 195 195 195 195 195 194 195 195 195 195 195 195 194 195 195 195 194 
195 195 195 195 195 195 195 195 195 195 195 194 195 195 195 195 194 195 
195 195 195 195 194 195 195 195 194 195 195 195 195 195 195 196 196 196 
196 196 196 195 196 195 197 196 197 197 197 196 197 197 198 198 198 198 
198 198 199 198 198 199 199 199 200 200 200 177 133 127 168 200 201 202 
202 202 203 202 203 204 204 204 205 205 205 206 206 206 207 207 208 208 
209 209 209 210 210 211 211 211 212 212 213 213 214 214 215 215 216 217 
217 218 218 219 219 220 221 221 222 222 223 224 224 225 226 226 227 227 
228 229 230 230 231 232 232 233 234 234 235 236 237 237 238 239 240 240 
241 242 243 243 244 245 246 246 247 248 249 250 250 251 252 253 253 254 
254 254 253 252 252 251 250 250 249 248 248 247 246 246 245 245 244 243 
243 242 241 241 240 239 239 238 238 237 236 236 235 235 234 233 233 232 
232 231 231 230 229 229 228 228 227 227 226 226 225 225 224 224 223 223 
222 222 221 221 220 220 219 219 219 218 218 217 217 198 177 177 177 104 
 37  37  38  37  37  37  36  35  36  31 112 152  52  32  34  33  32  33 
 34  32  32  33  31  31  31  30  26  60 185 206 206 204 204 205 205 204 
200 165 167 166 156 150 151 150 151 152 150 151 150 150 150 150 150 149 
149 149 148 149 196 200 201 200 200 199 200 192 165 162 162 159  81   3 
  7   6   7   6   6   6   7   7   7   6   3   5   5   9  95 164   6   5 
  5   4   5   6   5   5   5   5  33 193 197 197 197 197 197 197 197 197 
197 197 197 197 197 197 197 197 197 197 197 196 197 197 197 197 196 197 
197 197 197 197 196 197 197 197 197 197 197 197 197 197 197 196 197 197 
197 197 197 197 197 197 197 197 197 196 197 197 197 196 197 198 197 198 
197 198 198 198 198 198 197 198 198 198 199 199 199 199 199 200 200 199 
200 200 200 201 201 200 201 201 201 202 202 202 202 203 203 203 203 204 
204 204 204 205 204 205 205 206 205 207 207 207 208 208 208 209 209 210 
210 210 211 211 212 212 212 213 213 214 214 215 215 216 216 217 217 218 
218 219 219 220 220 221 222 222 223 223 224 225 225 226 226 227 228 228 
229 230 230 231 232 232 233 234 234 235 236 237 237 238 239 239 240 241 
242 242 243 244 244 245 246 247 247 248 249 250 250 251 252 253 254 254 
254 254 253 252 252 251 251 250 249 249 248 247 247 246 245 245 244 244 
243 242 242 241 241 240 239 239 238 238 237 236 236 235 235 234 234 233 
232 232 231 231 230 230 229 229 228 228 227 227 226 226 225 225 224 224 
223 223 222 222 221 221 220 220 220 219 219 218 218 187 179 178 178  92 
 39  38  39  39  38  38  38  36  38  35  76  43  36  35  36  36  35  34 
 35  34  34  33  32  32  31  30  95 207 207 207 207 207 207 207 205 206 
206 168 165 166 164 150 152 151 153 151 152 152 152 152 152 151 151 151 
151 151 149 154 203 201 201 202 202 202 201 201 200 171 163 163 168 116 
 14   7   9   7   8   9   7   9   6   7   8   7   7   7   3  81   1   8 
  7   6   7   8   7   6   6   6  23 192 199 199 199 199 199 199 199 199 
199 199 199 199 199 199 199 199 199 199 198 199 193 199 198 195 195 199 
199 198 199 198 199 198 199 198 199 197 199 197 199 199 199 199 199 199 
199 199 199 199 199 199 199 199 198 199 199 198 199 199 199 198 199 198 
200 197 196 198 200 200 200 200 198 200 200 201 201 201 200 195 199 201 
201 202 200 198 198 203 203 199 199 199 200 199 203 204 205 205 205 205 
206 206 196 194 203 207 207 206 208 208 209 209 209 209 210 210 211 211 
211 212 212 213 213 213 214 214 215 215 216 216 217 217 218 218 219 219 
220 220 221 221 222 222 223 223 224 224 225 226 226 227 227 228 229 229 
230 230 231 232 232 233 234 234 235 236 236 237 238 238 239 240 241 241 
242 243 243 244 245 246 246 247 248 248 249 250 251 251 252 253 254 254 
254 254 253 253 252 251 251 250 249 249 248 248 247 246 246 245 245 244 
243 243 242 242 241 240 240 239 239 238 238 237 236 236 235 235 234 234 
233 233 232 232 231 231 230 230 229 229 228 228 227 227 226 226 225 225 
224 224 223 223 223 222 222 221 221 220 220 219 218 180 180 179 182  77 
 40  40  40  40  40  39  40  38  37  39  38  35  38  36  37  37  36  37 
 38  35  35  35  34  34  31 154 210 208 209 208 209 208 207 208 207 208 
208 175 169 169 168 154 154 154 155 155 154 154 154 153 153 153 153 153 
153 153 151 171 204 204 203 203 204 204 204 203 203 202 180 166 164 166 
154  21  12  10  11   8   9   9   9   9   9   9  10   9   8   8   9   9 
  8   9  10   9   8   7   8   9   8 197 201 200 201 201 201 201 201 201 
201 201 201 201 201 201 201 201 201 201 194 105 126 201 200 113  90 200 
200 200 200 200 200 199 200 200 199 200 199 200 200 200 200 201 200 201 
200 201 201 201 201 201 201 201 201 201 201 201 201 200 201 201 201 200 
201 138  90 196 202 202 202 202 202 202 202 203 203 203 155  95 159 203 
203 204 194 105 122 204 203 117 102 101 102 103 103 138 206 206 205 207 
163 107 103 102 105 136 209 208 209 210 210 210 211 211 211 212 212 213 
213 213 214 214 214 215 215 216 216 217 217 217 218 218 219 219 220 220 
221 221 222 222 223 223 224 224 225 226 226 227 227 228 228 229 229 230 
231 231 232 233 233 234 234 235 236 236 237 238 238 239 240 240 241 242 
242 243 244 244 245 246 247 247 248 249 249 250 251 251 252 253 254 254 
254 254 253 253 252 251 251 250 250 249 248 248 247 247 246 246 245 244 
244 243 243 242 242 241 240 240 239 239 238 238 237 237 236 236 235 235 
234 233 233 232 232 231 231 230 230 230 229 229 228 228 227 227 226 226 
225 225 224 224 224 223 223 223 222 222 221 220 213 180 181 181 185  59 
 42  41  42  41  41  41  41  40  38  41  37  39  39  38  39  38  38  39 
 37  38  38  37  37  39 160 211 211 209 210 211 209 210 209 210 210 208 
208 187 170 170 170 158 155 155 156 156 156 155 155 155 155 155 155 155 
155 154 151 189 206 205 206 206 205 206 205 205 205 205 204 183 168 166 
167 156  43   7  11  11  10  10  11  12  10  12  12  11  11  11  10  11 
 12  11  10  10  11  10  10  11   2 176 203 203 203 203 203 203 203 203 
203 203 203 203 203 203 203 203 203 201 196  98 126 202 202 111  85 202 
202 202 202 202 202 201 202 201 202 202 202 202 202 202 202 202 202 202 
201 202 203 203 203 203 203 203 203 203 202 203 203 203 203 203 203 203 
202 136  86 197 204 204 204 204 204 203 204 204 205 205 156  89 158 205 
205 205 194 100 119 206 206 112  96 112 114 114 102  95 122 208 208 139 
 96  98 124 130 108  97 111 201 210 211 212 212 212 213 213 213 214 214 
214 215 215 215 216 216 217 217 218 218 218 219 219 220 220 220 221 221 
222 222 223 223 224 224 225 225 226 226 227 228 228 229 229 230 230 231 
232 232 233 233 234 235 235 236 236 237 238 238 239 240 240 241 242 242 
243 244 244 245 246 246 247 248 248 249 250 250 251 252 252 253 254 254 
254 254 253 253 252 252 251 250 250 249 249 248 248 247 246 246 245 245 
244 244 243 243 242 241 241 240 240 239 239 238 238 237 237 236 236 235 
235 234 234 233 233 232 232 231 231 230 230 229 229 229 228 228 227 227 
226 226 226 225 225 224 224 224 223 223 223 221 205 182 182 182 186  41 
 44  42  43  43  42  42  43  41  41  42  41  41  40  41  39  39  40  37 
 38  37  37  39  45 189 213 212 212 212 211 212 212 212 211 211 210 210 
211 195 172 172 172 162 157 157 157 157 157 158 157 157 157 157 157 156 
156 156 154 204 208 208 208 207 206 207 207 207 207 206 205 207 183 168 
169 168 167  41  12  12  12  14  13  13  13  14  14  13  13  14  13  12 
 11  12  12  12  12  12  12  12   7 125 205 203 205 205 205 205 205 205 
205 205 205 205 205 205 204 203 204 204 131  96 105 131 203 111  89 185 
109  94 144 202 204 204 133 144 117 111 202 200 142 100  94 126 189 204 
204 178 128 182 204 205 193 133 164 204 205 190 123  94 110 185 127 160 
205 137  87 188 121  93 129 198 206 206 206 206 206 207 157  92 159 207 
207 207 195 102 121 208 208 113  95 200 209 209 207 110  95 195 158  99 
100 191 211 211 212 126 130 210 213 212 213 214 214 214 214 215 215 216 
216 216 217 217 217 218 218 219 219 219 220 220 220 221 221 222 222 223 
223 224 224 225 225 226 226 227 227 228 228 229 229 230 230 231 231 232 
232 233 234 234 235 235 236 237 237 238 238 239 240 240 241 241 242 243 
243 244 245 245 246 247 247 248 248 249 250 250 251 252 252 253 254 254 
254 254 253 253 252 252 251 251 250 250 249 248 248 247 247 246 246 245 
245 244 244 243 243 242 241 241 240 240 239 239 238 238 237 237 236 236 
235 235 235 234 234 233 233 232 232 231 231 231 230 230 229 229 228 228 
228 227 227 226 226 226 225 225 224 224 224 222 195 186 183 185 153  39 
 45  43  44  44  43  44  43  43  43  42  42  42  42  41  41  41  41  39 
 41  39  39  44 187 215 215 215 214 214 214 214 214 213 213 213 212 213 
213 199 174 174 174 167 158 159 160 159 159 159 159 159 159 158 158 158 
158 158 158 209 209 209 209 209 209 209 209 209 208 209 209 209 208 190 
169 170 170 167  56  13  15  15  16  16  14  16  15  15  15  13  14  14 
 14  14  14  14  14  14  15  14  12  64 207 207 207 207 207 207 207 207 
207 207 207 206 206 205 206 206 206 206 103  96  97  98 201 114  96  95 
108  96  94 132 206 206 102  97 104 128 198 104  92 113 117  91  97 168 
206 167  93 174 206 205 189  97 145 207 165  97  91 118 106  97  95 139 
207 140  94 100 103 103  96 113 208 207 208 208 208 208 165  94 167 209 
209 209 204 104 124 210 210 116  96 199 211 211 211 150  95 172 123 102 
188 212 212 213 213 208 213 214 213 215 215 215 216 216 216 216 217 217 
217 218 218 218 219 219 220 220 220 221 221 221 222 222 223 223 224 224 
224 225 225 226 226 227 227 228 228 229 229 230 230 231 231 232 232 233 
233 234 234 235 236 236 237 237 238 238 239 240 240 241 241 242 243 243 
244 244 245 246 246 247 247 248 249 249 250 251 251 252 252 253 254 254 
254 254 253 253 252 252 251 251 250 250 249 249 248 248 247 247 246 246 
245 245 244 244 243 243 242 242 241 241 240 240 239 239 238 238 237 237 
236 236 235 235 235 234 234 233 233 232 232 231 231 231 230 230 229 229 
229 228 228 226 227 227 226 226 226 225 225 224 186 186 187 188 103  45 
 46  45  46  45  44  45  45  44  44  44  44  43  43  43  43  42  42  42 
 43  42  45 182 217 216 216 216 216 216 216 215 215 215 215 215 215 214 
214 204 174 176 176 168 159 160 162 161 161 162 161 160 160 160 160 160 
160 160 163 212 211 210 211 211 211 211 211 211 211 211 211 210 210 209 
186 171 173 171 166  44  14  16  18  15  17  16  17  16  15  17  16  16 
 16  16  16  16  16  16  16  16  16  14 209 208 208 208 209 209 209 209 
209 209 208 208 208 208 208 208 208 207 204 106 133 208 208 116  96 168 
208 208 110  90 200 208 105 108 208 208 115  96 161 208 207 188 101 100 
202 168  96 174 208 207 190 101 147 208 113 102 185 209 209 139  98 144 
208 142  97 137 208 209 131  92 182 209 210 210 210 157  94 101  96  93 
 91  93  94 101 124 212 212 116  98 197 208 208 199 115  99 198 107 116 
208 214 214 214 215 215 215 216 216 216 216 217 217 217 218 218 218 219 
219 219 219 220 220 221 221 221 222 222 222 223 223 224 224 224 225 225 
226 226 226 227 227 228 228 229 229 230 230 231 231 232 232 233 233 234 
234 235 235 236 236 237 237 238 238 239 240 240 241 241 242 242 243 244 
244 245 245 246 247 247 248 248 249 250 250 251 251 252 253 253 254 254 
255 254 253 253 252 252 251 251 250 250 249 249 248 248 247 247 246 246 
245 245 244 244 244 243 243 242 242 241 241 240 240 239 239 238 238 238 
237 237 236 236 235 235 234 234 234 233 233 232 232 232 231 231 230 230 
230 229 229 229 228 227 228 227 227 227 226 213 185 188 185 189  58  47 
 48  47  47  47  46  46  46  46  46  45  45  45  45  45  44  43  43  43 
 42  39 190 219 217 217 218 218 218 218 217 217 217 217 217 216 216 216 
216 208 176 178 176 170 163 162 164 163 164 163 162 162 162 162 162 162 
162 162 167 212 212 213 213 213 212 213 213 213 213 212 212 212 211 212 
212 186 175 174 175 174  40  21  19  20  20  19  18  19  18  18  18  18 
 18  18  18  18  18  18  18  18  19  13 177 210 211 211 211 211 211 210 
210 210 210 210 210 210 210 210 210 210 199 106 133 210 209 118  94 210 
210 210 156  96 189 209 107 113 210 199 103 126 209 210 209 210 148 101 
188 171  97 178 210 210 193 102 149 209 100 124 210 210 210 205  95 145 
211 144  93 201 210 210 184  93 164 212 211 212 212 167 106 102 109 113 
115 113 113 105 127 212 118 105 104 109 108 108 108 106 128 215 111 114 
210 216 216 216 217 216 217 217 217 218 218 218 219 219 219 219 220 220 
220 221 221 221 222 222 222 223 223 223 224 224 225 225 225 226 226 226 
227 227 228 228 229 229 229 230 230 231 231 232 232 233 233 234 234 235 
235 236 236 237 237 238 238 239 239 240 240 241 241 242 242 243 244 244 
245 245 246 246 247 247 248 249 249 250 250 251 252 252 253 253 254 254 
255 254 254 253 253 252 252 251 251 250 250 249 249 248 248 247 247 246 
246 245 245 244 244 244 243 243 242 242 241 241 240 240 240 239 239 238 
238 237 237 237 236 236 235 235 235 234 234 233 233 233 232 232 232 231 
231 230 230 230 230 229 229 227 228 228 228 193 188 189 189 171  52  49 
 49  48  49  48  48  48  48  47  47  47  47  46  46  47  46  44  46  46 
 36 150 220 219 220 220 220 219 219 219 219 219 219 218 218 218 218 218 
218 210 177 179 178 174 165 164 165 164 164 164 164 164 164 164 164 164 
164 163 171 213 215 215 215 215 215 215 215 214 214 214 214 214 214 214 
214 212 182 174 175 177 157  21  21  20  20  21  20  20  20  21  20  20 
 20  20  20  20  20  20  20  22  18  21 137 212 213 213 213 213 212 212 
212 212 212 212 212 212 212 211 212 211 203 108 134 212 212 120  94 212 
212 212 159  97 190 212 110 114 212 197 104 133 212 211 212 211 153 103 
188 172 101 180 212 211 194 105 150 210 100 129 213 213 212 211  96 147 
213 146  94 207 212 213 187  94 167 214 213 214 214 214 168  99 170 214 
214 214 208 110 127 215 133 108 106 122 125 124 131 159 212 216 125 109 
195 218 217 218 218 219 219 219 219 220 220 220 220 221 221 221 221 222 
222 222 222 223 223 224 224 224 224 225 225 226 226 226 227 227 227 228 
228 229 229 229 230 230 230 231 231 232 232 233 233 234 234 235 235 236 
236 236 237 237 238 238 239 239 240 240 241 241 242 242 243 244 244 245 
245 246 246 247 247 248 248 249 249 250 251 251 252 252 253 253 254 254 
255 254 254 253 253 252 252 251 251 250 250 249 249 249 248 248 247 247 
246 246 245 245 245 244 244 243 243 242 242 242 241 241 240 240 239 239 
239 238 238 237 237 237 236 236 236 235 235 234 234 234 233 233 233 232 
232 232 231 231 230 230 229 230 229 229 222 191 190 189 190 152  52  51 
 50  50  50  50  49  49  49  49  49  48  48  48  48  47  47  46  48  45 
120 221 222 222 222 221 221 221 221 221 221 220 220 220 220 220 220 220 
219 209 179 181 181 176 165 166 166 167 166 166 166 166 166 166 166 165 
165 165 174 215 217 217 217 217 217 217 216 216 216 216 216 215 216 216 
216 216 214 181 178 178 178 153  21  23  22  21  22  22  22  22  22  22 
 22  22  22  22  22  22  23  22  22  21  86 215 213 215 215 214 214 214 
214 214 214 214 214 214 213 214 214 214 206 111 130 214 214 122  97 214 
214 214 161  99 192 213 111 117 214 213 110 102 203 214 213 212 120 108 
201 190 103 155 214 214 179 103 160 212 117 109 200 213 214 156 103 149 
214 148  97 209 215 215 189  98 168 214 216 216 215 216 167 100 171 216 
215 216 205 111 130 217 216 124 103 211 217 218 218 218 217 219 166 108 
109 207 218 220 215 146 148 220 221 221 221 222 222 222 222 223 223 223 
223 224 224 224 225 225 225 225 226 226 227 227 227 227 228 228 229 229 
229 230 230 230 231 231 232 232 233 233 233 234 234 235 235 235 236 236 
237 237 238 238 239 239 240 240 241 241 242 242 243 243 244 244 245 245 
246 246 247 247 248 248 249 249 250 250 251 251 252 252 253 253 254 254 
255 254 254 253 253 252 252 251 251 251 250 250 249 249 248 248 248 247 
247 246 246 245 245 245 244 244 243 243 243 242 242 241 241 241 240 240 
239 239 239 238 238 238 237 237 237 236 236 235 235 235 234 234 234 233 
233 233 232 232 232 232 231 231 230 230 209 192 191 190 196 104  52  52 
 52  52  51  51  51  51  50  50  50  50  50  49  49  49  49  48  49  69 
221 223 223 223 223 223 223 223 223 222 222 222 222 222 222 222 221 220 
221 209 182 183 184 176 166 167 168 169 169 168 168 168 168 167 167 167 
167 167 178 217 218 219 219 219 219 218 218 218 218 218 218 218 218 217 
217 217 217 206 176 180 181 177  97  19  24  25  25  23  26  24  24  24 
 24  24  24  24  24  24  24  24  24  23  27 217 216 216 216 216 216 216 
216 216 216 216 216 216 216 215 216 216 216 128 105 134 214 124  98 216 
215 216 162  99 194 216 114 118 216 216 191 102 111 143 148 118  99 155 
216 208 109 108 130 132 108 101 205 215 167 100 112 128 124 107 106 151 
217 149 100 209 217 217 191  99 171 217 216 218 218 218 170 103 171 218 
218 218 207 114 132 219 219 125 105 210 220 220 219 220 220 219 220 151 
110 114 130 134 123 112 117 217 222 223 223 223 223 224 224 224 224 225 
225 225 225 226 226 226 227 227 227 228 228 228 229 229 229 230 230 230 
231 231 231 232 232 232 233 233 234 234 234 235 235 236 236 236 237 237 
238 238 239 239 239 240 240 241 241 242 242 243 243 244 244 245 245 246 
246 247 247 248 248 249 249 249 250 250 251 251 252 253 253 254 254 255 
255 254 254 253 253 253 252 252 251 251 250 250 250 249 249 248 248 248 
247 247 246 246 246 245 245 244 244 244 243 243 242 242 242 241 241 241 
240 240 240 239 239 238 238 238 237 237 237 236 236 236 235 235 235 235 
234 234 234 233 233 233 232 231 232 230 192 192 193 193 193  50  53  54 
 53  53  53  53  52  52  52  52  51  51  51  51  51  51  50  49  52 207 
226 225 224 223 225 224 225 224 224 224 224 224 224 224 223 222 223 223 
223 205 184 185 184 178 168 169 170 171 170 171 170 169 169 169 169 169 
169 169 179 219 221 221 221 220 220 220 220 219 220 220 219 220 220 220 
220 220 220 220 198 179 180 179 188  60  24  25  26  27  26  27  26  26 
 26  26  26  26  26  26  27  26  26  27  17 151 218 217 218 218 218 218 
218 218 218 218 218 218 218 218 218 218 217 218 144 120 218 139 119 217 
218 218 173 119 199 218 129 135 217 218 217 183 128 112 110 123 167 218 
218 218 203 131 114 113 128 197 218 217 218 180 132 124 133 191 103 155 
219 159 117 213 219 219 196 118 180 219 219 218 220 220 177 122 179 220 
220 219 210 129 146 221 221 140 124 211 221 222 222 222 221 222 221 222 
171 131 119 116 125 148 216 224 224 224 225 225 225 225 226 226 226 226 
227 227 227 227 228 228 228 228 229 229 229 230 230 230 231 231 231 231 
232 232 233 233 233 234 234 234 235 235 235 236 236 237 237 237 238 238 
239 239 239 240 240 241 241 242 242 242 243 243 244 244 245 245 246 246 
247 247 247 248 248 249 249 250 250 251 251 252 252 253 253 254 254 255 
255 254 254 253 253 253 252 252 251 251 251 250 250 250 249 249 248 248 
248 247 247 246 246 246 245 245 245 244 244 243 243 243 242 242 242 241 
241 241 240 240 240 239 239 239 238 238 238 237 237 237 237 236 236 236 
235 235 235 234 234 234 234 233 233 207 194 194 194 194 134  51  54  55 
 55  54  54  54  54  54  53  53  53  53  53  52  51  51  51  52 161 227 
225 227 227 226 227 226 226 226 226 226 226 225 225 225 225 225 224 225 
225 199 184 185 185 180 172 172 172 174 172 171 171 171 171 171 171 171 
171 171 179 221 222 221 222 222 222 221 222 222 222 222 222 222 222 222 
221 222 222 222 217 183 183 183 183 167  34  28  27  29  26  28  28  28 
 28  28  28  28  28  28  28  29  29  27  28  49 220 219 220 220 220 220 
220 220 220 220 220 220 220 220 220 219 219 220 219 218 220 220 217 219 
219 220 218 219 219 220 218 219 220 219 219 220 219 218 219 219 220 219 
220 220 220 219 218 218 219 220 218 220 219 197 216 220 221 166 109 192 
221 221 219 220 221 221 221 219 220 221 221 221 220 222 222 220 221 222 
222 222 221 220 221 223 223 222 221 222 222 223 223 224 224 224 224 224 
223 224 224 224 222 225 224 225 226 226 226 227 227 227 227 227 228 228 
228 228 229 229 229 229 230 230 230 230 231 231 231 232 232 232 232 233 
233 233 234 234 234 235 235 235 236 236 236 237 237 238 238 238 239 239 
239 240 240 241 241 242 242 242 243 243 244 244 244 245 245 246 246 247 
247 247 248 248 249 249 250 250 250 251 251 252 252 253 253 254 254 255 
255 254 254 254 253 253 252 252 252 251 251 251 250 250 249 249 249 248 
248 248 247 247 247 246 246 246 245 245 245 244 244 244 243 243 242 242 
242 242 241 241 241 240 240 240 239 239 239 238 238 238 238 237 237 237 
236 236 236 236 234 235 235 233 231 197 196 196 195 192  81  58  57  57 
 56  56  56  55  55  55  55  55  54  55  55  56  53  54  52  81 228 229 
229 229 228 228 228 228 228 228 228 227 227 227 227 227 226 227 226 227 
226 192 187 188 187 180 173 174 174 173 173 171 172 173 171 173 174 173 
173 173 177 222 224 224 223 224 224 224 224 224 224 224 224 224 224 224 
224 224 223 222 223 213 183 185 184 186 115  20  29  30  30  30  30  30 
 30  30  30  30  30  30  30  30  30  30  32  33 196 221 221 222 222 222 
222 221 222 222 222 222 222 222 222 222 222 222 222 222 222 222 222 222 
222 222 222 222 222 222 222 222 222 222 222 222 222 222 222 222 222 222 
222 222 222 222 222 222 222 222 222 222 186 100 123 150 141 110 131 220 
221 223 222 223 223 222 223 223 223 223 223 223 223 224 224 224 224 224 
224 224 224 224 224 224 225 225 225 225 225 225 225 225 226 226 226 226 
226 226 227 227 227 227 227 227 228 228 228 228 228 229 229 229 229 229 
230 230 230 230 231 231 231 231 232 232 232 232 233 233 233 233 234 234 
234 235 235 235 236 236 236 237 237 237 238 238 238 239 239 239 240 240 
240 241 241 241 242 242 243 243 243 244 244 245 245 245 246 246 247 247 
247 248 248 249 249 249 250 250 251 251 252 252 252 253 253 254 254 255 
255 254 254 254 253 253 253 252 252 252 251 251 251 250 250 249 249 249 
248 248 248 247 247 247 246 246 246 245 245 245 245 244 244 244 243 243 
243 242 242 242 241 241 241 241 240 240 240 239 239 239 239 238 238 238 
238 237 237 237 237 236 236 236 210 196 197 198 197 179  58  58  58  59 
 58  57  57  57  57  57  56  56  57  57  57  55  56  54  53 219 231 231 
230 230 230 230 230 230 230 229 229 229 229 229 229 229 229 227 228 228 
228 188 189 190 190 182 176 175 176 176 174 174 175 176 173 175 175 175 
175 174 174 226 224 225 226 225 226 226 226 226 226 226 226 226 226 226 
226 225 225 225 223 225 198 185 187 187 194  61  32  31  32  31  32  32 
 32  32  32  32  32  32  32  33  33  33  31  29 120 224 223 224 224 223 
224 224 224 223 224 224 224 224 224 224 224 224 224 224 224 224 224 224 
224 224 224 224 224 224 224 224 224 224 224 224 224 224 224 224 224 224 
224 224 224 224 224 224 224 224 224 222 224 185 128 124 123 157 225 225 
225 224 225 225 225 225 225 225 225 225 225 225 225 226 226 226 226 226 
226 226 226 226 226 226 226 227 227 227 227 227 227 227 227 228 228 228 
228 228 228 228 229 229 229 229 229 229 230 230 230 230 230 231 231 231 
231 231 232 232 232 232 232 233 233 233 233 234 234 234 235 235 235 235 
236 236 236 237 237 237 237 238 238 238 239 239 239 240 240 240 241 241 
241 242 242 242 243 243 243 244 244 245 245 245 246 246 246 247 247 248 
248 248 249 249 249 250 250 251 251 251 252 252 253 253 253 254 254 255 
255 254 254 254 253 253 253 252 252 252 251 251 251 250 250 250 250 249 
249 249 248 248 248 247 247 247 246 246 246 246 245 245 245 244 244 244 
243 243 243 243 242 242 242 242 241 241 241 241 240 240 240 240 239 239 
239 239 238 237 238 237 236 225 198 199 199 198 205  89  57  60  58  59 
 59  59  59  58  58  58  58  58  57  56  58  58  56  58 124 232 231 232 
232 232 232 232 231 231 231 231 231 231 231 231 231 230 230 230 230 230 
223 191 191 190 190 180 175 176 177 176 176 183 187 189 187 178 178 176 
175 176 173 222 228 228 228 227 228 228 228 228 228 228 228 228 228 228 
227 227 226 227 227 225 219 188 189 189 189 145  32  32  33  34  34  34 
 34  34  34  34  34  34  34  34  34  33  33  34  28 221 225 225 225 226 
225 225 225 226 226 226 226 226 226 226 226 226 226 226 226 226 226 226 
226 226 226 226 226 226 226 226 226 226 226 226 226 226 226 226 226 226 
226 226 226 226 226 226 226 226 226 226 225 226 225 220 222 227 227 226 
227 227 226 227 227 227 227 227 227 227 227 227 227 227 228 228 228 228 
228 228 228 228 228 228 228 228 229 229 229 229 229 229 229 229 230 230 
230 230 230 230 230 230 231 231 231 231 231 231 232 232 232 232 232 233 
233 233 233 233 234 234 234 234 234 235 235 235 235 236 236 236 236 237 
237 237 237 238 238 238 239 239 239 239 240 240 240 241 241 241 242 242 
242 242 243 243 244 244 244 244 245 245 246 246 246 247 247 247 248 248 
248 249 249 249 250 250 251 251 251 252 252 252 253 253 254 254 254 255 
255 254 254 254 254 253 253 253 252 252 252 251 251 251 251 250 250 250 
249 249 249 248 248 248 248 247 247 247 246 246 246 246 245 245 245 245 
244 244 244 243 243 243 243 242 242 242 242 242 241 241 241 241 240 240 
240 240 239 239 239 239 239 204 200 200 200 200 167  56  61  61  61  61 
 60  60  60  60  60  59  59  59  58  60  61  59  58  53 218 232 234 234 
234 233 233 233 233 233 233 233 233 233 232 232 232 232 232 232 232 232 
221 206 208 214 223 180 182 186 194 208 225 231 221 207 199 194 186 198 
190 184 177 209 230 229 229 230 229 229 230 230 230 230 230 230 229 229 
229 229 229 228 229 229 229 201 190 190 192 196  64  34  35  36  36  36 
 36  36  36  36  36  36  35  36  35  37  36  34  32 110 227 228 228 227 
228 228 227 228 228 228 228 228 228 228 228 228 228 228 228 228 228 228 
228 228 228 228 228 228 228 228 228 228 228 228 228 228 228 228 228 228 
228 228 228 228 228 228 228 228 227 228 228 228 228 229 229 229 229 228 
229 229 229 229 229 229 229 229 229 229 229 229 229 229 229 230 230 230 
230 230 230 230 230 230 230 230 230 231 231 231 231 231 231 231 231 231 
231 232 232 232 232 232 232 233 233 233 233 233 233 233 234 234 234 234 
234 235 235 235 235 235 235 236 236 236 236 237 237 237 237 238 238 238 
238 238 239 239 239 239 240 240 240 241 241 241 241 242 242 242 242 243 
243 243 244 244 244 245 245 245 246 246 246 247 247 247 247 248 248 249 
249 249 249 250 250 251 251 251 252 252 252 253 253 253 254 254 254 255 
255 254 254 254 254 253 253 253 252 252 252 252 251 251 251 251 250 250 
250 249 249 249 249 248 248 248 248 247 247 247 247 246 246 246 246 245 
245 245 245 244 244 244 244 243 243 243 243 243 242 242 242 242 241 241 
241 241 240 240 240 240 210 202 199 201 202 201  99  62  61  63  62  63 
 62  62  61  61  61  61  61  61  63  60  58  60  56 152 236 235 235 235 
235 235 235 235 235 235 235 234 234 234 234 234 234 234 234 234 234 234 
233 233 233 233 233 232 231 233 232 232 233 233 232 233 231 231 230 229 
231 231 231 231 231 232 232 230 232 232 232 232 232 232 231 231 231 231 
231 230 231 231 230 231 230 229 194 193 193 193 181  35  39  37  38  38 
 38  38  38  38  38  38  40  38  39  39  37  37  37  46 223 230 230 230 
230 230 229 229 230 230 230 230 230 230 230 230 230 230 230 230 230 230 
230 230 230 230 230 230 230 230 230 230 230 230 230 230 230 230 230 230 
230 230 230 230 230 230 230 230 230 230 230 230 231 230 231 231 231 231 
231 230 231 230 231 231 231 231 231 231 231 231 231 231 231 231 232 232 
232 232 232 232 232 232 232 232 232 232 233 233 233 233 233 233 233 233 
233 233 234 234 234 234 234 234 234 234 235 235 235 235 235 235 236 236 
236 236 236 236 237 237 237 237 237 238 238 238 238 238 239 239 239 239 
240 240 240 240 240 241 241 241 241 242 242 242 242 243 243 243 243 244 
244 244 245 245 245 245 246 246 246 247 247 247 247 248 248 248 249 249 
249 250 250 250 251 251 251 251 252 252 252 253 253 253 254 254 254 255 
255 255 254 254 254 253 253 253 253 252 252 252 252 251 251 251 251 250 
250 250 250 249 249 249 249 248 248 248 248 248 247 247 247 247 246 246 
246 246 245 245 245 245 245 244 244 244 244 244 243 243 243 243 243 242 
242 242 242 241 241 239 222 205 201 200 203 163  61  64  62  65  64  63 
 63  63  63  63  63  62  62  62  61  62  63  63  71 223 235 236 237 237 
237 237 237 237 236 236 236 236 236 236 236 236 236 236 236 235 235 235 
235 234 235 235 234 235 234 235 235 234 235 233 233 234 233 233 234 234 
233 234 234 234 234 234 233 234 234 233 234 234 234 233 233 233 233 233 
233 233 233 232 233 233 232 232 206 195 194 195 195  78  40  40  40  40 
 40  40  40  40  40  40  40  40  40  40  40  39  39  36  93 231 232 232 
232 231 232 232 232 232 232 232 232 232 232 232 232 232 232 232 232 232 
232 232 232 232 232 232 232 232 232 232 232 232 232 232 232 232 232 232 
232 232 232 232 232 232 232 232 231 232 231 233 233 233 233 233 233 233 
233 233 232 233 233 233 233 233 233 233 233 233 233 233 233 233 233 234 
234 234 234 234 234 234 234 234 234 234 234 234 234 235 235 235 235 235 
235 235 235 235 236 236 236 236 236 236 236 236 237 237 237 237 237 237 
237 238 238 238 238 238 238 239 239 239 239 239 240 240 240 240 240 241 
241 241 241 241 242 242 242 242 242 243 243 243 243 244 244 244 244 245 
245 245 245 246 246 246 246 247 247 247 248 248 248 248 249 249 249 250 
250 250 250 251 251 251 251 252 252 252 253 253 253 254 254 254 254 255 
255 255 254 254 254 254 253 253 253 253 252 252 252 252 252 251 251 251 
251 250 250 250 250 250 249 249 249 249 248 248 248 248 248 247 247 247 
247 247 246 246 246 246 246 245 245 245 245 245 244 244 244 244 244 244 
243 243 243 243 243 241 242 242 238 227 207  68  64  67  64  64  65  65 
 64  63  63  64  64  64  64  64  64  64  60  61 109 239 239 238 239 239 
239 238 238 238 238 238 238 238 238 238 238 238 237 237 237 237 237 237 
236 237 237 236 236 236 236 237 236 236 235 235 236 235 236 236 236 236 
236 235 236 236 236 235 236 235 236 236 236 236 235 235 235 235 235 235 
235 234 235 235 234 235 235 235 225 195 198 196 197 151  36  42  42  42 
 42  42  42  42  42  42  42  42  42  42  43  40  42  41  38 175 235 234 
233 234 234 234 234 234 234 234 234 234 234 234 234 234 234 234 234 234 
234 234 234 234 234 234 234 234 234 234 234 234 234 234 234 234 234 234 
234 234 234 234 234 234 234 234 234 233 235 235 234 235 234 235 234 235 
234 235 235 234 235 235 235 235 235 235 235 235 235 235 235 235 235 235 
236 236 236 236 236 236 236 236 236 236 236 236 236 236 237 237 237 237 
237 237 237 237 237 237 238 238 238 238 238 238 238 238 239 239 239 239 
239 239 239 239 240 240 240 240 240 240 241 241 241 241 241 241 242 242 
242 242 242 243 243 243 243 243 244 244 244 244 245 245 245 245 245 246 
246 246 246 247 247 247 247 247 248 248 248 248 249 249 249 249 250 250 
250 251 251 251 251 252 252 252 252 253 253 253 253 254 254 254 254 255 
255 255 254 254 254 254 254 253 253 253 253 252 252 252 252 252 251 251 
251 251 251 250 250 250 250 250 249 249 249 249 249 248 248 248 248 248 
248 247 247 247 247 247 247 246 246 246 246 246 245 245 245 245 245 245 
245 244 244 244 244 244 244 241 243 243 146  59  64  68  67  66  67  67 
 65  65  65  65  66  65  65  65  65  65  64  54 211 241 240 239 240 240 
240 240 240 240 240 240 240 240 240 239 239 239 239 239 239 238 239 239 
239 239 239 239 239 238 238 238 238 237 238 238 238 237 238 238 238 238 
237 237 237 237 237 238 236 238 237 238 237 237 237 237 237 237 237 237 
237 237 236 237 237 237 237 237 237 204 199 200 200 205  56  42  43  43 
 43  43  43  43  43  43  43  43  44  43  43  44  43  41  37  70 236 236 
237 237 236 235 236 236 236 236 236 236 236 236 236 236 236 236 236 236 
236 236 236 236 236 236 236 236 236 236 236 236 236 236 236 236 236 236 
236 236 236 236 236 236 236 237 237 237 237 236 237 237 237 237 237 236 
237 237 236 237 237 237 237 237 237 237 237 237 237 237 237 237 237 237 
237 238 238 238 238 238 238 238 238 238 238 238 238 238 238 238 239 239 
239 239 239 239 239 239 239 239 239 240 240 240 240 240 240 240 240 241 
241 241 241 241 241 241 241 242 242 242 242 242 242 243 243 243 243 243 
243 244 244 244 244 244 244 245 245 245 245 245 246 246 246 246 246 247 
247 247 247 247 248 248 248 248 248 249 249 249 249 250 250 250 250 251 
251 251 251 251 252 252 252 252 253 253 253 253 254 254 254 254 255 255 
255 255 254 254 254 254 254 254 253 253 253 253 253 252 252 252 252 252 
251 251 251 251 251 251 250 250 250 250 250 250 249 249 249 249 249 249 
248 248 248 248 248 248 247 247 247 247 247 247 247 246 246 246 246 246 
246 246 245 245 245 245 245 245 245 244 244 218 173 134 112  98  90  88 
 85  99  91  67  68  67  66  67  68  67  66  98 241 241 242 242 242 242 
242 242 242 242 241 241 241 241 241 241 241 241 241 241 241 241 241 241 
241 241 240 240 240 240 240 240 240 240 240 240 240 240 240 240 240 240 
240 240 240 240 240 240 240 240 239 239 239 239 239 239 239 239 239 239 
239 239 239 239 239 239 239 239 239 225 200 201 201 203 141  43  45  47 
 47  46  47  45  44  45  96  75  67  65  72  97 116 153 199 239 239 237 
239 238 239 239 239 239 239 238 239 238 238 238 238 238 238 238 238 238 
238 238 238 238 238 238 238 238 238 238 238 238 238 238 238 238 238 238 
238 238 239 238 239 239 239 239 239 239 239 239 239 239 239 239 239 239 
239 239 239 239 239 239 239 239 239 239 239 239 239 239 239 239 239 239 
239 239 240 240 240 240 240 240 240 240 240 240 240 240 240 240 240 240 
241 241 241 241 241 241 241 241 241 241 241 241 242 242 242 242 242 242 
242 242 242 243 243 243 243 243 243 243 244 244 244 244 244 244 244 244 
245 245 245 245 245 245 246 246 246 246 246 246 247 247 247 247 247 247 
248 248 248 248 248 249 249 249 249 249 250 250 250 250 250 251 251 251 
251 251 252 252 252 252 252 253 253 253 253 254 254 254 254 254 255 255 
255 255 255 254 254 254 254 254 254 253 253 253 253 253 253 252 252 252 
252 252 252 251 251 251 251 251 251 251 250 250 250 250 250 250 250 249 
249 249 249 249 249 249 248 248 248 248 248 248 248 247 247 247 247 247 
247 247 247 246 246 246 246 246 246 245 245 246 244 244 245 245 245 245 
214 208 191  75  70  67  67  68  69  69  67 172 243 243 244 244 244 244 
243 243 243 243 243 243 243 243 243 243 243 243 243 243 243 243 243 242 
242 242 242 242 242 242 242 242 242 242 242 242 242 242 242 242 242 242 
242 242 242 242 242 241 241 241 241 241 241 241 241 241 241 241 241 241 
241 241 241 241 241 241 241 241 239 236 204 203 202 203 185  52  48  48 
 47  47  47  47  46 126 205 204 206 204 203 225 240 240 240 240 239 241 
241 240 241 241 241 241 241 241 241 241 241 241 241 241 241 241 241 241 
241 241 240 241 240 241 240 241 240 241 240 241 241 241 241 241 241 241 
241 241 241 241 241 241 241 241 241 241 241 241 241 241 241 241 241 241 
241 241 241 241 241 241 241 241 241 241 241 241 241 241 241 241 241 241 
241 241 241 241 241 242 242 242 242 242 242 242 242 242 242 242 242 242 
242 242 242 243 243 243 243 243 243 243 243 243 243 243 243 244 244 244 
244 244 244 244 244 244 244 245 245 245 245 245 245 245 245 246 246 246 
246 246 246 246 246 247 247 247 247 247 247 247 248 248 248 248 248 248 
249 249 249 249 249 249 250 250 250 250 250 250 251 251 251 251 251 252 
252 252 252 252 252 253 253 253 253 253 254 254 254 254 254 254 255 255 
255 255 255 254 254 254 254 254 254 254 253 253 253 253 253 253 253 253 
252 252 252 252 252 252 252 251 251 251 251 251 251 251 251 250 250 250 
250 250 250 250 250 249 249 249 249 249 249 249 249 249 248 248 248 248 
248 248 248 248 248 248 247 247 247 247 246 247 247 247 247 246 247 245 
245 219 208 180  70  70  69  70  70  70  72 218 244 245 245 245 245 245 
245 245 245 245 245 245 245 245 245 245 245 245 244 244 244 244 244 244 
244 244 244 244 244 244 244 244 244 244 244 244 244 244 244 244 244 244 
244 244 243 243 243 243 243 243 243 243 243 243 243 243 243 243 243 243 
243 243 243 243 243 243 243 243 243 242 209 205 206 205 203  65  49  50 
 49  50  49  43 112 218 219 222 229 234 239 243 242 243 243 241 243 243 
243 243 243 243 243 243 243 243 243 243 243 243 243 243 243 243 243 243 
243 243 243 243 243 243 243 243 243 243 243 243 243 243 243 243 243 243 
243 243 243 243 243 243 243 243 243 243 243 243 243 243 243 243 243 243 
243 243 243 243 243 243 243 243 243 243 243 243 243 243 243 243 243 243 
243 243 243 243 243 243 244 244 244 244 244 244 244 244 244 244 244 244 
244 244 244 244 244 244 245 245 245 245 245 245 245 245 245 245 245 245 
245 245 246 246 246 246 246 246 246 246 246 246 247 247 247 247 247 247 
247 247 247 248 248 248 248 248 248 248 248 249 249 249 249 249 249 249 
250 250 250 250 250 250 250 250 251 251 251 251 251 251 252 252 252 252 
252 252 252 253 253 253 253 253 253 254 254 254 254 254 254 255 255 255 
255 255 255 255 254 254 254 254 254 254 254 254 254 253 253 253 253 253 
253 253 253 252 252 252 252 252 252 252 252 252 252 251 251 251 251 251 
251 251 251 251 250 250 250 250 250 250 250 250 250 250 250 249 249 249 
249 249 249 249 249 249 249 249 249 248 248 248 248 248 248 248 247 247 
248 248 228 212 176  78  69  70  70  72  79 247 246 247 247 247 247 247 
247 247 247 247 247 247 246 246 246 246 246 246 246 246 246 246 246 246 
246 246 246 246 246 246 246 246 246 246 246 246 246 246 246 246 246 245 
245 245 245 245 245 245 245 245 245 245 245 245 245 245 245 245 245 245 
245 245 245 245 245 245 245 245 244 245 221 206 206 206 209 119  48  53 
 52  52  48 117 245 244 245 245 244 245 245 244 245 245 243 245 245 244 
244 244 244 244 245 245 245 245 245 245 245 245 245 245 245 245 245 245 
245 245 245 245 245 245 245 245 245 245 245 245 245 245 245 245 245 245 
245 245 245 245 245 245 245 245 245 245 245 245 245 245 245 245 245 245 
245 245 245 245 245 245 245 245 245 245 245 245 245 245 245 245 245 245 
245 245 245 245 245 245 245 245 245 246 246 246 246 246 246 246 246 246 
246 246 246 246 246 246 246 246 246 246 246 247 247 247 247 247 247 247 
247 247 247 247 247 247 247 248 248 248 248 248 248 248 248 248 248 248 
249 249 249 249 249 249 249 249 249 249 250 250 250 250 250 250 250 250 
250 251 251 251 251 251 251 251 251 251 252 252 252 252 252 252 252 253 
253 253 253 253 253 253 253 254 254 254 254 254 254 254 254 255 255 255 
255 255 255 255 255 254 254 254 254 254 254 254 254 254 254 254 253 253 
253 253 253 253 253 253 253 253 253 252 252 252 252 252 252 252 252 252 
252 252 252 251 251 251 251 251 251 251 251 251 251 251 251 251 250 250 
250 250 250 250 250 250 250 250 250 250 250 250 250 250 249 249 249 249 
249 247 249 247 217 220  96  71  73  69 138 248 249 247 249 249 248 248 
248 248 248 248 248 248 248 248 248 248 248 248 248 248 248 248 248 248 
248 248 248 248 248 248 248 248 248 248 248 248 247 247 247 247 247 247 
247 247 247 247 247 247 247 247 247 247 247 247 247 247 247 247 247 247 
247 247 247 247 247 247 247 247 246 246 242 206 209 208 209 183  45  53 
 54  51 172 247 247 247 244 247 246 247 247 247 247 247 247 246 247 246 
247 247 246 247 247 247 247 247 247 247 247 247 247 247 247 247 247 247 
247 247 247 247 247 247 247 247 247 247 247 247 247 247 247 247 247 247 
247 247 247 247 247 247 247 247 247 247 247 247 247 247 247 247 247 247 
247 247 247 247 247 247 247 247 247 247 247 247 247 247 247 247 247 247 
247 247 247 247 247 247 247 247 247 247 247 247 248 248 248 248 248 248 
248 248 248 248 248 248 248 248 248 248 248 248 248 248 248 248 249 249 
249 249 249 249 249 249 249 249 249 249 249 249 249 249 250 250 250 250 
250 250 250 250 250 250 250 250 250 251 251 251 251 251 251 251 251 251 
251 251 252 252 252 252 252 252 252 252 252 252 253 253 253 253 253 253 
253 253 253 253 254 254 254 254 254 254 254 254 254 254 255 255 255 255 
255 255 255 255 255 255 255 254 254 254 254 254 254 254 254 254 254 254 
254 254 254 253 253 253 253 253 253 253 253 253 253 253 253 253 253 253 
253 252 252 252 252 252 252 252 252 252 252 252 252 252 252 252 252 252 
252 251 251 251 251 251 251 251 251 251 251 251 251 250 250 250 251 251 
251 249 250 251 250 247 250 159  72  65 203 248 249 250 249 250 250 250 
250 250 250 250 250 250 250 250 250 250 250 250 250 250 250 250 250 250 
250 250 250 250 250 249 249 249 249 249 249 249 249 249 249 249 249 249 
249 249 249 249 249 249 249 249 249 249 249 249 249 249 249 249 249 249 
249 249 249 249 249 249 249 249 248 248 249 211 211 210 211 221  56  49 
 92 204 247 249 248 249 249 249 248 249 247 248 249 248 249 248 249 249 
249 249 249 249 249 249 249 249 249 249 249 249 249 249 249 249 249 249 
249 249 249 249 249 249 249 249 249 249 249 249 249 249 249 249 249 249 
249 249 249 249 249 249 249 249 249 249 249 249 249 249 249 249 249 249 
249 249 249 249 249 249 249 249 249 249 249 249 249 249 249 249 249 249 
249 249 249 249 249 249 249 249 249 249 249 249 249 249 249 249 250 250 
250 250 250 250 250 250 250 250 250 250 250 250 250 250 250 250 250 250 
250 250 250 250 250 250 250 251 251 251 251 251 251 251 251 251 251 251 
251 251 251 251 251 251 251 252 252 252 252 252 252 252 252 252 252 252 
252 252 252 252 253 253 253 253 253 253 253 253 253 253 253 253 253 254 
254 254 254 254 254 254 254 254 254 254 254 254 255 255 255 255 255 255 
255 255 255 255 255 255 255 255 255 255 255 254 254 254 254 254 254 254 
254 254 254 254 254 254 254 254 254 254 254 254 254 254 254 253 253 253 
253 253 253 253 253 253 253 253 253 253 253 253 253 253 253 253 253 253 
253 253 253 253 253 253 252 252 252 252 251 252 252 252 252 252 252 252 
251 251 252 251 252 250 251 252 245 111 252 251 252 252 252 252 252 252 
252 252 252 252 252 252 252 252 252 252 252 252 251 251 251 251 251 251 
251 251 251 251 251 251 251 251 251 251 251 251 251 251 251 251 251 251 
251 251 251 251 251 251 251 251 251 251 251 251 251 251 251 251 251 251 
251 251 251 251 251 251 251 251 251 251 250 220 212 213 216 251 107 169 
251 250 251 249 251 251 251 251 251 251 251 250 251 251 250 251 251 250 
249 250 251 251 251 251 251 251 251 251 251 251 251 251 251 251 251 251 
251 251 251 251 251 251 251 251 251 251 251 251 251 251 251 251 251 251 
251 251 251 251 251 251 251 251 251 251 251 251 251 251 251 251 251 251 
251 251 251 251 251 251 251 251 251 251 251 251 251 251 251 251 251 251 
251 251 251 251 251 251 251 251 251 251 251 251 251 251 251 251 251 251 
251 251 251 251 251 251 252 252 252 252 252 252 252 252 252 252 252 252 
252 252 252 252 252 252 252 252 252 252 252 252 252 252 252 252 252 252 
252 252 253 253 253 253 253 253 253 253 253 253 253 253 253 253 253 253 
253 253 253 253 253 253 253 254 254 254 254 254 254 254 254 254 254 254 
254 254 254 254 254 254 254 254 254 255 255 255 255 255 255 255 255 255 
255 255 255 255 255 255 255 255 255 255 255 255 255 255 255 255 255 255 
255 255 255 255 254 254 254 254 254 254 254 254 254 254 254 254 254 254 
254 254 254 254 254 254 254 254 254 254 254 254 254 254 254 254 254 254 
254 254 254 254 254 254 254 254 254 254 254 253 254 254 254 253 253 254 
254 254 254 254 254 254 254 252 253 253 251 253 252 252 253 253 253 253 
253 253 253 253 253 253 253 253 253 253 253 253 253 253 253 253 253 253 
253 253 253 253 253 253 253 253 253 253 253 253 253 253 253 253 253 253 
253 253 253 253 253 253 253 253 253 253 253 253 253 253 253 253 253 253 
253 253 253 253 253 253 253 253 253 253 253 230 219 242 252 253 249 252 
252 253 252 253 252 253 252 253 253 253 253 253 253 253 253 253 253 252 
253 253 252 253 253 253 253 253 253 253 253 253 253 253 253 253 253 253 
253 253 253 253 253 253 253 253 253 253 253 253 253 253 253 253 253 253 
253 253 253 253 253 253 253 253 253 253 253 253 253 253 253 253 253 253 
253 253 253 253 253 253 253 253 253 253 253 253 253 253 253 253 253 253 
253 253 253 253 253 253 253 253 253 253 253 253 253 253 253 253 253 253 
253 253 253 253 253 253 253 253 253 253 253 253 253 253 253 253 253 253 
253 253 253 253 253 253 254 254 254 254 254 254 254 254 254 254 254 254 
254 254 254 254 254 254 254 254 254 254 254 254 254 254 254 254 254 254 
254 254 254 254 254 254 254 254 254 254 254 254 254 254 254 254 254 255 
255 255 255 255 255 255 255 255 255 255 255 255 255 255 255 255 255 255 
