P2
# Written by pgmwrite
 360  240
 255
205 103 103 103 103 103 103 103 103 103 103 103 103 103 103 103 103 103 
103 103 103 103 103 103 103 103 103 103 103 103 103 103 103 103 103 103 
103 103 103 103 103 103 103 103 103 103 103 103 103 103 103 103 103 103 
103 103 103 103 103 103 103 103 103 103 103 103 103 103 103 103 103 103 
103 103 103 103 101 104 103 103 103 113 102 108 120 108  78 114 103 103 
103 101 104 103 103 103 103 103 103 103 103 103 103 103 103 103 103 103 
103 103 103 103 103 103 103 103 103 103 103 103 103 103 103 103 103 103 
103 103 103 103 103 103 103 103 103 103 103 103 103 103 103 103 103 103 
103 103 103 103 103 103 103 103 102 102 103 103 103 104 100 104 129 101 
104 104 102 103 103 104 101 103 103 103 103 101 104 102 103 103 103 103 
103 103 103 103 103 103 103 103 103 103 103 103 103 103 103 103 103 103 
103 103 103 103 103 103 103 103 103 103 103 103 103 103 103 103 103 103 
103 103 103 103 103 103 103 103 103 103 103 103 103 103 103 103 103 103 
103 103 103 103 103 103 103 103 103 103 103 103 103 103 103 103 103 103 
103 103 103 103 103 103 103 103 103 103 103 103 103 103 103 103 103 103 
103 103 103 103 103 103 103 103 103 103 103 103 103 103 103 103 103 103 
103 103 103 103 103 103 103 103 103 103 103 103 103 103 103 103 103 103 
103 103 103 103 103 103 103 103 103 103 103 103 103 103 103 103 103 103 
103 103 103 103 103 103 103 103 103 103 103 103 103 103 103 103 103 103 
103 103 103 103 103 103 103 103 103 103 103 103 103 103 103 103 103 205 
103   0   0   0   0   0   0   0   0   0   0   0   0   0   0   0   0   0 
  0   0   0   0   0   0   0   0   0   0   0   0   0   0   0   0   0   0 
  0   0   0   0   0   0   0   0   0   0   0   0   0   0   0   0   0   0 
  0   0   0   0   0   0   0   0   0   0   1   2   1   2   1   2   0   0 
  1   1   1   1   1   2   1   8  62  31  33  15  23  14  16  17   1   1 
  0   1   1   0   0   0   0   0   0   0   0   0   0   0   0   0   0   0 
  0   0   0   0   0   0   0   0   0   0   0   0   0   0   0   0   0   0 
  0   0   0   0   0   0   0   0   0   0   0   0   0   0   0   0   0   0 
  0   0   0   0   0   0   0   0   0   0   0   0   0   0   2  26  33 100 
 32   1   0   0   1   1   1   0   0   2   0   1   1   1   0   0   0   0 
  0   0   0   0   0   0   0   0   0   0   0   0   0   0   0   0   0   0 
  0   0   0   0   0   0   0   0   0   0   0   0   0   0   0   0   0   0 
  0   0   0   0   0   0   0   0   0   0   0   0   0   0   0   0   0   0 
  0   0   0   0   0   0   0   0   0   0   0   0   0   0   0   0   0   0 
  0   0   0   0   0   0   0   0   0   0   0   0   0   0   0   0   0   0 
  0   0   0   0   0   0   0   0   0   0   0   0   0   0   0   0   0   0 
  0   0   0   0   0   0   0   0   0   0   0   0   0   0   0   0   0   0 
  0   0   0   0   0   0   0   0   0   0   0   0   0   0   0   0   0   0 
  0   0   0   0   0   0   0   0   0   0   0   0   0   0   0   0   0   0 
  0   0   0   0   0   0   0   0   0   0   0   0   0   0   0   0   0 103 
103   0   0   0   0   0   0   0   0   0   0   0   0   0   0   0   0   0 
  0   0   0   0   0   0   0   0   0   0   0   0   0   0   0   0   0   0 
  0   0   0   0   0   0   0   0   0   0   0   0   0   0   0   0   0   0 
  0   0   0   0   0   0   0   0   0   0   2   1   0   0   0   1   0   0 
  0   2   1   1   1   1  36  87  41 158  68  14   1   1  17  16   2   0 
  0   0   1   0   0   2   0   0   0   0   0   0   0   0   0   0   0   0 
  0   0   0   0   0   0   0   0   0   0   0   0   0   0   0   0   0   0 
  0   0   0   0   0   0   0   0   0   0   0   0   0   0   0   0   0   0 
  0   0   0   0   0   0   0   0   0   0   1   1   1   1   3  75 106 110 
 19 101   5  15   1   0   1   1   1   1   1   1   1   0   0   0   0   0 
  0   0   0   0   0   0   0   0   0   0   0   0   0   0   0   0   0   0 
  0   0   0   0   0   0   0   0   0   0   0   0   0   0   0   0   0   0 
  0   0   0   0   0   0   0   0   0   0   0   0   0   0   0   0   0   0 
  0   0   0   0   0   0   0   0   0   0   0   0   0   0   0   0   0   0 
  0   0   0   0   0   0   0   0   0   0   0   0   0   0   0   0   0   0 
  0   0   0   0   0   0   0   0   0   0   0   0   0   0   0   0   0   0 
  0   0   0   0   0   0   0   0   0   0   0   0   0   0   0   0   0   0 
  0   0   0   0   0   0   0   0   0   0   0   0   0   0   0   0   0   0 
  0   0   0   0   0   0   0   0   0   0   0   0   0   0   0   0   0   0 
  0   0   0   0   0   0   0   0   0   0   0   0   0   0   0   0   0 103 
103   0   0   0   0   0   0   0   0   0   0   0   0   0   0   0   0   0 
  0   0   0   0   0   0   0   0   0   0   0   0   0   0   0   0   0   0 
  0   0   0   0   0   0   0   0   0   0   0   0   0   0   0   0   0   0 
  0   0   0   0   0   0   0   0   0   0   1   2   0   0   0   1   0   0 
  1   3   2   1   1  77  38 120  17  30   3  28   2   2   7   1   8   0 
  0   0   0   0   0   0   0   0   0   0   0   0   0   0   0   0   0   0 
  0   0   0   0   0   0   0   0   0   0   0   0   0   0   0   0   0   0 
  0   0   0   0   0   0   0   0   0   0   0   0   0   0   0   0   0   0 
  0   0   0   0   0   0   0   0   0   0   0   1   2   0   2 108 101   1 
 61 102 132  17  21  11   0   0   2   0   1   0   0   0   0   0   0   0 
  0   0   0   0   0   0   0   0   0   0   0   0   0   0   0   0   0   0 
  0   0   0   0   0   0   0   0   0   0   0   0   0   0   0   0   0   0 
  0   0   0   0   0   0   0   0   0   0   0   0   0   0   0   0   0   0 
  0   0   0   0   0   0   0   0   0   0   0   0   0   0   0   0   0   0 
  0   0   0   0   0   0   0   0   0   0   0   0   0   0   0   0   0   0 
  0   0   0   0   0   0   0   0   0   0   0   0   0   0   0   0   0   0 
  0   0   0   0   0   0   0   0   0   0   0   0   0   0   0   0   0   0 
  0   0   0   0   0   0   0   0   0   0   0   0   0   0   0   0   0   0 
  0   0   0   0   0   0   0   0   0   0   0   0   0   0   0   0   0   0 
  0   0   0   0   0   0   0   0   0   0   0   0   0   0   0   0   0 103 
103   0   0   0   0   0   0   0   0   0   0   0   0   0   0   0   0   0 
  0   0   0   0   0   0   0   0   0   0   0   0   0   0   0   0   0   0 
  0   0   0   0   0   0   0   0   0   0   0   0   0   0   0   0   0   0 
  0   0   0   0   0   0   0   0   0   0   0   0   0   0   0   1   2   2 
  3   8   5   7 105  63  63   4   1   6  58  61   4   0   2  18  16   1 
  0   0   0   0   2   0   0   0   0   0   0   0   0   0   0   0   0   0 
  0   0   0   0   0   0   0   0   0   0   0   0   0   0   0   0   0   0 
  0   0   0   0   0   0   0   0   0   0   0   0   0   0   0   0   0   0 
  0   0   0   0   0   0   0   0   0   0   0   0   1   0  31  20  52   4 
  1  15 104  52  14   8  23   3   0   1   1   2   1   0   0   0   0   0 
  0   0   0   0   0   0   0   0   0   0   0   0   0   0   0   0   0   0 
  0   0   0   0   0   0   0   0   0   0   0   0   0   0   0   0   0   0 
  0   0   0   0   0   0   0   0   0   0   0   0   0   0   0   0   0   0 
  0   0   0   0   0   0   0   0   0   0   0   0   0   0   0   0   0   0 
  0   0   0   0   0   0   0   0   0   0   0   0   0   0   0   0   0   0 
  0   0   0   0   0   0   0   0   0   0   0   0   0   0   0   0   0   0 
  0   0   0   0   0   0   0   0   0   0   0   0   0   0   0   0   0   0 
  0   0   0   0   0   0   0   0   0   0   0   0   0   0   0   0   0   0 
  0   0   0   0   0   0   0   0   0   0   0   0   0   0   0   0   0   0 
  0   0   0   0   0   0   0   0   0   0   0   0   0   0   0   0   0 103 
103   0   0   0   0   0   0   0   0   0   0   0   0   0   0   0   0   0 
  0   0   0   0   0   0   0   0   0   0   0   0   0   0   0   0   0   0 
  0   0   0   0   0   0   0   0   0   0   0   0   0   0   0   0   0   0 
  0   0   0   0   0   0   0   0   0   0   0   1   1   1   2  17  12   9 
  8   0   1  95  62  40   0   2   2   3  58  49   8   0   1  15  16   0 
  1   0   0   0   0   0   0   0   0   0   0   0   0   0   0   0   0   0 
  0   0   0   0   0   0   0   0   0   0   0   0   0   0   0   0   0   0 
  0   0   0   0   0   0   0   0   0   0   0   0   0   0   0   0   0   0 
  0   0   0   0   0   0   0   0   0   1   0   0   1   0  67  64  17   2 
  0   0   2  93  65  21  19  21   2   1   1   1   1   0   0   0   0   0 
  0   0   0   0   0   0   0   0   0   0   0   0   0   0   0   0   0   0 
  0   0   0   0   0   0   0   0   0   0   0   0   0   0   0   0   0   0 
  0   0   0   0   0   0   0   0   0   0   0   0   0   0   0   0   0   0 
  0   0   0   0   0   0   0   0   0   0   0   0   0   0   0   0   0   0 
  0   0   0   0   0   0   0   0   0   0   0   0   0   0   0   0   0   0 
  0   0   0   0   0   0   0   0   0   0   0   0   0   0   0   0   0   0 
  0   0   0   0   0   0   0   0   0   0   0   0   0   0   0   0   0   0 
  0   0   0   0   0   0   0   0   0   0   0   0   0   0   0   0   0   0 
  0   0   0   0   0   0   0   0   0   0   0   0   0   0   0   0   0   0 
  0   0   0   0   0   0   0   0   0   0   0   0   0   0   0   0   0 103 
103   0   0   0   0   0   0   0   0   0   0   0   0   0   0   0   0   0 
  0   0   0   0   0   0   0   0   0   0   0   0   0   0   0   0   0   0 
  0   0   0   0   0   0   0   0   0   0   0   0   0   0   0   0   0   0 
  0   0   0   0   0   0   0   0   0   0   1   1   1  16  32   2  18  21 
 19  12  68  79  29   0   0   1   1   3  39  36  10   0   0  10   6   6 
  1   0   0   0   0   2   0   0   0   0   0   0   0   0   0   0   0   0 
  0   0   0   0   0   0   0   0   0   0   0   0   0   0   0   0   0   0 
  0   0   0   0   0   0   0   0   0   0   0   0   0   0   0   0   0   0 
  0   0   0   0   0   0   0   0   0   1   1   1   1   6  68  66   6   1 
  1   0   0   1  96  63  27   1  56  41  37  30  16   0   0   0   0   0 
  0   0   0   0   0   0   0   0   0   0   0   0   0   0   0   0   0   0 
  0   0   0   0   0   0   0   0   0   0   0   0   0   0   0   0   0   0 
  0   0   0   0   0   0   0   0   0   0   0   0   0   0   0   0   0   0 
  0   0   0   0   0   0   0   0   0   0   0   0   0   0   0   0   0   0 
  0   0   0   0   0   0   0   0   0   0   0   0   0   0   0   0   0   0 
  0   0   0   0   0   0   0   0   0   0   0   0   0   0   0   0   0   0 
  0   0   0   0   0   0   0   0   0   0   0   0   0   0   0   0   0   0 
  0   0   0   0   0   0   0   0   0   0   0   0   0   0   0   0   0   0 
  0   0   0   0   0   0   0   0   0   0   0   0   0   0   0   0   0   0 
  0   0   0   0   0   0   0   0   0   0   0   0   0   0   0   0   0 103 
103   0   0   0   0   0   0   0   0   0   0   0   0   0   0   0   0   0 
  0   0   0   0   0   0   0   0   0   0   0   0   0   0   0   0   0   0 
  0   0   0   0   0   0   0   0   0   0   0   0   0   0   0   0   0   0 
  0   0   0   0   0   0   0   0   0   0  14  52  86  44  29   4  14  15 
  5  25  17  37   1   1   1   0   1   0  24  12  39   0   0   6   5  11 
  1   0   0   0   0   0   0   0   0   0   0   0   0   0   0   0   0   0 
  0   0   0   0   0   0   0   0   0   0   0   0   0   0   0   0   0   0 
  0   0   0   0   0   0   0   0   0   0   0   0   0   0   0   0   0   0 
  0   0   0   0   0   0   0   0   0   1   1   1   2  17  67  67   0   0 
  2   2   2   1   7  62  77   1  20   2   1  17  44  94  65  27   0   0 
  0   0   0   0   0   0   0   0   0   0   0   0   0   0   0   0   0   0 
  0   0   0   0   0   0   0   0   0   0   0   0   0   0   0   0   0   0 
  0   0   0   0   0   0   0   0   0   0   0   0   0   0   0   0   0   0 
  0   0   0   0   0   0   0   0   0   0   0   0   0   0   0   0   0   0 
  0   0   0   0   0   0   0   0   0   0   0   0   0   0   0   0   0   0 
  0   0   0   0   0   0   0   0   0   0   0   0   0   0   0   0   0   0 
  0   0   0   0   0   0   0   0   0   0   0   0   0   0   0   0   0   0 
  0   0   0   0   0   0   0   0   0   0   0   0   0   0   0   0   0   0 
  0   0   0   0   0   0   0   0   0   0   0   0   0   0   0   0   0   0 
  0   0   0   0   0   0   0   0   0   0   0   0   0   0   0   0   0 103 
103   0   0   0   0   0   0   0   0   0   0   0   0   0   0   0   0   0 
  0   0   0   0   0   0   0   0   0   0   0   0   0   0   0   0   0   0 
  0   0   0   0   0   0   0   0   0   0   0   0   0   0   0   0   0   0 
  0   0   0   0   0   0   0   0   0  14  14  48  99  60  52  31  23  21 
 28  35  28   0   0   0   0   0   3   0   0  79  86   2   1   1  21  23 
  1   0   0   0   0   0   0   0   0   0   0   0   0   0   0   0   0   0 
  0   0   0   0   0   2   1   2   0   1   2   1   2   1   0   1   0   1 
  2   1   0   0   1   1   1   0   1   1   0   0   0   0   0   0   0   0 
  0   0   0   0   0   0   0   0   0   1   1   2   1  63  43  23   0   1 
  2   0   0   1   1   6  51  36  32  38  44  50  66 103  67   3  29   0 
  0   0   1   0   0   0   0   0   0   0   0   0   0   0   0   0   0   0 
  0   0   0   0   0   0   0   0   0   0   0   0   0   0   0   0   0   0 
  0   0   0   0   0   0   0   0   0   0   0   0   0   0   0   0   0   0 
  0   0   0   0   0   0   0   0   0   0   0   0   0   0   0   0   0   0 
  0   0   0   0   0   0   0   0   0   0   0   0   0   0   0   0   0   0 
  0   0   0   0   0   0   0   0   0   0   0   0   0   0   0   0   0   0 
  0   0   0   0   0   0   0   0   0   0   0   0   0   0   0   0   0   0 
  0   0   0   0   0   0   0   0   0   0   0   0   0   0   0   0   0   0 
  0   0   0   0   0   0   0   0   0   0   0   0   0   0   0   0   0   0 
  0   0   0   0   0   0   0   0   0   0   0   0   0   0   0   0   0 103 
103   0   0   0   0   0   0   0   0   0   0   0   0   0   0   0   0   0 
  0   0   0   0   0   0   0   0   0   0   0   0   0   0   0   0   0   0 
  0   0   0   0   0   0   0   0   0   0   0   0   0   0   0   0   0   0 
  0   0   0   0   0   0   0   0   0  17  16  98   5   0   5   3   1   2 
  1   1   1   1   0   1   0   2   0   2   0  31   6  33   2   1   8   4 
 10   2   1   0   2   0   0   0   0   0   0   0   0   0   0   0   0   0 
  0   0   0   0   0   1   0   1   0   2   1   0   1   2   1   1   1   2 
  1   2   0   0   1   1   1   0   0   1   0   0   0   0   0   0   0   0 
  0   0   0   0   0   0   0   0   1   1   2   3  10  92 104   4   1   0 
  0   2   0   1   0   4   2   0   2   1   2   4   5   2  49  66  58  17 
 10   7   2   1   0   0   0   0   0   0   0   0   0   0   0   0   0   0 
  0   0   0   0   0   0   0   0   0   0   0   0   0   0   0   0   0   0 
  0   0   0   0   0   0   0   0   0   0   0   0   0   0   0   0   0   0 
  0   0   0   0   0   0   0   0   0   0   0   0   0   0   0   0   0   0 
  0   0   0   0   0   0   0   0   0   0   0   0   0   0   0   0   0   0 
  0   0   0   0   0   0   0   0   0   0   0   0   0   0   0   0   0   0 
  0   0   0   0   0   0   0   0   0   0   0   0   0   0   0   0   0   0 
  0   0   0   0   0   0   0   0   0   0   0   0   0   0   0   0   0   0 
  0   0   0   0   0   0   0   0   0   0   0   0   0   0   0   0   0   0 
  0   0   0   0   0   0   0   0   0   0   0   0   0   0   0   0   0 103 
103   0   0   0   0   0   0   0   0   0   0   0   0   0   0   0   0   0 
  0   0   0   0   0   0   0   0   0   0   0   0   0   0   0   0   0   0 
  0   0   0   0   0   0   0   0   0   0   0   0   0   0   0   0   0   0 
  0   0   0   0   0   0   0   0   0   0  65  44  35   1   0   2   2   1 
  1   1   1   1   2   2   0   1   2   2   2   5  58  54   2   0   1  16 
 13   2   2   0   0   0   0   0   0   0   0   0   0   0   0   0   0   0 
  0   0   0   0   1   1   1   2   0   3   1   1   1   1   0   1   2   1 
  0   0   0   0   0   1   1   2   3   2   0   0   0   0   0   0   0   0 
  0   0   0   0   0   0   0   0   0   2   1   0  48  27  29   1   1   0 
  0   0   0   0   0   1   1   1   1   1   2   2   2   1 102  86  18  19 
  3   3   5   0   0   0   0   0   0   0   0   0   0   0   0   0   0   0 
  0   0   0   0   0   0   0   0   0   0   0   0   0   0   0   0   0   0 
  0   0   0   0   0   0   0   0   0   0   0   0   0   0   0   0   0   0 
  0   0   0   0   0   0   0   0   0   0   0   0   0   0   0   0   0   0 
  0   0   0   0   0   0   0   0   0   0   0   0   0   0   0   0   0   0 
  0   0   0   0   0   0   0   0   0   0   0   0   0   0   0   0   0   0 
  0   0   0   0   0   0   0   0   0   0   0   0   0   0   0   0   0   0 
  0   0   0   0   0   0   0   0   0   0   0   0   0   0   0   0   0   0 
  0   0   0   0   0   0   0   0   0   0   0   0   0   0   0   0   0   0 
  0   0   0   0   0   0   0   0   0   0   0   0   0   0   0   0   0 103 
103   0   0   0   0   0   0   0   0   0   0   0   0   0   0   0   0   0 
  0   0   0   0   0   0   0   0   0   0   0   0   0   0   0   0   0   0 
  0   0   0   0   0   0   0   0   0   0   0   0   0   0   0   0   0   0 
  0   0   0   0   0   0   0   0   0   0   1 112  88   5   2   2   1   1 
  0   0   0   0   0   0   0   0   2   1   1   1  52  58  15   3   0  13 
 15   4   0   0   0   0   0   0   0   0   0   0   0   0   0   0   0   0 
  0   0   0   0   1  17  16  17  13   5  17  16  10   9   1   0   1   5 
 13  16  18  13   1   9   9   7   3   2   0   0   0   0   0   0   0   0 
  0   0   0   0   0   0   0   0   1   2   0   2 108  82   6   1   0   0 
  0   0   0   0   0   0   0   0   0   0   2   4   0  70  78  16   2   1 
  5  35   7   2   0   0   0   0   0   0   0   0   0   0   0   0   0   0 
  0   0   0   0   0   0   0   0   0   0   0   0   0   0   0   0   0   0 
  0   0   0   0   0   0   0   0   0   0   0   0   0   0   0   0   0   0 
  0   0   0   0   0   0   0   0   0   0   0   0   0   0   0   0   0   0 
  0   0   0   0   0   0   0   0   0   0   0   0   0   0   0   0   0   0 
  0   0   0   0   0   0   0   0   0   0   0   0   0   0   0   0   0   0 
  0   0   0   0   0   0   0   0   0   0   0   0   0   0   0   0   0   0 
  0   0   0   0   0   0   0   0   0   0   0   0   0   0   0   0   0   0 
  0   0   0   0   0   0   0   0   0   0   0   0   0   0   0   0   0   0 
  0   0   0   0   0   0   0   0   0   0   0   0   0   0   0   0   0 103 
103   0   0   0   0   0   0   0   0   0   0   0   0   0   0   0   0   0 
  0   0   0   0   0   0   0   0   0   0   0   0   0   0   0   0   0   0 
  0   0   0   0   0   0   0   0   0   0   0   0   0   0   0   0   0   0 
  0   0   0   0   0   0   0   0   0   0   1  31  10  41   1   0   0   0 
  1   0   0   0   0   0   0   0   1   1   2   2   6  76  76   1   2   5 
 19  18   1   2   0   0   0   0   0   0   0   0   0   0   0   0   0   0 
  0   0   0   0  17  35  15  13   8   7  11  14   4   5  16  18  29   9 
  8  12  22  10  23   3   6  11   4   2   0   0   0   0   0   0   0   0 
  0   0   0   0   0   0   0   0   0   0   0  45   4  54   3   2   0   0 
  0   0   0   0   1   2   0   1   0   3   2   3  10  58  62   2   1   0 
 14  13   7   1   0   0   0   0   0   0   0   0   0   0   0   0   0   0 
  0   0   0   0   0   0   0   0   0   0   0   0   0   0   0   0   0   0 
  0   0   0   0   0   0   0   0   0   0   0   0   0   0   0   0   0   0 
  0   0   0   0   0   0   0   0   0   0   0   0   0   0   0   0   0   0 
  0   0   0   0   0   0   0   0   0   0   0   0   0   0   0   0   0   0 
  0   0   0   0   0   0   0   0   0   0   0   0   0   0   0   0   0   0 
  0   0   0   0   0   0   0   0   0   0   0   0   0   0   0   0   0   0 
  0   0   0   0   0   0   0   0   0   0   0   0   0   0   0   0   0   0 
  0   0   0   0   0   0   0   0   0   0   0   0   0   0   0   0   0   0 
  0   0   0   0   0   0   0   0   0   0   0   0   0   0   0   0   0 103 
103   0   0   0   0   0   0   0   0   0   0   0   0   0   0   0   0   0 
  0   0   0   0   0   0   0   0   0   0   0   0   0   0   0   0   0   0 
  0   0   0   0   0   0   0   0   0   0   0   0   0   0   0   0   0   0 
  0   0   0   0   0   0   0   0   0   0   1   1 103 112   2   4   2   1 
  0   0   0   0   0   0   0   0   1   1   1   1   0  44  21  16   0   1 
 12   6   4   2   0   0   0   0   0   0   0   0   0   0   0   0   0   0 
  0   0   0   0  15  11  10   6  10  11   7   2   2   3  11   2  30  15 
  9   3   8   4  12   8   8  14  13   0   0   0   0   0   0   0   0   0 
  0   0   0   0   0   0   0   0   1   1   6  96 118   4   1   0   0   0 
  0   0   0   0   0   2   0   1   1   0   2   2  68  46  17   1   0   3 
 17  16   0   1   0   0   0   0   0   0   0   0   0   0   0   0   0   0 
  0   0   0   0   0   0   0   0   0   0   0   0   0   0   0   0   0   0 
  0   0   0   0   0   0   0   0   0   0   0   0   0   0   0   0   0   0 
  0   0   0   0   0   0   0   0   0   0   0   0   0   0   0   0   0   0 
  0   0   0   0   0   0   0   0   0   0   0   0   0   0   0   0   0   0 
  0   0   0   0   0   0   0   0   0   0   0   0   0   0   0   0   0   0 
  0   0   0   0   0   0   0   0   0   0   0   0   0   0   0   0   0   0 
  0   0   0   0   0   0   0   0   0   0   0   0   0   0   0   0   0   0 
  0   0   0   0   0   0   0   0   0   0   0   0   0   0   0   0   0   0 
  0   0   0   0   0   0   0   0   0   0   0   0   0   0   0   0   0 103 
103   0   0   0   0   0   0   0   0   0   0   0   0   0   0   0   0   0 
  0   0   0   0   0   0   0   0   0   0   0   0   0   0   0   0   0   0 
  0   0   0   0   0   0   0   0   0   0   0   0   0   0   0   0   0   0 
  0   0   0   0   0   0   0   0   0   0   2   2  22  49  60   2   4   1 
  2   0   0   0   0   0   0   0   0   1   0   0   0   6  64  85   2   1 
  2  16  22   3   1   0   0   0   0   0   0   0   0   0   0   0   0   0 
  0   0   0   0  12   1  10   1   1   2   3   4   6   2   7  10   3   2 
  1   1   8   8   1   1   7   2   7   0   0   0   0   0   0   0   0   0 
  0   0   0   0   0   0   0   1   3   1  53   4  35   1   0   2   0   0 
  0   0   0   0   0   0   0   0   1   1   2  15  55  77   3   1   0  25 
 26   2   1   1   0   0   0   0   0   0   0   0   0   0   0   0   0   0 
  0   0   0   0   0   0   0   0   0   0   0   0   0   0   0   0   0   0 
  0   0   0   0   0   0   0   0   0   0   0   0   0   0   0   0   0   0 
  0   0   0   0   0   0   0   0   0   0   0   0   0   0   0   0   0   0 
  0   0   0   0   0   0   0   0   0   0   0   0   0   0   0   0   0   0 
  0   0   0   0   0   0   0   0   0   0   0   0   0   0   0   0   0   0 
  0   0   0   0   0   0   0   0   0   0   0   0   0   0   0   0   0   0 
  0   0   0   0   0   0   0   0   0   0   0   0   0   0   0   0   0   0 
  0   0   0   0   0   0   0   0   0   0   0   0   0   0   0   0   0   0 
  0   0   0   0   0   0   0   0   0   0   0   0   0   0   0   0   0 103 
103   0   0   0   0   0   0   0   0   0   0   0   0   0   0   0   0   0 
  0   0   0   0   0   0   0   0   0   0   0   0   0   0   0   0   0   0 
  0   0   0   0   0   0   0   0   0   0   0   0   0   0   0   0   0   0 
  0   0   0   0   0   0   0   0   0   0   0   1   0  80  66   1   3   1 
  0   0   0   0   0   0   0   0   0   2   1   1   2   3  39   6  44   0 
  1  13   1  12   0   2   0   0   0   0   0   0   0   0   0   0   0   0 
  0   0   0   0  10   3  12   1   0   0   0   2   0   4   2   0   2   0 
  2   0   6   6   0   1  12   6   6   0   0   0   0   0   0   0   0   0 
  0   0   0   0   0   0   0   1   0  12 108 113   3   0   2   0   0   0 
  0   0   0   0   0   0   0   0   2   0   1  52  53  13   0   1   8   3 
  8   0   1   0   0   0   0   0   0   0   0   0   0   0   0   0   0   0 
  0   0   0   0   0   0   0   0   0   0   0   0   0   0   0   0   0   0 
  0   0   0   0   0   0   0   0   0   0   0   0   0   0   0   0   0   0 
  0   0   0   0   0   0   0   0   0   0   0   0   0   0   0   0   0   0 
  0   0   0   0   0   0   0   0   0   0   0   0   0   0   0   0   0   0 
  0   0   0   0   0   0   0   0   0   0   0   0   0   0   0   0   0   0 
  0   0   0   0   0   0   0   0   0   0   0   0   0   0   0   0   0   0 
  0   0   0   0   0   0   0   0   0   0   0   0   0   0   0   0   0   0 
  0   0   0   0   0   0   0   0   0   0   0   0   0   0   0   0   0   0 
  0   0   0   0   0   0   0   0   0   0   0   0   0   0   0   0   0 103 
103   0   0   0   0   0   0   0   0   0   0   0   0   0   0   0   0   0 
  0   0   0   0   0   0   0   0   0   0   0   0   0   0   0   0   0   0 
  0   0   0   0   0   0   0   0   0   0   0   0   0   0   0   0   0   0 
  0   0   0   0   0   0   0   0   0   0   0   0   0  51  44  21   0   2 
  0   0   0   0   0   0   0   0   0   1   2   0   0   1   2  72  60   7 
  2   1  19  15   3   1   0   0   2   0   0   0   0   0   0   0   0   0 
  0   0   0   0   6   8  14   1   0   0   0   1   0   0   0   0   0   0 
  0   0   5   4   1   1  13  10   3   0   0   0   0   0   0   0   0   0 
  0   0   2   0   1   1   1   0   1  97 107   6   1   2   0   0   0   0 
  0   0   0   0   0   0   0   0   0   1   6  67  61   2   1   0  20  19 
  2   1   2   0   0   0   0   0   0   0   0   0   0   0   0   0   0   0 
  0   0   0   0   0   0   0   0   0   0   0   0   0   0   0   0   0   0 
  0   0   0   0   0   0   0   0   0   0   0   0   0   0   0   0   0   0 
  0   0   0   0   0   0   0   0   0   0   0   0   0   0   0   0   0   0 
  0   0   0   0   0   0   0   0   0   0   0   0   0   0   0   0   0   0 
  0   0   0   0   0   0   0   0   0   0   0   0   0   0   0   0   0   0 
  0   0   0   0   0   0   0   0   0   0   0   0   0   0   0   0   0   0 
  0   0   0   0   0   0   0   0   0   0   0   0   0   0   0   0   0   0 
  0   0   0   0   0   0   0   0   0   0   0   0   0   0   0   0   0   0 
  0   0   0   0   0   0   0   0   0   0   0   0   0   0   0   0   0 103 
103   0   0   0   0   0   0   0   0   0   0   0   0   0   0   0   0   0 
  0   0   0   0   0   0   0   0   0   0   0   0   0   0   0   0   0   0 
  0   0   0   0   0   0   0   0   0   0   0   0   0   0   0   0   0   0 
  0   0   0   0   0   0   0   0   0   0   2   1   1   8  87  95   5   0 
  0   0   0   0   0   0   0   0   0   0   0   0   1   0   1  12  58  86 
  2   1   4  15  21   3   1   0   0   0   0   0   0   0   0   0   0   0 
  0   0   0   0   7   9  17   0   1   0   0   0   0   0   0   0   0   0 
  0   0   6   5   1   2  17  15   1   0   0   0   0   0   0   0   0   0 
  2   0   0   0   2   1   2   0  46  30  55   2   4   1   1   0   0   0 
  0   0   0   0   0   0   0   0   2   2  28  25  47   3   2  12   2   8 
  1   0   0   0   0   0   0   0   0   0   0   0   0   0   0   0   0   0 
  0   0   0   0   0   0   0   0   0   0   0   0   0   0   0   0   0   0 
  0   0   0   0   0   0   0   0   0   0   0   0   0   0   0   0   0   0 
  0   0   0   0   0   0   0   0   0   0   0   0   0   0   0   0   0   0 
  0   0   0   0   0   0   0   0   0   0   0   0   0   0   0   0   0   0 
  0   0   0   0   0   0   0   0   0   0   0   0   0   0   0   0   0   0 
  0   0   0   0   0   0   0   0   0   0   0   0   0   0   0   0   0   0 
  0   0   0   0   0   0   0   0   0   0   0   0   0   0   0   0   0   0 
  0   0   0   0   0   0   0   0   0   0   0   0   0   0   0   0   0   0 
  0   0   0   0   0   0   0   0   0   0   0   0   0   0   0   0   0 103 
103   0   0   0   0   0   0   0   0   0   0   0   0   0   0   0   0   0 
  0   0   0   0   0   0   0   0   0   0   0   0   0   0   0   0   0   0 
  0   0   0   0   0   0   0   0   0   0   0   0   0   0   0   0   0   0 
  0   0   0   0   0   0   0   0   0   0   1   0   1   1  68  58  15   2 
  0   0   0   0   0   0   0   0   0   0   0   0   0   0   1   1  43  15 
 42   1   0  14   2  10   1   0   0   0   1   2   0   0   0   0   0   0 
  0   0   0   0   6  11  17   2   0   1   0   0   0   0   0   0   0   0 
  0   1   3   4   1   2  18  18   1   0   0   0   0   0   0   0   0   0 
  1   1   0   0   0   1   2  14  97 126   6   0   1   1   2   1   0   0 
  0   0   0   0   0   0   1   0   0   4  81  84   3   1   0  19  23   1 
  0   0   0   2   0   0   0   0   0   0   0   0   0   0   0   0   0   0 
  0   0   0   0   0   0   0   0   0   0   0   0   0   0   0   0   0   0 
  0   0   0   0   0   0   0   0   0   0   0   0   0   0   0   0   0   0 
  0   0   0   0   0   0   0   0   0   0   0   0   0   0   0   0   0   0 
  0   0   0   0   0   0   0   0   0   0   0   0   0   0   0   0   0   0 
  0   0   0   0   0   0   0   0   0   0   0   0   0   0   0   0   0   0 
  0   0   0   0   0   0   0   0   0   0   0   0   0   0   0   0   0   0 
  0   0   0   0   0   0   0   0   0   0   0   0   0   0   0   0   0   0 
  0   0   0   0   0   0   0   0   0   0   0   0   0   0   0   0   0   0 
  0   0   0   0   0   0   0   0   0   0   0   0   0   0   0   0   0 103 
103   0   0   0   0   0   0   0   0   0   0   0   0   0   0   0   0   0 
  0   0   0   0   0   0   0   0   0   0   0   0   0   0   0   0   0   0 
  0   0   0   0   0   0   0   0   0   0   0   0   0   0   0   0   0   0 
  0   0   0   0   0   0   0   0   0   0   2   1   1   1  27  31  46   0 
  1   1   0   0   0   0   0   0   0   0   0   0   0   0   1   1   5  70 
 70  17   0   4  21  19   4   0   0   0   2   1   0   0   0   0   0   0 
  0   0   0   0   4  11  17   0   1   1   0   0   0   0   0   0   0   0 
  0   1   4   4   1   0  19  17   3   1   0   0   0   0   0   0   0   0 
  1   3   1   0   0   1   0 122 102   4   4   1   0   0   1   1   0   0 
  0   0   0   0   0   0   2   3   3  17  40  58   0   1   7   1  10   3 
  1   2   0   0   0   0   0   0   0   0   0   0   0   0   0   0   0   0 
  0   0   0   0   0   0   0   0   0   0   0   0   0   0   0   0   0   0 
  0   0   0   0   0   0   0   0   0   0   0   0   0   0   0   0   0   0 
  0   0   0   0   0   0   0   0   0   0   0   0   0   0   0   0   0   0 
  0   0   0   0   0   0   0   0   0   0   0   0   0   0   0   0   0   0 
  0   0   0   0   0   0   0   0   0   0   0   0   0   0   0   0   0   0 
  0   0   0   0   0   0   0   0   0   0   0   0   0   0   0   0   0   0 
  0   0   0   0   0   0   0   0   0   0   0   0   0   0   0   0   0   0 
  0   0   0   0   0   0   0   0   0   0   0   0   0   0   0   0   0   0 
  0   0   0   0   0   0   0   0   0   0   0   0   0   0   0   0   0 103 
103   0   0   0   0   0   0   0   0   0   0   0   0   0   0   0   0   0 
  0   0   0   0   0   0   0   0   0   0   0   0   0   0   0   0   0   0 
  0   0   0   0   0   0   0   0   0   0   0   0   0   0   0   0   0   0 
  0   0   0   0   0   0   0   0   0   0   0   0   1   1  13  51  53   4 
  0   0   0   0   0   0   0   0   0   0   0   0   0   0   1   0   3   2 
 89  74   9   4   0  27  25   1   0   0   1   0   0   0   0   0   0   0 
  0   0   0   0   5  10  17   1   0   1   0   0   0   0   0   0   0   0 
  0   1   3   4   0   1  13  15   1   0   0   0   0   0   0   0   0   0 
  0   2   1   0   2   1  98  65  39   0   4   0   2   3   3   0   0   0 
  0   0   0   0   0   0   1   2   2  29   4  32   2   2  13   8   4   1 
  0   0   0   0   0   0   0   0   0   0   0   0   0   0   0   0   0   0 
  0   0   0   0   0   0   0   0   0   0   0   0   0   0   0   0   0   0 
  0   0   0   0   0   0   0   0   0   0   0   0   0   0   0   0   0   0 
  0   0   0   0   0   0   0   0   0   0   0   0   0   0   0   0   0   0 
  0   0   0   0   0   0   0   0   0   0   0   0   0   0   0   0   0   0 
  0   0   0   0   0   0   0   0   0   0   0   0   0   0   0   0   0   0 
  0   0   0   0   0   0   0   0   0   0   0   0   0   0   0   0   0   0 
  0   0   0   0   0   0   0   0   0   0   0   0   0   0   0   0   0   0 
  0   0   0   0   0   0   0   0   0   0   0   0   0   0   0   0   0   0 
  0   0   0   0   0   0   0   0   0   0   0   0   0   0   0   0   0 103 
103   0   0   0   0   0   0   0   0   0   0   0   0   0   0   0   0   0 
  0   0   0   0   0   0   0   0   0   0   0   0   0   0   0   0   0   0 
  0   0   0   0   0   0   0   0   0   0   0   0   0   0   0   0   0   0 
  0   0   0   0   0   0   0   0   0   0   0   1   1   1   1  71  76   2 
  1   0   0   0   0   0   0   0   0   0   0   0   0   0   0   0   3   1 
 11  68  87   4   0   2  18  24   1   1   1   0   0   0   0   0   0   0 
  0   0   0   0   8   8  15   1   0   2   0   0   0   0   0   0   0   0 
  0   0   4   4   2   2  12  15   0   0   0   0   0   0   0   0   0   0 
  0   1   0   2   5  81   7  61   3   2   0   0   0   0   2   0   0   0 
  0   0   0   0   0   0   2   0   0  48  31  16   1   2  20  19   0   0 
  0   0   0   0   0   0   0   0   0   0   0   0   0   0   0   0   0   0 
  0   0   0   0   0   0   0   0   0   0   0   0   0   0   0   0   0   0 
  0   0   0   0   0   0   0   0   0   0   0   0   0   0   0   0   0   0 
  0   0   0   0   0   0   0   0   0   0   0   0   0   0   0   0   0   0 
  0   0   0   0   0   0   0   0   0   0   0   0   0   0   0   0   0   0 
  0   0   0   0   0   0   0   0   0   0   0   0   0   0   0   0   0   0 
  0   0   0   0   0   0   0   0   0   0   0   0   0   0   0   0   0   0 
  0   0   0   0   0   0   0   0   0   0   0   0   0   0   0   0   0   0 
  0   0   0   0   0   0   0   0   0   0   0   0   0   0   0   0   0   0 
  0   0   0   0   0   0   0   0   0   0   0   0   0   0   0   0   0 103 
103   0   0   0   0   0   0   0   0   0   0   0   0   0   0   0   0   0 
  0   0   0   0   0   0   0   0   0   0   0   0   0   0   0   0   0   0 
  0   0   0   0   0   0   0   0   0   0   0   0   0   0   0   0   0   0 
  0   0   0   0   0   0   0   0   0   0   1   1   1   0   1  54  46  20 
  1   0   0   0   0   0   0   0   0   0   0   0   0   0   0   0   0   1 
  2  22  67  84   2   2  10  15  20   1   1   0   2   0   0   0   0   0 
  0   0   0   0   6   6  13   0   0   0   0   0   0   0   0   0   0   0 
  0   0   5   4   0   0  16  16   0   1   0   0   0   0   0   0   0   0 
  0   1   1   1  65   5  83   6   1   2   1   1   1   2   3   0   0   0 
  0   0   0   0   0   0   0   1   1  75  66   4   1  11   6   6   0   0 
  0   0   0   0   0   0   0   0   0   0   0   0   0   0   0   0   0   0 
  0   0   0   0   0   0   0   0   0   0   0   0   0   0   0   0   0   0 
  0   0   0   0   0   0   0   0   0   0   0   0   0   0   0   0   0   0 
  0   0   0   0   0   0   0   0   0   0   0   0   0   0   0   0   0   0 
  0   0   0   0   0   0   0   0   0   0   0   0   0   0   0   0   0   0 
  0   0   0   0   0   0   0   0   0   0   0   0   0   0   0   0   0   0 
  0   0   0   0   0   0   0   0   0   0   0   0   0   0   0   0   0   0 
  0   0   0   0   0   0   0   0   0   0   0   0   0   0   0   0   0   0 
  0   0   0   0   0   0   0   0   0   0   0   0   0   0   0   0   0   0 
  0   0   0   0   0   0   0   0   0   0   0   0   0   0   0   0   0 103 
103   0   0   0   0   0   0   0   0   0   0   0   0   0   0   0   0   0 
  0   0   0   0   0   0   0   0   0   0   0   0   0   0   0   0   0   0 
  0   0   0   0   0   0   0   0   0   0   0   0   0   0   0   0   0   0 
  0   0   0   0   0   0   0   0   0   0   0   0   0   0   1  25  23  50 
  2   0   0   0   0   0   0   0   0   0   0   0   0   0   0   0   0   0 
  2   2  28  44  83   1   0  11   5  21   2   0   0   0   0   0   0   0 
  0   0   0   0  10   3  11   2   1   0   0   2   0   0   0   0   0   0 
  0   1   8   8   1   4  21  19   1   1   0   0   0   0   0   0   0   0 
  1   1   2  57  57  96   2   2   0   1   1   1   1   1   1   0   0   0 
  0   1   0   0   0   0   0   2   4  63  68   2   0  16  19   1   0   0 
  0   0   0   2   0   0   0   0   0   0   0   0   0   0   0   0   0   0 
  0   0   0   0   0   0   0   0   0   0   0   0   0   0   0   0   0   0 
  0   0   0   0   0   0   0   0   0   0   0   0   0   0   0   0   0   0 
  0   0   0   0   0   0   0   0   0   0   0   0   0   0   0   0   0   0 
  0   0   0   0   0   0   0   0   0   0   0   0   0   0   0   0   0   0 
  0   0   0   0   0   0   0   0   0   0   0   0   0   0   0   0   0   0 
  0   0   0   0   0   0   0   0   0   0   0   0   0   0   0   0   0   0 
  0   0   0   0   0   0   0   0   0   0   0   0   0   0   0   0   0   0 
  0   0   0   0   0   0   0   0   0   0   0   0   0   0   0   0   0   0 
  0   0   0   0   0   0   0   0   0   0   0   0   0   0   0   0   0 103 
103   0   0   0   0   0   0   0   0   0   0   0   0   0   0   0   0   0 
  0   0   0   0   0   0   0   0   0   0   0   0   0   0   0   0   0   0 
  0   0   0   0   0   0   0   0   0   0   0   0   0   0   0   0   0   0 
  0   0   0   0   0   0   0   0   0   0   0   0   0   1   1   3  92  85 
  4   0   0   0   0   0   1   0   0   1   1   2   1   1   1   1   0   2 
  3   2   4  32  61  84   0   1  12  10  20   0   0   1   1   1   0   1 
  1   1   1   0  12   2  11   0   0   2   1   0   0   0   0   0   0   0 
  0   1   6   4   3   2  14  13   0   1   1   2   1   0   0   1   2   1 
  1   0  67  26 104   3   1   1   1   1   2   2   0   2   3   2   2   0 
  1   3   1   0   0   0   2   2  34   2  35   2   4   9  12   0   0   0 
  0   0   0   0   0   0   0   0   0   0   0   0   0   0   0   0   0   0 
  0   0   0   0   0   0   0   0   0   0   0   0   0   0   0   0   0   0 
  0   0   0   0   0   0   0   0   0   0   0   0   0   0   0   0   0   0 
  0   0   0   0   0   0   0   0   0   0   0   0   0   0   0   0   0   0 
  0   0   0   0   0   0   0   0   0   0   0   0   0   0   0   0   0   0 
  0   0   0   0   0   0   0   0   0   0   0   0   0   0   0   0   0   0 
  0   0   0   0   0   0   0   0   0   0   0   0   0   0   0   0   0   0 
  0   0   0   0   0   0   0   0   0   0   0   0   0   0   0   0   0   0 
  0   0   0   0   0   0   0   0   0   0   0   0   0   0   0   0   0   0 
  0   0   0   0   0   0   0   0   0   0   0   0   0   0   0   0   0 103 
103   0   0   0   0   0   0   0   0   0   0   0   0   0   0   0   0   0 
  0   0   0   0   0   0   0   0   0   0   0   0   0   0   0   0   0   0 
  0   0   0   0   0   0   0   0   0   0   0   0   0   0   0   0   0   0 
  0   0   0   0   0   0   0   0   0   0   1   1   0   0   0   1  68  64 
  5   0   0   0   0   0   1   0   0   1   1   2   2   2   1   1   0   0 
  0   0   2   1  28  50  83   4   1  12   4  20   1   2   1   0   0   2 
  1   0   0   0  15   7   4   1   0   1   2   0   0   0   0   0   0   0 
  0   1   5   2   2   3  14  10   4   1   1   1   1   1   0   1   2   2 
  0  76  18  87   2   0   0   1   4   1   1   0   1   0   2   2   2   0 
  0   1   0   2   0   0   0   2  54  39  17   2   3  10  11   0   0   0 
  0   0   0   0   0   0   0   0   0   0   0   0   0   0   0   0   0   0 
  0   0   0   0   0   0   0   0   0   0   0   0   0   0   0   0   0   0 
  0   0   0   0   0   0   0   0   0   0   0   0   0   0   0   0   0   0 
  0   0   0   0   0   0   0   0   0   0   0   0   0   0   0   0   0   0 
  0   0   0   0   0   0   0   0   0   0   0   0   0   0   0   0   0   0 
  0   0   0   0   0   0   0   0   0   0   0   0   0   0   0   0   0   0 
  0   0   0   0   0   0   0   0   0   0   0   0   0   0   0   0   0   0 
  0   0   0   0   0   0   0   0   0   0   0   0   0   0   0   0   0   0 
  0   0   0   0   0   0   0   0   0   0   0   0   0   0   0   0   0   0 
  0   0   0   0   0   0   0   0   0   0   0   0   0   0   0   0   0 103 
103   0   0   0   0   0   0   0   0   0   0   0   0   0   0   0   0   0 
  0   0   0   0   0   0   0   0   0   0   0   0   0   0   0   0   0   0 
  0   0   0   0   0   0   0   0   0   0   0   0   0   0   0   0   0   0 
  0   0   0   0   0   0   0   0   0   0   1   1   0   0   0   1  58  42 
 13   1   0   0   0   0   0   1   0   1   0   0   0   3   0   1   1   0 
  1   1   0   0   2  24  73  87  15   3  11  13  23   2   0   1   0   0 
  0   0   1   2  21  21   2   0   0   0   0   0   0   0   0   0   0   0 
  0   1   4   0   4   0  11   6   4   0   1   1   0   1   1   2   2   2 
 99   6  85   0   1   0   0   0   2   0   0   3   4   2   3   4   1   0 
  0   0   0   0   1   0   1   3  68  75   3   5  13   8   5   0   0   0 
  0   0   0   0   0   0   0   0   0   0   0   0   0   0   0   0   0   0 
  0   0   0   0   0   0   0   0   0   0   0   0   0   0   0   0   0   0 
  0   0   0   0   0   0   0   0   0   0   0   0   0   0   0   0   0   0 
  0   0   0   0   0   0   0   0   0   0   0   0   0   0   0   0   0   0 
  0   0   0   0   0   0   0   0   0   0   0   0   0   0   0   0   0   0 
  0   0   0   0   0   0   0   0   0   0   0   0   0   0   0   0   0   0 
  0   0   0   0   0   0   0   0   0   0   0   0   0   0   0   0   0   0 
  0   0   0   0   0   0   0   0   0   0   0   0   0   0   0   0   0   0 
  0   0   0   0   0   0   0   0   0   0   0   0   0   0   0   0   0   0 
  0   0   0   0   0   0   0   0   0   0   0   0   0   0   0   0   0 103 
103   0   0   0   0   0   0   0   0   0   0   0   0   0   0   0   0   0 
  0   0   0   0   0   0   0   0   0   0   0   0   0   0   0   0   0   0 
  0   0   0   0   0   0   0   0   0   0   0   0   0   0   0   0   0   0 
  0   0   0   0   0   0   0   0   0   0   0   0   0   0   0   1  48  22 
 23   1   0   0   0   0   1   3   3   2  19  33   1   1   0   1   0   2 
  0   4   4   1   1   0  13  80  63  33   0  10  21  25   3   2   1   0 
  0   0   1   1  27  22   0   1   0   2   2   0   0   0   0   0   0   0 
  0   1   2   6   6   1  10   1  10   0   1   3   1   0   1   0  11 121 
 74  62   4   1   2   2   1   3   1   4   2   1   1   1  21  49   0   0 
  2   0   0   1   0   1   4   5  54  58   2   1  19  19   1   0   0   0 
  0   0   0   0   0   0   0   0   0   0   0   0   0   0   0   0   0   0 
  0   0   0   0   0   0   0   0   0   0   0   0   0   0   0   0   0   0 
  0   0   0   0   0   0   0   0   0   0   0   0   0   0   0   0   0   0 
  0   0   0   0   0   0   0   0   0   0   0   0   0   0   0   0   0   0 
  0   0   0   0   0   0   0   0   0   0   0   0   0   0   0   0   0   0 
  0   0   0   0   0   0   0   0   0   0   0   0   0   0   0   0   0   0 
  0   0   0   0   0   0   0   0   0   0   0   0   0   0   0   0   0   0 
  0   0   0   0   0   0   0   0   0   0   0   0   0   0   0   0   0   0 
  0   0   0   0   0   0   0   0   0   0   0   0   0   0   0   0   0   0 
  0   0   0   0   0   0   0   0   0   0   0   0   0   0   0   0   0 103 
103   0   0   0   0   0   0   0   0   0   0   0   0   0   0   0   0   0 
  0   0   0   0   0   0   0   0   0   0   0   0   0   0   0   0   0   0 
  0   0   0   0   0   0   0   0   0   0   0   0   0   0   0   0   0   0 
  0   0   0   0   0   0   0   0   0   0   0   0   0   0   0   0  41   8 
 31   0   0   0   0   0   0   0   1  28  48  24  73   1   0   2   1   2 
  1   1   1   2   3   2   1   4  83  32  62   1   3  23  18  10   1   0 
  0   0   1   8  10  18   2   0   2   2   0   0   0   0   0   0   0   0 
  0   0   0   8   7   0   2   7   8   1   0   1   0   1   1  40 100  97 
 35   2   0   0   2   0   0   2   1   2   1   2   5  49  64 159  70   2 
  0   0   0   1   2   0   3   6  46  50   2   2  15  14   0   0   0   0 
  0   0   0   0   0   0   0   0   0   0   0   0   0   0   0   0   0   0 
  0   0   0   0   0   0   0   0   0   0   0   0   0   0   0   0   0   0 
  0   0   0   0   0   0   0   0   0   0   0   0   0   0   0   0   0   0 
  0   0   0   0   0   0   0   0   0   0   0   0   0   0   0   0   0   0 
  0   0   0   0   0   0   0   0   0   0   0   0   0   0   0   0   0   0 
  0   0   0   0   0   0   0   0   0   0   0   0   0   0   0   0   0   0 
  0   0   0   0   0   0   0   0   0   0   0   0   0   0   0   0   0   0 
  0   0   0   0   0   0   0   0   0   0   0   0   0   0   0   0   0   0 
  0   0   0   0   0   0   0   0   0   0   0   0   0   0   0   0   0   0 
  0   0   0   0   0   0   0   0   0   0   0   0   0   0   0   0   0 103 
103   0   0   0   0   0   0   0   0   0   0   0   0   0   0   0   0   0 
  0   0   0   0   0   0   0   0   0   0   0   0   0   0   0   0   0   0 
  0   0   0   0   0   0   0   0   0   0   0   0   0   0   0   0   0   0 
  0   0   0   0   0   0   0   0   0   0   0   0   1   0   0   1  33   4 
 37   0   0   1   0   0   0   1   5  43  15  68  54  92  12   1   0   0 
  0   4   4   2   4   2   4   3   3  53  52  95  19   6  19   2  20   2 
  0   0   1  18  17   5   0   2   0   1   1   0   0   0   0   0   0   0 
  0   0   1   2   1   0   1  13  15   0   0   2   1   7  85  44 112  13 
  1   1   0   0   0   2   1   4   3   1   0   0  70  15  81  81  83   4 
  1   1   1   1   1   0   0  12  36  50   2   6   4  11   0   0   0   0 
  0   0   0   0   0   0   0   0   0   0   0   0   0   0   0   0   0   0 
  0   0   0   0   0   0   0   0   0   0   0   0   0   0   0   0   0   0 
  0   0   0   0   0   0   0   0   0   0   0   0   0   0   0   0   0   0 
  0   0   0   0   0   0   0   0   0   0   0   0   0   0   0   0   0   0 
  0   0   0   0   0   0   0   0   0   0   0   0   0   0   0   0   0   0 
  0   0   0   0   0   0   0   0   0   0   0   0   0   0   0   0   0   0 
  0   0   0   0   0   0   0   0   0   0   0   0   0   0   0   0   0   0 
  0   0   0   0   0   0   0   0   0   0   0   0   0   0   0   0   0   0 
  0   0   0   0   0   0   0   0   0   0   0   0   0   0   0   0   0   0 
  0   0   0   0   0   0   0   0   0   0   0   0   0   0   0   0   0 103 
103   0   0   0   0   0   0   0   0   0   0   0   0   0   0   0   0   0 
  0   0   0   0   0   0   0   0   0   0   0   0   0   0   0   0   0   0 
  0   0   0   0   0   0   0   0   0   0   0   0   0   0   0   0   0   0 
  0   0   0   0   0   0   0   0   0   0   0   0   1   0   0   1  29  16 
 42   0   0   1   0   0   1   2   0  47  34   8  25  68  70  37   4   3 
  0   4   3   2   3   0   1   1   3   4  26  69  28  68   0  12  17  23 
  8   0   0  20  21   1   2   1   0   1   1   0   0   0   0   0   0   0 
  0   0   0   0   4   7   3  13  17   1   0   3  37 103  57  83   2   1 
  2   0   1   1   1   0   2   4   2   0   8  92  29  64   5  63  57   4 
  1   1   1   1   0   0   0  12  36  50   4   4   0   8   0   0   0   0 
  0   0   0   0   0   0   0   0   0   0   0   0   0   0   0   0   0   0 
  0   0   0   0   0   0   0   0   0   0   0   0   0   0   0   0   0   0 
  0   0   0   0   0   0   0   0   0   0   0   0   0   0   0   0   0   0 
  0   0   0   0   0   0   0   0   0   0   0   0   0   0   0   0   0   0 
  0   0   0   0   0   0   0   0   0   0   0   0   0   0   0   0   0   0 
  0   0   0   0   0   0   0   0   0   0   0   0   0   0   0   0   0   0 
  0   0   0   0   0   0   0   0   0   0   0   0   0   0   0   0   0   0 
  0   0   0   0   0   0   0   0   0   0   0   0   0   0   0   0   0   0 
  0   0   0   0   0   0   0   0   0   0   0   0   0   0   0   0   0   0 
  0   0   0   0   0   0   0   0   0   0   0   0   0   0   0   0   0 103 
103   0   0   0   0   0   0   0   0   0   0   0   0   0   0   0   0   0 
  0   0   0   0   0   0   0   0   0   0   0   0   0   0   0   0   0   0 
  0   0   0   0   0   0   0   0   0   0   0   0   0   0   0   0   0   0 
  1   0   0   0   0   0   0   0   0   0   0   0   1   0   0   1  25  23 
 46   0   0   1   0   0   0   1   7  68  68   1  13  13 114  56  75   0 
  0   2   1   0   2   1   0   0   2   2   2   6  57  38  76  37   4  29 
  8  17   7  16  17   0   0   0   0   0   0   0   0   0   0   0   0   0 
  0   0   1   0   5   5   4  16  10   5  22  85  48 128  19   2   1   1 
  2   1   1   0   0   0   0   2   4  41  90  92  34   3   6  43  44  14 
  0   2   1   2   0   2   0  14  33  43   4  12   7   5   0   0   0   0 
  0   0   0   0   0   0   0   0   0   0   0   0   0   0   0   0   0   0 
  0   0   0   0   0   0   0   0   0   0   0   0   0   0   0   0   0   0 
  0   0   0   0   0   0   0   0   0   0   0   0   0   0   0   0   0   0 
  0   0   0   0   0   0   0   0   0   0   0   0   0   0   0   0   0   0 
  0   0   0   0   0   0   0   0   0   0   0   0   0   0   0   0   0   0 
  0   0   0   0   0   0   0   0   0   0   0   0   0   0   0   0   0   0 
  0   0   0   0   0   0   0   0   0   0   0   0   0   0   0   0   0   0 
  0   0   0   0   0   0   0   0   0   0   0   0   0   0   0   0   0   0 
  0   0   0   0   0   0   0   0   0   0   0   0   0   0   0   0   0   0 
  0   0   0   0   0   0   0   0   0   0   0   0   0   0   0   0   0 103 
103   0   0   0   0   0   0   0   0   0   0   0   0   0   0   0   0   0 
  0   0   0   0   0   0   0   0   0   0   0   0   0   0   0   0   0   0 
  0   0   0   0   0   0   0   0   0   0   0   0   0   2   0   0   1   1 
  3   1   0   0   0   0   0   0   0   0   0   0   0   0   0   0  26  20 
 46   0   0   0   0   0   0   1   2  54  56   0  15  13   3  65  73 118 
 29   1   3   2   1   2   0   1   1   1   1   1   1  23  65  18  95  18 
 10  19  28   6  13   3   1   2   0   0   0   0   1   3   1   0   2   1 
  0   0   1   2   8   4   2   4   0  91  66  89  64   2   1   0   2   2 
  2   1   0   0   1   1   1   9 101  11  79  10   5  10  20  73  17  29 
  0   0   1   0   0   1   1  18  25  45   2  14  11   2   0   0   0   0 
  0   0   0   0   0   0   0   0   0   0   0   0   0   0   0   0   0   0 
  0   0   0   0   0   0   0   0   0   0   0   0   0   0   0   0   0   0 
  0   0   0   0   0   0   0   0   0   0   0   0   0   0   0   0   0   0 
  0   0   0   0   0   0   0   0   0   0   0   0   0   0   0   0   0   0 
  0   0   0   0   0   0   0   0   0   0   0   0   0   0   0   0   0   0 
  0   0   0   0   0   0   0   0   0   0   0   0   0   0   0   0   0   0 
  0   0   0   0   0   0   0   0   0   0   0   0   0   0   0   0   0   0 
  0   0   0   0   0   0   0   0   0   0   0   0   0   0   0   0   0   0 
  0   0   0   0   0   0   0   0   0   0   0   0   0   0   0   0   0   0 
  0   0   0   0   0   0   0   0   0   0   0   0   0   0   0   0   0 103 
103   0   0   0   0   0   0   0   0   0   0   0   0   0   0   0   0   0 
  0   0   0   0   0   0   0   0   0   0   0   0   0   0   0   0   0   0 
  0   0   0   0   0   0   0   0   0   0   0   0   0   1   0   1   1   0 
  2   1   1   0   2   0   0   0   0   0   0   0   0   0   0   2  27  20 
 45   1   2   0   0   0   0   0  10  36  46   3  11  14   1   1  17 113 
 38  88   7   0   4   2   2   4   0   1   0   0   0   1   2  33  81  29 
 65  26   5  16   0   2   2   1   0   0   1   0   5   4   3   0   1   2 
  3   2   1   1   0   6  14  73  46  43  93  11   4   0   0   0   1   1 
  2   3   4   2   1   3  62  60  70  48   2   8  19   0  21  36   4  40 
  1   1   1   2   0   1   1  18  26  44   0  11   9   3   0   0   0   0 
  0   0   0   0   0   0   0   0   0   0   0   0   0   0   0   0   0   0 
  0   0   0   0   0   0   0   0   0   0   0   0   0   0   0   0   0   0 
  0   0   0   0   0   0   0   0   0   0   0   0   0   0   0   0   0   0 
  0   0   0   0   0   0   0   0   0   0   0   0   0   0   0   0   0   0 
  0   0   0   0   0   0   0   0   0   0   0   0   0   0   0   0   0   0 
  0   0   0   0   0   0   0   0   0   0   0   0   0   0   0   0   0   0 
  0   0   0   0   0   0   0   0   0   0   0   0   0   0   0   0   0   0 
  0   0   0   0   0   0   0   0   0   0   0   0   0   0   0   0   0   0 
  0   0   0   0   0   0   0   0   0   0   0   0   0   0   0   0   0   0 
  0   0   0   0   0   0   0   0   0   0   0   0   0   0   0   0   0 103 
103   0   0   0   0   0   0   0   0   0   0   0   0   0   0   0   0   0 
  0   0   0   0   0   0   0   0   0   0   0   0   0   0   0   0   0   0 
  0   0   0   0   0   0   0   0   0   0   0   0   0   2   1   1   0  10 
  1   0   1   0   0   0   0   0   0   2   0   0   1   1   0   1  24  21 
 46   0   2   0   0   0   0   0  17  25  42   2  13  12   0   1   3   1 
 54 104 106  59  14   2   1   3   0   2   1   0   2   4   1   3   2  35 
 79  20  70  26   7   0   1   0   0   2   3   2   3  10   7   1   0   0 
  2   1   3   0  24  52  81  79  57  21   3   2   2   2   0   3   3   2 
  2   2   2   3  34 104  43  71  12   6  20  11  26   8   2  26  30  53 
  3   2   0   2   0   0   0  17  26  46   0  10  10   3   0   0   0   0 
  0   0   0   0   0   0   0   0   0   0   0   0   0   0   0   0   0   0 
  0   0   0   0   0   0   0   0   0   0   0   0   0   0   0   0   0   0 
  0   0   0   0   0   0   0   0   0   0   0   0   0   0   0   0   0   0 
  0   0   0   0   0   0   0   0   0   0   0   0   0   0   0   0   0   0 
  0   0   0   0   0   0   0   0   0   0   0   0   0   0   0   0   0   0 
  0   0   0   0   0   0   0   0   0   0   0   0   0   0   0   0   0   0 
  0   0   0   0   0   0   0   0   0   0   0   0   0   0   0   0   0   0 
  0   0   0   0   0   0   0   0   0   0   0   0   0   0   0   0   0   0 
  0   0   0   0   0   0   0   0   0   0   0   0   0   0   0   0   0   0 
  0   0   0   0   0   0   0   0   0   0   0   0   0   0   0   0   0 103 
103   0   0   0   0   0   0   0   0   0   0   0   0   0   0   0   0   0 
  0   0   0   0   0   0   0   0   0   0   0   0   0   0   0   0   0   0 
  0   0   0   0   0   0   0   0   0   0   0   0   0   0   0   0  14  20 
 15   1   1   0   0   0   0   0   0   0   0   0   1   0   1   0  26  25 
 48   1   0   0   0   0   0   1  23   9  31   8   7  11   0   1   1   2 
  2  13  91  47  67  68   6   2   2   3   4   2   0   2   2   4   1   2 
  0  44  56  15  48  56  10   4   0   4   2  10   8   3   0   9   3   3 
  2   4  43  85   1  44  70  10   0   0   2   2   1   1   3   1   0   1 
  0   2  35  85   9  80  29   4  22   7  15  14   0   1   1  15  49  64 
  1   0   0   1   0   0   0  17  31  47   2  12  11   0   0   0   0   0 
  0   0   0   0   0   0   0   0   0   0   0   0   0   0   0   0   0   0 
  0   0   0   0   0   0   0   0   0   0   0   0   0   0   0   0   0   0 
  0   0   0   0   0   0   0   0   0   0   0   0   0   0   0   0   0   0 
  0   0   0   0   0   0   0   0   0   0   0   0   0   0   0   0   0   0 
  0   0   0   0   0   0   0   0   0   0   0   0   0   0   0   0   0   0 
  0   0   0   0   0   0   0   0   0   0   0   0   0   0   0   0   0   0 
  0   0   0   0   0   0   0   0   0   0   0   0   0   0   0   0   0   0 
  0   0   0   0   0   0   0   0   0   0   0   0   0   0   0   0   0   0 
  0   0   0   0   0   0   0   0   0   0   0   0   0   0   0   0   0   0 
  0   0   0   0   0   0   0   0   0   0   0   0   0   0   0   0   0 103 
103   0   0   0   0   0   0   0   0   0   0   0   0   0   0   0   0   0 
  0   0   0   0   0   0   0   0   0   0   0   0   0   0   0   0   0   0 
  0   0   0   0   0   0   0   0   0   0   0   0   0   0   0  13   4  26 
  3   8   2   1   0   0   0   2   0   0   0   0   1   1   1   0  31  10 
 41   0   0   0   0   0   0   0  39  20  19  14  12   2   2   3  14  13 
  6   4   4  34  95  38  84  68  28   6   3   2   1   3   1   2   2   1 
  1   5   2  21  59  47  45  43  46  18   7   2   1   0   2  15   4  44 
 51  60  10  91  33   9   2   0   3   0   3   4   4   5   2   2   6   9 
 54  68  25 100  31   6  17  18  19  17   5   4   0   1   0   4  77  86 
  2   1   2   1   1   2   0  12  36  48   0  13  14   2   0   0   0   0 
  0   0   0   0   0   0   0   0   0   0   0   0   0   0   0   0   0   0 
  0   0   0   0   0   0   0   0   0   0   0   0   0   0   0   0   0   0 
  0   0   0   0   0   0   0   0   0   0   0   0   0   0   0   0   0   0 
  0   0   0   0   0   0   0   0   0   0   0   0   0   0   0   0   0   0 
  0   0   0   0   0   0   0   0   0   0   0   0   0   0   0   0   0   0 
  0   0   0   0   0   0   0   0   0   0   0   0   0   0   0   0   0   0 
  0   0   0   0   0   0   0   0   0   0   0   0   0   0   0   0   0   0 
  0   0   0   0   0   0   0   0   0   0   0   0   0   0   0   0   0   0 
  0   0   0   0   0   0   0   0   0   0   0   0   0   0   0   0   0   0 
  0   0   0   0   0   0   0   0   0   0   0   0   0   0   0   0   0 103 
103   0   0   0   0   0   0   0   0   0   0   0   0   0   0   0   0   0 
  0   0   0   0   0   0   0   0   0   0   0   0   0   0   0   0   0   0 
  0   0   0   0   0   0   0   0   0   0   0   0   1   7  28   6  20   5 
 25  26   2   2   0   0   0   0   0   0   0   0   0   0   0   0  33   4 
 36   0   0   0   0   0   0   1  58  46   7  21  19   4  45  89  40  47 
 35   3  13  15  14  49  70  77  27 111  43  16   6   6   2   0   2   2 
  1   3   4   4   2   8  46  41  48  23  70  54  23   2  84 112  44  32 
 55  52  25   2   0   1   2   0   0   1   0   2   4   2  14  23  76  73 
 55  65  35   9  26   0  20  53  78  73  78  71  24   1   1   1  71  75 
 10   0   3   0   0   0   0  11  39  50   2  14  12   2   0   0   0   0 
  0   0   0   0   0   0   0   0   0   0   0   0   0   0   0   0   0   0 
  0   0   0   0   0   0   0   0   0   0   0   0   0   0   0   0   0   0 
  0   0   0   0   0   0   0   0   0   0   0   0   0   0   0   0   0   0 
  0   0   0   0   0   0   0   0   0   0   0   0   0   0   0   0   0   0 
  0   0   0   0   0   0   0   0   0   0   0   0   0   0   0   0   0   0 
  0   0   0   0   0   0   0   0   0   0   0   0   0   0   0   0   0   0 
  0   0   0   0   0   0   0   0   0   0   0   0   0   0   0   0   0   0 
  0   0   0   0   0   0   0   0   0   0   0   0   0   0   0   0   0   0 
  0   0   0   0   0   0   0   0   0   0   0   0   0   0   0   0   0   0 
  0   0   0   0   0   0   0   0   0   0   0   0   0   0   0   0   0 103 
103   0   0   0   0   0   0   0   0   0   0   0   0   0   0   0   0   0 
  0   0   0   0   0   0   0   0   0   0   0   0   0   0   0   0   0   0 
  0   0   0   0   0   0   0   0   0   0   0   0   5  28  35  13   2   2 
  2  22  21   1   0   0   0   0   2   0   0   0   0   0   0   0  42  11 
 30   0   0   0   0   0   1   3  69  71  11   2  17  91  33 112  65  82 
 41  45  40   4   8  19  23  11  48  97   6  36  67  77  35   8   2   1 
  2   1   5   3   3   0   1   4   8  41  78  68  37   3 100 101  69  20 
  6   0   0   0   2   1   0   2   2   0   2  27  54  71  40  12  54  73 
  1  17   6   1  24   8  99   1  93  95 104  84  52  54  11   1  35   5 
 47   1   0   0   0   1   1   5  50  55   2  11  10   2   0   0   0   0 
  0   0   0   0   0   0   0   0   0   0   0   0   0   0   0   0   0   0 
  0   0   0   0   0   0   0   0   0   0   0   0   0   0   0   0   0   0 
  0   0   0   0   0   0   0   0   0   0   0   0   0   0   0   0   0   0 
  0   0   0   0   0   0   0   0   0   0   0   0   0   0   0   0   0   0 
  0   0   0   0   0   0   0   0   0   0   0   0   0   0   0   0   0   0 
  0   0   0   0   0   0   0   0   0   0   0   0   0   0   0   0   0   0 
  0   0   0   0   0   0   0   0   0   0   0   0   0   0   0   0   0   0 
  0   0   0   0   0   0   0   0   0   0   0   0   0   0   0   0   0   0 
  0   0   0   0   0   0   0   0   0   0   0   0   0   0   0   0   0   0 
  0   0   0   0   0   0   0   0   0   0   0   0   0   0   0   0   0 103 
103   0   0   0   0   0   0   0   0   0   0   0   0   0   0   0   0   0 
  0   0   0   0   0   0   0   0   0   0   0   0   0   0   0   0   0   0 
  0   0   0   0   0   0   0   0   0   0   0   0  55  47  29  12   8   1 
  1   6   9  20   0   0   0   0   0   0   2   1   2   1   2   0  49  26 
 23   0   0   0   0   0   0  27  11  35  10   9  81 103  35   7   5   4 
 11  86  33  39   1   9   8   8   1   1  29  51  77  71   9  68  77  48 
 40  39  39  34  35  37  37  38  46  58  53   2  26  23  47  32  93  66 
 45  46  39  41  41  39  44  44  48  58  79  16  29  70  39  20   8  10 
  9  20  10   4   2 133 112  52   3   4   6  10 100  31   0  19  11 100 
 93   4   0   0   2   1   1   4  54  57   1  12  10   2   0   0   0   0 
  0   0   0   0   0   0   0   0   0   0   0   0   0   0   0   0   0   0 
  0   0   0   0   0   0   0   0   0   0   0   0   0   0   0   0   0   0 
  0   0   0   0   0   0   0   0   0   0   0   0   0   0   0   0   0   0 
  0   0   0   0   0   0   0   0   0   0   0   0   0   0   0   0   0   0 
  0   0   0   0   0   0   0   0   0   0   0   0   0   0   0   0   0   0 
  0   0   0   0   0   0   0   0   0   0   0   0   0   0   0   0   0   0 
  0   0   0   0   0   0   0   0   0   0   0   0   0   0   0   0   0   0 
  0   0   0   0   0   0   0   0   0   0   0   0   0   0   0   0   0   0 
  0   0   0   0   0   0   0   0   0   0   0   0   0   0   0   0   0   0 
  0   0   0   0   0   0   0   0   0   0   0   0   0   0   0   0   0 103 
103   0   0   0   0   0   0   0   0   0   0   0   0   0   0   0   0   0 
  0   0   0   0   0   0   0   0   0   0   0   0   0   0   0   0   0   0 
  0   0   0   0   2   0   0   0   1   2   0  29  24  21   1  31  29   3 
  0   2  15   6  15   1   1   0   0   0   1   2   1   0   1   0  56  37 
 13   3   2   1   2   0   0  54  57   7  23  42  37  57   1   0   2   0 
  2   6  82  42  15   0  20  21   2   1   1   1   1  10  37  64  89  41 
 23  28  20  20  20  21  23  29  31  57  56   6  25   9  15  50  86  66 
  8  31  23  25  24  21  31  31  35  61  74  33  29   8   8   9  17  10 
  5   1   0   2  86  99  28   0   0   2   0   0   6  79  74  26  12  77 
 62   9   1   0   0   1   2   3  68  71   4  12  10   3   0   0   0   0 
  0   0   0   0   0   0   0   0   0   0   0   0   0   0   0   0   0   0 
  0   0   0   0   0   0   0   0   0   0   0   0   0   0   0   0   0   0 
  0   0   0   0   0   0   0   0   0   0   0   0   0   0   0   0   0   0 
  0   0   0   0   0   0   0   0   0   0   0   0   0   0   0   0   0   0 
  0   0   0   0   0   0   0   0   0   0   0   0   0   0   0   0   0   0 
  0   0   0   0   0   0   0   0   0   0   0   0   0   0   0   0   0   0 
  0   0   0   0   0   0   0   0   0   0   0   0   0   0   0   0   0   0 
  0   0   0   0   0   0   0   0   0   0   0   0   0   0   0   0   0   0 
  0   0   0   0   0   0   0   0   0   0   0   0   0   0   0   0   0   0 
  0   0   0   0   0   0   0   0   0   0   0   0   0   0   0   0   0 103 
103   0   0   0   0   0   0   0   0   0   0   0   0   0   0   0   0   0 
  0   0   0   0   0   0   0   0   0   0   0   0   0   0   0   0   0   0 
  0   0   0   0   0   0   0   1   2   1   6  40  39   2   2   2  31  33 
  1   2   2  14   4  17   1   1   1   1   1   1   1   1   2   1  68  67 
  5   2   1   0   2   2   1  48  48   4   3  63  55  17   2   1   1   0 
  2   2   1  82  83   0   3  12  11   1   1   2   1   1   1   4  27  18 
  6  12  14  14  14  14  14   2  10   5  26  21   4   0   1   0   3  23 
  8   0  16  15  16  17   9  14   5   5   6   3   6  20   2   3   1   1 
  1   2   0  29  40  63   1   2   1   1   0   0   1  70  46   7  16  63 
 33  25   0   1   2   1   3   3  53  35  18  13  12   1   0   0   0   0 
  0   0   0   0   0   0   0   0   0   0   0   0   0   0   0   0   0   0 
  0   0   0   0   0   0   0   0   0   0   0   0   0   0   0   0   0   0 
  0   0   0   0   0   0   0   0   0   0   0   0   0   0   0   0   0   0 
  0   0   0   0   0   0   0   0   0   0   0   0   0   0   0   0   0   0 
  0   0   0   0   0   0   0   0   0   0   0   0   0   0   0   0   0   0 
  0   0   0   0   0   0   0   0   0   0   0   0   0   0   0   0   0   0 
  0   0   0   0   0   0   0   0   0   0   0   0   0   0   0   0   0   0 
  0   0   0   0   0   0   0   0   0   0   0   0   0   0   0   0   0   0 
  0   0   0   0   0   0   0   0   0   0   0   0   0   0   0   0   0   0 
  0   0   0   0   0   0   0   0   0   0   0   0   0   0   0   0   0 103 
103   0   0   0   0   0   0   0   0   0   0   0   0   0   0   0   0   0 
  0   0   0   0   0   0   0   0   0   0   0   0   0   0   0   0   0   0 
  0   0   0   0   0   1   1   1   1   2  37  27  10   2   2   1   6  25 
 31   1   0   1  17   6  18   1   1   1   0   1   1   0   1   1  90  84 
  4   1   2   1   0   2  12  44  44  20  23  66  77   2   3   2   2   1 
  2   2   0  36   8  31   2  20  19   1   1   2   1   0   3  31  27   4 
  2   2   4   2   2   1   5   1   7  23  10  19  18  22  17  15  18  12 
 35  30   8   2   1   1   4   2   0   2   6   8  17  17   4   1   1   1 
  1   1   0 104 124   0   1   0   2   1   2   1   2  44  10  25  21  45 
 31  61   1   1   0   0   1   0  27  10  40  16   9   4   0   0   0   0 
  0   0   0   0   0   0   0   0   0   0   0   0   0   0   0   0   0   0 
  0   0   0   0   0   0   0   0   0   0   0   0   0   0   0   0   0   0 
  0   0   0   0   0   0   0   0   0   0   0   0   0   0   0   0   0   0 
  0   0   0   0   0   0   0   0   0   0   0   0   0   0   0   0   0   0 
  0   0   0   0   0   0   0   0   0   0   0   0   0   0   0   0   0   0 
  0   0   0   0   0   0   0   0   0   0   0   0   0   0   0   0   0   0 
  0   0   0   0   0   0   0   0   0   0   0   0   0   0   0   0   0   0 
  0   0   0   0   0   0   0   0   0   0   0   0   0   0   0   0   0   0 
  0   0   0   0   0   0   0   0   0   0   0   0   0   0   0   0   0   0 
  0   0   0   0   0   0   0   0   0   0   0   0   0   0   0   0   0 103 
103   0   0   0   0   0   0   0   0   0   0   0   0   0   0   0   0   0 
  0   0   0   0   0   0   0   0   0   0   0   0   0   0   0   0   0   0 
  0   0   0   0   1   1   1   2  15  13  20  38   1   3   0   1   1   8 
 18  30   2   2   3  12   9  22   1   2   1   2   2   0   1  23  28  52 
  5   3   0   1   0   3  54  33  12   6   9  69  72   5   2   0   1   0 
  2   1   1   3  62  50   2  14   8   3   1   1   0   1  18   5  14   0 
  0   1   2   0   1   6   6  11  19   7  33   0  25  27  12   8  19  15 
  6  46  28   3   3   5   3   2   2   0   4   4   2  27  21   2   1   0 
  0   0  24  29  61   2   1   0   0   1   0   0   4  37   6  29   6   4 
110 115   4   4   4   1   0   0   9  63  72  12   2   7   0   0   0   0 
  0   0   0   0   0   0   0   0   0   0   0   0   0   0   0   0   0   0 
  0   0   0   0   0   0   0   0   0   0   0   0   0   0   0   0   0   0 
  0   0   0   0   0   0   0   0   0   0   0   0   0   0   0   0   0   0 
  0   0   0   0   0   0   0   0   0   0   0   0   0   0   0   0   0   0 
  0   0   0   0   0   0   0   0   0   0   0   0   0   0   0   0   0   0 
  0   0   0   0   0   0   0   0   0   0   0   0   0   0   0   0   0   0 
  0   0   0   0   0   0   0   0   0   0   0   0   0   0   0   0   0   0 
  0   0   0   0   0   0   0   0   0   0   0   0   0   0   0   0   0   0 
  0   0   0   0   0   0   0   0   0   0   0   0   0   0   0   0   0   0 
  0   0   0   0   0   0   0   0   0   0   0   0   0   0   0   0   0 103 
103   0   0   0   0   0   0   0   0   0   0   0   0   0   0   0   0   0 
  0   0   0   0   0   0   0   0   0   0   0   0   0   0   0   0   0   0 
  0   0   0   1   0   0   8  23  16   2  11   7   0   2   0   0   2   3 
  6  29  31   4   2   0  10  17  25   4   2   2   3   2   1  50  33  23 
  1   1   1   1   0   6  71  80  25  13   3  61  72   6   1   0   2   2 
  0   3   4   2  46  41   5  14   9   3   1   2   0   9  23  26   0   1 
  2   5   4   0   3   3   8  15   7  35   8  19   1   3   4   8   2   0 
 19  11  38  37   2   1   0   0   1   0   1  10  10   4   7  17   0   0 
  1   2  46  26  33   0   0   2   1   2   3   1   2  49  18  19  12   4 
 44  10  47   3   4   0   0   2   2  71  61   3   2   9   0   0   0   0 
  0   0   0   0   0   0   0   0   0   0   0   0   0   0   0   0   0   0 
  0   0   0   0   0   0   0   0   0   0   0   0   0   0   0   0   0   0 
  0   0   0   0   0   0   0   0   0   0   0   0   0   0   0   0   0   0 
  0   0   0   0   0   0   0   0   0   0   0   0   0   0   0   0   0   0 
  0   0   0   0   0   0   0   0   0   0   0   0   0   0   0   0   0   0 
  0   0   0   0   0   0   0   0   0   0   0   0   0   0   0   0   0   0 
  0   0   0   0   0   0   0   0   0   0   0   0   0   0   0   0   0   0 
  0   0   0   0   0   0   0   0   0   0   0   0   0   0   0   0   0   0 
  0   0   0   0   0   0   0   0   0   0   0   0   0   0   0   0   0   0 
  0   0   0   0   0   0   0   0   0   0   0   0   0   0   0   0   0 103 
103   0   0   0   0   0   0   0   0   0   0   0   0   0   0   0   0   0 
  0   0   0   0   0   0   0   0   0   0   0   0   0   0   0   0   0   0 
  0   0   0   0   2  12   6  13  22  21  10   2   0   2   0   3   0   1 
  1   5  25  27   8   1   0   6  23  19  10   1   2   2   1  76  75   5 
  1   1   1   1   1  32  15  18   7  10   2  34   2  40   3   2   2   4 
  2   1   2   1  47  39   7  16  16   1   2   2   6  24  34   1   1   1 
  2   3   4   3   6   5  16   3  23  18  27   0   2   1   4   1   9   8 
  2  21  20  35  31   2   1   1   1   0   0   2   8   8  13   3   9   0 
  0   1  56  47  21   2   0   2   0   1   4   0   1  90  83   1  13   7 
 12  84  74   3   1   2   0   0   1  51  38  10   8  12   0   0   0   0 
  0   0   0   0   0   0   0   0   0   0   0   0   0   0   0   0   0   0 
  0   0   0   0   0   0   0   0   0   0   0   0   0   0   0   0   0   0 
  0   0   0   0   0   0   0   0   0   0   0   0   0   0   0   0   0   0 
  0   0   0   0   0   0   0   0   0   0   0   0   0   0   0   0   0   0 
  0   0   0   0   0   0   0   0   0   0   0   0   0   0   0   0   0   0 
  0   0   0   0   0   0   0   0   0   0   0   0   0   0   0   0   0   0 
  0   0   0   0   0   0   0   0   0   0   0   0   0   0   0   0   0   0 
  0   0   0   0   0   0   0   0   0   0   0   0   0   0   0   0   0   0 
  0   0   0   0   0   0   0   0   0   0   0   0   0   0   0   0   0   0 
  0   0   0   0   0   0   0   0   0   0   0   0   0   0   0   0   0 103 
103   0   0   0   0   0   0   0   0   0   0   0   0   0   0   0   0   0 
  0   0   0   0   0   0   0   0   0   0   0   0   0   0   0   0   0   0 
  0   0   0   1   7  15   1   4  25  21   4   0   2   0   4   6   2   2 
  2   2   5  29  19  17   1   2   2  26   7  20   2   0   7  52  58   1 
  0   2   3   2   2  62  51  12  20   3   3  12  66  72   2   0   0   2 
  0   0   1   4  46  39   4  24  16   4   2   2  35  28   2   3   2   0 
  2   2   5   8   8  18   3  15  19  27   2   2   0   2   2   1   1   3 
  4   7   3  12  25  33   1   4   3   3   2   0   4   6   7  21  21   3 
  2   1  50  37  27   1   0   0   0   0   0   0  19  32  50   1  17  14 
  1  68  82  13   1   1   0   0   1  35  11  26  19  18   0   0   0   0 
  0   0   0   0   0   0   0   0   0   0   0   0   0   0   0   0   0   0 
  0   0   0   0   0   0   0   0   0   0   0   0   0   0   0   0   0   0 
  0   0   0   0   0   0   0   0   0   0   0   0   0   0   0   0   0   0 
  0   0   0   0   0   0   0   0   0   0   0   0   0   0   0   0   0   0 
  0   0   0   0   0   0   0   0   0   0   0   0   0   0   0   0   0   0 
  0   0   0   0   0   0   0   0   0   0   0   0   0   0   0   0   0   0 
  0   0   0   0   0   0   0   0   0   0   0   0   0   0   0   0   0   0 
  0   0   0   0   0   0   0   0   0   0   0   0   0   0   0   0   0   0 
  0   0   0   0   0   0   0   0   0   0   0   0   0   0   0   0   0   0 
  0   0   0   0   0   0   0   0   0   0   0   0   0   0   0   0   0 103 
103   0   0   0   0   0   0   0   0   0   0   0   0   0   0   0   0   0 
  0   0   0   0   0   0   0   0   0   0   0   0   0   0   0   0   1   0 
  0   0   0   4  48   0  32  12   1   1   0   1   0   1   3   2   1   1 
  2   1   3   1  22   7  30   0   2   0  11  24  21  12  21  46  52   4 
  3   3   0   3  22  41  41   8  11   2   2   1  68  83  19   1   0   1 
  2   1   4   1  60  48  16  15   4   0   2  32  33   5   1   1   1   3 
  0   4   5   6  26  19  10   1  16  19   2   1   0   0   1   1   0   6 
  6   6   8  11   6  33  34   7   0   2   2   2   1   2   2   7  26  28 
  1   1  33   2  51   3   0   0   0   0   1   3  75  45  15   2  14  15 
  2  13  93 108   4   0   0   0   2  14  31  50  15  13   2   0   0   0 
  0   0   0   0   0   0   0   0   0   0   0   0   0   0   0   0   0   0 
  0   0   0   0   0   0   0   0   0   0   0   0   0   0   0   0   0   0 
  0   0   0   0   0   0   0   0   0   0   0   0   0   0   0   0   0   0 
  0   0   0   0   0   0   0   0   0   0   0   0   0   0   0   0   0   0 
  0   0   0   0   0   0   0   0   0   0   0   0   0   0   0   0   0   0 
  0   0   0   0   0   0   0   0   0   0   0   0   0   0   0   0   0   0 
  0   0   0   0   0   0   0   0   0   0   0   0   0   0   0   0   0   0 
  0   0   0   0   0   0   0   0   0   0   0   0   0   0   0   0   0   0 
  0   0   0   0   0   0   0   0   0   0   0   0   0   0   0   0   0   0 
  0   0   0   0   0   0   0   0   0   0   0   0   0   0   0   0   0 103 
103   0   0   0   0   0   0   0   0   0   0   0   0   0   0   0   0   0 
  0   0   0   0   0   0   0   0   0   0   0   0   0   0   0   2   3   0 
  1   2  10  42  36  27   2   0   1   0   1   1   0   0   1   0   0   0 
  0   0   1   4   4  16  16  20  17   1   1   1  21   7  66  14  29   3 
  1   1   0   3  72  83  19  23   0   0   0   0   5 108 107   6   4   0 
  1   1   2  37  29  18   7  14   1   2  31  20   7   0   2   0   0   3 
  7   2  10  12  25   4   1   3  14  17   1   2   1   1   0   0   0   7 
  5   2  11  12   1   3  31  16  21   3   2   1   0   1   5   2   2  20 
 22   1   4 103 129   1   1   0   0   1   1  59  16  55   0  18  10   3 
  4   1  68  42  23   2   2   0   1   0  82  93  12   0   8   2   1   0 
  0   0   0   0   0   0   0   0   0   0   0   0   0   0   0   0   0   0 
  0   0   0   0   0   0   0   0   0   0   0   0   0   0   0   0   0   0 
  0   0   0   0   0   0   0   0   0   0   0   0   0   0   0   0   0   0 
  0   0   0   0   0   0   0   0   0   0   0   0   0   0   0   0   0   0 
  0   0   0   0   0   0   0   0   0   0   0   0   0   0   0   0   0   0 
  0   0   0   0   0   0   0   0   0   0   0   0   0   0   0   0   0   0 
  0   0   0   0   0   0   0   0   0   0   0   0   0   0   0   0   0   0 
  0   0   0   0   0   0   0   0   0   0   0   0   0   0   0   0   0   0 
  0   0   0   0   0   0   0   0   0   0   0   0   0   0   0   0   0   0 
  0   0   0   0   0   0   0   0   0   0   0   0   0   0   0   0   0 103 
103   0   0   0   0   0   0   0   0   0   0   0   0   0   0   0   0   0 
  0   0   0   0   0   0   0   0   0   0   0   0   0   0   1   2   2   1 
  0   5  21  86   6   3   0   2   4   2   1   1   0   0   0   0   0   0 
  0   0   1   4   3   2   7  26   4  25  12   2   0   8  69  85   2   1 
  0   2   2  22  13  16  14   4   0   0   1   2   0  12  93 115  37   6 
  4   2  36  96  77   7  15   0   2  31  22  12   3   1   0   1   3   7 
  6  15  11  16   1   1   2   0  13  17   0   1   1   3   0   0   0   3 
  6   5   8  11   1   1   0  27   3  29   4   1   3   2   0   7   1   2 
 10  19   1  30  49 107   8   8   4  12  68  36  83   3  11  11  17   1 
  2   3  16  72  87   0   0   0   2   3  46  23  20   8  11   1   2   0 
  0   0   1   2   0   0   0   0   0   0   0   0   0   0   0   0   0   0 
  0   0   0   0   0   0   0   0   0   0   0   0   0   0   0   0   0   0 
  0   0   0   0   0   0   0   0   0   0   0   0   0   0   0   0   0   0 
  0   0   0   0   0   0   0   0   0   0   0   0   0   0   0   0   0   0 
  0   0   0   0   0   0   0   0   0   0   0   0   0   0   0   0   0   0 
  0   0   0   0   0   0   0   0   0   0   0   0   0   0   0   0   0   0 
  0   0   0   0   0   0   0   0   0   0   0   0   0   0   0   0   0   0 
  0   0   0   0   0   0   0   0   0   0   0   0   0   0   0   0   0   0 
  0   0   0   0   0   0   0   0   0   0   0   0   0   0   0   0   0   0 
  0   0   0   0   0   0   0   0   0   0   0   0   0   0   0   0   0 103 
103   0   0   0   0   0   0   0   0   0   0   0   0   0   0   0   0   0 
  0   0   0   0   0   0   0   0   0   0   0   0   0   0   1   1   1   1 
  1   0  12  25  61   4   1   1   1   1   0   1   0   0   0   0   0   0 
  0   0   1   2   2   3   2   0  11  21   4  35   8  24  19  43   0   2 
  2   2   0  92  62   1  12   1   0   1   1   2   0   0  14  85   5  88 
 89 102  21  87  14   4   0   3  34  27   9   0   5   2   1   8   9  19 
  6  17   6   0   0   1   2   2  19  21   0   1   0   1   1   1   1   8 
  7   6   9  11   0   1   0   2  15  25  26  18   4   4   0   2   9   3 
  5   3  19   2  49  60  98 100  95  63  51  59   6  14  12  21   1   1 
  0   1   1  66  44  41   2   1   2   3   8  67  60  10  12   0   0   0 
  0   0   1   1   0   0   0   0   0   0   0   0   0   0   0   0   0   0 
  0   0   0   0   0   0   0   0   0   0   0   0   0   0   0   0   0   0 
  0   0   0   0   0   0   0   0   0   0   0   0   0   0   0   0   0   0 
  0   0   0   0   0   0   0   0   0   0   0   0   0   0   0   0   0   0 
  0   0   0   0   0   0   0   0   0   0   0   0   0   0   0   0   0   0 
  0   0   0   0   0   0   0   0   0   0   0   0   0   0   0   0   0   0 
  0   0   0   0   0   0   0   0   0   0   0   0   0   0   0   0   0   0 
  0   0   0   0   0   0   0   0   0   0   0   0   0   0   0   0   0   0 
  0   0   0   0   0   0   0   0   0   0   0   0   0   0   0   0   0   0 
  0   0   0   0   0   0   0   0   0   0   0   0   0   0   0   0   0 103 
103   0   0   0   0   0   0   0   0   0   0   0   0   0   0   0   0   0 
  0   0   0   0   0   0   0   0   0   0   0   0   0   0   2   1   1   1 
  1   1   2  16  53  44  18   1   0   2   2   1   0   0   0   0   0   0 
  0   1   3   1   0   0   2   0   2   1  10  35   8  63  40  10   0   0 
  2   0  53  43  21  32   5   0   1   1   1   1   1   1   1   4  35  68 
 70  74  41   4   0   1   6  29  27   8   2   0   2   9  22  11   0  23 
 10   2   1   0   0   2   1   2  17  21   4   1   0   0   3   3   3   2 
  2  12   4   4   1   1   1   1   0   5  27   3  24  17   3   2   4   3 
  1   8   5  20   1  23  73  83  60  48   4  17  17   0  19   1   0   1 
  1   0   1   2 121 104   3   4   3   1   3  57  58  12  19   1   0   0 
  0   0   1   0   0   0   0   0   0   0   0   0   0   0   0   0   0   0 
  0   0   0   0   0   0   0   0   0   0   0   0   0   0   0   0   0   0 
  0   0   0   0   0   0   0   0   0   0   0   0   0   0   0   0   0   0 
  0   0   0   0   0   0   0   0   0   0   0   0   0   0   0   0   0   0 
  0   0   0   0   0   0   0   0   0   0   0   0   0   0   0   0   0   0 
  0   0   0   0   0   0   0   0   0   0   0   0   0   0   0   0   0   0 
  0   0   0   0   0   0   0   0   0   0   0   0   0   0   0   0   0   0 
  0   0   0   0   0   0   0   0   0   0   0   0   0   0   0   0   0   0 
  0   0   0   0   0   0   0   0   0   0   0   0   0   0   0   0   0   0 
  0   0   0   0   0   0   0   0   0   0   0   0   0   0   0   0   0 103 
103   0   0   0   0   0   0   0   0   0   0   0   0   0   0   0   0   0 
  0   0   0   0   0   0   0   0   0   0   0   0   0   0   0   0   1   1 
  0   0   1   1   4  55  29  25   4   2   2   1   0   0   0   0   0   0 
  0   0   2   3   1   0   0   1   2   2   1   2   8  22  39   0   0   1 
  3  20  56  54   3  13   3  23  14  12  11   6   7   5   4   0   2   2 
  2   2   3   3   4  13  27  33   1   2  11  15  29   4  21  16  10   2 
  1   2   2   0   0   0   0   0   3  29  37   5   1   1   2   2  10   5 
  1  23  18   1   0   1   2   0   0   1   1  10  27   6  34  12  11   3 
  2   9   1   4  19   1   1   3   8  11  14  12  14   8   1   1   0   0 
  1   1   1   3  26  49  93   1   2   2   1  39  29  12   6   6   0   0 
  0   0   0   0   0   0   0   0   0   0   0   0   0   0   0   0   0   0 
  0   0   0   0   0   0   0   0   0   0   0   0   0   0   0   0   0   0 
  0   0   0   0   0   0   0   0   0   0   0   0   0   0   0   0   0   0 
  0   0   0   0   0   0   0   0   0   0   0   0   0   0   0   0   0   0 
  0   0   0   0   0   0   0   0   0   0   0   0   0   0   0   0   0   0 
  0   0   0   0   0   0   0   0   0   0   0   0   0   0   0   0   0   0 
  0   0   0   0   0   0   0   0   0   0   0   0   0   0   0   0   0   0 
  0   0   0   0   0   0   0   0   0   0   0   0   0   0   0   0   0   0 
  0   0   0   0   0   0   0   0   0   0   0   0   0   0   0   0   0   0 
  0   0   0   0   0   0   0   0   0   0   0   0   0   0   0   0   0 103 
103   0   0   0   0   0   0   0   0   0   0   0   0   0   0   0   0   0 
  0   0   0   0   0   0   0   0   0   0   0   0   0   0   0   0   1   1 
  0   0   1   2   1   1  44   8  36   1   2   1   0   0   0   0   0   0 
  0   0   2   2   2   1   1   1   0   2   1   3  18  15  23   2   2   1 
  9  65 108  19   5   1   7  20  10   7   7   0   4   5   9  11  14  13 
 16  13  10  14  14  10  35  14  25  23   2  11  25  13   4   1   1   1 
  1   0   0   0   2   1   1   2   3  12  10  35   5   0   6  11   3   3 
 26  22   3   1   0   1   3   1   1   1   0   0   1  10  27   5   2  23 
 21   9  12  10   6  24   0   0   1   1   2   2   1   1   1   1   1   1 
  1   2   0   2   1  71  18  53   2   1   0   6  80  88  21  16   0   0 
  2   0   0   0   0   0   0   0   0   0   0   0   0   0   0   0   0   0 
  0   0   0   0   0   0   0   0   0   0   0   0   0   0   0   0   0   0 
  0   0   0   0   0   0   0   0   0   0   0   0   0   0   0   0   0   0 
  0   0   0   0   0   0   0   0   0   0   0   0   0   0   0   0   0   0 
  0   0   0   0   0   0   0   0   0   0   0   0   0   0   0   0   0   0 
  0   0   0   0   0   0   0   0   0   0   0   0   0   0   0   0   0   0 
  0   0   0   0   0   0   0   0   0   0   0   0   0   0   0   0   0   0 
  0   0   0   0   0   0   0   0   0   0   0   0   0   0   0   0   0   0 
  0   0   0   0   0   0   0   0   0   0   0   0   0   0   0   0   0   0 
  0   0   0   0   0   0   0   0   0   0   0   0   0   0   0   0   0 103 
103   0   0   0   0   0   0   0   0   0   0   0   0   0   0   0   0   0 
  0   0   0   0   0   0   0   0   0   0   0   0   0   0   0   0   1   1 
  0   0   1   2   1   0   1  40   6  30   2   1   0   0   0   0   0   0 
  0   0   1   2   1   1   1   2   1   1   0   1  49  55   1   2   2   0 
 49  41  20   6   6  19  17  17  14  12  12  10   7   3   4   2   2   1 
  0   1   5  10  24  36  11   0  25  21  11   7   1   1   2   1   2   1 
  0   0   0   0   0   1   1   1   2   0  14  23  25  21  12   4  15  11 
 25   3   1   1   0   0   1   0   1   1   1   0   1   2   1   8  12  21 
 26  12  15  27  23  23  21   2   2   2   1   1   0   1   0   0   0   1 
  0   0   1   3   2   0 104  97  23   0   2   0  56  31   4  14   1   0 
  0   0   0   0   0   0   0   0   0   0   0   0   0   0   0   0   0   0 
  0   0   0   0   0   0   0   0   0   0   0   0   0   0   0   0   0   0 
  0   0   0   0   0   0   0   0   0   0   0   0   0   0   0   0   0   0 
  0   0   0   0   0   0   0   0   0   0   0   0   0   0   0   0   0   0 
  0   0   0   0   0   0   0   0   0   0   0   0   0   0   0   0   0   0 
  0   0   0   0   0   0   0   0   0   0   0   0   0   0   0   0   0   0 
  0   0   0   0   0   0   0   0   0   0   0   0   0   0   0   0   0   0 
  0   0   0   0   0   0   0   0   0   0   0   0   0   0   0   0   0   0 
  0   0   0   0   0   0   0   0   0   0   0   0   0   0   0   0   0   0 
  0   0   0   0   0   0   0   0   0   0   0   0   0   0   0   0   0 103 
103   0   0   0   0   0   0   0   0   0   0   0   0   0   0   0   0   0 
  0   0   0   0   0   0   0   0   0   0   0   0   0   0   0   0   0   0 
  0   0   2   1   0   0   1   1  40  13  29   1   0   0   0   0   0   0 
  0   1   2   1   0   1   0   2   1   0   2  14  12  25   0   0   2  50 
 23  19   0   6  14  16  20  15  14  14  14  13  12  10  11  11  13  13 
 15  12  51  35  15  26  15  11   1   1   1   2   1   2   1   0   0   0 
  0   0   2   0   0   2   1   1   2   1   2   5  18  18  16  15  12  10 
  1   3   0   1   0   2   0   0   2   1   2   1   2   1   2   1   1   1 
  1  15  17  18  12  11  31   7   2   2   1   1   2   1   0   0   0   2 
  0   0   0   2   3   1   5 124 116  10   0   2  15  48  47   1   8   1 
  0   0   0   0   0   0   0   0   0   0   0   0   0   0   0   0   0   0 
  0   0   0   0   0   0   0   0   0   0   0   0   0   0   0   0   0   0 
  0   0   0   0   0   0   0   0   0   0   0   0   0   0   0   0   0   0 
  0   0   0   0   0   0   0   0   0   0   0   0   0   0   0   0   0   0 
  0   0   0   0   0   0   0   0   0   0   0   0   0   0   0   0   0   0 
  0   0   0   0   0   0   0   0   0   0   0   0   0   0   0   0   0   0 
  0   0   0   0   0   0   0   0   0   0   0   0   0   0   0   0   0   0 
  0   0   0   0   0   0   0   0   0   0   0   0   0   0   0   0   0   0 
  0   0   0   0   0   0   0   0   0   0   0   0   0   0   0   0   0   0 
  0   0   0   0   0   0   0   0   0   0   0   0   0   0   0   0   0 103 
103   0   0   0   0   0   0   0   0   0   0   0   0   0   0   0   0   0 
  0   0   0   0   0   0   0   0   0   0   0   0   0   0   0   0   0   0 
  0   0   0   0   0   1   2   0   1  47  29  13   2   0   2   1   1   2 
  3   2   1   0   1   1   2   0   3   1   2  34  23   8   2   0  43   6 
 33   1   2   1   0   2   0   2   2   2   2   5   0   7   2   6   0   1 
 22  48   7  35   9   1   1   0   0   0   0   0   0   0   0   0   0   0 
  0   0   0   0   0   0   0   0   0   0   0   0   0   0   0   0   0   0 
  0   1   0   0   0   0   0   0   0   0   0   0   0   0   0   0   0   0 
  0   0   1   2   4  10  10   1   0   0   0   0   1   0   0   0   0   0 
  0   0   0   0   1   0   2  15 106 126   7   0   0  69  80   8  15   3 
  0   1   0   0   0   0   0   0   0   0   0   0   0   0   0   0   0   0 
  0   0   0   0   0   0   0   0   0   0   0   0   0   0   0   0   0   0 
  0   0   0   0   0   0   0   0   0   0   0   0   0   0   0   0   0   0 
  0   0   0   0   0   0   0   0   0   0   0   0   0   0   0   0   0   0 
  0   0   0   0   0   0   0   0   0   0   0   0   0   0   0   0   0   0 
  0   0   0   0   0   0   0   0   0   0   0   0   0   0   0   0   0   0 
  0   0   0   0   0   0   0   0   0   0   0   0   0   0   0   0   0   0 
  0   0   0   0   0   0   0   0   0   0   0   0   0   0   0   0   0   0 
  0   0   0   0   0   0   0   0   0   0   0   0   0   0   0   0   0   0 
  0   0   0   0   0   0   0   0   0   0   0   0   0   0   0   0   0 103 
103   0   0   0   0   0   0   0   0   0   0   0   0   0   2   1   2   0 
  0   0   0   0   0   0   0   0   0   0   0   0   0   0   0   0   0   0 
  0   0   0   0   1   1   1   2   4   2  57  54   2   1   0   1   2   3 
  2   0   1   1   1   1   2   1   4   2   6  46  44   2   4  47  17  33 
  2   1   2   0   0   2   1   2   3   2   2   2   4   1   2   1  15  46 
 11  55  14   1   0   1   0   0   0   0   0   0   0   0   0   0   0   0 
  0   0   0   0   0   0   0   0   0   0   0   0   0   0   0   0   0   0 
  0   0   0   0   0   0   0   0   0   0   0   0   0   0   0   0   0   0 
  0   0   0   0   0   0   0   0   0   0   0   0   0   0   0   0   0   0 
  0   0   0   0   0   0   2   3  18 124 131   9   3  23  46  48  17   3 
  0   0   0   0   0   0   0   0   0   0   0   0   0   0   0   0   0   0 
  0   0   0   0   0   0   0   0   0   0   0   0   0   0   0   0   0   0 
  0   0   0   0   0   0   0   0   0   0   0   0   0   0   0   0   0   0 
  0   0   0   0   0   0   0   0   0   0   0   0   0   0   0   0   0   0 
  0   0   0   0   0   0   0   0   0   0   0   0   0   0   0   0   0   0 
  0   0   0   0   0   0   0   0   0   0   0   0   0   0   0   0   0   0 
  0   0   0   0   0   0   0   0   0   0   0   0   0   0   0   0   0   0 
  0   0   0   0   0   0   0   0   0   0   0   0   0   0   0   0   0   0 
  0   0   0   0   0   0   0   0   0   0   0   0   0   0   0   0   0   0 
  0   0   0   0   0   0   0   0   0   0   0   0   0   0   0   0   0 103 
103   0   0   0   0   0   0   0   0   0   1   5   1   0   1   0   1   0 
  0   0   2   0   0   0   0   0   0   0   0   0   0   0   0   0   0   0 
  0   0   0   0   1   0   0   0   1   2   5  50  52   2   4   2   1   2 
  1   0   1   4   4   0  21  14   5   2  40  46   6   2  59  17  31   2 
  0   1   3   2   0   4   2   1   2   2   2   0   0   3  20  54   4  35 
 27   2   1   2   4   2   0   0   0   0   0   0   0   0   0   0   0   0 
  0   0   0   0   0   0   0   0   0   0   0   0   0   0   0   0   0   0 
  0   0   0   0   0   0   0   0   0   0   0   0   0   0   0   0   0   0 
  0   0   0   0   0   0   0   0   0   0   0   0   0   0   0   0   0   0 
  0   0   0   0   0   0   1   0   1  18 104 111  29   6  77  53   1  12 
  1   0   0   2   0   0   0   0   0   0   0   0   0   0   0   0   0   0 
  0   0   0   0   0   0   0   0   0   0   0   0   0   0   0   0   0   0 
  0   0   0   0   0   0   0   0   0   0   0   0   0   0   0   0   0   0 
  0   0   0   0   0   0   0   0   0   0   0   0   0   0   0   0   0   0 
  0   0   0   0   0   0   0   0   0   0   0   0   0   0   0   0   0   0 
  0   0   0   0   0   0   0   0   0   0   0   0   0   0   0   0   0   0 
  0   0   0   0   0   0   0   0   0   0   0   0   0   0   0   0   0   0 
  0   0   0   0   0   0   0   0   0   0   0   0   0   0   0   0   0   0 
  0   0   0   0   0   0   0   0   0   0   0   0   0   0   0   0   0   0 
  0   0   0   0   0   0   0   0   0   0   0   0   0   0   0   0   0 103 
103   0   0   0   0   0   0   0   0   1   5   1  15   2   2   1   2   0 
  0   0   0   0   0   0   0   0   0   0   0   0   0   0   0   0   0   0 
  0   0   0   0   1   1   0   0   1   0   1  19  17  38   0   0   0   0 
  1   0   0   0   2   4  43   2  19  19  26  31  19  58  36  29   2   4 
  0   1   0   1   2   1   2   3   0   4  12  29  31  38   4  54  21   2 
  1   0   0   1   0   1   0   0   0   0   0   0   0   0   0   0   0   0 
  0   0   0   0   0   0   0   0   0   0   0   0   0   0   0   0   0   0 
  0   0   0   0   0   0   0   0   0   0   0   0   0   0   0   0   0   0 
  0   0   0   0   0   0   0   0   0   0   0   0   0   0   0   0   0   0 
  0   0   0   0   0   0   1   1   1   0  11 131  89  65  13  36  43  13 
  0   1   0   0   0   0   0   0   0   0   0   0   0   0   0   0   0   0 
  0   0   0   0   0   0   0   0   0   0   0   0   0   0   0   0   0   0 
  0   0   0   0   0   0   0   0   0   0   0   0   0   0   0   0   0   0 
  0   0   0   0   0   0   0   0   0   0   0   0   0   0   0   0   0   0 
  0   0   0   0   0   0   0   0   0   0   0   0   0   0   0   0   0   0 
  0   0   0   0   0   0   0   0   0   0   0   0   0   0   0   0   0   0 
  0   0   0   0   0   0   0   0   0   0   0   0   0   0   0   0   0   0 
  0   0   0   0   0   0   0   0   0   0   0   0   0   0   0   0   0   0 
  0   0   0   0   0   0   0   0   0   0   0   0   0   0   0   0   0   0 
  0   0   0   0   0   0   0   0   0   0   0   0   0   0   0   0   0 103 
103   0   0   0   0   0   0   0   0   4  12  26  14  23   8   0   1   0 
  2   0   0   0   0   0   0   0   0   0   0   0   0   0   0   0   0   0 
  0   0   0   0   1   1   1   0   1   1   0   3  37  14  12   0   0   2 
  3   0   0   3   4  19  22  12   2 145  59  74  47  35  31  35  29  27 
 21  19  21  21  23  24  27  33  42  34  12  23  30  33  19   1   1   2 
  0   1   1   1   1   1   0   0   0   0   0   0   0   0   0   0   0   0 
  0   0   0   0   0   0   0   0   0   0   0   0   0   0   0   0   0   0 
  0   0   0   0   0   0   0   0   0   0   0   0   0   0   0   0   0   0 
  0   0   0   0   0   0   0   0   0   0   0   0   0   0   0   0   0   0 
  0   0   0   0   0   0   2   1   0   0   0   2  95  26 112  91  63  20 
  8   1   1   0   0   0   0   0   0   0   0   0   0   0   0   0   0   0 
  0   0   0   0   0   0   0   0   0   0   0   0   0   0   0   0   0   0 
  0   0   0   0   0   0   0   0   0   0   0   0   0   0   0   0   0   0 
  0   0   0   0   0   0   0   0   0   0   0   0   0   0   0   0   0   0 
  0   0   0   0   0   0   0   0   0   0   0   0   0   0   0   0   0   0 
  0   0   0   0   0   0   0   0   0   0   0   0   0   0   0   0   0   0 
  0   0   0   0   0   0   0   0   0   0   0   0   0   0   0   0   0   0 
  0   0   0   0   0   0   0   0   0   0   0   0   0   0   0   0   0   0 
  0   0   0   0   0   0   0   0   0   0   0   0   0   0   0   0   0   0 
  0   0   0   0   0   0   0   0   0   0   0   0   0   0   0   0   0 103 
103   0   0   0   0   0   0   0   1   7   0   7   7  21   5  20   2   1 
  0   0   0   0   0   0   0   0   0   0   0   0   0   0   0   0   0   0 
  0   0   0   0   1   0   0   0   1   1   0   2   0  44  53   2   0   1 
  1   1   0   2   0  17   9   7  29  37 137  23  85  33  38  29  23  19 
  4   4   6   4   6   9  14  22  41  33  22  10   2   1   1   1   0   1 
  1   1   0   1   1   1   0   0   0   0   0   0   0   0   0   0   0   0 
  0   0   0   0   0   0   0   0   0   0   0   0   0   0   0   0   0   0 
  0   0   0   0   0   0   0   0   0   0   0   0   0   0   0   0   0   0 
  0   0   0   0   0   0   0   0   0   0   0   0   0   0   0   0   0   0 
  0   0   0   0   0   0   0   0   0   0   1   0   0  51  70  73 162  39 
 23   1   0   0   0   0   0   0   0   0   0   0   0   0   0   0   0   0 
  0   0   0   0   0   0   0   0   0   0   0   0   0   0   0   0   0   0 
  0   0   0   0   0   0   0   0   0   0   0   0   0   0   0   0   0   0 
  0   0   0   0   0   0   0   0   0   0   0   0   0   0   0   0   0   0 
  0   0   0   0   0   0   0   0   0   0   0   0   0   0   0   0   0   0 
  0   0   0   0   0   0   0   0   0   0   0   0   0   0   0   0   0   0 
  0   0   0   0   0   0   0   0   0   0   0   0   0   0   0   0   0   0 
  0   0   0   0   0   0   0   0   0   0   0   0   0   0   0   0   0   0 
  0   0   0   0   0   0   0   0   0   0   0   0   0   0   0   0   0   0 
  0   0   0   0   0   0   0   0   0   0   0   0   0   0   0   0   0 103 
103   0   0   0   0   0   0   0   2  15  15   3   3   0  11  24  18  15 
  6   0   0   1   0   0   0   0   0   0   0   0   0   0   0   0   0   0 
  0   0   0   0   0   0   3   0   1   0   0   0   1  16  17  31   2   2 
  2   2   3   4   4   6  15  62  52  68  94  32   1   3   8  20  16  13 
 32  29  22  16  14  12  11   5   1   1   0   1   2   3   1   1   1   2 
  2   1   0   0   0   1   0   0   0   0   0   0   0   0   0   0   0   0 
  0   0   0   0   0   0   0   0   0   0   0   0   0   0   0   0   0   0 
  0   0   0   0   0   0   0   0   0   0   0   0   0   0   0   0   0   0 
  0   0   0   0   0   0   0   0   0   0   0   0   0   0   0   0   0   0 
  0   0   0   0   0   0   0   0   0   0   1   1   1   1  23  68  10  37 
  6   8   0   1   0   0   0   0   0   0   0   0   0   0   0   0   0   0 
  0   0   0   0   0   0   0   0   0   0   0   0   0   0   0   0   0   0 
  0   0   0   0   0   0   0   0   0   0   0   0   0   0   0   0   0   0 
  0   0   0   0   0   0   0   0   0   0   0   0   0   0   0   0   0   0 
  0   0   0   0   0   0   0   0   0   0   0   0   0   0   0   0   0   0 
  0   0   0   0   0   0   0   0   0   0   0   0   0   0   0   0   0   0 
  0   0   0   0   0   0   0   0   0   0   0   0   0   0   0   0   0   0 
  0   0   0   0   0   0   0   0   0   0   0   0   0   0   0   0   0   0 
  0   0   0   0   0   0   0   0   0   0   0   0   0   0   0   0   0   0 
  0   0   0   0   0   0   0   0   0   0   0   0   0   0   0   0   0 103 
103   0   0   0   0   0   0   0  29  74  17   3   2   0   0   0  19  12 
  4  21   8   1   1   0   0   0   0   0   0   0   0   0   0   0   0   0 
  0   0   0   0   0   0   0   1   1   2   0   0   0   1  41  33   3   2 
  1   2   1   0   1  29  50  25 153  70  15   3   2   9   9  15  15  12 
 18  17   3  14   0   1   0   1   0   0   0   0   0   1   0   2   1   2 
  1   0   0   0   0   2   0   0   0   0   0   0   0   0   0   0   0   0 
  0   0   0   0   0   0   0   0   0   0   0   0   0   0   0   0   0   0 
  0   0   0   0   0   0   0   0   0   0   0   0   0   0   0   0   0   0 
  0   0   0   0   0   0   0   0   0   0   0   0   0   0   0   0   0   0 
  0   0   0   0   0   0   0   0   0   0   0   1   0   1   1   5  27   1 
 39  21   0   1   0   0   0   0   0   0   0   0   0   0   0   0   0   0 
  0   0   0   0   0   0   0   0   0   0   0   0   0   0   0   0   0   0 
  0   0   0   0   0   0   0   0   0   0   0   0   0   0   0   0   0   0 
  0   0   0   0   0   0   0   0   0   0   0   0   0   0   0   0   0   0 
  0   0   0   0   0   0   0   0   0   0   0   0   0   0   0   0   0   0 
  0   0   0   0   0   0   0   0   0   0   0   0   0   0   0   0   0   0 
  0   0   0   0   0   0   0   0   0   0   0   0   0   0   0   0   0   0 
  0   0   0   0   0   0   0   0   0   0   0   0   0   0   0   0   0   0 
  0   0   0   0   0   0   0   0   0   0   0   0   0   0   0   0   0   0 
  0   0   0   0   0   0   0   0   0   0   0   0   0   0   0   0   0 103 
103   0   0   1   0   0   0  28  12 108  82  42   3   0   3   3   2   4 
 10  22   5  13  15   8   1   2   1   1   0   0   1   2   0   0   0   1 
  0   0   0   0   1   3   1   1   2   1   0   0   0   0  14  15  29   1 
  2   2   1  29  48   8  68 109  75   2  12   2  12  44  15  12  12  21 
  6   2  17   2  15   1   2   1   0   0   0   0   0   0   0   0   0   0 
  0   0   0   0   0   0   0   0   0   0   0   0   0   0   0   0   0   0 
  0   0   0   0   0   0   0   0   0   0   0   0   0   0   0   0   0   0 
  0   0   0   0   0   0   0   0   0   0   0   0   0   0   0   0   0   0 
  0   0   0   0   0   0   0   0   0   0   0   0   0   0   0   0   0   0 
  0   0   0   0   0   0   0   0   0   0   0   0   0   0   0   0   2  15 
  2  17   6   0   0   0   0   0   0   0   0   0   0   0   0   0   0   0 
  0   0   0   0   0   0   0   0   0   0   0   0   0   0   0   0   0   0 
  0   0   0   0   0   0   0   0   0   0   0   0   0   0   0   0   0   0 
  0   0   0   0   0   0   0   0   0   0   0   0   0   0   0   0   0   0 
  0   0   0   0   0   0   0   0   0   0   0   0   0   0   0   0   0   0 
  0   0   0   0   0   0   0   0   0   0   0   0   0   0   0   0   0   0 
  0   0   0   0   0   0   0   0   0   0   0   0   0   0   0   0   0   0 
  0   0   0   0   0   0   0   0   0   0   0   0   0   0   0   0   0   0 
  0   0   0   0   0   0   0   0   0   0   0   0   0   0   0   0   0   0 
  0   0   0   0   0   0   0   0   0   0   0   0   0   0   0   0   0 103 
103   0   0   1   0   0   0  65  72  37  78  15 102  23   0   1   1   4 
  0   1   9  13  17   2  21  15   8   2   5   2   2   1   1   1   1   1 
  0   0   2   1   0   1   0   0   0   0   2   6   6  11  17  54  39   4 
  7  30  64  19  48  23  31   4  48  21  19  11  26  54  15  16  19  25 
 19  14   2  15   0  10   3   0   0   0   0   0   0   0   0   0   0   0 
  0   0   0   0   0   0   0   0   0   0   0   0   0   0   0   0   0   0 
  0   0   0   0   0   0   0   0   0   0   0   0   0   0   0   0   0   0 
  0   0   0   0   0   0   0   0   0   0   0   0   0   0   0   0   0   0 
  0   0   0   0   0   0   0   0   0   0   0   0   0   0   0   0   0   0 
  0   0   0   0   0   0   0   0   0   0   0   0   0   0   0   0   0   0 
  4   4   1   0   0   0   0   0   0   0   0   0   0   0   0   0   0   0 
  0   0   0   0   0   0   0   0   0   0   0   0   0   0   0   0   0   0 
  0   0   0   0   0   0   0   0   0   0   0   0   0   0   0   0   0   0 
  0   0   0   0   0   0   0   0   0   0   0   0   0   0   0   0   0   0 
  0   0   0   0   0   0   0   0   0   0   0   0   0   0   0   0   0   0 
  0   0   0   0   0   0   0   0   0   0   0   0   0   0   0   0   0   0 
  0   0   0   0   0   0   0   0   0   0   0   0   0   0   0   0   0   0 
  0   0   0   0   0   0   0   0   0   0   0   0   0   0   0   0   0   0 
  0   0   0   0   0   0   0   0   0   0   0   0   0   0   0   0   0   0 
  0   0   0   0   0   0   0   0   0   0   0   0   0   0   0   0   0 103 
103   2   1   1   1   0   2  85  96   4   1  39  78  19  79  36   4   2 
  4   3   1   2   2  11  20  13   0   8   5  14  18  13   8   6   6   6 
  3   3   3   2   5   7   7  12  15  16  13   4   3   7  16  12  42  41 
 29  10  57  20   0   6  75  55  12  16  15  49  59   0   1   1   1   1 
 27   3  21   1  21  20   3   3   1   0   0   0   0   0   0   0   0   0 
  0   0   0   0   0   0   0   0   0   0   0   0   0   0   0   0   0   0 
  0   0   0   0   0   0   0   0   0   0   0   0   0   0   0   0   0   0 
  0   0   0   0   0   0   0   0   0   0   0   0   0   0   0   0   0   0 
  0   0   0   0   0   0   0   0   0   0   0   0   0   0   0   0   0   0 
  0   0   0   0   0   0   0   0   0   0   0   0   0   0   0   0   0   0 
  0   1   2   0   0   0   0   0   0   0   0   0   0   0   0   0   0   0 
  0   0   0   0   0   0   0   0   0   0   0   0   0   0   0   0   0   0 
  0   0   0   0   0   0   0   0   0   0   0   0   0   0   0   0   0   0 
  0   0   0   0   0   0   0   0   0   0   0   0   0   0   0   0   0   0 
  0   0   0   0   0   0   0   0   0   0   0   0   0   0   0   0   0   0 
  0   0   0   0   0   0   0   0   0   0   0   0   0   0   0   0   0   0 
  0   0   0   0   0   0   0   0   0   0   0   0   0   0   0   0   0   0 
  0   0   0   0   0   0   0   0   0   0   0   0   0   0   0   0   0   0 
  0   0   0   0   0   0   0   0   0   0   0   0   0   0   0   0   0   0 
  0   0   0   0   0   0   0   0   0   0   0   0   0   0   0   0   0 103 
103   1   0   1   1   1  14  49  64   0   0   0   4  37  93   3  81  48 
 29   2   2   2   1   2   1   3   7   9  12  14  21   9   2   4   6   2 
 13  10  15   7   7   3   1   9  17  17  15  15   5  25  47  77  41  71 
 39  16   0   0   3  65  64   7  18  18  39  25  11   0   1   1   0   0 
  1  22   2  14   8   7  10   1   0   0   0   0   0   0   0   0   0   0 
  0   0   0   0   0   0   0   0   0   0   0   0   0   0   0   0   0   0 
  0   0   0   0   0   0   0   0   0   0   0   0   0   0   0   0   0   0 
  0   0   0   0   0   0   0   0   0   0   0   0   0   0   0   0   0   0 
  0   0   0   0   0   0   0   0   0   0   0   0   0   0   0   0   0   0 
  0   0   0   0   0   0   0   0   0   0   0   0   0   0   0   0   0   0 
  0   0   0   0   0   0   0   0   0   0   0   0   0   0   0   0   0   0 
  0   0   0   0   0   0   0   0   0   0   0   0   0   0   0   0   0   0 
  0   0   0   0   0   0   0   0   0   0   0   0   0   0   0   0   0   0 
  0   0   0   0   0   0   0   0   0   0   0   0   0   0   0   0   0   0 
  0   0   0   0   0   0   0   0   0   0   0   0   0   0   0   0   0   0 
  0   0   0   0   0   0   0   0   0   0   0   0   0   0   0   0   0   0 
  0   0   0   0   0   0   0   0   0   0   0   0   0   0   0   0   0   0 
  0   0   0   0   0   0   0   0   0   0   0   0   0   0   0   0   0   0 
  0   0   0   0   0   0   0   0   0   0   0   0   0   0   0   0   0   0 
  0   0   0   0   0   0   0   0   0   0   0   0   0   0   0   0   0 103 
103   2   0   0   1   1  23  28  56   4   3   2   1   1   1  38  64  43 
  9  87  55  19  12   2   1   2   1   2   1   1   1   2   7   9   9  11 
 14  14  15  13  13   8   9   4   8  13  28  66  77   4  40  63  50   2 
  2   1   0   6  66  32  13  15  18  13  40  33   6   2   2   0   0   0 
  0   1  25  23   2  18  14   0   0   0   0   0   0   0   0   0   0   0 
  0   0   0   0   0   0   0   0   0   0   0   0   0   0   0   0   0   0 
  0   0   0   0   0   0   0   0   0   0   0   0   0   0   0   0   0   0 
  0   0   0   0   0   0   0   0   0   0   0   0   0   0   0   0   0   0 
  0   0   0   0   0   0   0   0   0   0   0   0   0   0   0   0   0   0 
  0   0   0   0   0   0   0   0   0   0   0   0   0   0   0   0   2   0 
  0   0   0   0   0   0   0   0   0   0   0   0   0   0   0   0   0   0 
  0   0   0   0   0   0   0   0   0   0   0   0   0   0   0   0   0   0 
  0   0   0   0   0   0   0   0   0   0   0   0   0   0   0   0   0   0 
  0   0   0   0   0   0   0   0   0   0   0   0   0   0   0   0   0   0 
  0   0   0   0   0   0   0   0   0   0   0   0   0   0   0   0   0   0 
  0   0   0   0   0   0   0   0   0   0   0   0   0   0   0   0   0   0 
  0   0   0   0   0   0   0   0   0   0   0   0   0   0   0   0   0   0 
  0   0   0   0   0   0   0   0   0   0   0   0   0   0   0   0   0   0 
  0   0   0   0   0   0   0   0   0   0   0   0   0   0   0   0   0   0 
  0   0   0   0   0   0   0   0   0   0   0   0   0   0   0   0   0 103 
103   0   0   0   1   0  29  13  48   1   0   1   1   1   2   0   1  14 
 39  89  33  34  46  54  61  41  25  10   3   4   1   0   2   1   4   1 
  2   2   3   5  19  31  55  59  45  47  13  50  82  37  12   3   3   1 
  1   1   4  51  15  36   1  26  25  15  34  18   9   2   1   1   0   1 
  2   2  10   3  11  12  11   1   0   0   0   0   0   0   0   0   0   0 
  0   0   0   0   0   0   0   0   0   0   0   0   0   0   0   0   0   0 
  0   0   0   0   0   0   0   0   0   0   0   0   0   0   0   0   0   0 
  0   0   0   0   0   0   0   0   0   0   0   0   0   0   0   0   0   0 
  0   0   0   0   0   0   0   0   0   0   0   0   0   0   0   0   0   0 
  0   0   0   0   0   0   0   0   0   0   0   0   0   0   0   0   0   0 
  0   0   0   0   0   0   0   0   0   0   0   0   0   0   0   0   0   0 
  0   0   0   0   0   0   0   0   0   0   0   0   0   0   0   0   0   0 
  0   0   0   0   0   0   0   0   0   0   0   0   0   0   0   0   0   0 
  0   0   0   0   0   0   0   0   0   0   0   0   0   0   0   0   0   0 
  0   0   0   0   0   0   0   0   0   0   0   0   0   0   0   0   0   0 
  0   0   0   0   0   0   0   0   0   0   0   0   0   0   0   0   0   0 
  0   0   0   0   0   0   0   0   0   0   0   0   0   0   0   0   0   0 
  0   0   0   0   0   0   0   0   0   0   0   0   0   0   0   0   0   0 
  0   0   0   0   0   0   0   0   0   0   0   0   0   0   0   0   0   0 
  0   0   0   0   0   0   0   0   0   0   0   0   0   0   0   0   0 103 
103   0   0   0   1   0  33  27  48   1   1   0   1   1   2   0   1   0 
  0   4  18  45  51  54  64  11  11  54  83  64  60  53  56  49  54  55 
 60  62  77  63  30   6  46  61  49  49  37  12   3   2   0   2   0   2 
  1   5  61  13  39   2   1  21  20  11  15  27  39   4   2   2   3   4 
  2   0   4  21  19  24  15   0   0   0   0   0   0   0   0   0   0   0 
  0   0   0   0   0   0   0   0   0   0   0   0   0   0   0   0   0   0 
  0   0   0   0   0   0   0   0   0   0   0   0   0   0   0   0   0   0 
  0   0   0   0   0   0   0   0   0   0   0   0   0   0   0   0   0   0 
  0   0   0   0   0   0   0   0   0   0   0   0   0   0   0   0   0   0 
  0   0   0   0   0   0   0   0   0   0   0   0   0   0   0   2   0   0 
  0   0   0   0   0   0   0   0   0   0   0   0   0   0   0   0   0   0 
  0   0   0   0   0   0   0   0   0   0   0   0   0   0   0   0   0   0 
  0   0   0   0   0   0   0   0   0   0   0   0   0   0   0   0   0   0 
  0   0   0   0   0   0   0   0   0   0   0   0   0   0   0   0   0   0 
  0   0   0   0   0   0   0   0   0   0   0   0   0   0   0   0   0   0 
  0   0   0   0   0   0   0   0   0   0   0   0   0   0   0   0   0   0 
  0   0   0   0   0   0   0   0   0   0   0   0   0   0   0   0   0   0 
  0   0   0   0   0   0   0   0   0   0   0   0   0   0   0   0   0   0 
  0   0   0   0   0   0   0   0   0   0   0   0   0   0   0   0   0   0 
  0   0   0   0   0   0   0   0   0   0   0   0   0   0   0   0   0 103 
103   0   0   0   1   7  37   9  39   2   1   0   0   0   1   0   0   0 
  1   1   1   1   0   1   7  27  39  62  77  58  52  41  46  29  39  45 
 50  53  73  68  49  35  13   2   3   1   2   1   1   2   0   1   2   2 
  0  68  21  42   2   1   3  16  12   9   8  41  36   5   0   2   1   1 
  1   2   3  29   2  13   2   1   0   0   0   0   0   0   0   0   0   0 
  0   0   0   0   0   0   0   0   0   0   0   0   0   0   0   0   0   0 
  0   0   0   0   0   0   0   0   0   0   0   0   0   0   0   0   0   0 
  0   0   0   0   0   0   0   0   0   0   0   0   0   0   0   0   0   0 
  0   0   0   0   0   0   0   0   0   0   0   0   0   0   0   0   0   0 
  0   0   0   0   0   0   0   0   0   0   0   0   0   0   0   0   0   0 
  0   0   0   0   0   0   0   0   0   0   0   0   0   0   0   0   0   0 
  0   0   0   0   0   0   0   0   0   0   0   0   0   0   0   0   0   0 
  0   0   0   0   0   0   0   0   0   0   0   0   0   0   0   0   0   0 
  0   0   0   0   0   0   0   0   0   0   0   0   0   0   0   0   0   0 
  0   0   0   0   0   0   0   0   0   0   0   0   0   0   0   0   0   0 
  0   0   0   0   0   0   0   0   0   0   0   0   0   0   0   0   0   0 
  0   0   0   0   0   0   0   0   0   0   0   0   0   0   0   0   0   0 
  0   0   0   0   0   0   0   0   0   0   0   0   0   0   0   0   0   0 
  0   0   0   0   0   0   0   0   0   0   0   0   0   0   0   0   0   0 
  0   0   0   0   0   0   0   0   0   0   0   0   0   0   0   0   0 103 
103   0   0   1   1  20   3  19  41   0   0   0   0   0   0   0   0   0 
  0   1   1   0   2   2   0   1   1   3   3   2   6  10  10  16  12   9 
  7   4   2   4   0   2   0   1   2   0   2   1   1   3   0   1   4  25 
 94  58  24   4   1   3   2  17   7   7  10  13  28  54   1   3   3   2 
  2   3   4  41  20  12   1   2   0   0   0   0   0   0   0   0   0   0 
  0   0   0   0   0   0   0   0   0   0   0   0   0   0   0   0   0   0 
  0   0   0   0   0   0   0   0   0   0   0   0   0   0   0   0   0   0 
  0   0   0   0   0   0   0   0   0   0   0   0   0   0   0   0   0   0 
  0   0   0   0   0   0   0   0   0   0   0   0   0   0   0   0   0   0 
  0   0   0   0   0   0   0   0   0   0   0   0   0   0   0   0   0   0 
  0   0   0   0   0   0   0   0   0   0   0   0   0   0   0   0   0   0 
  0   0   0   0   0   0   0   0   0   0   0   0   0   0   0   0   0   0 
  0   0   0   0   0   0   0   0   0   0   0   0   0   0   0   0   0   0 
  0   0   0   0   0   0   0   0   0   0   0   0   0   0   0   0   0   0 
  0   0   0   0   0   0   0   0   0   0   0   0   0   0   0   0   2   1 
  0   0   0   0   0   0   0   0   0   0   0   0   0   0   0   0   0   0 
  0   0   0   0   0   0   0   0   0   0   0   0   0   0   0   0   0   0 
  0   0   0   0   0   0   0   0   0   0   0   0   0   0   0   0   0   0 
  0   0   0   0   0   0   0   0   0   0   0   0   0   0   0   0   0   0 
  0   0   0   0   0   0   0   0   0   0   0   0   0   0   0   0   0 103 
103   0   0   0  26  24  31  85  47   0   1   0   0   0   0   0   0   0 
  0   0   0   0   1   1   0   0   0   0   0   0   0   0   0   1   1   2 
  1   1   0   0   2   0   1   0   4   3   3   2   0   2   0   1  72  55 
129  21   0   0   1   0   0  15  11  10  11   1  19  37  58  12   1   0 
  2   4  44  29  19   4   0   1   0   0   0   0   0   0   0   0   0   0 
  0   0   0   0   0   0   0   0   0   0   0   0   0   0   0   0   0   0 
  0   0   0   0   0   0   0   0   0   0   0   0   0   0   0   0   0   0 
  0   0   0   0   0   0   0   0   0   0   0   0   0   0   0   0   0   0 
  0   0   0   0   0   0   0   0   0   0   0   0   0   0   0   0   0   0 
  0   0   0   0   0   0   0   0   0   0   0   0   0   0   0   0   0   0 
  0   0   0   0   0   0   0   0   0   0   0   0   0   0   0   0   0   0 
  0   0   0   0   0   0   0   0   0   0   0   0   0   0   0   0   0   0 
  0   0   0   0   0   0   0   0   0   0   0   0   0   0   0   0   0   0 
  0   0   0   0   0   0   0   0   0   0   0   0   0   0   0   0   0   0 
  0   0   0   0   0   0   0   0   0   0   0   0   0   0   0   0   1   2 
  0   0   0   0   0   0   0   0   0   0   0   0   0   0   0   0   0   0 
  0   0   0   0   0   0   0   0   0   0   0   0   0   0   0   0   0   0 
  0   0   0   0   0   0   0   0   0   0   0   0   0   0   0   0   0   0 
  0   0   0   0   0   0   0   0   0   0   0   0   0   0   0   0   0   0 
  0   0   0   0   0   0   0   0   0   0   0   0   0   0   0   0   0 103 
103   1   1  15  16  37  53  91   0   1   0   0   0   0   0   0   0   0 
  0   0   0   0   0   0   0   0   0   0   0   0   0   0   0   2   0   2 
  0   2   0   0   0   0   0   1   3   2   1   0   2   0  30  95   5  92 
 41  41   0   2   1   0   0  15   9  11  17   1   1  14  41  26  38  38 
 39  39   6  31   5   2   1   2   0   0   0   0   0   0   0   0   0   0 
  0   0   0   0   0   0   0   0   0   0   0   0   0   0   0   0   0   0 
  0   0   0   0   0   0   0   0   0   0   0   0   0   0   0   0   0   0 
  0   0   0   0   0   0   0   0   0   0   0   0   0   0   0   0   0   0 
  0   0   0   0   0   0   0   0   0   0   0   0   0   0   0   0   0   0 
  0   0   0   0   0   0   0   0   0   0   0   0   0   0   0   0   0   0 
  0   0   0   0   0   0   0   0   0   0   0   0   0   0   0   0   0   0 
  0   0   0   0   0   0   0   0   0   0   0   0   0   0   0   0   0   0 
  0   0   0   0   0   0   0   0   0   0   0   0   0   0   0   0   0   0 
  0   0   0   0   0   0   0   0   0   0   0   0   0   0   0   0   0   0 
  0   0   0   0   0   0   0   0   0   0   0   0   0   0   0   2   1   0 
  0   0   0   0   0   0   0   0   0   0   0   0   0   0   0   0   0   0 
  0   0   0   0   0   0   0   0   0   0   0   0   0   0   0   0   0   0 
  0   0   0   0   0   0   0   0   0   0   0   0   0   0   0   0   0   0 
  0   0   0   0   0   0   0   0   0   0   0   0   0   0   0   0   0   0 
  0   0   0   0   0   0   0   0   0   0   0   0   0   0   0   0   0 103 
104   1   4  11  36  32  83   1   0   1   0   0   0   0   0   0   0   0 
  0   0   0   0   0   0   0   0   0   0   0   0   0   0   0   0   2   1 
  0   2   0   2   0   0   2   2   1   0   1   4  23  90  54 110  41   0 
 22   8  14   0   0   0   2  15   7  12  17   4   0   0   5  27  31  33 
 29  33  18   2   2   0   1   0   0   0   0   0   0   0   0   0   0   0 
  0   0   0   0   0   0   0   0   0   0   0   0   0   0   0   0   0   0 
  0   0   0   0   0   0   0   0   0   0   0   0   0   0   0   0   0   0 
  0   0   0   0   0   0   0   0   0   0   0   0   0   0   0   0   0   0 
  0   0   0   0   0   0   0   0   0   0   0   0   0   0   0   0   0   0 
  0   0   0   0   0   0   0   0   0   0   0   0   0   0   0   0   0   0 
  0   0   0   0   0   0   0   0   0   0   0   0   0   0   0   0   0   0 
  0   0   0   0   0   0   0   0   0   0   0   0   0   0   0   0   0   0 
  0   0   0   0   0   0   0   0   0   0   0   0   0   0   0   0   0   0 
  0   0   0   0   0   0   0   0   0   0   0   0   0   0   0   0   0   0 
  0   0   0   0   0   0   0   0   0   0   0   0   0   0   0   1   2   1 
  2   0   0   0   0   0   0   0   0   0   0   0   0   0   0   0   0   0 
  0   0   0   0   0   0   0   0   0   0   0   0   0   0   0   0   0   0 
  0   0   0   0   0   0   0   0   0   0   0   0   0   0   0   0   0   0 
  0   0   0   0   0   0   0   0   0   0   0   0   0   0   0   0   0   0 
  0   0   0   0   0   0   0   0   0   0   0   0   0   0   0   0   0 103 
102   0   9  11  24  89   3   2   0   0   0   0   0   0   0   0   0   0 
  0   0   0   0   0   0   0   0   0   0   0   0   0   0   0   2   1   0 
  0   0   0   1   1   2   1   0   0   2  19 103  42  68  70   4   0   0 
 11  12  25   4   1   1   1  16   7   4  10   2   1   0   0   2   2   2 
  3   2   0   0   1   1   3   1   0   0   0   0   0   0   0   0   0   0 
  0   0   0   0   0   0   0   0   0   0   0   0   0   0   0   0   0   0 
  0   0   0   0   0   0   0   0   0   0   0   0   0   0   0   0   0   0 
  0   0   0   0   0   0   0   0   0   0   0   0   0   0   0   0   0   0 
  0   0   0   0   0   0   0   0   0   0   0   0   0   0   0   0   0   0 
  0   0   0   0   0   0   0   0   0   0   0   0   0   0   0   0   0   0 
  0   0   0   0   0   0   0   0   0   0   0   0   0   0   0   0   0   0 
  0   0   0   0   0   0   0   0   0   0   0   0   0   0   0   0   0   0 
  0   0   0   0   0   0   0   0   0   0   0   0   0   0   0   2   0   0 
  0   0   0   0   0   0   0   0   0   0   0   0   0   0   0   0   0   0 
  0   0   0   0   0   0   0   0   0   0   0   0   0   0   2   1   1   2 
  1   0   0   0   0   0   0   0   0   0   0   0   0   0   0   0   0   0 
  0   0   0   0   0   0   0   0   0   0   0   0   0   0   0   0   0   0 
  0   0   0   0   0   0   0   0   0   0   0   0   0   0   0   0   0   0 
  0   0   0   0   0   0   0   0   0   0   0   0   0   0   0   0   0   0 
  0   0   0   0   0   0   0   0   0   0   0   0   0   0   0   0   0 103 
103   1  11 123 100   1   2   2   0   0   0   0   0   0   0   0   0   0 
  0   0   0   0   0   0   0   0   0   0   0   0   0   0   0   0   0   2 
  0   2   2   2   2   0   6  10  50  80  71  97  65  15   0   0   2   1 
  4  36  39   2   2   0   4  22   8   0   9   0   1   1   0   1   1   3 
  1   1   0   1   2   1   1   2   0   0   0   0   0   0   0   0   0   0 
  0   0   0   0   0   0   0   0   0   0   0   0   0   0   0   0   0   0 
  0   0   0   0   0   0   0   0   0   0   0   0   0   0   0   0   0   0 
  0   0   0   0   0   0   0   0   0   0   0   0   0   0   0   0   0   0 
  0   0   0   0   0   0   0   0   0   0   0   0   0   0   0   0   0   0 
  0   0   0   0   0   0   0   0   0   0   0   0   0   0   0   0   0   0 
  0   0   0   0   0   0   0   0   0   0   0   0   0   0   0   0   0   0 
  0   0   0   0   0   0   0   0   0   0   0   0   0   0   0   0   0   0 
  0   0   0   0   0   0   0   0   0   0   0   0   0   2   0   0   0   0 
  0   0   0   0   0   0   0   0   0   0   0   0   0   0   0   0   0   0 
  0   0   0   0   0   0   0   0   0   0   0   0   0   0   1   2   0   0 
  0   0   0   0   0   0   0   0   0   0   0   0   0   0   0   0   0   0 
  0   0   0   0   0   0   0   0   0   0   0   0   0   0   0   0   0   0 
  0   0   0   0   0   0   0   0   0   0   0   0   0   0   0   0   0   0 
  0   0   0   0   0   0   0   0   0   0   0   0   0   0   0   0   0   0 
  0   0   0   0   0   0   0   0   0   0   0   0   0   0   0   0   0 103 
104   1 107 124   7   0   3   3   0   0   0   0   0   0   0   0   0   0 
  0   0   0   0   0   0   0   0   0   0   0   0   0   0   0   0   0   0 
  1   3   3   3  17  32  88  84  35  74  67  11   1   1   0   0   1   1 
  3  38  34   1   0   0   2  22  10  11   2   0   1   1   0   1   1   1 
  0   1   0   0   0   0   0   0   0   0   0   0   0   0   0   0   0   0 
  0   0   0   0   0   0   0   0   0   0   0   0   0   0   0   0   0   0 
  0   0   0   0   0   0   0   0   0   0   0   0   0   0   0   0   0   0 
  0   0   0   0   0   0   0   0   0   0   0   0   0   0   0   0   0   0 
  0   0   0   0   0   0   0   0   0   0   0   0   0   0   0   0   0   0 
  0   0   0   0   0   0   0   0   0   0   0   0   0   0   0   0   0   0 
  0   0   0   0   0   0   0   0   0   0   0   0   0   0   0   0   0   0 
  0   0   0   0   0   0   0   0   0   0   0   0   0   0   0   0   0   0 
  0   0   0   0   0   0   0   0   0   0   0   0   0   0   0   2   0   0 
  0   0   0   0   0   0   0   0   0   0   0   0   0   0   0   0   0   0 
  0   0   0   0   0   0   0   0   0   0   0   0   2   0   5   0   0   0 
  0   0   0   0   0   0   0   0   0   0   0   0   0   0   0   0   0   0 
  0   0   0   0   0   0   0   0   0   0   0   0   0   0   0   0   0   0 
  0   0   0   0   0   0   0   0   0   0   0   0   0   0   0   0   0   0 
  0   0   0   0   0   0   0   0   0   0   0   0   0   0   0   0   0   0 
  0   0   0   0   0   0   0   0   0   0   0   0   0   0   0   0   0 103 
101  44  10  41   2   1   1   0   0   0   0   0   0   0   0   0   0   0 
  0   0   0   0   0   0   0   0   0   0   0   0   0   1   1   1   3   1 
  5  37  74  79  50  22  70  88  38  15   1   1   1   1   0   1   2   1 
  1  32  29   6   2   0   1  21   8  12   2   0   0   1   1   1   0   0 
  0   1   1   2   0   0   2   0   0   0   0   0   0   0   0   0   0   0 
  0   0   0   0   0   0   0   0   0   0   0   0   0   4  21  33  46  55 
 55  55  54  54  45  35  21   3   0   0   0   0   0   0   0   0   0   0 
  0   0   0   0   0   0   0   0   0   0   0   0   0   0   0   0   0   0 
  0   0   0   0   0   0   0   0   0   0   0   0   1   0   0  10  24  33 
 33  32  33  33  23  15   1   0   0   0   0   0   0   0   0   0   0   0 
  0   0   0   0   0   0   0   0   0   0   0   0   0   0   0   0   0   0 
  0   0   0   0   0   0   0   0   0   0   0   0   0   0   0   0   0   0 
  0   0   0   0   0   0   0   0   0   0   0   1   2  17  95   2   2   0 
  0   0   0   0   0   0   0   0   0   0   0   0   0   0   0   0   0   0 
  0   0   0   0   0   0   0   0   0   0   0   0   5  88  14   5   0   0 
  0   0   0   0   0   0   0   0   0   0   0   0   0   0   0   0   0   0 
  0   0   0   0   0   0   0   0   0   0   0   0   0   0   0   0   0   0 
  0   0   0   0   0   0   0   0   0   0   0   0   0   0   0   0   0   0 
  0   0   0   0   0   0   0   0   0   0   0   0   0   0   0   0   0   0 
  0   0   0   0   0   0   0   0   0   0   0   0   0   0   0   0   0 103 
105  91 143   9   3   2   1   0   0   2   0   0   0   2   0   0   0   2 
  0   0   0   0   0   0   0   0   0   2   5  14  20  28  41  56  64  83 
 83  16  66  89  60  58  32   2   5   2  14  17  10   1   1   1   2   2 
  1  29  23   6   0   1   4  16   0  13   0   0   0   0   0   0   0   0 
  0   0   0   0   0   0   0   0   0   0   0   0   0   0   0   0   0   0 
  0   0   0   0   0   0   0   0  25  48  65  75  91  98  46  28   4  26 
 19  19  17  25   2  18  48 103  91  77  66  52  29   6   0   1   2   0 
  0   0   0   0   0   0   0   0   0   0   0   0   0   0   0   0   0   0 
  0   0   0   0   0   0   0   0   4  29  48  66  73  87 104  78  40  19 
 27  29  28  16  49  58 104  88  78  67  52  32   7   0   0   0   0   0 
  0   0   0   0   0   0   0   0   0   0   0   0   0   0   0   0   0   0 
  0   0   0   0   0   0   0   0   0   0   0   0   0   0   0   0   0   0 
  0   2   1   0   0   0   0   0   0   0   1   4  85 130 250  64  11   0 
  0   0   0   0   0   0   0   0   0   0   0   0   0   0   1   2   1   2 
  1   0   2   0   0   0   0   0   0   1   2  57 163 190  17  35   0   0 
  2   1   0   0   0   0   0   0   0   0   0   0   0   0   0   0   0   0 
  0   0   0   0   0   0   0   0   0   0   0   0   0   0   0   0   0   0 
  0   0   0   0   0   0   0   0   0   0   0   0   0   0   0   0   0   0 
  0   0   0   0   0   0   0   0   0   0   0   0   0   0   0   0   0   0 
  0   0   0   0   0   0   0   0   0   0   0   0   0   0   0   0   0 103 
120  21  36  56 101  50  12   4   1   2   2   2   0   0   0   2   0   0 
  0   1   2   3   2   0   0   0   1   1  34  40  25  17  27  33  49  76 
 75  46  13   2  23  17  21  12   7  10  16  17   6  23   3   0   1   1 
  0  25  17   7   1   1   6  12  12   8   0   0   0   0   0   0   0   0 
  0   0   0   0   0   0   0   0   1   2   0   0   0   0   0   0   0   0 
  0   1   1   1   4  25  63 119  40  13  44  62  93  99  76  62  46  41 
 37  39  39  38  48  60  75 104  89  66  44  19  29 100  79  33  10   1 
  0   0   0   2   0   0   0   0   0   0   0   0   0   0   0   0   0   0 
  0   1   2   0   2   7  33  77 107  33  15  44  62  83 106  91  70  63 
 60  65  64  62  73  84 103  86  69  47  21  25  98  86  38   8   3   0 
  0   0   0   0   0   0   2   1   0   2   0   0   0   0   0   0   0   0 
  0   0   0   0   0   0   0   0   0   0   0   0   0   0   0   0   0   0 
  0   1   2   1   2   1   0   0   0   2  48 143  59 124  91  78  11   0 
  0   0   0   0   0   0   0   0   0   0   0   0   0   0   2   2   2   1 
  2   0   1   0   0   2   1   0   1  22 151  10 131  93  32  35   0   0 
  1   2   0   0   0   0   0   0   0   0   0   0   0   0   0   0   0   0 
  0   0   0   0   0   0   0   0   0   0   0   0   0   0   0   0   0   0 
  0   0   0   0   0   0   0   0   0   0   0   0   0   0   0   0   0   0 
  0   0   0   0   0   0   0   0   0   0   0   0   0   0   0   0   0   0 
  0   0   0   0   0   0   0   0   0   0   0   0   0   0   0   0   0 103 
102  19  50  66 110  16  76  64  63   8   5   2   1   2   0   0   0   0 
  0   0   3   3   2   0   0   2   2  50 111  94  43  34  18  37  15   4 
  1   0   1  20  28   1  26  25  19   2   4   0   8  25  22   3   1   1 
  3  27  17   7   1   1  12  16  29   1   0   0   0   0   0   0   0   0 
  0   0   0   0   0   0   0   0   2   1   0   0   0   0   2   0   0   0 
  0   1  11  73  85  66  48 133  69  42  25  14   1   0   4   3   1   1 
  2   2   1   1   0   1   3   4   1  15  23  38  64 114  77  39  85  81 
 34   0   0   1   0   0   0   2   1   0   0   0   0   0   0   0   0   2 
  1   2   1  39  81  88  44  79 117  66  39  25  14   6   6   4   2   2 
  1   4   3   3   1   6   2   4  11  22  37  62 111  97  31  92  78  44 
  1   2   1   0   2   0   1   2   0   0   0   0   0   0   0   0   0   0 
  0   0   0   0   0   0   0   0   0   0   0   0   0   0   0   0   0   0 
  0   0   0   0   1   2   1   1  28 118  46 164  29   0  89  78  11   0 
  0   0   0   0   0   0   0   0   0   0   0   0   0   0   1   1   1   0 
  0   0   2   0   0   1   2   7 103 105 164  56   1  68  33  35   0   1 
  2   1   0   0   0   0   0   0   0   0   0   0   0   0   0   0   0   0 
  0   0   0   0   0   0   0   0   0   0   0   0   0   0   0   0   0   0 
  0   0   0   0   0   0   0   0   0   0   0   0   0   0   0   0   0   0 
  0   0   0   0   0   0   0   0   0   0   0   0   0   0   0   0   0   0 
  0   0   0   0   0   0   0   0   0   0   0   0   0   0   0   0   0 103 
104   1   1   1   2  31  73  68  66  95  79  23   1   1   0   0   1   2 
  0   0   2   2   1   0   0   0   1   0  91  50  21   5  15  13   6   1 
  1   2   5   7  47  68   9   4  20  79  59  16   2   1  24  19   1   1 
  1  25  12  12   0   1  23   8  15   2   0   0   0   0   0   0   0   0 
  0   0   0   0   0   0   0   0   0   0   0   1   2   1   0   1   0   0 
 21  77 116  81  85  75  27   7   1   1   2   0   1   2   1   0   1   1 
  0   0   0   2   0   1   0   1   2   3   2   2   1   5  16  63  83  94 
 37 114  37   0   1   1   0   1   2   0   0   0   2   0   0   0   1   1 
 10  45 124  24  98  81  66  15   6   1   1   0   2   0   1   0   0   0 
  0   0   0   0   2   1   0   0   0   2   2   2   6  10  60  85  91   4 
130  47   6   1   0   0   0   1   0   1   2   0   0   0   0   0   0   0 
  0   0   0   0   0   0   0   0   0   0   0   0   0   0   0   0   0   0 
  0   0   0   2   0   1  11  89  96 131  74   6   2   0  87  77  11   0 
  0   0   0   0   0   0   0   0   0   0   0   0   0   0   0   1   0   0 
  0   0   0   0   0   1  56 160 119  93   6   1   3  70  33  35   0   2 
  1   0   0   0   0   0   0   0   0   0   0   0   0   0   0   0   0   0 
  0   0   0   0   0   0   0   0   0   0   0   0   0   0   0   0   0   0 
  0   0   0   0   0   0   0   0   0   0   0   0   0   0   0   0   0   0 
  0   0   0   0   0   0   0   0   0   0   0   0   0   0   0   0   0   0 
  0   0   0   0   0   0   0   0   0   0   0   0   0   0   0   0   0 103 
102   1   2   1   2   2   1   4  23  87  60  40  92  23   1   0   2   2 
  1   0   1   0   0   0   2   1   2   2   4  89  95  12   2  26  21   0 
  2   3  27  69  54  87  47  40  51  87  48  36  70   2   5  15  17   2 
  1  26  17  10   1   1  45  38   2   2   0   0   0   0   0   0   0   0 
  0   0   0   0   0   0   0   0   0   0   0   2   2   2   2   2   5  90 
 74  56 123  21   4   0   2   4   4   2   0   0   2   2   0   0   0   0 
  0   0   0   0   0   0   0   0   0   1   2   2   1   1   3   2   3  13 
 78 104  28 119  24   3   1   2   1   0   0   0   0   0   0   1   3  60 
 89  12 119  72   7   4   2   1   1   1   0   0   0   2   2   0   0   1 
  2   0   0   2   1   2   0   0   0   2   4   3   2   1   2   1   8  62 
129   7 100  62   3   0   0   2   1   3   2   0   0   0   0   0   0   0 
  0   0   0   0   0   0   0   0   0   0   0   0   0   0   0   0   0   0 
  0   0   0   0   1  60 120  46 121  11   4   2   1   0  90  80  10   0 
  0   0   0   0   0   0   0   0   0   0   0   0   0   0   0   0   0   0 
  0   0   0   2  29 139   7 153  17   3   4   0   1  72  35  34   0   1 
  2   0   0   0   0   0   0   0   0   0   0   0   0   0   0   0   0   0 
  0   0   0   0   0   0   0   0   0   0   0   0   0   0   0   0   0   0 
  0   0   0   0   0   0   0   0   0   0   0   0   0   0   0   0   0   0 
  0   0   0   0   0   0   0   0   0   0   0   0   0   0   0   0   0   0 
  0   0   0   0   0   0   0   0   0   0   0   0   0   0   0   0   0 103 
104   0   3   1   1   2   2   1   0   1  18  59 113  73  83  18   3   0 
  0   1   2   0   2   0   2   0   1   2   1   9  95  84   1   6   4  12 
  1   8 116 130  16   6   3   2   2   4  14  60  64  97   0  17   7   4 
  1  24  16   6   1  21   8  22   2   2   0   0   0   0   0   0   0   0 
  0   0   0   0   0   0   0   0   0   0   0   1   2   2   0  48 139  91 
 95  23   6   1   0   0   0   1   2   1   0   2   0   0   0   0   0   2 
  0   0   0   0   1   1   0   2   2   0   0   0   1   0   1   0   0   2 
  3   9  57 151  97  88   7   1   2   0   0   0   0   1   2  41 130  11 
118  48   3   4   0   0   0   0   0   0   2   0   0   1   2   0   0   2 
  1   0   0   0   0   2   0   2   0   2   1   0   0   0   2   0   2   5 
  2  44 126  28 127  44   0   1   0   2   2   0   0   0   0   0   0   0 
  0   0   0   0   0   0   0   0   0   0   0   0   0   0   0   0   0   0 
  0   1   2  33 129  15 150  33   4   1   1   1   0   0  87  77  11   0 
  0   0   0   0   0   0   0   0   0   0   0   0   0   0   0   0   0   0 
  0   2  15 101 102 174  49   1   1   1   2   2   2  69  31  35   0   0 
  0   0   0   0   0   0   0   0   0   0   0   0   0   0   0   0   0   0 
  0   0   0   0   0   0   0   0   0   0   0   0   0   0   0   0   0   0 
  0   0   0   0   0   0   0   0   0   0   0   0   0   0   0   0   0   0 
  0   0   0   0   0   0   0   0   0   0   0   0   0   0   0   0   0   0 
  0   0   0   0   0   0   0   0   0   0   0   0   0   0   0   0   0 103 
102   1   2   2   0   2   3   1   0   2   2   1   5  74  74  65  70   0 
  2   0   1   2   0   0   0   2   0   0   1   2  32  17  65   2  21  19 
  0  73 106  11   0   0   0   2   3   1   0   2  35  67  89  10   6  10 
  0  26  15  12   1  37  48   1   0   0   0   0   0   0   0   0   0   0 
  0   0   0   0   0   0   0   0   0   0   2   1   1   4 110   2 118  26 
  2   0   2   1   0   0   0   0   1   2   0   1   2   0   2   2   0   0 
  2   0   0   0   1   1   1   2   1   0   0   0   1   0   0   0   2   0 
  0   1   0   4 102 114  40   5   1   0   0   0   1   6 114  16 108  58 
  1   1   0   1   2   2   2   0   0   0   0   0   0   0   1   0   0   0 
  1   2   1   0   0   0   0   2   0   2   2   2   1   0   0   1   2   0 
  0   3   3  48 107   8 114   8   1   1   1   0   0   0   0   0   0   0 
  0   0   0   0   0   0   0   0   0   0   0   0   0   0   0   0   0   0 
  0  10 104  61 106  77   4   0   1   0   3   4   1   0  91  80  10   0 
  0   0   0   0   0   0   0   0   0   0   0   0   0   0   1   2   1   0 
  6  66 122  84 110   2   1   1   0   0   0   0   3  72  34  35   0   0 
  0   2   0   0   0   0   0   0   0   0   0   0   0   0   0   0   0   0 
  0   0   0   0   0   0   0   0   0   0   0   0   0   0   0   0   0   0 
  0   0   0   0   0   0   0   0   0   0   0   0   0   0   0   0   0   0 
  0   0   0   0   0   0   0   0   0   0   0   0   0   0   0   0   0   0 
  0   0   0   0   0   0   0   0   0   0   0   0   0   0   0   0   0 103 
103   0   0   0   0   2   1   0   0   1   0   1   1   1  15  95  13 102 
 17   2   1   2   0   0   0   2   0   0   0   0   5  83  47  20   2  21 
 24  57  73   2   1   2   0   0   1   1   1   1   3  50  17  46  14  11 
  0  26  16   6  10  22  24   1   0   0   0   0   0   0   0   0   0   0 
  0   0   0   0   0   0   0   0   0   0   1   2  15 126  73  77   0   1 
  2   0   0   0   0   0   0   0   0   0   0   0   0   0   0   0   0   0 
  2   0   0   0   0   0   0   0   0   0   0   0   0   0   0   0   0   0 
  0   0   1   3  86  58  62   0   0   0   1   2  44 123  97  79   4   2 
  0   0   0   2   1   0   0   0   0   0   0   0   0   0   0   0   0   0 
  2   1   2   2   0   0   0   0   0   0   0   1   2   0   2   2   3   2 
  1   4   2   1   4  75  95 123  48   1   1   0   0   0   0   0   0   0 
  0   0   0   0   0   0   0   0   0   0   0   0   0   0   0   0   0   0 
 70 124  72 107  13   2   0   0   0   0   3   4   1   1  86  77  11   0 
  0   0   0   0   0   0   0   0   0   0   0   0   0   0   2   2   3  42 
122   5 145  23   3   0   0   0   0   0   0   0   1  69  33  35   2   0 
  0   0   0   0   0   0   0   0   0   0   0   0   0   0   0   0   0   0 
  0   0   0   0   0   0   0   0   0   0   0   0   0   0   0   0   0   0 
  0   0   0   0   0   0   0   0   0   0   0   0   0   0   0   0   0   0 
  0   0   0   0   0   0   0   0   0   0   0   0   0   0   0   0   0   0 
  0   0   0   0   0   0   0   0   0   0   0   0   0   0   0   0   0 103 
103   0   0   0   0   0   0   0   0   0   0   0   0   0   0   0  40 112 
 87  63   5   2   0   0   0   0   0   0   0   0   0   4  82  91   0  11 
 17  61  70   4   0   0   0   0   0   0   0   1   1   1  78  31   9   6 
  0  25  17  10  52  43   5   1   0   0   0   0   0   0   0   0   0   0 
  0   2   1   2   0   0   0   0   0   1   2  27 134 134  35   3   0   0 
  0   0   0   0   0   0   0   0   0   0   0   0   0   0   0   0   0   0 
  0   0   0   0   0   0   0   0   0   0   0   0   0   2   0   0   0   2 
  0   2   2  85   6  98   1   0   0   0   1  93  43 124  23   4   2   0 
  0   0   0   0   0   0   0   0   0   0   0   0   0   0   0   0   0   0 
  0   0   0   0   0   0   0   0   0   0   0   0   0   0   0   0   0   0 
  0   1   0   0   0   2  21 126  30  92   1   0   0   0   1   2   0   0 
  0   0   0   0   0   0   0   0   0   0   0   0   0   0   0   0  32 146 
 33 120  33   2   1   2   2   0   0   0   0   1   0   0  89  78  12   2 
  1   0   0   0   0   0   0   0   0   0   0   0   0   0   1  18 110  58 
138  56   2   1   0   0   0   0   0   0   0   0   3  70  33  35   0   0 
  0   0   0   0   0   0   0   0   0   0   0   0   0   0   0   0   0   0 
  0   0   0   0   0   0   0   0   0   0   0   0   0   0   0   0   0   0 
  0   0   0   0   0   0   0   0   0   0   0   0   0   0   0   0   0   0 
  0   0   0   0   0   0   0   0   0   0   0   0   0   0   0   0   0   0 
  0   0   0   0   0   0   0   0   0   0   0   0   0   0   0   0   0 103 
103   0   0   0   0   0   0   0   0   0   0   0   0   0   0   0   1   6 
101   7 112   2   3   1   1   2   0   0   0   1   0   2  32  39  68   6 
 16  91 100   6   2   1   0   0   0   1   4   1   1   1  50   7  36   0 
  0  29  21  25   3  24   1   1   0   0   0   0   0   0   0   0   0   0 
  0   0   0   1   0   0   0   0   0   2  26 110 146  13   2   2   0   0 
  0   0   0   0   0   0   0   0   0   0   0   0   0   0   0   0   0   0 
  0   0   0   2   0   0   0   0   0   0   0   0   0   0   2   2   1   1 
  1   2  71  31  98   2   1   1   1   3 137  43 106   2   1   2   1   0 
  0   0   0   0   0   0   0   0   0   0   0   0   0   0   0   0   0   0 
  0   0   0   0   0   0   0   0   0   0   0   0   0   0   0   0   0   0 
  0   0   0   0   2   2   0   2  99  37 131   5   0   0   2   1   0   2 
  0   0   0   0   0   0   2   0   0   0   0   0   0   0   8 116  60 115 
 65   2   0   1   0   0   0   0   0   0   0   0   0   0  88  78   9   2 
  1   1   1   0   0   0   0   0   0   0   0   0   0   3  81  99  73 102 
  3   0   1   0   0   0   0   0   0   0   0   0   2  70  33  35   0   0 
  0   0   0   0   0   0   0   0   0   0   0   0   0   0   0   0   0   0 
  0   0   0   0   0   0   0   0   0   0   0   0   0   0   0   0   0   0 
  0   0   0   0   0   0   0   0   0   0   0   0   0   0   0   0   0   0 
  0   0   0   0   0   0   0   0   0   0   0   0   0   0   0   0   0   0 
  0   0   0   0   0   0   0   0   0   0   0   0   0   0   0   0   0 103 
103   0   0   0   0   0   0   0   0   0   0   0   0   0   0   0   2   1 
  3  52 100 120  12   1   1   1   2   2   2   2   2   0   2  67  39  17 
 17  37  62  94   4   1   0   0   0   3   4   2   1   1  52  25  23   1 
  1  32  29  51  41   3   1   0   0   0   0   0   0   0   0   0   0   0 
  0   0   1   1   2   2   0   0   0  17 139 144   4   0   0   0   0   0 
  0   0   0   0   0   0   0   0   0   0   0   0   0   0   0   0   0   0 
  0   0   0   0   0   0   0   0   0   0   0   0   2   0   3   3   0   2 
  3  59  62 114   2   2   1   3  10 153 139  44   3   0   2   0   0   2 
  0   0   0   0   0   0   0   0   0   0   0   0   0   0   0   0   0   0 
  0   0   0   0   0   0   0   0   0   0   0   0   0   0   0   0   0   0 
  0   0   0   0   0   0   2   0   2  49 120 139  15   0   0   0   0   0 
  0   0   0   0   0   0   0   0   0   0   1   1   1  66 151 126  90  10 
  1   0   0   2   0   0   0   0   0   0   0   0   0   0  88  78  12   1 
  1   1   1   1   1   0   0   0   0   0   0   2  46 141  39 128  25   5 
  0   0   2   0   0   0   0   0   0   0   0   0   2  70  33  35   0   0 
  0   0   0   0   0   0   0   0   0   0   0   0   0   0   0   0   0   0 
  0   0   0   0   0   0   0   0   0   0   0   0   0   0   0   0   0   0 
  0   0   0   0   0   0   0   0   0   0   0   0   0   0   0   0   0   0 
  0   0   0   0   0   0   0   0   0   0   0   0   0   0   0   0   0   0 
  0   0   0   0   0   0   0   0   0   0   0   0   0   0   0   0   0 103 
103   0   0   0   0   0   0   0   0   0   0   0   0   0   0   0   1   0 
  1   1  22 107  99  24   1   0   2   1   0   1   0   0   0   8  69  92 
 10  15  85  33  59   3   1   1   1   0   0   2   0   2  88  48  15   1 
  0  46  81  35  11   2   2   1   0   0   0   0   0   0   0   0   0   0 
  0   0   0   1   3   1   0   0   6 120 144  10   2   0   1   0   0   0 
  0   0   0   0   0   0   0   0   0   0   0   0   0   0   0   0   0   0 
  0   0   0   0   0   0   0   0   0   0   0   0   0   0   3   2   2   5 
 48  66 124   0   1   0   0  22 137 129  22   1   0   0   0   2   2   0 
  0   0   0   0   0   0   0   0   0   0   0   0   0   0   0   0   0   0 
  0   0   0   0   0   0   0   0   0   0   0   0   0   0   0   0   0   0 
  0   0   0   0   0   0   2   2   3   2  28 124 120  16   1   0   0   0 
  0   0   2   0   0   0   0   0   0   0   1  27 158  41 120  20   1   1 
  2   2   0   0   2   0   0   2   0   0   0   0   0   0  88  78  12   1 
  1   0   1   1   2   0   0   0   0   0  18 126  21 113  55   4   2   0 
  0   0   0   0   0   0   0   0   0   0   0   0   2  70  33  35   0   0 
  0   0   0   0   0   0   0   0   0   0   0   0   0   0   0   0   0   0 
  0   0   0   0   0   0   0   0   0   0   0   0   0   0   0   0   0   0 
  0   0   0   0   0   0   0   0   0   0   0   0   0   0   0   0   0   0 
  0   0   0   0   0   0   0   0   0   0   0   0   0   0   0   0   0   0 
  0   0   0   0   0   0   0   0   0   0   0   0   0   0   0   0   0 103 
103   0   0   0   0   0   0   0   0   0   0   0   0   0   0   0   2   0 
  0   1   0  13 114  95  34   0   3   2   1   2   1   2   1   1  53  10 
 40  19  17 102  56  85   8   4   2   3   1   2   6  61  57  66   2   1 
 22   0  20  27   0   1   1   1   0   0   0   0   0   0   0   0   0   0 
  0   0   0   0   1   0   0   0 110  73  31   4   4   1   1   0   0   0 
  0   0   0   0   0   0   0   0   0   0   0   0   0   0   0   0   0   0 
  0   0   0   0   0   0   0   0   0   0   0   0   0   0   2   1   2  23 
121 131   0   0   0   1  17 124 160  11   2   1   1   0   0   2   2   0 
  0   0   0   0   0   0   0   0   0   0   0   0   0   0   0   0   0   0 
  0   0   0   0   0   0   0   0   0   0   0   0   0   0   0   0   0   0 
  0   0   0   0   0   0   2   1   3   0   0  19 125 138  15   1   1   2 
  1   0   0   0   0   0   0   1   2  10 114  86 160  47   2   1   2   2 
  2   1   0   0   2   1   0   0   0   0   0   0   0   0  88  78   9   1 
  2   1   2   0   1   0   0   0   0  89 111 110  85   6   1   1   1   0 
  2   0   0   0   0   0   0   0   0   0   0   0   2  70  33  35   0   0 
  0   0   0   0   0   0   0   0   0   0   0   0   0   0   0   0   0   0 
  0   0   0   0   0   0   0   0   0   0   0   0   0   0   0   0   0   0 
  0   0   0   0   0   0   0   0   0   0   0   0   0   0   0   0   0   0 
  0   0   0   0   0   0   0   0   0   0   0   0   0   0   0   0   0   0 
  0   0   0   0   0   0   0   0   0   0   0   0   0   0   0   0   0 103 
103   0   0   0   0   0   0   0   0   0   0   0   0   0   0   0   0   0 
  0   0   1   2   6 118  81  37   0   3   1   1   2   3   0   3   3  80 
 63   1   2   9  71  79 112  74  40  32  31  43 107  24  93   3   2  23 
 15  64  30   7   0   0   1   1   2   1   0   0   0   0   0   0   0   0 
  0   0   0   2   1   0   0  51   9  84   7   1   1   1   0   0   0   0 
  0   0   0   0   0   0   0   0   0   0   0   0   0   0   0   0   0   0 
  0   0   0   0   0   0   0   0   0   0   0   0   0   0   2   1   2 139 
160   3   1   0   1   6 151 145   3   0   0   0   0   0   0   0   0   0 
  0   0   0   0   0   0   0   0   0   0   0   0   0   0   0   0   0   0 
  0   0   0   0   0   0   0   0   0   0   0   0   0   0   0   0   0   0 
  0   0   0   0   2   1   2   0   1   1   1   0  13 147 125  10   1   1 
  2   1   0   0   0   1   1   0  66 153 139  85   3   2   0   1   3   2 
  1   0   2   0   2   3   2   1   0   0   0   0   0   0  88  78  11   0 
  0   0   0   0   2   0   0  39 166  83 107  19   2   0   0   0   0   0 
  2   1   0   0   0   0   0   0   0   0   0   0   2  70  33  35   0   0 
  0   0   0   0   0   0   0   0   0   0   0   0   0   0   0   0   0   0 
  0   0   0   0   0   0   0   0   0   0   0   0   0   0   0   0   0   0 
  0   0   0   0   0   0   0   0   0   0   0   0   0   0   0   0   0   0 
  0   0   0   0   0   0   0   0   0   0   0   0   0   0   0   0   0   0 
  0   0   0   0   0   0   0   0   0   0   0   0   0   0   0   0   0 103 
103   0   0   0   0   0   0   0   0   0   0   0   0   0   0   0   0   0 
  2   1   2   1   1   0 112  75  34   1   2   3   0   2   0   0   0  39 
 24  26  23  21   1  17  90  44   4  21  19   3  64  60   1   0  21   2 
  9  76  39   2   0   0   0   0   1   2   0   0   0   0   0   0   0   0 
  0   0   0   1   2   1   6 105 122   2   0   2   1   2   2   0   0   0 
  0   0   0   0   0   0   0   0   0   0   1   1   0   0   1   3   2   5 
  5   3   3   1   1   0   1   1   0   0   0   0   0   2   0   6 123 100 
 20   1   1   0   2 139 135  14   3   2   0   0   2   2   0   0   0   0 
  0   0   0   0   0   0   0   0   0   0   0   0   0   0   0   0   0   0 
  0   0   0   0   0   0   0   0   0   0   0   0   0   0   0   0   0   0 
  0   0   0   0   2   0   0   0   0   1   2   2   1  18 111 141   4   0 
  1   2   1   1   1   0  33 148  17 144  11   0   1   0   2   2   3   2 
  0   0   0   0   1   2   3   2   0   0   0   0   0   0  88  78  11   0 
  0   2   0   0   1  15 133  34 136  42   0   1   1   0   0   0   0   0 
  1   2   2   0   0   0   0   0   0   0   0   0   2  70  33  35   0   0 
  0   0   0   0   0   0   0   0   0   0   0   0   0   0   0   0   0   0 
  0   0   0   0   0   0   0   0   0   0   0   0   0   0   0   0   0   0 
  0   0   0   0   0   0   0   0   0   0   0   0   0   0   0   0   0   0 
  0   0   0   0   0   0   0   0   0   0   0   0   0   0   0   0   0   0 
  0   0   0   0   0   0   0   0   0   0   0   0   0   0   0   0   0 103 
103   0   0   0   0   0   0   0   0   0   0   0   0   0   0   0   2   0 
  0   0   1   1   1   2   2 118 103  19   0   1   0   2   0   0   1   0 
 97 102  14   4   4   1   2  18  36  43  44  34  13   1   0  24   9  33 
 60  29  38   2   3   1   0   0   0   0   0   0   0   0   0   0   0   0 
  0   0   0   0   1   2  51   4  48   1   0   0   0   0   0   0   0   0 
  0   0   0   0   0   0   0   0   0   1   0   4  24  56  70  73  75  76 
 77  78  76  72  70  46  13   4   3   1   0   0   0   1   1  66   6  67 
  0   0   1   1 124  99  32   2   1   0   0   0   0   0   0   0   2   0 
  0   0   0   0   0   0   0   0   0   0   0   0   0   0   0   0   0   1 
  2   2   2   1   0   0   0   0   0   0   0   0   0   0   0   0   0   0 
  0   0   0   0   0   1   0   0   0   0   0   0   3   2  33 113 122   2 
  0   1   1   1   2 105  87 178  43   2   1   0   0   0   2   2   1   0 
  0   0   0   0   0   0   0   0   0   0   0   0   0   0  88  78  11   0 
  0   0   0   1  67 135 151  74   3   2   0   0   0   0   0   0   0   0 
  0   0   0   0   0   0   0   0   0   0   0   0   2  70  33  35   0   0 
  0   0   0   0   0   0   0   0   0   0   0   0   0   0   0   0   0   0 
  0   0   0   0   0   0   0   0   0   0   0   0   0   0   0   0   0   0 
  0   0   0   0   0   0   0   0   0   0   0   0   0   0   0   0   0   0 
  0   0   0   0   0   0   0   0   0   0   0   0   0   0   0   0   0   0 
  0   0   0   0   0   0   0   0   0   0   0   0   0   0   0   0   0 103 
103   0   0   0   0   0   0   0   0   0   0   0   0   0   0   0   0   0 
  0   0   0   0   0   0   0   6 120 111   5   2   1   0   0   0   1   2 
 41   6  27   4  10   0   0   0   0   1   2   1   0   3  25  14  41  46 
 23   7  24   0   1   0   0   0   0   0   0   0   0   0   0   0   0   0 
  1   2   1   0   0   4 124 139   2   0   0   0   0   0   0   0   0   0 
  2   2   1   0   0   0   0   2   2   6  43 125  45  35  64  64  71  75 
 81  82  73  64  60  11  79 114  49  18   2   2   0   0  14  95 122   2 
  0   0   2  74  25  62   4   2   0   0   0   0   0   0   0   0   0   0 
  0   0   0   2   3   2   0   0   1   1   1   1   2   3   3  16  20  34 
 45  46  47  40  21  18   8   1   2   1   2   1   0   0   0   2   1   2 
  3   2   2   1   1   2   1   0   0   0   0   0   2   2   2  54  28  86 
  1   0   0   0  81 122  95   3   2   1   0   0   0   0   0   0   0   0 
  0   0   0   0   0   0   0   0   0   0   0   0   0   0  88  78  11   1 
  2   0   0  56  52 127  10   3   1   0   0   0   0   0   0   0   0   0 
  0   0   0   0   0   0   0   0   0   0   0   0   2  70  33  35   0   0 
  0   0   0   0   0   0   0   0   0   0   0   0   0   0   0   0   0   0 
  0   0   0   0   0   0   0   0   0   0   0   0   0   0   0   0   0   0 
  0   0   0   0   0   0   0   0   0   0   0   0   0   0   0   0   0   0 
  0   0   0   0   0   0   0   0   0   0   0   0   0   0   0   0   0   0 
  0   0   0   0   0   0   0   0   0   0   0   0   0   0   0   0   0 103 
103   0   0   0   0   0   0   0   0   0   0   0   0   0   0   0   0   0 
  0   0   0   0   0   0   0   2  15  95 117   2   0   0   0   2   0   1 
  5  57  54  10  12   1   1   0   1   0   2   1   5  22  21  41  46   5 
 52  55   4   0   0   0   0   0   0   0   0   0   0   0   0   0   0   0 
  2   2   2   0   0  45  15  48   1   0   0   0   0   0   0   0   0   0 
  1   2   2   1   0   0   0   4  40 102  14 126  70  35  17  14   7   6 
  4   4   8  12  23  45  85 107   3  64  95  50   1   5 124  91  18   1 
  0   0  28 100 118   5   3   1   0   2   0   0   0   0   0   0   0   0 
  0   0   0   1   2   2   0   0   1   0   2   2  27  88  83  55  51  21 
  4   4   3   8  51  51  70  94  54   2   5   2   0   0   0   0   0   2 
  2   0   1   2   2   4   4   3   2   0   0   1   3   2   1   8 135  35 
 32   0   0   0  97 114   0   1   2   1   0   0   0   0   0   0   0   0 
  0   0   0   0   0   0   0   0   0   0   0   0   0   0  88  78  11   1 
  1   0   2  72  57  31   1   1   1   0   0   0   0   0   0   0   0   0 
  0   0   0   0   0   0   0   0   0   0   0   0   2  70  33  35   0   0 
  0   0   0   0   0   0   0   0   0   0   0   0   0   0   0   0   0   0 
  0   0   0   0   0   0   0   0   0   0   0   0   0   0   0   0   0   0 
  0   0   0   0   0   0   0   0   0   0   0   0   0   0   0   0   0   0 
  0   0   0   0   0   0   0   0   0   0   0   0   0   0   0   0   0   0 
  0   0   0   0   0   0   0   0   0   0   0   0   0   0   0   0   0 103 
103   0   0   0   0   0   0   0   0   0   0   0   0   0   0   0   0   0 
  0   0   0   0   0   0   1   3   0  36  72  97   1   3   2   0   0   1 
  1  66  75  15  21   1   3   1   1   1   3  13  16  25  50  41   8   4 
 37  43   0   0   0   0   0   0   0   0   0   0   0   0   0   0   0   0 
  1   2   1   0   1  70  64  17   1   0   0   0   0   0   0   0   0   0 
  0   0   0   1   0   1   3  66  70 143  46   6   2   0   0   0   0   0 
  0   0   0   0   0   0   0   8  46  72 114   1 130 100   5  65   2   0 
  1   5 116 149   2   0   1   0   0   0   0   0   0   0   0   0   0   0 
  0   0   0   2   0   0   2   0   2   7  48 118  54  91  93  73  69  58 
 47  48  48  53  68  70  80 115  12 126  77  25   5   0   0   0   0   0 
  0   1   2   2   2   2   1   0   0   0   0   0   1   1   3  71  94 100 
  0   0   0   0 100 100   1   0   2   2   0   0   0   0   0   0   0   0 
  0   0   0   0   0   0   0   0   0   0   0   0   0   0  88  78  11   1 
  0   0   0  71  41  31   1   0   0   0   0   0   0   0   0   0   0   0 
  0   0   0   0   0   0   0   0   0   0   0   0   2  70  33  35   0   0 
  0   0   0   0   0   0   0   0   0   0   0   0   0   0   0   0   0   0 
  0   0   0   0   0   0   0   0   0   0   0   0   0   0   0   0   0   0 
  0   0   0   0   0   0   0   0   0   0   0   0   0   0   0   0   0   0 
  0   0   0   0   0   0   0   0   0   0   0   0   0   0   0   0   0   0 
  0   0   0   0   0   0   0   0   0   0   0   0   0   0   0   0   0 103 
103   0   0   0   0   0   0   0   0   0   0   0   0   0   0   0   0   0 
  0   0   0   0   0   0   0   2   0   2  68  30  37   1   0   0   2   3 
  4  28  22  37   2   5   1   1   1   2  19   2  17  46  38  10   0  11 
 25  30   0   0   0   0   0   0   0   0   0   0   0   0   0   0   0   0 
  0   0   0   0   3  84  81   5   1   0   0   0   0   0   0   0   0   0 
  0   2   1   2   1   1  67  21 115   0   2   2   1   0   0   0   0   0 
  0   0   0   0   0   0   2   0   0   2   7  51 109  46  72   3   1   1 
  2  71  23  38   1   1   2   1   2   1   0   0   0   0   0   0   0   0 
  0   1   2   2   0   1   1   3  66 105  19 105  69  19   0   3   1   1 
  0   0   0   0   0   1   2   5  44 112  57  44 112   2   1   0   2   1 
  0   0   3   3   0   0   0   2   2   0   1   2   2   2 129  15 112   0 
  0   0   0   1  97  95   1   0   0   2   0   0   0   0   0   0   0   0 
  0   0   0   0   0   0   0   0   0   0   0   0   0   0  88  78  11   1 
  1   2   0  71  41  31   0   0   0   0   0   0   0   0   0   0   0   0 
  0   0   0   0   0   0   0   0   0   0   0   0   2  70  33  35   0   0 
  0   0   0   0   0   0   0   0   0   0   0   0   0   0   0   0   0   0 
  0   0   0   0   0   0   0   0   0   0   0   0   0   0   0   0   0   0 
  0   0   0   0   0   0   0   0   0   0   0   0   0   0   0   0   0   0 
  0   0   0   0   0   0   0   0   0   0   0   0   0   0   0   0   0   0 
  0   0   0   0   0   0   0   0   0   0   0   0   0   0   0   0   0 103 
103   0   0   0   0   0   0   0   0   0   0   0   0   0   0   0   0   0 
  0   0   0   0   0   0   0   0   1   1   1 119 121   8   3   2   1   2 
  0   2  94  74   4  10   1   3   8  23  16   9  49  41  10   1   3  50 
 31  11   0   0   0   0   0   0   0   0   0   0   0   0   0   0   0   0 
  2   1   0   1   8  92 100   4   1   0   0   0   0   0   0   0   0   0 
  0   0   0   1   3  14  79 123   3   2   2   1   0   0   0   0   0   0 
  0   0   0   0   0   0   0   0   0   0   2   2   3  37   3   1   0   0 
 18 108 132   6   1   0   0   0   1   2   0   0   0   0   0   0   0   0 
  0   2   2   0   2   1  25 113   2 126  41   7   1   2   2   2   2   3 
  1   0   2   0   0   0   0   0   2   0  25  83  98 133  52   6   1   2 
  0   2   3   2   0   0   0   2   1   0   2   5  36 137 107  61   1   2 
  1   0   0   1 100  95   6   3   2   0   0   0   0   0   0   0   0   0 
  0   0   0   0   0   0   0   0   0   0   0   0   0   0  88  78  11   1 
  1   1   0  71  41  31   0   0   0   0   0   0   0   0   0   0   0   0 
  0   0   0   0   0   0   0   0   0   0   0   0   2  70  33  35   0   0 
  0   0   0   0   0   0   0   0   0   0   0   0   0   0   0   0   0   0 
  0   0   0   0   0   0   0   0   0   0   0   0   0   0   0   0   0   0 
  0   0   0   0   0   0   0   0   0   0   0   0   0   0   0   0   0   0 
  0   0   0   0   0   0   0   0   0   0   0   0   0   0   0   0   0   0 
  0   0   0   0   0   0   0   0   0   0   0   0   0   0   0   0   0 103 
103   0   0   0   0   0   0   0   0   0   0   0   0   0   0   0   0   0 
  0   0   0   0   0   0   1   3   2   0   2  11 106  91   1   1   2   2 
  0   1  46  26   1  14   3  19   5  21   8  44  43  12   3   0   4  52 
 52   1   0   0   0   0   0   0   0   0   0   0   0   0   0   0   0   0 
  1   2   1   2  33  21  62   5   1   0   0   0   0   0   0   0   0   0 
  0   0   1   2   5  77  68  24   1   0   0   0   0   0   2   0   0   2 
  0   0   0   0   0   0   0   0   0   0   1   2   1   0   0   2   1   0 
 90 109   8   2   0   0   0   0   0   0   0   0   0   0   0   0   0   0 
  0   0   0   2   0  63  86 114  55   2   2   0   0   0   0   1   2   1 
  0   0   0   0   0   0   0   0   0   0   1   1  23 122   2 118   5   0 
  0   2   2   1   0   0   1   2   0   0   3  81  68 126  25   3   2   2 
  1   0   0   1  96 100   4   1   0   0   0   0   0   0   0   0   0   0 
  0   0   0   0   0   0   0   0   0   0   0   0   0   0  88  78  11   0 
  1   2   0  71  41  30   0   0   0   0   0   0   0   0   0   0   0   0 
  0   0   0   0   0   0   0   0   0   0   0   0   2  70  33  35   0   0 
  0   0   0   0   0   0   0   0   0   0   0   0   0   0   0   0   0   0 
  0   0   0   0   0   0   0   0   0   0   0   0   0   0   0   0   0   0 
  0   0   0   0   0   0   0   0   0   0   0   0   0   0   0   0   0   0 
  0   0   0   0   0   0   0   0   0   0   0   0   0   0   0   0   0   0 
  0   0   0   0   0   0   0   0   0   0   0   0   0   0   0   0   0 103 
103   0   0   0   0   0   0   0   0   0   0   0   0   0   0   0   0   0 
  0   0   0   0   0   0   0   2   2   0   0   1  56  33  44   3   0   1 
  1   2  29   8  15  29  16  10  19  25  29  50   3   3   2   2  44  37 
 13   1   0   0   0   0   0   0   0   0   0   0   0   0   0   0   0   0 
  0   0   0   0  47   5  46   1   0   0   0   0   0   0   0   0   2   1 
  2   1   2   1   0 106 116   0   0   0   0   2   0   0   0   0   0   0 
  0   0   0   0   0   0   0   0   0   1   1   1   0   0   0   0   1  21 
 91  81   1   1   1   0   1   2   0   0   0   0   0   0   0   0   0   0 
  0   0   0   2  90  27 122   9   1   2   1   0   0   0   2   0   0   0 
  0   0   0   0   0   0   0   0   0   0   0   1   1   0  80  53 132   0 
  0   1   0   0   0   0   0   1   0   2 124   5 110   3   1   1   0   1 
  2   0   0   0  98  96   4   0   0   0   0   0   0   0   0   0   0   0 
  0   0   0   0   0   0   0   0   0   0   0   0   0   0  88  78   9   1 
  2   1   0  71  41  32   1   0   0   0   0   0   0   0   0   0   0   0 
  0   0   0   0   0   0   0   0   0   0   0   0   2  70  33  35   0   0 
  0   0   0   0   0   0   0   0   0   0   0   0   0   0   0   0   0   0 
  0   0   0   0   0   0   0   0   0   0   0   0   0   0   0   0   0   0 
  0   0   0   0   0   0   0   0   0   0   0   0   0   0   0   0   0   0 
  0   0   0   0   0   0   0   0   0   0   0   0   0   0   0   0   0   0 
  0   0   0   0   0   0   0   0   0   0   0   0   0   0   0   0   0 103 
103   0   0   0   0   0   0   0   0   0   0   0   0   0   0   0   0   0 
  0   0   0   0   0   0   0   2   1   0   1   3   0 118 106   8   0   2 
  2   2  14  35  47   0  18   5  40   3  42   2   0   1   1   4  55  48 
  0   1   0   0   0   0   0   0   0   0   0   0   0   0   0   0   0   0 
  0   0   0   0  60  40  33   1   1   0   0   0   0   0   0   0   0   0 
  0   0   0   2  15  33  75   1   0   0   0   0   0   0   0   0   0   0 
  0   0   0   0   2   0   0   0   0   0   0   0   2   0   0   1   3 105 
113  13   0   1   0   0   2   1   0   0   0   0   0   0   0   0   0   0 
  1   2   8 126  31  89   1   0   0   0   0   0   0   0   0   0   0   0 
  0   0   0   0   0   0   0   0   0   0   0   2   0   1   0  50 115 136 
  4   0   1   1   1   1   1   0  30 155 132  57   3   2   2   0   0   0 
  0   0   0   0  98  97   1   0   0   2   0   0   0   0   0   0   0   0 
  0   0   0   0   0   0   0   0   0   0   0   0   0   0  88  78  11   0 
  0   0   0  72  43  30   0   0   0   0   0   0   0   0   0   0   0   0 
  0   0   0   0   0   0   0   0   0   0   0   0   2  70  33  35   0   0 
  0   0   0   0   0   0   0   0   0   0   0   0   0   0   0   0   0   0 
  0   0   0   0   0   0   0   0   0   0   0   0   0   0   0   0   0   0 
  0   0   0   0   0   0   0   0   0   0   0   0   0   0   0   0   0   0 
  0   0   0   0   0   0   0   0   0   0   0   0   0   0   0   0   0   0 
  0   0   0   0   0   0   0   0   0   0   0   0   0   0   0   0   0 103 
103   0   0   0   0   0   0   0   2   0   0   0   0   0   0   0   0   0 
  0   0   0   0   0   0   0   0   0   0   1   1   1  22  62  65   0   0 
  0   0   5  59  67   8  12  45  26  26   0   0   0   1   2  63  47  12 
  1   1   0   0   0   0   0   0   0   0   0   0   0   0   0   0   0   0 
  0   0   0   0  60  37  31   2   0   0   0   0   0   0   0   0   0   0 
  0   0   1   2   0 100 113   1   0   0   0   0   0   0   0   0   0   0 
  0   0   0   0   0   0   0   0   0   0   0   0   0   0   0   0  27  52 
 88   3   1   0   0   0   0   0   0   0   0   0   0   0   2   3   2   1 
  1   5 115  64  69   1   1   0   0   0   0   0   0   0   0   0   0   0 
  0   0   0   0   0   0   0   0   0   0   0   0   0   0   0   1  40  85 
141   2   0   0   2   0   2  94  51 130  16   2   1   0   0   0   0   0 
  0   0   0   0  98  97   1   0   0   0   0   0   0   0   0   2   0   0 
  0   0   0   0   0   0   0   0   0   0   0   0   0   0  88  78  11   0 
  0   0   0  71  41  31   0   2   0   0   0   2   2   0   0   0   0   0 
  0   0   1   2   0   0   0   0   0   0   0   0   2  70  33  35   0   0 
  0   0   0   0   0   0   0   0   0   0   0   0   0   0   0   0   0   0 
  0   0   0   0   0   0   0   0   0   0   0   0   0   0   0   0   0   0 
  0   0   0   0   0   0   0   0   0   0   0   0   0   0   0   0   0   0 
  0   0   0   0   0   0   0   0   0   0   0   0   0   0   0   0   0   0 
  0   0   0   0   0   0   0   0   0   0   0   0   0   0   0   0   0 103 
103   0   0   0   0   0   0   0   0   0   2   0   1   2   1   2   0   0 
  0   1   1   0   0   0   0   0   0   1   3   1   0   0  89 102   7   0 
  1   3   6  78  74  32  32  52   8   3   2   1   1   1  20  16  38   1 
  0   1   0   0   0   0   0   0   0   0   0   0   0   0   0   0   0   0 
  0   0   0   0  51  15  42   2   0   0   0   0   0   0   0   0   0   2 
  2   0   2   3   2  77  79  29   0   0   2   0   0   0   0   0   0   0 
  1   2   0   0   0   0   0   0   0   0   0   0   0   0   0   1  62  49 
 23   1   0   0   0   0   0   0   0   0   0   0   2   0   2   2   0   1 
  3  90  11  74   2   1   0   0   0   0   0   0   0   0   0   0   0   0 
  0   0   0   0   0   0   0   0   0   0   0   0   0   0   0   1   1  57 
 60  86   2   0   0   9 116  16 102   3   0   0   0   0   0   0   0   0 
  0   0   0   0  98  97   1   0   0   0   1   0   0   2   0   0   0   0 
  0   0   0   0   0   0   0   0   0   0   0   0   0   0  88  78  11   0 
  0   0   0  71  41  31   0   0   0   2   0   1   2   0   0   0   0   0 
  0   0   2   1   0   0   0   0   0   0   0   0   2  70  33  35   0   0 
  0   0   0   0   0   0   0   0   0   0   0   0   0   0   0   0   0   0 
  0   0   0   0   0   0   0   0   0   0   0   0   0   0   0   0   0   0 
  0   0   0   0   0   0   0   0   0   0   0   0   0   0   0   0   0   0 
  0   0   0   0   0   0   0   0   0   0   0   0   0   0   0   0   0   0 
  0   0   0   0   0   0   0   0   0   0   0   0   0   0   0   0   0 103 
103   0   0   0   0   0   0   0   0   0   0   0   2   8   2   2   0   0 
  0   0   0   0   0   0   1   1   1   0   3   4   5   9  27 112  98   1 
  1   2   1  45  57   8  34   1   0   0   3   2   1   0  77  64   2   1 
  1   1   0   0   0   0   0   0   0   0   0   0   0   0   0   0   0   0 
  2   0   0   0  45   2  49   2   0   0   0   0   0   0   0   0   0   1 
  0   2   0   0   1   4 126 156  39   6   0   0   0   0   0   0   0   0 
  2   1   0   0   1   2   1   0   0   0   0   0   0   0   1   3 122 105 
  1   1   0   0   0   0   0   0   0   0   0   0   1   1   0   2   2   1 
 43  35  99   2   1   0   0   0   0   0   0   0   0   0   0   0   0   0 
  0   0   0   0   0   0   0   0   0   0   0   0   0   0   0   0   1   3 
 95  69  47   6  35 140 117  54   1   1   0   0   0   0   0   0   0   0 
  0   0   0   0  98  97   1   0   0   0   1   1   0   2   0   0   0   0 
  0   0   0   0   0   0   0   0   0   0   0   0   0   0  88  78  11   0 
  0   0   0  71  41  31   1   1   0   2   0   0   2   0   0   0   0   0 
  0   0   0   0   0   0   0   0   0   0   0   0   2  70  33  35   0   0 
  0   0   0   0   0   0   0   0   0   0   0   0   0   0   0   0   0   0 
  0   0   0   0   0   0   0   0   0   0   0   0   0   0   0   0   0   0 
  0   0   0   0   0   0   0   0   0   0   0   0   0   0   0   0   0   0 
  0   0   0   0   0   0   0   0   0   0   0   0   0   0   0   0   0   0 
  0   0   0   0   0   0   0   0   0   0   0   0   0   0   0   0   0 103 
103   0   0   0   0   0   0   0   0   2   0   0   7   7  10  13  18  12 
 11   9   8   4   7   9   8   9  15  19   9   9   8   2  17  39  26  17 
  1   1   3  17  26  10   0   2   0   2   2   1   0  62  55  12   3   1 
  0   0   0   0   0   0   0   0   0   0   0   0   0   0   0   0   0   0 
  0   0   0   0  31  26  65   2   0   0   0   0   0   0   0   0   0   0 
  0   0   0   2   1   2   8 139  39 104  65  13   2   1   1   0   0   0 
  1   1   0   1   2   1   2   0   0   0   0   0   0   0   0  34  42  72 
  2   0   0   0   0   0   0   0   0   0   2   0   0   1   0   1   1   9 
140 131   1   2   2   0   0   0   0   0   0   0   0   0   0   0   0   0 
  0   0   0   0   0   0   0   0   0   0   0   0   0   0   0   2   1   0 
  1 143 107 104  62 141  15   0   0   0   0   2   0   0   0   0   0   0 
  0   0   0   0  98  97   1   0   0   0   0   2   0   1   1   2   0   0 
  0   0   0   0   0   0   0   0   0   0   0   0   0   0  88  78  11   0 
  0   0   0  71  41  31   0   1   0   2   0   0   0   0   0   2   2   0 
  2   0   0   0   0   0   0   0   0   0   0   0   2  70  33  35   0   0 
  0   0   0   0   0   0   0   0   0   0   0   0   0   0   0   0   0   0 
  0   0   0   0   0   0   0   0   0   0   0   0   0   0   0   0   0   0 
  0   0   0   0   0   0   0   0   0   0   0   0   0   0   0   0   0   0 
  0   0   0   0   0   0   0   0   0   0   0   0   0   0   0   0   0   0 
  0   0   0   0   0   0   0   0   0   0   0   0   0   0   0   0   0 103 
103   0   0   0   0   0   0   0   0   0   0   0  14  27  12  15  20  10 
  4   2   0   6   5   2   3   2  13  20  10  13  11   6   1  10  47  55 
  2   0   2  13  12  25   2   1   2   2   1   2  50   8  29   0   1   0 
  0   0   0   0   0   0   0   0   0   0   0   0   0   0   0   0   0   0 
  0   0   0   0   8  87  96   5   0   0   0   0   0   0   0   0   0   0 
  0   0   0   2   0   2   2   2  55 114  41  97  95  70  56  41  26   7 
  1   1   1   2   1   0   0   0   2   0   0   0   0   0   0  90 109   8 
  1   2   0   0   0   0   0   0   0   0   0   0   0   0   1   1   0 104 
131  13   1   2   1   0   0   0   0   0   0   0   0   0   0   0   0   0 
  0   0   0   0   0   0   0   0   0   0   0   0   0   0   0   0   0   0 
  1  21  16  21  95   0   0   0   0   0   0   0   0   0   0   0   0   0 
  0   0   0   0  98  97   1   0   0   0   2   1   1   2  13   0   0   0 
  0   0   0   0   0   0   0   0   0   0   0   0   0   0  88  78  11   0 
  0   0   0  71  41  31   2   2   1   1   2   2   3   4   6   0   0   2 
  0   0   0   0   0   0   0   0   0   0   0   0   2  70  33  35   0   0 
  0   0   0   0   0   0   0   0   0   0   0   0   0   0   0   0   0   0 
  0   0   0   0   0   0   0   0   0   0   0   0   0   0   0   0   0   0 
  0   0   0   0   0   0   0   0   0   0   0   0   0   0   0   0   0   0 
  0   0   0   0   0   0   0   0   0   0   0   0   0   0   0   0   0   0 
  0   0   0   0   0   0   0   0   0   0   0   0   0   0   0   0   0 103 
103   0   0   0   0   0   0   0   0   0   0   0  12   8   4   2   1   3 
  7   7   8  11  11   8   6   3   1   0   2   1   2   1  10  39  88  62 
  8   1   1   7  19  23   2   2   3   3   2  41   0  45   2   3   1   1 
  1   1   0   0   0   0   0   0   0   0   0   0   0   0   0   0   0   0 
  0   0   0   0   3  86  83   4   0   0   0   0   0   0   0   0   0   2 
  0   0   1   2   2   0   1   0   1   0  33  95  82  52  31  12  41  85 
102  82  63  49  32  18  12   9   5   1   2   0   1   2  10  81  96   3 
  2   0   0   0   0   0   0   0   0   0   0   0   0   0   2   2  23  70 
 75   1   0   1   2   0   0   2   0   0   0   0   0   0   0   0   0   0 
  0   0   0   0   0   0   0   0   0   0   0   0   0   0   2   0   0   0 
  0   1  25  35   1   1   0   0   1   2   0   0   0   0   0   0   0   0 
  0   0   0   0  98  97   1   0   0   0   1   0   1  68  46  10   0   0 
  0   0   0   0   0   0   0   0   0   0   0   0   0   0  88  78  11   0 
  0   0   0  71  41  31   0   3   1   3   0   4  41  91   5   8   2   0 
  2   0   0   0   0   0   0   0   0   0   0   0   2  70  33  35   0   0 
  0   0   0   0   0   0   0   0   0   0   0   0   0   0   0   0   0   0 
  0   0   0   0   0   0   0   0   0   0   0   0   0   0   0   0   0   0 
  0   0   0   0   0   0   0   0   0   0   0   0   0   0   0   0   0   0 
  0   0   0   0   0   0   0   0   0   0   0   0   0   0   0   0   0   0 
  0   0   0   0   0   0   0   0   0   0   0   0   0   0   0   0   0 103 
103   0   0   0   0   0   0   0   0   0   0   0   9   6   8   0   0   0 
  1   0   0   1   1   0   0   2   2   2  13  22  28  29  19  37  31  40 
 30   2   0   6  23  31   4   1   0   1  37  32  54   0   2   2   0   1 
  1   2   0   0   0   0   0   0   0   0   0   0   0   0   0   0   0   0 
  0   1   2   0   2  70  66  15   0   0   0   0   0   0   0   0   0   0 
  0   0   0   0   0   0   2   0   0   1   2   4   7  18  29  52  70  92 
112  73  38   6  29  63  66  66  76  82  71  49  24   2  25  37  61   1 
  1   0   0   0   0   0   0   0   0   0   0   0   2   1   1   3 124 113 
 12   0   0   0   0   0   0   0   0   0   0   0   0   0   0   0   0   0 
  0   0   0   0   0   0   0   0   0   0   0   0   0   0   0   0   0   0 
  0   0   2   0   0   0   0   0   2   1   0   0   0   0   0   0   0   0 
  0   0   0   0  98  97   1   0   0   0   3  22 126   3 228  88   3   0 
  0   0   0   0   0   0   0   0   0   0   0   0   0   0  88  78  11   0 
  0   0   0  71  41  31   0   0   0   4   6 112  79 255  62  12   1   0 
  0   0   0   0   0   0   0   0   0   0   0   0   2  70  33  35   0   0 
  0   0   0   0   0   0   0   0   0   0   0   0   0   0   0   0   0   0 
  0   0   0   0   0   0   0   0   0   0   0   0   0   0   0   0   0   0 
  0   0   0   0   0   0   0   0   0   0   0   0   0   0   0   0   0   0 
  0   0   0   0   0   0   0   0   0   0   0   0   0   0   0   0   0   0 
  0   0   0   0   0   0   0   0   0   0   0   0   0   0   0   0   0 103 
103   0   0   0   0   0   0   0   0   0   0   0  12  62  11  21  15  14 
 12  11  11  13  14  16  20  24  34  36  10  18  29  27  23   4   2  29 
 27   2   0   5  23  27   0   1   1  41  12  58   2   2   1   1   0   1 
  0   0   0   0   0   0   0   0   0   0   0   0   0   0   0   0   0   0 
  1   1   1   0   0  55  35  35   1   0   0   0   0   0   0   0   0   0 
  0   2   0   0   0   0   0   0   2   2   1   0   1   1   1   3   2   6 
  2   7  28  42  62  76  77  71  74  79  60   7  40 119 124  22  45   2 
  1   0   0   0   0   0   0   0   0   0   0   0   1   2   1  31  37  73 
  2   0   0   0   0   0   0   0   0   0   0   0   0   0   0   0   0   0 
  0   0   0   0   0   0   0   0   0   0   0   0   0   0   0   0   0   0 
  0   0   0   0   0   2   0   0   1   2   0   0   0   0   0   0   0   0 
  0   0   0   0  97  97   1   0   0   2  69 130 145  74  66  82   2   0 
  0   0   0   0   0   0   0   0   0   0   0   0   0   0  88  78  11   0 
  0   0   0  71  41  31   0   1   4  38 160 115  92  79  71  14   0   0 
  0   0   0   0   0   0   0   0   0   0   0   0   2  70  33  35   0   0 
  0   0   0   0   0   0   0   0   0   0   0   0   0   0   0   0   0   0 
  0   0   0   0   0   0   0   0   0   0   0   0   0   0   0   0   0   0 
  0   0   0   0   0   0   0   0   0   0   0   0   0   0   0   0   0   0 
  0   0   0   0   0   0   0   0   0   0   0   0   0   0   0   0   0   0 
  0   0   0   0   0   0   0   0   0   0   0   0   0   0   0   0   0 103 
103   0   0   0   0   0   0   0   0   0   0  12   8  86  16   9   0   4 
  6  10  10   4   4   1   6  16  29  35  21   8   1   2   2   3   4  15 
 10  12   1   7  22  26   0   2  50  10  55  14  15  12  13  14  10   1 
  1   0   0   0   0   0   0   0   0   0   0   0   0   0   0   0   0   0 
  0   0   0   0   0  14  94 122   6   1   2   0   0   0   1   2   0   0 
  0   0   0   0   0   0   0   0   0   0   0   0   0   1   1   1   0   1 
  0   1   1   1   2   2   2   5   7   8  21  46  73 116  52  21   8   0 
  0   2   0   0   0   0   0   0   0   0   0   0   0   0   3  70  74  21 
  0   0   0   0   0   0   0   0   0   0   0   0   0   0   0   0   0   0 
  0   0   0   0   0   0   0   0   0   0   0   0   0   0   0   0   0   0 
  0   0   0   0   0   0   0   0   0   0   0   0   0   0   0   0   0   0 
  0   0   0   0  99  97   0   1   8 137   5 137  10  11  73  85   2   0 
  0   0   0   0   0   0   0   0   0   0   0   0   0   0  88  78  11   0 
  0   1   0  71  41  31   1   2 114  65 143  27   2  81  70  13   0   0 
  0   0   0   0   0   0   0   0   0   0   0   0   2  70  33  35   0   0 
  0   0   0   0   0   0   0   0   0   0   0   0   0   0   0   0   0   0 
  0   0   0   0   0   0   0   0   0   0   0   0   0   0   0   0   0   0 
  0   0   0   0   0   0   0   0   0   0   0   0   0   0   0   0   0   0 
  0   0   0   0   0   0   0   0   0   0   0   0   0   0   0   0   0   0 
  0   0   0   0   0   0   0   0   0   0   0   0   0   0   0   0   0 103 
103   0   0   0   0   0   0   0   0   0   1   5  30  35   6  11  12  18 
 19  21  21  17  16  15  11  10   1   0   1   2   0   0   0   1   0   2 
 43  46   0   9  16  26   3  62  11  62  11  14  18  16  13  23   2  21 
  6   0   0   0   0   0   0   0   0   0   0   0   0   0   0   0   0   0 
  0   0   0   0   0   2  80  61  26   3   1   1   0   0   1   1   0   0 
  0   0   0   0   0   0   0   0   0   0   0   0   0   0   0   0   0   0 
  0   0   0   0   0   0   0   0   0   0   1   1   5   4   9  10   1   2 
  0   1   0   0   0   0   0   0   0   0   0   0   2   1   4  87  83   6 
  0   0   0   0   0   0   0   0   0   0   0   0   0   0   0   0   0   0 
  0   0   0   0   0   0   0   0   0   0   0   0   0   0   0   0   0   0 
  0   0   0   0   0   0   0   0   0   0   0   0   0   0   0   0   0   0 
  0   0   0   0 100  97   0  59 159 151  62   0   1  11  75  81   3   0 
  0   0   0   0   0   0   0   0   0   0   0   0   0   0  88  78  11   0 
  0   1   0  72  44  28  36 163  91  97   4   1   2  81  70  13   0   0 
  0   0   0   0   0   0   0   0   0   0   0   0   2  70  33  35   0   0 
  0   0   0   0   0   0   0   0   0   0   0   0   0   0   0   0   0   0 
  0   0   0   0   0   0   0   0   0   0   0   0   0   0   0   0   0   0 
  0   0   0   0   0   0   0   0   0   0   0   0   0   0   0   0   0   0 
  0   0   0   0   0   0   0   0   0   0   0   0   0   0   0   0   0   0 
  0   0   0   0   0   0   0   0   0   0   0   0   0   0   0   0   0 103 
103   0   0   0   0   0   0   0   0   0   2   2  50  58   1   0   0   2 
  2   0   0   3   1   1   1   1   0   0   0   1   0   0   0   0   2   0 
 30  20   5  17   2   6  73  48  50  15  17   4   3   3   6   0   8  20 
  9   7   0   0   0   0   0   0   0   0   0   0   0   0   0   0   0   0 
  2   0   0   0   0   0  16  92  95   2   0   3   0   2   2   0   0   0 
  0   0   0   0   0   0   0   0   0   0   0   0   0   0   0   0   0   0 
  0   0   0   0   0   0   0   0   0   0   0   1   0   1   1   1   0   2 
  1   2   0   0   0   0   0   0   0   0   2   0   0   3  22  69  77   0 
  0   0   0   0   0   0   0   0   0   0   0   0   0   0   0   0   0   0 
  0   0   0   0   0   0   0   0   0   0   0   0   0   0   0   0   0   0 
  0   0   0   0   0   0   0   0   0   0   0   0   0   0   0   0   0   0 
  0   0   0   1  97 108 147  13 137  12   2   1   2  14  70  83   2   0 
  0   0   0   0   0   0   0   0   0   0   0   0   0   0  88  78  11   0 
  0   0   1  69  44 133  50 133  36   0   1   0   3  81  70  13   0   0 
  0   0   0   0   0   0   0   0   0   0   0   0   2  70  33  35   0   0 
  0   0   0   0   0   0   0   0   0   0   0   0   0   0   0   0   0   0 
  0   0   0   0   0   0   0   0   0   0   0   0   0   0   0   0   0   0 
  0   0   0   0   0   0   0   0   0   0   0   0   0   0   0   0   0   0 
  0   0   0   0   0   0   0   0   0   0   0   0   0   0   0   0   0   0 
  0   0   0   0   0   0   0   0   0   0   0   0   0   0   0   0   0 103 
103   0   0   0   0   0   0   0   0   0   0   0  38  39   6   2   2   0 
  2   0   1   0   0   1   1   0   0   1   1   1   0   2   0   0   1   0 
  6  22  25  19  35  39  74  21   3  11  12  33  20  23  19  24  27   2 
 25  20   2   0   0   0   0   0   0   0   0   0   0   0   0   0   0   0 
  0   0   0   0   0   0   0  81  82  40   3   0   1   3   2   0   0   0 
  0   0   0   0   0   0   0   0   0   0   0   0   0   0   0   0   0   0 
  0   0   0   0   2   0   0   0   0   0   0   0   1   2   1   2   2   0 
  0   0   0   0   0   0   0   0   0   0   0   0   0   2  56  23  39   0 
  0   0   0   0   0   0   0   0   0   0   0   0   0   0   0   0   0   0 
  0   0   0   0   0   0   0   0   0   0   0   0   0   0   0   0   0   0 
  0   0   0   0   0   0   0   0   0   0   0   0   0   0   0   0   0   0 
  0   0   2   1  84 224 122  65   1   0   1   2   1  10  75  83   3   0 
  0   0   0   0   0   0   0   0   0   0   0   0   0   0  88  78  11   0 
  0   1   2  66 147   5 106   8   0   1   1   0   3  79  70  13   0   0 
  0   0   0   0   0   0   0   0   0   0   0   0   2  70  33  35   0   0 
  0   0   0   0   0   0   0   0   0   0   0   0   0   0   0   0   0   0 
  0   0   0   0   0   0   0   0   0   0   0   0   0   0   0   0   0   0 
  0   0   0   0   0   0   0   0   0   0   0   0   0   0   0   0   0   0 
  0   0   0   0   0   0   0   0   0   0   0   0   0   0   0   0   0   0 
  0   0   0   0   0   0   0   0   0   0   0   0   0   0   0   0   0 103 
103   0   0   0   0   0   0   0   0   0   0   0  17  19  39   4   2   2 
  1   1   1   0   0   0   0   0   1   1   1   2   0   0   2   2   0   0 
  4  27  27  76  64  55   0  16  19  35  14  40  27  26  26  28  33  44 
 12  16  12   0   0   0   0   0   0   0   0   0   0   0   0   0   0   0 
  0   0   0   0   0   0   0   0 145 126   6   3   0   2   1   0   0   0 
  0   0   0   0   0   0   0   0   0   0   0   0   0   0   0   0   0   0 
  0   0   0   0   0   0   0   0   0   0   0   0   2   3   2   0   1   2 
  0   0   0   0   0   0   0   0   0   0   0   0   0   4  87  78  14   0 
  0   0   0   0   0   0   0   0   0   0   0   0   0   0   0   0   0   0 
  0   0   0   0   0   0   0   0   0   0   0   0   0   0   0   0   0   0 
  0   0   0   0   0   0   0   0   0   0   0   0   0   0   0   0   0   0 
  0   0   0   1   2  77  19   2   1   0   2   1   0  13  72  83   0   2 
  0   0   0   0   0   0   0   0   0   0   0   0   0   0  88  78  11   2 
  1   2   1   1  56  44   0   2   0   1   0   0   3  81  70  13   0   0 
  0   0   0   0   0   0   0   0   0   0   0   0   2  70  33  35   0   0 
  0   0   0   0   0   0   0   0   0   0   0   0   0   0   0   0   0   0 
  0   0   0   0   0   0   0   0   0   0   0   0   0   0   0   0   0   0 
  0   0   0   0   0   0   0   0   0   0   0   0   0   0   0   0   0   0 
  0   0   0   0   0   0   0   0   0   0   0   0   0   0   0   0   0   0 
  0   0   0   0   0   0   0   0   0   0   0   0   0   0   0   0   0 103 
103   0   0   0   0   0   0   0   1   2   0   1   2  60  47   2   2   1 
  1   1   1   0   0   0   0   0   2   1   0   2   0   1   1   2   1   1 
  4   1  53  83  93   1   1  16  14  26  32   3   0   4   1   0   6  51 
 12   4  16   0   0   0   0   0   0   0   0   0   0   0   0   0   0   0 
  0   0   0   0   0   2   0   0  14 113 157   1   2   1   0   0   0   0 
  0   0   0   0   0   0   0   0   0   0   0   0   0   0   0   0   0   0 
  0   0   0   0   0   0   0   0   0   0   0   0   0   1   0   0   0   0 
  0   0   0   0   0   0   0   0   0   0   0   0   0   3 105 108   2   1 
  0   0   0   0   0   0   0   0   0   0   0   0   0   0   0   0   0   0 
  0   0   0   0   0   0   0   0   0   0   0   0   0   0   0   0   0   0 
  0   0   0   0   0   0   0   0   0   0   0   0   0   0   0   0   0   0 
  0   0   0   2   1   2   0   0   0   0   0   0   2  12  74  83   2   0 
  0   0   0   0   0   0   0   0   0   0   0   0   0   0  88  78  11   0 
  0   0   0   0   3   2   0   0   0   1   0   0   1  81  70  13   0   0 
  0   0   0   0   0   0   0   0   0   0   0   0   2  70  33  35   0   0 
  0   0   0   0   0   0   0   0   0   0   0   0   0   0   0   0   0   0 
  0   0   0   0   0   0   0   0   0   0   0   0   0   0   0   0   0   0 
  0   0   0   0   0   0   0   0   0   0   0   0   0   0   0   0   0   0 
  0   0   0   0   0   0   0   0   0   0   0   0   0   0   0   0   0   0 
  0   0   0   0   0   0   0   0   0   0   0   0   0   0   0   0   0 103 
103   0   0   0   0   0   0   0   1   1   0   1   2  41  35   9   0   0 
  2   0   0   0   0   0   0   0   0   0   2   0   1   0   0   1   0  22 
 56  80  20  83  58   0   1  29  12  24   0   0   1   3   0   2   2   2 
 50  27  19   0   0   0   0   0   0   0   0   0   0   0   0   0   0   0 
  0   0   0   0   0   0   0   0   1  27 129 148   9   2   2   1   0   0 
  0   0   0   0   0   0   0   0   0   0   0   0   0   0   0   0   0   0 
  0   0   0   0   0   0   0   0   0   0   0   0   0   2   0   0   2   1 
  0   0   0   0   0   0   0   0   0   0   2   0   0   3  74  85   1   2 
  0   0   0   0   0   0   0   0   0   0   0   0   0   0   0   0   0   0 
  0   0   0   0   0   0   0   0   0   0   0   0   0   0   0   0   0   0 
  0   0   0   0   0   0   0   0   0   0   0   0   0   0   0   0   0   0 
  0   0   0   0   0   0   2   0   0   2   0   0   0  12  72  81   4   0 
  0   0   0   0   0   0   0   0   0   0   0   0   0   0  88  78  11   1 
  2   0   0   0   0   0   0   0   0   1   0   0   3  81  70  13   0   0 
  0   0   0   0   0   0   0   0   0   0   0   0   2  70  33  35   0   0 
  0   0   0   0   0   0   0   0   0   0   0   0   0   0   0   0   0   0 
  0   0   0   0   0   0   0   0   0   0   0   0   0   0   0   0   0   0 
  0   0   0   0   0   0   0   0   0   0   0   0   0   0   0   0   0   0 
  0   0   0   0   0   0   0   0   0   0   0   0   0   0   0   0   0   0 
  0   0   0   0   0   0   0   0   0   0   0   0   0   0   0   0   0 103 
103   0   0   0   0   0   0   0   1   0   1   3  12   5  34  29   0   1 
  0   2   0   0   0   0   0   0   0   2   0   0   0   1   2   5  19  23 
 36   2  41  66  49   1   1  46  56   2   2   1   1   0   1   2   3   2 
  6  46  39   0   0   0   0   0   0   0   0   0   0   0   0   0   0   0 
  0   0   0   0   2   1   2   0   0   1  25 120 141  33   3   1   0   0 
  0   0   0   0   0   0   0   0   0   0   0   0   0   0   0   0   0   0 
  0   0   0   0   0   0   0   0   0   1   1   0   0   0   0   0   1   2 
  2   0   0   0   0   0   0   0   0   0   2   0   0   8  74  83   2   1 
  0   0   0   0   0   0   0   0   0   0   0   0   0   0   0   0   0   0 
  0   0   0   0   0   0   0   0   0   0   0   0   0   0   0   0   0   0 
  0   0   0   0   0   0   0   0   0   0   0   0   0   0   0   0   0   0 
  0   0   0   0   0   0   0   0   0   0   0   0   0  12  73  83   2   0 
  0   0   0   0   0   0   0   0   0   0   0   0   0   0  88  78  11   2 
  1   0   0   0   0   0   0   0   0   0   0   0   3  81  70  13   0   0 
  0   0   0   0   0   0   0   0   0   0   0   0   2  70  33  35   0   0 
  0   0   0   0   0   0   0   0   0   0   0   0   0   0   0   0   0   0 
  0   0   0   0   0   0   0   0   0   0   0   0   0   0   0   0   0   0 
  0   0   0   0   0   0   0   0   0   0   0   0   0   0   0   0   0   0 
  0   0   0   0   0   0   0   0   0   0   0   0   0   0   0   0   0   0 
  0   0   0   0   0   0   0   0   0   0   0   0   0   0   0   0   0 103 
103   0   0   0   0   0   0   0   0   0   0   2  16  21  49  29   0   2 
  1   0   0   0   2   0   2   2   1   2   1   0   0   1   0  12  16  40 
 26   1  38   8  27  16   2  49  64   4   0   1   0   0   0   0   2   0 
  3  66  46   0   0   0   0   0   0   0   0   0   0   0   0   0   0   0 
  0   0   0   0   0   0   0   0   0   1   1  16 143  77  98   2   1   0 
  0   1   2   3   2   0   0   0   0   0   1   0   0   0   0   0   2   0 
  0   0   0   0   2   0   0   0   0   0   0   0   0   0   0   0   0   0 
  0   0   0   0   0   0   0   0   0   0   2   0   0   5  77  83   0   0 
  0   0   0   0   0   0   0   0   0   0   0   0   0   0   0   0   0   0 
  0   0   0   0   0   0   0   0   0   0   0   0   0   0   0   0   0   0 
  0   0   0   0   0   0   0   0   0   0   0   0   0   0   0   0   0   0 
  0   0   0   0   0   0   0   0   0   0   0   0   0  12  73  83   2   0 
  0   0   0   0   0   0   0   0   0   0   0   0   0   0  88  78  11   0 
  0   0   0   0   0   0   0   0   0   0   0   0   3  81  70  13   0   0 
  0   0   0   0   0   0   0   0   0   0   0   0   2  70  33  35   0   0 
  0   0   0   0   0   0   0   0   0   0   0   0   0   0   0   0   0   0 
  0   0   0   0   0   0   0   0   0   0   0   0   0   0   0   0   0   0 
  0   0   0   0   0   0   0   0   0   0   0   0   0   0   0   0   0   0 
  0   0   0   0   0   0   0   0   0   0   0   0   0   0   0   0   0   0 
  0   0   0   0   0   0   0   0   0   0   0   0   0   0   0   0   0 103 
103   0   0   0   0   0   0   0   0   0   0   4   9   8  19  11   1   0 
  0   1   1   0   0   0   2   1   1   0   2   0   0   1   1   0  13  33 
 22  66  22  79  27  11  23  41  52   0   0   1   2   0   0   2   3   1 
 15  41  35   0   0   0   0   0   0   0   0   0   0   0   0   0   0   0 
  0   0   0   0   0   0   0   0   0   2   1   2   4  81  98 151  56  14 
  4   1   1   2   3   0   0   2   2   0   2   2   2   0   0   0   0   0 
  2   0   0   0   0   0   0   0   0   0   0   0   0   0   0   0   0   0 
  0   0   0   0   0   0   0   0   0   0   0   0   0   7  66  83   0   0 
  0   0   0   0   0   0   0   0   0   0   0   0   0   0   0   0   0   0 
  0   0   0   0   0   0   0   0   0   0   0   0   0   0   0   0   0   0 
  0   0   0   0   0   0   0   0   0   0   0   0   0   0   0   0   0   0 
  0   0   0   0   0   0   0   0   0   0   0   0   0  12  73  83   2   0 
  0   0   0   0   0   0   0   0   0   0   0   0   0   0  88  78  11   0 
  0   0   0   0   0   0   0   0   0   0   0   0   3  81  70  13   0   0 
  0   0   0   0   0   0   0   0   0   0   0   0   2  70  33  35   0   0 
  0   0   0   0   0   0   0   0   0   0   0   0   0   0   0   0   0   0 
  0   0   0   0   0   0   0   0   0   0   0   0   0   0   0   0   0   0 
  0   0   0   0   0   0   0   0   0   0   0   0   0   0   0   0   0   0 
  0   0   0   0   0   0   0   0   0   0   0   0   0   0   0   0   0   0 
  0   0   0   0   0   0   0   0   0   0   0   0   0   0   0   0   0 103 
103   0   0   0   0   0   0   0   0   0   1   2   6  25  35   1   0   0 
  2   2   1   0   0   0   1   0   2   2   0   0   0   2   1   0   2   1 
 15   1  31  67  62  13  15  42  19  62   0   0   2   1   2   0   4   1 
 73  61   5   0   0   0   0   0   0   0   0   0   0   0   0   0   0   0 
  0   0   0   0   0   0   0   0   0   0   0   1   1   0  21 124  18  81 
100  18   2   0   1   1   1   2   3   2   2   0   0   0   1   0   0   2 
  0   0   1   0   0   0   0   0   0   0   0   0   0   0   0   0   0   0 
  0   0   0   0   0   0   0   0   0   0   0   1   2   0  97  95   1   0 
  0   0   0   0   0   0   0   0   0   0   0   0   0   0   0   0   0   0 
  0   0   0   0   0   0   0   0   0   0   0   0   0   0   0   0   0   0 
  0   0   0   0   0   0   0   0   0   0   0   0   0   0   0   0   0   0 
  0   0   0   0   0   0   0   0   0   0   0   0   0  12  73  83   2   0 
  0   0   0   0   0   0   0   0   0   0   0   0   0   0  88  78  11   0 
  0   0   0   0   0   0   0   0   0   0   0   0   3  81  70  13   0   0 
  0   0   0   0   0   0   0   0   0   0   0   0   2  70  33  35   0   0 
  0   0   0   0   0   0   0   0   0   0   0   0   0   0   0   0   0   0 
  0   0   0   0   0   0   0   0   0   0   0   0   0   0   0   0   0   0 
  0   0   0   0   0   0   0   0   0   0   0   0   0   0   0   0   0   0 
  0   0   0   0   0   0   0   0   0   0   0   0   0   0   0   0   0   0 
  0   0   0   0   0   0   0   0   0   0   0   0   0   0   0   0   0 103 
103   0   0   0   0   0   0   0   0   1   2   8   3   8  26   2   1   0 
  0   0   2   0   0   0   1   1   1   2   0   2   1   0   0   0   0   3 
  4  27  36  77  91  19   4  31  67  15  64  29  12   5   6  12  31  70 
 37  17   0   0   0   0   0   0   0   0   0   0   0   0   0   0   0   0 
  0   0   0   0   0   0   0   0   0   0   0   0   1   1   1   1  37  95 
 85  85  87  75  38   7   5   4   3   1   0   3   3   0   2   1   1   0 
  0   0   1   0   0   0   2   1   2   0   0   0   0   0   0   0   0   0 
  0   0   0   0   0   0   0   0   0   0   0   2   1   6 102 107   3   1 
  0   0   0   0   0   0   0   0   0   0   0   0   0   0   0   0   0   0 
  0   0   0   0   0   0   0   0   0   0   0   0   0   0   0   0   0   0 
  0   0   0   0   0   0   0   0   0   0   0   0   0   0   0   0   0   0 
  0   0   0   0   0   0   0   0   0   0   0   0   0  12  73  83   2   0 
  0   0   0   0   0   0   0   0   0   0   0   0   0   0  88  78  11   0 
  0   0   0   0   0   0   0   0   0   0   0   0   3  81  70  13   0   0 
  0   0   0   0   0   0   0   0   0   0   0   0   2  70  33  35   0   0 
  0   0   0   0   0   0   0   0   0   0   0   0   0   0   0   0   0   0 
  0   0   0   0   0   0   0   0   0   0   0   0   0   0   0   0   0   0 
  0   0   0   0   0   0   0   0   0   0   0   0   0   0   0   0   0   0 
  0   0   0   0   0   0   0   0   0   0   0   0   0   0   0   0   0   0 
  0   0   0   0   0   0   0   0   0   0   0   0   0   0   0   0   0 103 
103   0   0   0   0   0   0   0   0   1   1   0  48  40   8   4   2   1 
  2   0   0   1   1   1   2   1   0   0   1   2   0   1   2   0   1   1 
  4  27  26  27  21   4  43   1  30  53  46  12  32  47  39  31  20  49 
 16   2   1   0   0   0   0   0   0   0   0   0   0   0   0   0   0   0 
  0   0   0   0   0   0   0   0   0   0   0   0   0   0   1   1   1   2 
 20  78  77  67   8  97 109  62  31  23  10   5   5   2   3   3   1   2 
  0   0   2   2   0   0   0   0   1   0   0   0   0   0   0   0   0   0 
  0   0   0   0   0   0   0   0   0   0   0   0   0   4  67  39  31   2 
  0   0   0   0   0   0   0   0   0   0   0   0   0   0   0   0   0   0 
  0   0   0   0   0   0   0   0   0   0   0   0   0   0   0   0   0   0 
  0   0   0   0   0   0   0   0   0   0   0   0   0   0   0   0   0   0 
  0   0   0   0   0   0   0   0   0   0   0   0   0  12  73  83   2   0 
  0   0   0   0   0   0   0   0   0   0   0   0   0   0  88  78  11   0 
  0   0   0   0   0   0   0   0   0   0   0   0   3  81  70  13   0   0 
  0   0   0   0   0   0   0   0   0   0   0   0   2  70  33  35   0   0 
  0   0   0   0   0   0   0   0   0   0   0   0   0   0   0   0   0   0 
  0   0   0   0   0   0   0   0   0   0   0   0   0   0   0   0   0   0 
  0   0   0   0   0   0   0   0   0   0   0   0   0   0   0   0   0   0 
  0   0   0   0   0   0   0   0   0   0   0   0   0   0   0   0   0   0 
  0   0   0   0   0   0   0   0   0   0   0   0   0   0   0   0   0 103 
103   0   0   0   0   0   0   0   0   0   1   0  49  54   4   3   0   0 
  0   0   0   0   1   0   2   0   0   1   1   0   1   2   2   1   1   2 
 17   5  17  18   0  12  27  45  10  31  29  21  35  42  40  34  16   2 
  1   1   0   0   0   0   0   0   0   0   0   0   0   0   0   0   0   0 
  0   0   0   0   0   0   0   0   2   0   0   0   0   0   2   1   0   0 
  0   0   7  20  51  90  97  25  34  48  69  83  98  67  47  23   1   4 
  0   1   3   1   0   0   2   1   2   1   0   0   0   0   0   0   0   0 
  0   0   0   0   0   0   0   0   0   0   0   0   0   2  31  40  62   1 
  0   0   0   0   0   0   0   0   0   0   0   0   0   0   0   0   0   0 
  0   0   0   0   0   0   0   0   0   0   0   0   0   0   0   0   0   0 
  0   0   0   0   0   0   0   0   0   0   0   0   0   0   0   0   0   0 
  0   0   0   0   0   0   0   0   0   0   0   0   0  12  73  83   2   0 
  0   0   0   0   0   0   0   0   0   0   0   0   0   0  88  78  11   0 
  0   0   0   0   0   0   0   0   0   0   0   0   3  81  70  13   0   0 
  0   0   0   0   0   0   0   0   0   0   0   0   2  70  33  35   0   0 
  0   0   0   0   0   0   0   0   0   0   0   0   0   0   0   0   0   0 
  0   0   0   0   0   0   0   0   0   0   0   0   0   0   0   0   0   0 
  0   0   0   0   0   0   0   0   0   0   0   0   0   0   0   0   0   0 
  0   0   0   0   0   0   0   0   0   0   0   0   0   0   0   0   0   0 
  0   0   0   0   0   0   0   0   0   0   0   0   0   0   0   0   0 103 
103   0   0   0   0   0   0   0   1   1   1   9  27  35   1   6  12  15 
 18  18  20  17  16  11   6   1   4   1   0   2   0   0   1   4   3   2 
 50  49   1  12  12  24   9  54  39  14  26  22   2   0   1   3   1   1 
  1   0   0   0   0   0   0   0   0   0   0   0   0   0   0   0   0   0 
  0   0   0   0   0   0   0   0   0   0   0   0   0   0   1   2   1   0 
  0   0   0   0   1   1   8  33  57  67  78  85  98  34   1  50 101  95 
 79  73  62  47  36  23   5   2   5   0   1   0   0   0   0   0   0   0 
  0   0   0   0   0   0   0   0   0   0   0   0   0   2   3  95  91   2 
  0   0   0   0   0   0   0   0   0   0   0   0   0   0   0   0   0   0 
  0   0   0   0   0   0   0   0   0   0   0   0   0   0   0   0   0   0 
  0   0   0   0   0   0   0   0   0   0   0   0   0   0   0   0   0   0 
  0   0   0   0   0   0   0   0   0   0   0   0   0  12  73  83   2   0 
  0   0   0   0   0   0   0   0   0   0   0   0   0   0  88  78  11   0 
  0   0   0   0   0   0   0   0   0   0   0   0   3  81  70  13   0   0 
  0   0   0   0   0   0   0   0   0   0   0   0   2  70  33  35   0   0 
  0   0   0   0   0   0   0   0   0   0   0   0   0   0   0   0   0   0 
  0   0   0   0   0   0   0   0   0   0   0   0   0   0   0   0   0   0 
  0   0   0   0   0   0   0   0   0   0   0   0   0   0   0   0   0   0 
  0   0   0   0   0   0   0   0   0   0   0   0   0   0   0   0   0   0 
  0   0   0   0   0   0   0   0   0   0   0   0   0   0   0   0   0 103 
103   0   0   0   0   0   0   0   1   1   0  13   9  84  48  29  23  13 
  6   9   8   5  18  20  32  48  54  33  14   6   3   2   0   1   0  11 
 12  23   0   7  18  25   0   0  42  21  21  22  25   1   1   1   0   1 
  0   0   0   0   0   0   0   0   0   0   0   0   0   0   0   0   0   0 
  0   0   0   0   0   0   0   0   0   0   0   0   0   0   0   1   2   0 
  0   0   2   0   1   0   0   0   0   0   0   1   7  28  48  69  91  92 
 67  51  30   9  17  46  86 106  64  23   6   0   1   0   0   0   0   0 
  0   0   0   0   0   0   0   0   0   0   0   0   0   2   4  73  76  13 
  1   0   0   0   0   0   0   0   0   0   0   0   0   0   0   0   0   0 
  0   0   0   0   0   0   0   0   0   0   0   0   0   0   0   0   0   0 
  0   0   0   0   0   0   0   0   0   0   0   0   0   0   0   0   0   0 
  0   0   0   0   0   0   0   0   0   0   0   0   0  12  73  83   2   0 
  0   0   0   0   0   0   0   0   0   0   0   0   0   0  88  78  11   0 
  0   0   0   0   0   0   0   0   0   0   0   0   3  81  70  13   0   0 
  0   0   0   0   0   0   0   0   0   0   0   0   2  70  33  35   0   0 
  0   0   0   0   0   0   0   0   0   0   0   0   0   0   0   0   0   0 
  0   0   0   0   0   0   0   0   0   0   0   0   0   0   0   0   0   0 
  0   0   0   0   0   0   0   0   0   0   0   0   0   0   0   0   0   0 
  0   0   0   0   0   0   0   0   0   0   0   0   0   0   0   0   0   0 
  0   0   0   0   0   0   0   0   0   0   0   0   0   0   0   0   0 103 
103   0   0   0   0   0   0   0   1   1   0   5   2  32  50  39  34  30 
 27  27  27  27  31  34  39  48  51  19  21  44  35  41  14   2   2  25 
 27   4   0   7  25  29   2   0   0  44  19  19  16  20   1   1   0   2 
  1   0   0   0   0   0   0   0   0   0   0   0   0   0   0   0   0   0 
  0   0   0   0   0   0   0   0   0   0   0   0   0   0   0   0   0   0 
  0   0   0   0   2   0   0   0   0   0   0   0   0   0   0   0   0   3 
 12  21  31  41  54  69  91 108  29  56  85  79  47   5   2   1   0   1 
  1   0   0   0   0   0   0   0   0   0   0   0   0   1   3  51  23  45 
  2   1   2   0   0   0   0   0   0   0   0   0   0   0   0   0   0   0 
  0   0   0   0   0   0   0   0   0   0   0   0   0   0   0   0   0   0 
  0   2   0   0   2   0   0   0   0   0   0   0   0   0   0   0   0   0 
  0   0   0   0   0   0   0   0   0   0   0   0   0  12  73  83   2   0 
  0   0   0   0   0   0   0   0   0   0   0   0   0   0  88  78  11   0 
  0   0   0   0   0   0   0   0   0   0   0   0   3  81  70  13   0   0 
  0   0   0   0   0   0   0   0   0   0   0   0   2  70  33  35   0   0 
  0   0   0   0   0   0   0   0   0   0   0   0   0   0   0   0   0   0 
  0   0   0   0   0   0   0   0   0   0   0   0   0   0   0   0   0   0 
  0   0   0   0   0   0   0   0   0   0   0   0   0   0   0   0   0   0 
  0   0   0   0   0   0   0   0   0   0   0   0   0   0   0   0   0   0 
  0   0   0   0   0   0   0   0   0   0   0   0   0   0   0   0   0 103 
103   0   0   0   0   0   0   0   0   0   2   1   4   4   1   0   0   0 
  0   0   0   0   0   0   0   0   3  15  32  45  35  39  25  50  17  40 
 31   4   1   4  21  27   2   0   0   4  40   7  11   1  11   1   1   1 
  3   1   0   0   0   0   0   0   0   0   0   0   0   0   0   0   0   0 
  0   0   0   0   0   0   0   0   0   0   0   0   0   0   0   0   0   0 
  0   0   0   0   0   0   0   0   0   0   0   0   0   0   0   0   0   0 
  0   0   0   0   0   0   2   6  34  70  81  92   6 147  24   6   1   2 
  2   0   0   0   0   0   0   0   0   0   0   0   0   2   2   1 139 137 
  1   0   0   0   1   2   0   0   0   0   0   0   0   0   0   0   0   0 
  0   0   0   0   0   0   0   0   0   0   0   0   0   0   0   0   0   0 
  0   0   0   0   0   0   0   0   0   0   0   2   0   0   0   0   0   0 
  0   0   0   0   0   0   0   0   0   0   0   0   0  12  73  83   2   0 
  0   0   0   0   0   0   0   0   0   0   0   0   0   0  88  78  11   0 
  0   0   0   0   0   0   0   0   0   0   0   0   3  81  70  13   0   0 
  0   0   0   0   0   0   0   0   0   0   0   0   2  70  33  35   0   0 
  0   0   0   0   0   0   0   0   0   0   0   0   0   0   0   0   0   0 
  0   0   0   0   0   0   0   0   0   0   0   0   0   0   0   0   0   0 
  0   0   0   0   0   0   0   0   0   0   0   0   0   0   0   0   0   0 
  0   0   0   0   0   0   0   0   0   0   0   0   0   0   0   0   0   0 
  0   0   0   0   0   0   0   0   0   0   0   0   0   0   0   0   0 103 
103   0   0   0   0   0   0   0   0   0   0   0   0   1   2   1   0   0 
  0   0   0   0   0   0   0   1   1   1   0   1   4  12  52  33  32  16 
 21   5   2   6  25  28   2   1   0   3   2  40  27   2  19   2   1   0 
  1   0   0   0   0   0   0   0   0   0   0   0   0   0   0   0   0   0 
  0   0   0   0   0   0   0   0   0   0   0   1   2   0   0   0   0   0 
  0   2   0   0   0   0   0   0   0   0   0   0   0   0   0   0   0   0 
  0   0   0   0   0   0   0   0   0   0   4  12  53 138  69  72   4   2 
  2   0   0   0   0   0   0   0   0   0   0   2   0   0   1   2  48  19 
 54   2   0   0   2   1   0   0   0   0   0   0   0   0   0   0   0   0 
  0   0   0   0   0   0   0   0   0   0   0   0   0   0   2   1   2   0 
  0   0   0   0   1   2   0   0   0   2   0   1   0   0   0   0   0   0 
  0   0   0   0   0   0   0   0   0   0   0   0   0  12  73  83   2   0 
  0   0   0   0   0   0   0   0   0   0   0   0   0   0  88  78  11   0 
  0   0   0   0   0   0   0   0   0   0   0   0   3  81  70  13   0   0 
  0   0   0   0   0   0   0   0   0   0   0   0   2  70  33  35   0   0 
  0   0   0   0   0   0   0   0   0   0   0   0   0   0   0   0   0   0 
  0   0   0   0   0   0   0   0   0   0   0   0   0   0   0   0   0   0 
  0   0   0   0   0   0   0   0   0   0   0   0   0   0   0   0   0   0 
  0   0   0   0   0   0   0   0   0   0   0   0   0   0   0   0   0   0 
  0   0   0   0   0   0   0   0   0   0   0   0   0   0   0   0   0 103 
103   0   0   0   0   0   0   0   0   0   0   0   0   1   1   2   0   0 
  0   0   0   0   0   0   0   1   0   1   1   0   1   7   8   6  89  79 
  3   3   3  11  13  24   5   3   2   1   2   2  50  29  11  18   1   0 
  0   2   0   0   0   0   0   0   0   0   0   0   0   0   0   0   0   0 
  0   0   0   0   0   0   0   0   2   1   0   1   1   1   0  64   9   1 
  0   1   0   2   0   0   0   0   0   0   0   0   0   0   0   0   0   0 
  0   0   0   0   1   1   1   2   0   0   0   0   1   6 123  35  31   1 
  0   0   0   0   0   0   0   0   0   0   0   0   0   0   2   2   4 101 
130   5   0   0   0   0   0   0   0   0   0   0   0   0   0   0   0   0 
  0   0   0   0   0   0   0   0   0   0   0   0   0   0   0   0   0   0 
  0   0  14  69   5   1   1   0   0   1   0   2   0   0   0   0   0   0 
  0   0   0   0   0   0   0   0   0   0   0   0   0  12  73  83   2   0 
  0   0   0   0   0   0   0   0   0   0   0   0   0   0  88  78  11   0 
  0   0   0   0   0   0   0   0   0   0   0   0   3  81  70  13   0   0 
  0   0   0   0   0   0   0   0   0   0   0   0   2  70  33  35   0   0 
  0   0   0   0   0   0   0   0   0   0   0   0   0   0   0   0   0   0 
  0   0   0   0   0   0   0   0   0   0   0   0   0   0   0   0   0   0 
  0   0   0   0   0   0   0   0   0   0   0   0   0   0   0   0   0   0 
  0   0   0   0   0   0   0   0   0   0   0   0   0   0   0   0   0   0 
  0   0   0   0   0   0   0   0   0   0   0   0   0   0   0   0   0 103 
103   0   0   0   0   0   0   0   2   0   0   1   1   3   1   0   0   0 
  0   0   0   0   0   0   1   1   1   1   2   0   1  23  22  30   0  29 
  1   2   1  10  28  15   2   1   3   2   1   0   1  42  35   8   6   0 
  0   0   0   0   0   0   0   0   0   0   0   0   0   0   0   0   0   0 
  0   0   0   0   0   0   0   0   1   2   1   1   1   5 128 151 102  12 
  1   2   0   0   1   2   0   0   0   0   0   0   0   0   0   0   0   0 
  0   0   0   0   0   0   0   0   0   0   0   0   1   1  11  99  82   2 
  2   0   0   0   0   0   0   0   0   0   2   2   0   0   0   1   0  38 
 66  98   0   0   0   0   0   0   0   0   0   0   0   0   0   0   0   0 
  0   0   0   0   0   0   0   0   0   0   0   0   0   0   0   0   1   2 
  1  12  85 163 134  30   3   1   0   2   0   0   0   0   0   0   0   0 
  0   0   0   0   0   0   0   0   0   0   0   0   0  12  73  83   2   0 
  0   0   0   0   0   0   0   0   0   0   0   0   0   0  88  78  11   0 
  0   0   0   0   0   0   0   0   0   0   0   0   3  81  70  13   0   0 
  0   0   0   0   0   0   0   0   0   0   0   0   2  70  33  35   0   0 
  0   0   0   0   0   0   0   0   0   0   0   0   0   0   0   0   0   0 
  0   0   0   0   0   0   0   0   0   0   0   0   0   0   0   0   0   0 
  0   0   0   0   0   0   0   0   0   0   0   0   0   0   0   0   0   0 
  0   0   0   0   0   0   0   0   0   0   0   0   0   0   0   0   0   0 
  0   0   0   0   0   0   0   0   0   0   0   0   0   0   0   0   0 103 
103   0   0   0   0   0   0   0   0   0   1   3   1   1   0   0   0   0 
  0   0   0   0   0   0   1   1   2   0   0   0  16  13   7  97  73   5 
  0   0   1  42  33  30  28   0   2   1   1   0   2   9  39  21  19   0 
  0   0   0   0   0   0   0   0   0   0   0   0   0   0   0   0   0   0 
  0   0   0   0   0   0   0   0   2   1   1   1  11 136  98  58 125 149 
  5   1   0   1   2   1   0   0   0   0   0   0   0   0   0   0   0   0 
  0   0   0   0   0   0   2   0   0   0   0   0   0   0   0 103  89   2 
  3   0   0   0   0   0   0   0   0   0   0   1   0   0   2   4   2   4 
 93  46  44   0   0   0   0   0   0   0   0   0   0   0   0   0   0   0 
  0   0   0   0   0   0   0   0   0   0   0   0   0   0   0   0   2   2 
  0 131  86  41 159  94  84   0   1   0   0   0   0   0   0   0   0   0 
  0   0   0   0   0   0   0   0   0   0   0   0   0  12  73  83   2   0 
  0   0   0   0   0   0   0   0   0   0   0   0   0   0  88  78  11   0 
  0   0   0   0   0   0   0   0   0   0   0   0   3  81  70  13   0   0 
  0   0   0   0   0   0   0   0   0   0   0   0   2  70  33  35   0   0 
  0   0   0   0   0   0   0   0   0   0   0   0   0   0   0   0   0   0 
  0   0   0   0   0   0   0   0   0   0   0   0   0   0   0   0   0   0 
  0   0   0   0   0   0   0   0   0   0   0   0   0   0   0   0   0   0 
  0   0   0   0   0   0   0   0   0   0   0   0   0   0   0   0   0   0 
  0   0   0   0   0   0   0   0   0   0   0   0   0   0   0   0   0 103 
103   0   0   0   0   0   0   0   0   2   1   1   0   0   0   0   0   0 
  0   0   0   0   0   0   2   0   0   0   1   5  14  16  48  28  32   2 
  2   1   7  80  77  74   5  56   6   0   1   0   2   1  26   0  13   8 
  0   0   0   0   0   0   0   0   0   0   0   0   0   0   0   0   0   0 
  0   0   0   0   0   0   0   0   1   0   3  26 143 135  27   0  21 133 
149  13   1   1   1   0   0   0   0   0   0   0   0   0   0   0   0   0 
  0   0   0   0   2   0   0   0   2   0   0   0   0   0   0  95  91   3 
  2   0   0   0   0   0   0   0   0   0   1   4   2   0   0   1   1   0 
  4 134 134  21   0   0   0   0   0   0   0   0   0   0   0   0   0   0 
  0   0   0   0   0   0   0   0   0   0   0   0   0   0   0   0   2   3 
103  63  54   3   2  97  63 139  15   1   0   0   0   0   0   0   0   0 
  0   0   0   0   0   0   0   0   0   0   0   0   0  12  73  83   2   0 
  0   0   0   0   0   0   0   0   0   0   0   0   0   0  88  78  11   0 
  0   0   0   0   0   0   0   0   0   0   0   0   3  81  70  13   0   0 
  0   0   0   0   0   0   0   0   0   0   0   0   2  70  33  35   0   0 
  0   0   0   0   0   0   0   0   0   0   0   0   0   0   0   0   0   0 
  0   0   0   0   0   0   0   0   0   0   0   0   0   0   0   0   0   0 
  0   0   0   0   0   0   0   0   0   0   0   0   0   0   0   0   0   0 
  0   0   0   0   0   0   0   0   0   0   0   0   0   0   0   0   0   0 
  0   0   0   0   0   0   0   0   0   0   0   0   0   0   0   0   0 103 
103   0   0   0   0   0   0   0   0   0   0   0   0   0   2   0   0   0 
  0   0   0   0   0   0   0   0   0   0   1  21  26   5  72  78   1   0 
  0   0   1  88  88   0  38  36  57  15   0   1   0   1   3  50  32  18 
  2   1   0   0   0   0   0   0   0   0   0   0   0   0   0   0   0   0 
  0   0   0   0   0   0   0   0   0   2  38 104 144  13   0   1   0  24 
121 119  25   1   2   0   0   0   0   0   0   0   0   0   0   0   0   0 
  0   0   0   0   0   0   0   0   0   0   0   0   0   0   4  96  88   0 
  0   0   0   0   0   0   0   0   0   0   0   1   0   0   0   0   1   0 
  0   6 147 135  12   1   1   0   0   0   0   0   0   0   0   0   0   0 
  0   0   0   0   0   0   0   0   0   0   0   0   0   0   0   1   3  87 
 21  84   6   2   1   2  48 110  97  54   0   0   0   0   0   0   0   0 
  0   0   0   0   0   0   0   0   0   0   0   0   0  12  73  83   2   0 
  0   0   0   0   0   0   0   0   0   0   0   0   0   0  88  78  11   0 
  0   0   0   0   0   0   0   0   0   0   0   0   3  81  70  13   0   0 
  0   0   0   0   0   0   0   0   0   0   0   0   2  70  33  35   0   0 
  0   0   0   0   0   0   0   0   0   0   0   0   0   0   0   0   0   0 
  0   0   0   0   0   0   0   0   0   0   0   0   0   0   0   0   0   0 
  0   0   0   0   0   0   0   0   0   0   0   0   0   0   0   0   0   0 
  0   0   0   0   0   0   0   0   0   0   0   0   0   0   0   0   0   0 
  0   0   0   0   0   0   0   0   0   0   0   0   0   0   0   0   0 103 
103   0   0   0   0   0   0   0   0   0   0   0   0   0   0   0   2   0 
  0   0   0   0   0   0   0   0   0   0  21  15   5  65  21  25   3   1 
  1   1  14  52  64   0   1  12  76  58  31   5   2   2   1   9  45  40 
  4   2   0   0   0   0   0   0   0   0   0   0   0   0   0   0   0   0 
  0   0   0   0   0   0   0   1   1  53 108 139   4   0   1   0   1   2 
 12 148 130  61   0   0   0   0   0   0   0   0   0   0   0   0   0   0 
  0   0   0   0   1   2   1   2   0   0   0   0   0   0  24  69  68   2 
  0   0   0   0   0   0   0   0   0   0   0   0   0   0   0   0   0   0 
  0   1   7 151 157  23   2   1   0   0   0   0   0   0   0   0   0   0 
  0   0   0   1   2   0   0   0   0   0   0   0   0   0   0   0  96   3 
104   5   2   1   1   0   2  12 126  36 104   4   2   0   0   0   0   0 
  0   0   0   0   0   0   0   0   0   0   0   0   0  12  73  83   2   0 
  0   0   0   0   0   0   0   0   0   0   0   0   0   0  88  78  11   0 
  0   0   0   0   0   0   0   0   0   0   0   0   3  81  70  13   0   0 
  0   0   0   0   0   0   0   0   0   0   0   0   2  70  33  35   0   0 
  0   0   0   0   0   0   0   0   0   0   0   0   0   0   0   0   0   0 
  0   0   0   0   0   0   0   0   0   0   0   0   0   0   0   0   0   0 
  0   0   0   0   0   0   0   0   0   0   0   0   0   0   0   0   0   0 
  0   0   0   0   0   0   0   0   0   0   0   0   0   0   0   0   0   0 
  0   0   0   0   0   0   0   0   0   0   0   0   0   0   0   0   0 103 
103   0   0   0   0   0   0   0   0   0   0   0   0   0   0   0   0   0 
  0   0   0   0   0   0   1   0   0  17   9  11  21  44  79   4   2   1 
  1   1  27  27  50   0   2   2   0  62   2  66   6   2   1   0  39  37 
 10   1   0   0   0   0   0   0   0   0   0   0   0   0   0   0   0   0 
  0   0   0   0   0   1   2   3  78  45 129   1   1   1   0   1   1   2 
  2   2 125  10 124  15   1   1   1   0   0   2   0   0   0   0   0   0 
  0   0   0   0   2   1   2   1   0   0   0   0   1   0 110  56  25   1 
  2   1   0   0   0   0   0   0   0   0   0   0   0   0   0   0   0   0 
  1   2   1  11 137 108  56   1   1   0   1   2   0   0   0   0   1   2 
  1   2   1   2   1   0   0   0   0   0   0   0   1   1   6 115  19  89 
  6   2   3   0   1   1   1   1   0  86  84 145  27   0   0   2   1   0 
  0   0   0   0   0   0   0   0   0   0   0   0   0  12  73  83   2   0 
  0   0   0   0   0   0   0   0   0   0   0   0   0   0  88  78  11   0 
  0   0   0   0   0   0   0   0   0   0   0   0   3  81  70  13   0   0 
  0   0   0   0   0   0   0   0   0   0   0   0   2  70  33  35   0   0 
  0   0   0   0   0   0   0   0   0   0   0   0   0   0   0   0   0   0 
  0   0   0   0   0   0   0   0   0   0   0   0   0   0   0   0   0   0 
  0   0   0   0   0   0   0   0   0   0   0   0   0   0   0   0   0   0 
  0   0   0   0   0   0   0   0   0   0   0   0   0   0   0   0   0   0 
  0   0   0   0   0   0   0   0   0   0   0   0   0   0   0   0   0 103 
103   0   0   0   0   0   0   0   0   0   0   0   0   0   0   0   0   0 
  0   0   0   0   0   0   1   1  10   6  17   0  87  78   2   1   0   0 
  0   1  47  16  30   0   1   1   1   1  38  29  64   3   1   1   9  39 
 44   0   0   0   0   0   0   0   0   0   0   0   0   0   0   0   0   0 
  0   0   0   0   1   0   2 100  20 125   6   1   1   0   0   0   3   2 
  1   2   4  65 108 106  75   2   1   1   0   0   0   0   0   0   0   0 
  0   1   1   0   0   0   0   0   2   1   1   1   0 105   2  85   7   4 
  3   2   0   0   0   0   0   0   0   0   0   0   0   0   0   0   0   0 
  2   1   2   1   1 145  39 113   7   1   1   1   0   0   0   0   2   1 
  2   1   2   1   0   0   0   0   2   0   0   0   2  38 120  68  71   2 
  0   1   2   1   0   0   0   0   2   3  22 160  90  84   0   1   2   0 
  0   0   0   0   0   0   0   0   0   0   0   0   0  12  73  83   2   0 
  0   0   0   0   0   0   0   0   0   0   0   0   0   0  88  78  11   0 
  0   0   0   0   0   0   0   0   0   0   0   0   3  81  70  13   0   0 
  0   0   0   0   0   0   0   0   0   0   0   0   2  70  33  35   0   0 
  0   0   0   0   0   0   0   0   0   0   0   0   0   0   0   0   0   0 
  0   0   0   0   0   0   0   0   0   0   0   0   0   0   0   0   0   0 
  0   0   0   0   0   0   0   0   0   0   0   0   0   0   0   0   0   0 
  0   0   0   0   0   0   0   0   0   0   0   0   0   0   0   0   0   0 
  0   0   0   0   0   0   0   0   0   0   0   0   0   0   0   0   0 103 
103   0   0   0   0   0   0   0   0   0   0   0   0   0   0   0   0   0 
  0   0   0   0   0   0   1  10  10  20   3  66  17  36   1   3   2   1 
  0   5  91  73   9   0   0   1   1   1   1  26  56  74   2   2   1  57 
 43   8   0   0   0   0   0   0   0   0   0   0   0   0   0   0   0   0 
  0   0   0   0   2   2 121  43  85   9   2   3   2   0   2   0   2   1 
  3   3   0   3  17  95  68 150  53  15   1   0   0   0   0   0   0   0 
  0   0   0   0   0   0   0   0   0   0   0  32 135  50  78   6   0   1 
  0   0   0   0   0   0   0   0   0   0   0   0   0   0   0   0   0   0 
  1   0   0   0   1   5  66 120 138  59  14   1   2   1   0   0   0   0 
  0   0   0   0   0   1   2   0   1   0   0  28 101  61 124  31   0   3 
  2   1   1   2   0   0   0   0   0   0   1   1  97  61 135  15   1   1 
  2   0   0   0   0   0   0   0   0   0   0   0   0  12  73  83   2   0 
  0   0   0   0   0   0   0   0   0   0   0   0   0   0  88  78  11   0 
  0   0   0   0   0   0   0   0   0   0   0   0   3  81  70  13   0   0 
  0   0   0   0   0   0   0   0   0   0   0   0   2  70  33  35   0   0 
  0   0   0   0   0   0   0   0   0   0   0   0   0   0   0   0   0   0 
  0   0   0   0   0   0   0   0   0   0   0   0   0   0   0   0   0   0 
  0   0   0   0   0   0   0   0   0   0   0   0   0   0   0   0   0   0 
  0   0   0   0   0   0   0   0   0   0   0   0   0   0   0   0   0   0 
  0   0   0   0   0   0   0   0   0   0   0   0   0   0   0   0   0 103 
103   0   0   0   0   0   0   0   0   0   0   0   0   0   0   0   0   0 
  0   0   0   1   2   1   8  16  22   1  19  47  83   6   3   2   0   2 
  2  12  79  74   0   0   0   2   1   1   2   3  21  47  74   1   1  19 
  8  23   0   0   0   0   0   0   0   0   0   0   0   0   0   0   0   0 
  0   0   1   0   4 145  77  73   6   2   1   2   1   0   0   0   0   1 
  0   1   3   2   1   0  33 130   8  77  94  33   4   2   1   0   0   0 
  0   0   0   2   1   2   1   2   7  46 120  43  97  55   6   3   2   3 
  0   0   0   0   0   0   0   0   0   0   0   0   0   0   0   0   0   0 
  2   0   2   1   2   0   0  10 131  12  87  83  18   1   1   0   0   0 
  0   0   0   2   1   2   1   2   2  39 112  50  69  98   1   1   0   2 
  1   0   0   0   2   2   0   0   0   0   0   0   2  53  98  97  48   3 
  1   0   0   0   0   0   0   0   0   0   0   0   0  12  73  83   2   0 
  0   0   0   0   0   0   0   0   0   0   0   0   0   0  88  78  11   0 
  0   0   0   0   0   0   0   0   0   0   0   0   3  81  70  13   0   0 
  0   0   0   0   0   0   0   0   0   0   0   0   2  70  33  35   0   0 
  0   0   0   0   0   0   0   0   0   0   0   0   0   0   0   0   0   0 
  0   0   0   0   0   0   0   0   0   0   0   0   0   0   0   0   0   0 
  0   0   0   0   0   0   0   0   0   0   0   0   0   0   0   0   0   0 
  0   0   0   0   0   0   0   0   0   0   0   0   0   0   0   0   0   0 
  0   0   0   0   0   0   0   0   0   0   0   0   0   0   0   0   0 103 
103   0   0   0   0   0   0   0   0   0   0   0   0   0   0   0   0   0 
  0   0   1   1   2   8  16  28   3   1 108  90   1   0   2   1   3   0 
  4  67  55  23   0   2   0   3   4   4   2   2   1  17  67  74   2   9 
 28  33   1   0   0   0   0   0   0   0   0   0   0   0   0   0   0   0 
  0   1   1  11 150 143  33   5   0   0   0   0   0   0   0   1   2   3 
  2   1   3   2   0   0   2   0  37  91  98  42 108  77  67  55  39  30 
 24  23  30  38  48  65  71  79 110   4 129  62  10   2   1   1   3   3 
  0   0   0   0   0   0   0   0   0   0   0   0   0   0   0   0   0   0 
  0   0   1   2   3   1   3   2   3  34 104  81  99  89  71  54  34  20 
 12   2  11  15  26  45  66  73 114  29 126  66  21   4   1   2   3   3 
  2   0   0   2   1   0   0   0   0   0   0   0   0   4  15 135  62  75 
  0   0   0   0   0   0   0   0   0   0   0   0   0  12  73  83   2   0 
  0   0   0   0   0   0   0   0   0   0   0   0   0   0  88  78  11   0 
  0   0   0   0   0   0   0   0   0   0   0   0   3  81  70  13   0   0 
  0   0   0   0   0   0   0   0   0   0   0   0   2  70  33  35   0   0 
  0   0   0   0   0   0   0   0   0   0   0   0   0   0   0   0   0   0 
  0   0   0   0   0   0   0   0   0   0   0   0   0   0   0   0   0   0 
  0   0   0   0   0   0   0   0   0   0   0   0   0   0   0   0   0   0 
  0   0   0   0   0   0   0   0   0   0   0   0   0   0   0   0   0   0 
  0   0   0   0   0   0   0   0   0   0   0   0   0   0   0   0   0 103 
103   0   0   0   0   0   0   0   0   0   0   0   0   0   0   0   0   0 
  0   0   1   2   8  12  21   2   0  83  85  15   0   1   1   1   1   1 
  4  75  84   1   3  10  18  10   7   5  21  12   2   4  19  50  75   2 
 50  56   0   0   0   0   0   0   0   0   0   0   0   0   0   0   0   0 
  0   2  25 136 128  21   1   0   2   0   0   0   0   0   0   2   3   3 
  2   2   2   1   0   0   2   1   1   2  12  64  92  64  51  17  19  36 
 52  54  35  19   3  45  52  69  95  49   1   2   1   1   1   1   2   2 
  0   2   0   0   0   0   0   0   0   0   0   0   0   0   0   0   0   0 
  0   0   0   2   2   1   4   1   1   3   2  18  90  74  60  18  31  61 
 70 104  69  76  42   8  46  60  93  60   3   1   2   0   1   1   1   0 
  0   0   1   2   0   2   1   2   1   2   2   0   0   2   0   6 133  81 
 42   0   0   0   0   0   0   0   0   0   0   0   0  12  73  83   2   0 
  0   0   0   0   0   0   0   0   0   0   0   0   0   0  88  78  11   0 
  0   0   0   0   0   0   0   0   0   0   0   0   3  81  70  13   0   0 
  0   0   0   0   0   0   0   0   0   0   0   0   2  70  33  35   0   0 
  0   0   0   0   0   0   0   0   0   0   0   0   0   0   0   0   0   0 
  0   0   0   0   0   0   0   0   0   0   0   0   0   0   0   0   0   0 
  0   0   0   0   0   0   0   0   0   0   0   0   0   0   0   0   0   0 
  0   0   0   0   0   0   0   0   0   0   0   0   0   0   0   0   0   0 
  0   0   0   0   0   0   0   0   0   0   0   0   0   0   0   0   0 103 
103   0   0   0   0   0   0   0   0   0   0   0   0   0   0   0   0   0 
  0   1   1  14  10  24   2   3  75  17  36   2   1   1   0   0   1   0 
 21  53  55  12  13   3  21  17  12  13  23  11  19   7   1  25  44  54 
 41  27  12   0   0   0   0   0   0   0   0   0   0   0   0   0   0   0 
  0  17  48 149  11   1   1   1   0   0   0   0   0   0   0   0   0   0 
  0   0   0   0   0   0   0   0   1   1   2   0   0  12  20  38  55  67 
 74  77  64  58  47  26  18   9   1   3   0   0   0   0   0   0   0   0 
  0   2   0   0   0   0   0   0   0   0   0   0   0   0   0   0   0   0 
  0   0   0   0   2   2   0   0   0   1   1   1   3   7  17  37  62  78 
 89  97  90  85  68  50  25  13   1   0   3   2   0   0   1   1   0   0 
  0   0   2   1   0   0   0   1   0   1   2   0   0   0   1  19 118 122 
  1   0   0   0   0   0   0   0   0   0   0   0   0  12  73  83   2   0 
  0   0   0   0   0   0   0   0   0   0   0   0   0   0  88  78  11   0 
  0   0   0   0   0   0   0   0   0   0   0   0   3  81  70  13   0   0 
  0   0   0   0   0   0   0   0   0   0   0   0   2  70  33  35   0   0 
  0   0   0   0   0   0   0   0   0   0   0   0   0   0   0   0   0   0 
  0   0   0   0   0   0   0   0   0   0   0   0   0   0   0   0   0   0 
  0   0   0   0   0   0   0   0   0   0   0   0   0   0   0   0   0   0 
  0   0   0   0   0   0   0   0   0   0   0   0   0   0   0   0   0   0 
  0   0   0   0   0   0   0   0   0   0   0   0   0   0   0   0   0 103 
103   0   0   0   0   0   0   0   0   0   0   0   0   0   0   1   0   1 
  1   1  20   7  15   0   4  64  19  56   2   1   1   0   0   2   0   6 
113  97  27   1  19   7   1   2   6   8  11   2  29  13   3   2  33  10 
 72   4  24   1   0   2   1   0   0   2   0   0   0   0   0   0   0   0 
  0  24   8 123   3   1   2   0   0   0   0   0   0   0   2   0   0   0 
  0   0   0   0   0   0   0   0   0   0   0   0   0   0   1   0   2   3 
  3   4   2   2   2   0   0   0   0   0   0   0   0   0   0   0   0   0 
  0   0   0   0   2   2   0   0   0   0   0   0   2   1   2   0   0   0 
  0   0   0   0   0   0   0   0   0   0   1   0   1   1   0   1   3   3 
  4   6   6   3   2   2   0   0   0   0   0   0   0   0   0   0   0   0 
  0   0   0   0   0   0   0   2   2   2   1   0   2   1   3 136 131   9 
  2   1   0   0   0   0   0   0   0   0   0   0   0  12  73  83   2   0 
  0   0   0   0   0   0   0   0   0   0   0   0   0   0  88  78  11   0 
  0   0   0   0   0   0   0   0   0   0   0   0   3  81  70  13   0   0 
  0   0   0   0   0   0   0   0   0   0   0   0   2  70  33  35   0   0 
  0   0   0   0   0   0   0   0   0   0   0   0   0   0   0   0   0   0 
  0   0   0   0   0   0   0   0   0   0   0   0   0   0   0   0   0   0 
  0   0   0   0   0   0   0   0   0   0   0   0   0   0   0   0   0   0 
  0   0   0   0   0   0   0   0   0   0   0   0   0   0   0   0   0   0 
  0   0   0   0   0   0   0   0   0   0   0   0   0   0   0   0   0 103 
103   0   0   0   0   0   0   0   0   0   0   0   0   2   1   1   1   2 
  5  21  13   9   1   4  63  20  63   2   2   0   2   0   0   3   3  26 
 33  75  12  12   0   0  17  73  55  43  33  61  59   7  12   1   1  48 
 23  55  42   2   1   1   2   0   0   1   0   0   0   0   0   0   0   0 
  0   1  62  37 112   2   0   1   0   1   2   3   2   0   1   0   0   0 
  0   0   0   0   0   0   0   0   0   0   0   0   0   0   0   0   0   0 
  0   0   0   0   0   0   0   0   0   0   0   0   0   0   0   0   0   0 
  0   0   0   0   1   2   0   0   0   0   0   0   0   1   2   0   0   0 
  0   0   0   0   0   0   0   0   0   0   0   0   0   0   0   0   0   0 
  0   0   0   0   0   0   0   0   0   0   0   0   0   0   0   0   0   0 
  0   0   0   0   0   1   2   0   0   1   2   0   1   1 136  99  25   1 
  1   2   0   0   0   0   0   0   0   0   0   0   0  12  73  83   2   0 
  0   0   0   0   0   0   0   0   0   0   0   0   0   0  88  78  11   0 
  0   0   0   0   0   0   0   0   0   0   0   0   3  81  70  13   0   0 
  0   0   0   0   0   0   0   0   0   0   0   0   2  70  33  35   0   0 
  0   0   0   0   0   0   0   0   0   0   0   0   0   0   0   0   0   0 
  0   0   0   0   0   0   0   0   0   0   0   0   0   0   0   0   0   0 
  0   0   0   0   0   0   0   0   0   0   0   0   0   0   0   0   0   0 
  0   0   0   0   0   0   0   0   0   0   0   0   0   0   0   0   0   0 
  0   0   0   0   0   0   0   0   0   0   0   0   0   0   0   0   0 103 
103   0   0   0   0   0   0   0   0   0   0   0   0   0   0   1   1  15 
 20  27   1   3   3  56  24  83   2   1   0   0   0   0   0   1   2  79 
 82  24  15   2  12  66  50  80  73  55  56  80  62  59  45   0   1   3 
 56  95  41   6   3   1   0   1   1   1   0   0   0   0   0   0   0   0 
  0   1   3  78  22 112   2   0   0   2   2   2   1   0   2   0   0   0 
  0   0   0   0   0   0   0   0   0   0   0   0   0   0   0   0   0   0 
  0   0   0   0   0   0   0   0   0   0   0   0   0   0   0   0   0   0 
  0   0   1   2   0   2   0   0   0   0   0   0   0   2   0   1   2   1 
  0   0   0   0   0   0   0   0   0   0   0   0   0   0   0   0   0   0 
  0   0   0   0   0   0   0   0   0   0   0   0   0   0   0   0   0   0 
  0   0   0   0   0   2   3   0   0   0   0   0   1 122  74  45   2   2 
  0   1   0   0   0   0   0   0   0   0   0   0   0  12  73  83   2   0 
  0   0   0   0   0   0   0   0   0   0   0   0   0   0  88  78  11   0 
  0   0   0   0   0   0   0   0   0   0   0   0   3  81  70  13   0   0 
  0   0   0   0   0   0   0   0   0   0   0   0   2  70  33  35   0   0 
  0   0   0   0   0   0   0   0   0   0   0   0   0   0   0   0   0   0 
  0   0   0   0   0   0   0   0   0   0   0   0   0   0   0   0   0   0 
  0   0   0   0   0   0   0   0   0   0   0   0   0   0   0   0   0   0 
  0   0   0   0   0   0   0   0   0   0   0   0   0   0   0   0   0   0 
  0   0   0   0   0   0   0   0   0   0   0   0   0   0   0   0   0 103 
103   0   0   0   0   0   0   0   0   0   0   0   2   1   0   6  25  11 
 20   0   3   3  69   3  71   1   2   2   1   2   0   0   0   3  24  80 
 89  24   1  32  75  79  61   5   2   1   1   4  15 110  70  26   0   3 
 12   5  20  29   1   1   0   2   1   0   0   0   0   0   0   0   0   0 
  0   0   2   3  69  70 129   0   0   1   2   3   0   0   0   0   0   0 
  0   0   0   0   0   0   0   0   0   0   0   0   0   0   0   0   0   0 
  0   0   0   0   0   0   0   0   0   0   0   0   0   0   0   0   0   0 
  0   0   2   2   1   0   2   2   1   0   0   2   0   1   0   2   3   2 
  0   0   0   0   0   0   0   0   0   0   0   1   1   0   0   0   0   0 
  0   0   0   0   0   0   0   0   0   0   0   0   0   0   0   0   0   0 
  0   0   0   0   0   2   2   0   0   1   1   5 129  68  56   1   0   0 
  0   2   0   0   0   0   0   0   0   0   0   0   0  12  73  83   2   0 
  0   0   0   0   0   0   0   0   0   0   0   0   0   0  88  78  11   0 
  0   0   0   0   0   0   0   0   0   0   0   0   3  81  70  13   0   0 
  0   0   0   0   0   0   0   0   0   0   0   0   2  70  33  35   0   0 
  0   0   0   0   0   0   0   0   0   0   0   0   0   0   0   0   0   0 
  0   0   0   0   0   0   0   0   0   0   0   0   0   0   0   0   0   0 
  0   0   0   0   0   0   0   0   0   0   0   0   0   0   0   0   0   0 
  0   0   0   0   0   0   0   0   0   0   0   0   0   0   0   0   0   0 
  0   0   0   0   0   0   0   0   0   0   0   0   0   0   0   0   0 103 
103   0   0   0   0   0   0   0   0   0   0   0   1   1  20  10  23   7 
  1   2   0  80   4  69   5   1   0   2   0   0   1   1   1   0 109 124 
 13  14  15  62 110   8   5   1   0   0   0   2   0   2 132  79   5   2 
 13   8  60  28  11   1   0   0   0   0   0   0   0   0   0   0   0   0 
  0   0   0   0   1  60  56 131   4   0   0   3   1   1   0   0   0   0 
  0   0   0   0   0   0   0   0   0   0   0   0   0   0   0   0   0   0 
  0   0   0   0   0   0   0   0   0   0   0   0   0   0   0   0   0   0 
  0   0   2   1   2   1   0   0   1  10   3   2   1   0   3   1   1   2 
  0   0   0   0   0   0   0   0   0   0   0   0   0   0   0   0   0   0 
  0   0   0   0   0   0   0   0   0   0   0   0   0   0   0   0   0   0 
  0   0   0   0   0   1   0   1   1   0   1 131  47  64   2   1   0   0 
  0   0   0   0   0   0   0   0   0   0   0   0   0  12  73  83   2   0 
  0   0   0   0   0   0   0   0   0   0   0   0   0   0  88  78  11   0 
  0   0   0   0   0   0   0   0   0   0   0   0   3  81  70  13   0   0 
  0   0   0   0   0   0   0   0   0   0   0   0   2  70  33  35   0   0 
  0   0   0   0   0   0   0   0   0   0   0   0   0   0   0   0   0   0 
  0   0   0   0   0   0   0   0   0   0   0   0   0   0   0   0   0   0 
  0   0   0   0   0   0   0   0   0   0   0   0   0   0   0   0   0   0 
  0   0   0   0   0   0   0   0   0   0   0   0   0   0   0   0   0   0 
  0   0   0   0   0   0   0   0   0   0   0   0   0   0   0   0   0 103 
103   0   0   0   0   0   0   0   0   0   0   4  15  21  25  10   3   0 
  2   5  93  54  53   0   1   1   1   2   0   1   2   1   1  42   4  48 
  4  15 104 102   0   4   0   3   2   1   2   2   0   0  56  24  19   3 
  8   5  21  43  36   0   0   0   0   0   0   0   0   0   0   0   0   0 
  0   2   0   0   1   2  43 131 156  29   4   0   0   2   1   0   0   0 
  0   0   0   0   0   0   0   0   0   0   0   0   0   0   0   0   0   0 
  0   0   0   0   0   0   0   0   0   0   0   0   0   0   0   0   0   0 
  0   0   0   0   1   2   1   4  25  48  91   1   1   0   3   2   0   0 
  0   0   0   0   0   0   0   0   0   0   0   0   0   0   0   0   0   0 
  0   0   0   0   0   0   0   0   0   0   0   0   0   0   0   0   0   0 
  0   0   0   0   0   2   0   2   2  12 139 104  54   2   1   0   2   1 
  2   0   0   0   0   0   0   0   0   0   0   0   0  12  73  83   2   0 
  0   0   0   0   0   0   0   0   0   0   0   0   0   0  88  78  11   0 
  0   0   0   0   0   0   0   0   0   0   0   0   3  81  70  13   0   0 
  0   0   0   0   0   0   0   0   0   0   0   0   2  70  33  35   0   0 
  0   0   0   0   0   0   0   0   0   0   0   0   0   0   0   0   0   0 
  0   0   0   0   0   0   0   0   0   0   0   0   0   0   0   0   0   0 
  0   0   0   0   0   0   0   0   0   0   0   0   0   0   0   0   0   0 
  0   0   0   0   0   0   0   0   0   0   0   0   0   0   0   0   0   0 
  0   0   0   0   0   0   0   0   0   0   0   0   0   0   0   0   0 103 
103   0   0   0   0   0   0   0   1   5  20   8  13  19   0   0   2   3 
 23  81  64  36   4   1   1   1   2   0   2   2   2   0   4 124 108   0 
 19  27  52  22   1   2   1   1   0   0   0   0   2   4  52  19  23   2 
 14   4  16  31  31   9   0   0   2   1   0   0   0   0   0   0   0   0 
  0   0   0   0   2   1   2  17 133  66  87   4   1   2   2   0   0   0 
  0   0   0   0   0   0   0   0   0   0   0   0   0   0   0   0   0   0 
  0   0   0   0   0   0   0   0   0   0   0   0   0   0   0   0   0   0 
  0   0   0   2   0   3   0  50 104 149 113 139  27   2   0   0   0   0 
  0   0   0   0   0   0   0   0   0   0   0   0   0   0   0   0   0   0 
  0   0   0   0   0   0   0   0   0   0   0   0   0   0   0   0   0   0 
  0   0   0   0   0   0   2   2  28 122 107  35   2   1   2   0   0   0 
  0   0   0   0   0   0   0   0   0   0   0   0   0  12  73  83   2   0 
  0   0   0   0   0   0   0   0   0   0   0   0   0   0  88  78  11   0 
  0   0   0   0   0   0   0   0   0   0   0   0   3  81  70  13   0   0 
  0   0   0   0   0   0   0   0   0   0   0   0   2  70  33  35   0   0 
  0   0   0   0   0   0   0   0   0   0   0   0   0   0   0   0   0   0 
  0   0   0   0   0   0   0   0   0   0   0   0   0   0   0   0   0   0 
  0   0   0   0   0   0   0   0   0   0   0   0   0   0   0   0   0   0 
  0   0   0   0   0   0   0   0   0   0   0   0   0   0   0   0   0   0 
  0   0   0   0   0   0   0   0   0   0   0   0   0   0   0   0   0 103 
103   0   0   0   0   0   5  13  15  10  21  12   2   1   1   0   1  59 
 66  98  13   3   1   1   0   0   2   0   0   1   0   1  95 102  13   1 
 10  54  77   1   0   1   1   1   0   1   4   1   0   3  70  41  14   2 
 10   4  13   4  56  50   0   0   1   2   0   0   0   0   0   0   0   0 
  0   0   0   0   0   0   0   0   3 108   8 122  21   2   0   0   0   0 
  0   0   0   0   0   0   0   0   0   0   0   0   0   0   0   0   0   0 
  0   0   0   0   0   0   0   0   0   0   0   0   0   0   0   0   0   0 
  0   0   0   1   0   2  83  79 139   4  19 155 106  80   4   0   0   0 
  0   0   0   0   0   0   0   0   0   0   0   0   0   0   0   0   0   0 
  0   0   0   0   0   0   0   0   0   0   0   0   0   0   0   0   0   0 
  0   0   0   0   0   2   7  74 114 147  15   1   0   0   0   0   0   2 
  1   2   0   0   0   0   0   0   0   0   0   0   0  12  73  83   2   0 
  0   0   0   0   0   0   0   0   0   0   0   0   0   0  88  78  11   0 
  0   0   0   0   0   0   0   0   0   0   0   0   3  81  70  13   0   0 
  0   0   0   0   0   0   0   0   0   0   0   0   2  70  33  35   0   0 
  0   0   0   0   0   0   0   0   0   0   0   0   0   0   0   0   0   0 
  0   0   0   0   0   0   0   0   0   0   0   0   0   0   0   0   0   0 
  0   0   0   0   0   0   0   0   0   0   0   0   0   0   0   0   0   0 
  0   0   0   0   0   0   0   0   0   0   0   0   0   0   0   0   0   0 
  0   0   0   0   0   0   0   0   0   0   0   0   0   0   0   0   0 103 
104   3   2   8  11  21   7  11  14  11   3   1   2   0   4  23 107  52 
 68   1   0   2   0   0   0   0   0   1   2   1   2  40  45  64   2   2 
  5  62  65   6   2   1   0   0   2   0   3   0   1  10 115  85   1   2 
 10   3  10   3  21   2  18   1   0   0   0   0   0   0   0   0   0   0 
  0   0   0   0   0   0   0   0   1   3  55 118  87  83   6   1   1   1 
  2   1   0   0   0   0   0   0   0   2   0   2   0   0   1   2   0   0 
  0   0   0   0   0   0   0   1   0   0   0   0   0   0   0   2   2   0 
  1   1   0   1  14 142  52  98   1   0   1   0 102  60 149  19   2   1 
  0   2   0   0   0   0   0   2   0   0   0   0   0   0   0   0   0   0 
  0   0   0   0   0   0   0   0   0   0   0   0   0   0   2   0   1   0 
  0   0   2   1   3  16 158  48 108   3   0   1   0   0   0   0   0   0 
  0   0   0   0   0   0   0   0   0   0   0   2   0  12  72  82   2   0 
  0   0   0   0   0   0   0   0   2   0   0   0   0   0  88  78  11   0 
  0   0   0   0   0   0   0   0   0   0   0   0   3  81  70  13   0   0 
  0   0   0   0   0   0   0   0   0   0   0   0   2  69  32  35   0   0 
  0   0   0   0   0   0   0   0   0   0   0   0   0   0   0   0   0   0 
  0   0   0   0   0   0   0   0   0   0   0   0   0   0   0   0   0   0 
  0   0   0   0   0   0   0   0   0   0   0   0   0   0   0   0   0   0 
  0   0   0   0   0   0   0   0   0   0   0   0   0   0   0   0   0   0 
  0   0   0   0   0   0   0   0   0   0   0   0   0   0   0   0   0 103 
115  10  10   0   6  20  12   4   2   1   1   0   1  12  78  37  95  26 
  4   1   2   2   0   0   1   2   0   0   2   1  13 104 119   1   0   0 
  1  72 102   1   0   1   1   0   3   0   1   1   2 119 108  10   1   5 
  9   3  11   4   4  32  33   2   1   1   0   0   0   0   0   0   0   0 
  0   0   0   0   0   0   0   0   0   2   1   9 108  25 104  66   2   3 
  5   3   2   1   0   0   0   2   0   2   0   2   0   0   2   3   0   0 
  0   0   0   0   0   0   0   1   0   0   2   1   0   0   0   1   0   1 
  1   0   1  88  92 103  50   1   2   1   1   0   1  42 111  75  97   3 
  1   0   0   0   0   2   0   1   0   2   0   0   0   2   0   0   0   0 
  0   0   2   1   1   2   0   0   0   0   0   0   0   0   0   0   3   1 
  0   0   1   1 101  78 123  46   1   1   0   0   0   0   0   0   0   0 
  0   0   0   0   0   0   0   0   0   0   0   0   0  12  75  85   2   0 
  0   0   0   0   0   0   0   0   0   0   2   1   0   0  90  78  11   0 
  0   0   0   0   0   0   0   0   0   0   0   0   3  81  72  12   0   2 
  0   0   0   0   0   0   0   0   0   0   0   0   3  71  32  35   1   1 
  0   0   0   0   0   0   0   0   0   0   0   0   0   0   0   0   0   0 
  0   0   0   0   0   0   0   0   0   0   0   0   0   0   0   0   0   0 
  0   0   0   0   0   0   0   0   0   0   0   0   0   0   0   0   0   0 
  0   0   0   0   0   0   0   0   0   0   0   0   0   0   0   0   0   0 
  0   0   0   0   0   0   0   0   0   0   0   0   0   0   0   0   0 103 
 71  15  11   7   8   0   2   1   0   0   1  15  59  79  89  46   3   2 
  1   0   0   1   0   2   2   3   3   1   2   1  97 103  19   4   1   1 
  1  37  13  86   8   0   1   2   4   0   7  20 131  69  31   1   0   1 
 10   4  12   1   1  38  41   7   0   2   1   0   0   0   0   0   0   0 
  0   0   0   0   0   0   0   0   0   2   1   1   2  38 121  19 131  53 
  5   1   4   3   2   2   0   0   2   0   2   2   0   0   2   2   0   0 
  0   2   2   0   0   0   2   0   0   0   2   2   0   0   0   0   2   1 
  6  54 141  70 102  15   1   1   2   1   2   1   2   1  12  89  91 141 
 66  12   3   1   1   1   0   2   0   0   0   0   2   0   0   2   0   0 
  0   0   3   3   2   1   0   0   0   0   0   0   0   0   1   2   0   1 
  5  11  59 145  92  90  11   2   1   2   1   0   0   0   0   0   0   0 
  0   0   0   0   0   0   0   0   0   0   0   0   0  12  72  81   2   2 
  0   0   0   0   0   0   0   0   0   0   1   1   0   1  87  79  10   0 
  0   0   0   0   0   0   0   0   0   0   0   0   3  81  70  15   0   0 
  2   0   2   0   0   0   0   0   0   0   0   0   2  70  33  35   0   0 
  0   0   0   0   0   0   0   0   0   0   0   0   0   0   0   0   0   0 
  0   0   0   0   0   0   0   0   0   0   0   0   0   0   0   0   0   0 
  0   0   0   0   0   0   0   0   0   0   0   0   0   0   0   0   0   0 
  0   0   0   0   0   0   0   0   0   0   0   0   0   0   0   0   0   0 
  0   0   0   0   0   0   0   0   0   0   0   0   0   0   0   0   0 103 
110  12   1   0   5   2   0   0   6  15  80  38  40  77   6   0   1   1 
  3   3   1   0   0   2   0   2   2   1   5  80  29  39   0  10  20  11 
  6   0  79   9 119  23   9   8  11  31 109  53  92  33   3   1   0   6 
  6   4  10   6   0  11  24  26   2   0   0   0   0   0   0   0   0   0 
  0   0   0   0   0   0   0   0   0   0   0   0   1   1   3  48 103  26 
106  84  15   1   1   1   2   2   3   0   0   0   0   0   0   0   0   0 
  0   2   2   0   2   0   3   2   0   1   0   1   0   2   1   1  12  77 
112  27 109  33   3   1   0   0   0   0   0   0   0   0   0   2  23 114 
 46  93  92  12   6   4   0   0   2   0   0   0   0   0   0   0   0   2 
  1   0   2   3   1   0   0   0   1   0   0   0   0   0   2   1   2  11 
 87 100  35 116  23   1   1   1   0   1   2   0   0   0   0   0   0   0 
  0   0   0   0   0   0   0   0   0   0   0   0   0  12  71  94  13  11 
 11  11  11  11  11  11  11  12  10  12  11  13   9  12 100  77  11   0 
  0   0   0   0   0   0   2   0   0   0   0   0   3  80  78  26  11  12 
 12  11  11  11  11  11  11  11  11  11  11  11   9  80  28  35   0   0 
  0   0   0   0   0   0   0   0   0   0   0   0   0   0   0   0   0   0 
  0   0   0   0   0   0   0   0   0   0   0   0   0   0   0   0   0   0 
  0   0   0   0   0   0   0   0   0   0   0   0   0   0   0   0   0   0 
  0   0   0   0   0   0   0   0   0   0   0   0   0   0   0   0   0   0 
  0   0   0   0   0   0   0   0   0   0   0   0   0   0   0   0   0 103 
118  21   1   1   5   0  19  52  55  53  74  62  13   1   2   1   1   1 
  1   1   3   1   0   2   0   1   2   3  44  18  64   9  10  12  23   5 
  6  17  12  62  94  57  69  60  71  34  93  66  11   0   1   0   1   5 
  2   8  10   4   1   3  48  41   3   0   0   0   0   0   0   0   0   0 
  0   0   0   0   0   0   0   0   2   1   0   1   2   0   1   0   6  38 
110  53  93  82  73  23   6   4   2   1   0   0   0   1   0   0   0   0 
  0   0   0   2   0   0   3   2   1   4   1   1   6  14  63  85 100  42 
116  38   3   0   1   0   0   0   0   0   0   2   0   0   0   0   1   1 
 31 103  63  92  81  67  12   6   2   0   2   1   0   1   1   0   0   1 
  1   1   0   2   2   1   0   0   1   0   0   0   2   4   7  61  86  97 
 52 108  35   2   0   0   1   2   1   2   1   0   0   0   0   0   0   0 
  0   0   0   0   0   0   0   0   0   0   0   0   0  12  54 145  79  73 
 75  75  75  75  75  75  75  75  75  75  75  75  75  76 150  58  10   0 
  0   0   0   0   0   0   0   0   0   0   0   0   2  71 128  86  75  73 
 75  77  72  77  75  75  75  75  75  75  75  75  73 141   6  30   0   0 
  0   0   0   0   0   0   0   0   0   0   0   0   0   0   0   0   0   0 
  0   0   0   0   0   0   0   0   0   0   0   0   0   0   0   0   0   0 
  0   0   0   0   0   0   0   0   0   0   0   0   0   0   0   0   0   0 
  0   0   0   0   0   0   0   0   0   0   0   0   0   0   0   0   0   0 
  0   0   0   0   0   0   0   0   0   0   0   0   0   0   0   0   0 103 
105  28   7  27  45  80  43  48  56  51   8   1   0   0   3   1   1   2 
  0   0   0   0   1   2   1   0   0  19  42 110  15  15   7   3   1   8 
 12  13  15   7  34  66  70  65  64  49  10   2   1   0   2   1   1   9 
  0   9  13   3   0   2  24  18   6   1   0   0   0   0   0   0   0   0 
  0   0   0   0   0   0   0   0   1   2   1   2   1   0   0   0   0   1 
  3  30  81  84  62  62 128  68  36  24  12   0   8   1   3   2   2   1 
  2   1   4   2   1   4   6   0  11  19  35  62 115  88  44  88  85  33 
  0   0   0   0   0   0   0   0   2   0   0   1   0   2   0   1   2   1 
  0   0  26  83  83  43  90 112  56  29  17   5   5   2   4   2   1   1 
  1   0   0   0   3   0   3   3   5   1  15  26  53  99 108  34  90  83 
 31   0   0   0   0   0   0   0   0   1   2   0   0   0   0   0   0   0 
  0   0   0   0   0   0   0   0   0   0   0   0   0   1  12  79  84  85 
 83  84  84  84  84  84  84  84  84  84  84  84  83  86  79  13   0   0 
  0   0   0   0   0   0   0   0   0   0   0   0   1   2  70  84  85  80 
 86  85  82  85  84  84  84  84  84  84  84  84  83  87  26   2   0   0 
  0   0   0   0   0   0   0   0   0   0   0   0   0   0   0   0   0   0 
  0   0   0   0   0   0   0   0   0   0   0   0   0   0   0   0   0   0 
  0   0   0   0   0   0   0   0   0   0   0   0   0   0   0   0   0   0 
  0   0   0   0   0   0   0   0   0   0   0   0   0   0   0   0   0   0 
  0   0   0   0   0   0   0   0   0   0   0   0   0   0   0   0   0 103 
112  19  43  12  19  71  56  15   6   3   3   3   2   2   0   0   0   0 
  0   1   2   2   1   2   2   1   0  32  85  18  27  33  50  67  63  39 
 19   4   2   7  19  11  10  19  10   4   2   1   1   0   1   1   1  12 
  6  10  10   5   0   0  19   4  15   0   0   0   0   0   0   0   0   0 
  0   0   0   0   0   0   0   0   0   0   0   0   0   0   0   2   0   0 
  1   0   0   7  26  70 118  35  20  44  68  95 100  69  56  42  37  25 
 25  24  39  40  52  70  92  98  73  49  23  26 101  83  33   7   1   0 
  0   0   0   0   0   0   0   0   0   0   0   2   0   0   0   2   1   0 
  0   0   0   2  10  34  87  94  15  35  54  89 102  70  51  33  22  14 
  6   0   1  17  16  31  47  65  98  95  62  39   8  82  94  38   8   2 
  2   1   0   0   0   0   0   0   0   0   0   0   0   0   0   0   0   0 
  0   0   0   0   0   0   0   0   0   0   0   0   0   0   0   3   2   2 
  2   2   2   2   2   2   2   2   2   2   3   1   3   2   4   2   0   0 
  0   0   0   0   0   0   0   0   0   0   0   0   0   1   2   2   2   3 
  2   1   3   2   2   2   2   2   2   2   2   2   3   0   2   0   1   2 
  0   0   0   0   0   0   0   0   0   0   0   0   0   0   0   0   0   0 
  0   0   0   0   0   0   0   0   0   0   0   0   0   0   0   0   0   0 
  0   0   0   0   0   0   0   0   0   0   0   0   0   0   0   0   0   0 
  0   0   0   0   0   0   0   0   0   0   0   0   0   0   0   0   0   0 
  0   0   0   0   0   0   0   0   0   0   0   0   0   0   0   0   0 103 
126   7 135  34  19   5   2   0   2   1   0   0   0   0   0   0   0   0 
  0   2   1   0   1   2   1   2   1   3  33  41  44  50  56  74  56  11 
 37  78  51  41  25   1  17  24   2  22   4   2   1   1   0   0   1  12 
 12  16  15   2   1   1  11  15  24   0   0   0   0   0   0   0   0   0 
  0   0   0   0   0   0   0   0   0   0   0   0   0   0   0   0   0   0 
  0   0   0   0   0   0   1  27  51  66  78  96  93  36  15  22  19  50 
 44  51  17  21   8  35  81 101  81  68  53  31   7   2   0   0   0   0 
  2   0   0   0   0   0   0   0   0   0   0   0   0   0   0   0   0   0 
  0   2   0   0   0   0   0  10  35  59  70  91 100  40   2  31  54  62 
 86  93 102  54  64  34   8  29  89  97  75  61  38  13   0   0   1   2 
  1   2   0   0   0   0   0   0   0   0   0   0   0   0   0   0   0   0 
  0   0   0   0   0   0   0   0   0   0   0   0   0   0   0   2   0   0 
  0   0   0   0   0   0   0   0   0   0   0   0   0   0   2   1   0   0 
  0   0   0   0   0   0   0   0   0   0   0   0   0   0   0   0   0   0 
  0   0   0   0   0   0   0   0   0   0   0   0   0   0   0   1   1   1 
  0   0   0   0   0   0   0   0   0   0   0   0   0   0   0   0   0   0 
  0   0   0   0   0   0   0   0   0   0   0   0   0   0   0   0   0   0 
  0   0   0   0   0   0   0   0   0   0   0   0   0   0   0   0   0   0 
  0   0   0   0   0   0   0   0   0   0   0   0   0   0   0   0   0   0 
  0   0   0   0   0   0   0   0   0   0   0   0   0   0   0   0   0 103 
102  83  64  15   3   0   1   0   0   0   0   0   0   0   0   0   0   0 
  0   0   0   0   0   0   0   0   0   1   0   0   0   1   1   2  11  28 
 55  70  44  31   8  76  66  17   4  19   0  20   5   1   0   0   1  20 
 19  21  17   2   1   0   6  23  29   0   0   1   1   1   2   1   0   0 
  1   0   0   0   0   0   0   0   0   0   0   0   0   0   0   0   0   0 
  0   0   0   0   0   0   0   0   0   0   0   0   7  26  39  53  58  66 
 67  66  57  53  41  27  10   0   0   0   0   0   0   0   0   0   0   0 
  0   0   0   0   0   0   0   0   0   0   0   0   0   0   0   0   0   0 
  0   0   0   0   0   0   0   0   0   0   0   0   5  26  45  60  70  77 
 86  89  89  77  73  62  48  30   9   0   0   0   0   0   0   0   0   0 
  0   0   0   0   0   0   0   0   0   0   0   0   0   0   0   0   0   0 
  0   0   0   0   0   0   0   0   0   0   0   0   0   0   0   0   0   0 
  0   0   0   0   0   0   0   0   0   0   0   0   0   0   0   0   0   0 
  0   0   0   0   0   0   0   0   0   0   0   0   0   0   0   0   0   0 
  0   0   0   0   0   0   0   0   0   0   0   0   0   0   0   0   0   0 
  0   0   0   0   0   0   0   0   0   0   0   0   0   0   0   0   0   0 
  0   0   0   0   0   0   0   0   0   0   0   0   0   0   0   0   0   0 
  0   0   0   0   0   0   0   0   0   0   0   0   0   0   0   0   0   0 
  0   0   0   0   0   0   0   0   0   0   0   0   0   0   0   0   0   0 
  0   0   0   0   0   0   0   0   0   0   0   0   0   0   0   0   0 103 
104  16  71 110   7   1   0   0   0   0   0   0   0   0   0   0   0   0 
  0   0   0   0   0   0   0   0   0   0   0   0   0   0   0   2   0   1 
  4   0   8  17  37  88  54  43  54  60   5  19  14  15   1   0   3   9 
 13  25  25   4   1   1   0  37  35   0   0   1   1   0   1   1   1   1 
  1   1   0   0   0   1   0   0   0   0   0   0   0   0   0   0   0   0 
  0   0   0   0   0   0   0   0   0   0   0   0   0   0   0   0   0   0 
  0   0   0   0   0   0   0   0   0   0   0   0   0   0   0   0   0   0 
  0   0   0   0   0   0   0   0   0   0   0   0   0   0   0   0   0   0 
  0   0   0   0   0   0   0   0   0   0   0   0   0   0   0   0   0   0 
  0   0   0   0   0   0   0   0   0   0   0   0   0   0   0   0   0   0 
  0   0   0   0   0   0   0   0   0   0   0   0   0   0   0   0   0   0 
  0   0   0   0   0   0   0   0   0   0   0   0   0   0   0   0   0   0 
  0   0   0   0   0   0   0   0   0   0   0   0   0   0   0   0   0   0 
  0   0   0   0   0   0   0   0   0   0   0   0   0   0   0   0   0   0 
  0   0   0   0   0   0   0   0   0   0   0   0   0   0   0   0   0   0 
  0   0   0   0   0   0   0   0   0   0   0   0   0   0   0   0   0   0 
  0   0   0   0   0   0   0   0   0   0   0   0   0   0   0   0   0   0 
  0   0   0   0   0   0   0   0   0   0   0   0   0   0   0   0   0   0 
  0   0   0   0   0   0   0   0   0   0   0   0   0   0   0   0   0   0 
  0   0   0   0   0   0   0   0   0   0   0   0   0   0   0   0   0 103 
103   1  49  25  75   1   3   2   0   0   0   0   0   0   0   0   0   0 
  0   0   0   0   0   0   0   0   0   0   0   0   0   0   2   1   0   0 
  0   2   1   2   1   4  13  45  62  65  78  58   4  19  25   4  11   7 
  1  15  17   2   0   0   0  41  41   0   2   1   1   9  14  16  18  12 
  7   2   1   1   1   1   0   0   0   0   0   0   0   0   0   0   0   0 
  0   0   0   0   0   0   0   0   0   0   0   0   0   0   0   0   0   0 
  0   0   0   0   0   0   0   0   0   0   0   0   0   0   0   0   0   0 
  0   0   0   0   0   0   0   0   0   0   0   0   0   0   0   0   0   0 
  0   0   0   0   0   0   0   0   0   0   0   0   0   0   0   0   0   0 
  0   0   0   0   0   0   0   0   0   0   0   0   0   0   0   0   0   0 
  0   0   0   0   0   0   0   0   0   0   0   0   0   0   0   0   0   0 
  0   0   0   0   0   0   0   0   0   0   0   0   0   0   0   0   0   0 
  0   0   0   0   0   0   0   0   0   0   0   0   0   0   0   0   0   0 
  0   0   0   0   0   0   0   0   0   0   0   0   0   0   0   0   0   0 
  0   0   0   0   0   0   0   0   0   0   0   0   0   0   0   0   0   0 
  0   0   0   0   0   0   0   0   0   0   0   0   0   0   0   0   0   0 
  0   0   0   0   0   0   0   0   0   0   0   0   0   0   0   0   0   0 
  0   0   0   0   0   0   0   0   0   0   0   0   0   0   0   0   0   0 
  0   0   0   0   0   0   0   0   0   0   0   0   0   0   0   0   0   0 
  0   0   0   0   0   0   0   0   0   0   0   0   0   0   0   0   0 103 
101   2   1  91  69  36   0   1   0   0   0   0   0   0   0   0   0   0 
  0   0   0   0   0   0   0   0   0   0   0   0   0   0   2   0   1   1 
  0   0   0   4   0   0   2   3   1  14  81  41  31  73  17  15  25  15 
  8   4  13   1   0   1   4  35  27   4   1   4  17   2  14  22  21  16 
  6  11   1   2   1   0   1   2   0   0   0   0   0   0   0   0   0   0 
  0   0   0   0   0   0   0   0   0   0   0   0   0   0   0   0   0   0 
  0   0   0   0   0   0   0   0   0   0   0   0   0   0   0   0   0   0 
  0   0   0   0   0   0   0   0   0   0   0   0   0   0   0   0   0   0 
  0   0   0   0   0   0   0   0   0   0   0   0   0   0   0   0   0   0 
  0   0   0   0   0   0   0   0   0   0   0   0   0   0   0   0   0   0 
  0   0   0   0   0   0   0   0   0   0   0   0   0   0   0   0   0   0 
  0   0   0   0   0   0   0   0   0   0   0   0   0   0   0   0   0   0 
  0   0   0   0   0   0   0   0   0   0   0   0   0   0   0   0   0   0 
  0   0   0   0   0   0   0   0   0   0   0   0   0   0   0   0   0   0 
  0   0   0   0   0   0   0   0   0   0   0   0   0   0   0   0   0   0 
  0   0   0   0   0   0   0   0   0   0   0   0   0   0   0   0   0   0 
  0   0   0   0   0   0   0   0   0   0   0   0   0   0   0   0   0   0 
  0   0   0   0   0   0   0   0   0   0   0   0   0   0   0   0   0   0 
  0   0   0   0   0   0   0   0   0   0   0   0   0   0   0   0   0   0 
  0   0   0   0   0   0   0   0   0   0   0   0   0   0   0   0   0 103 
104   3   1   1 120  97  29   4   0   0   0   0   0   0   0   0   0   0 
  0   0   0   0   0   0   0   0   0   0   0   0   0   0   0   0   0   0 
  0   2   0   1   0   1   3   2   2   1   1  14  53  86  93  27  15   8 
 15   7   9   5   3   0   4  33  23   7   3  23  29   7   4  17  15  14 
  1  25  15   1   1   1   3   1   0   0   0   0   0   0   0   0   0   0 
  0   0   0   0   0   0   0   0   0   0   0   0   0   0   0   0   0   0 
  0   0   0   0   0   0   0   0   0   0   0   0   0   0   0   0   0   0 
  0   0   0   0   0   0   0   0   0   0   0   0   0   0   0   0   0   0 
  0   0   0   0   0   0   0   0   0   0   0   0   0   0   0   0   0   0 
  0   0   0   0   0   0   0   0   0   0   0   0   0   0   0   0   0   0 
  0   0   0   0   0   0   0   0   0   0   0   0   0   0   0   0   0   0 
  0   0   0   0   0   0   0   0   0   0   0   0   0   0   0   0   0   0 
  0   0   0   0   0   0   0   0   0   0   0   0   0   0   0   0   0   0 
  0   0   0   0   0   0   0   0   0   0   0   0   0   0   0   0   0   0 
  0   0   0   0   0   0   0   0   0   0   0   0   0   0   0   0   0   0 
  0   0   0   0   0   0   0   0   0   0   0   0   0   0   0   0   0   0 
  0   0   0   0   0   0   0   0   0   0   0   0   0   0   0   0   0   0 
  0   0   0   0   0   0   0   0   0   0   0   0   0   0   0   0   0   0 
  0   0   0   0   0   0   0   0   0   0   0   0   0   0   0   0   0   0 
  0   0   0   0   0   0   0   0   0   0   0   0   0   0   0   0   0 103 
103   1   1   3   7 109  79  50   3   0   0   0   0   0   0   0   0   0 
  0   0   0   0   0   0   0   0   0   0   0   0   0   0   0   0   0   2 
  0   0   0   0   0   0   1   1   3   2   2   0   0  10  81  39  89  19 
 20  24   1   1   1   0   2  32  24  10  17  27   2   4  30   9  18  17 
 20  39  29  14   2   0   2   0   0   0   0   0   0   0   0   0   0   0 
  0   0   0   0   0   0   0   0   0   0   0   0   0   0   0   0   0   0 
  0   0   0   0   0   0   0   0   0   0   0   0   0   0   0   0   0   0 
  0   0   0   0   0   0   0   0   0   0   0   0   0   0   0   0   0   0 
  0   0   0   0   0   0   0   0   0   0   0   0   0   0   0   0   0   0 
  0   0   0   0   0   0   0   0   0   0   0   0   0   0   0   0   0   0 
  0   0   0   0   0   0   0   0   0   0   0   0   0   0   0   0   0   0 
  0   0   0   0   0   0   0   0   0   0   0   0   0   0   0   0   0   0 
  0   0   0   0   0   0   0   0   0   0   0   0   0   0   0   0   0   0 
  0   0   0   0   0   0   0   0   0   0   0   0   0   0   0   0   0   0 
  0   0   0   0   0   0   0   0   0   0   0   0   0   0   0   0   0   0 
  0   0   0   0   0   0   0   0   0   0   0   0   0   0   0   0   0   0 
  0   0   0   0   0   0   0   0   0   0   0   0   0   0   0   0   0   0 
  0   0   0   0   0   0   0   0   0   0   0   0   0   0   0   0   0   0 
  0   0   0   0   0   0   0   0   0   0   0   0   0   0   0   0   0   0 
  0   0   0   0   0   0   0   0   0   0   0   0   0   0   0   0   0 103 
103   0   0   1   4   6  89   6  26   0   1   1   0   0   0   0   0   0 
  0   0   0   0   0   0   0   0   0   0   0   0   0   0   2   0   0   0 
  0   0   0   0   2   2   0   2   3   3   2   1   0   5   1  24 102  58 
 74  20   0   1   2   3   4  35  25  27  21   2   8  24  31  10   1   2 
  1   7  52  39   5   1   3   1   0   0   0   0   0   0   0   0   0   0 
  0   0   0   0   0   0   0   0   0   0   0   0   0   0   0   0   0   0 
  0   0   0   0   0   0   0   0   0   0   0   0   0   0   0   0   0   0 
  0   0   0   0   0   0   0   0   0   0   0   0   0   0   0   0   0   0 
  0   0   0   0   0   0   0   0   0   0   0   0   0   0   0   0   0   0 
  0   0   0   0   0   0   0   0   0   0   0   0   0   0   0   0   0   0 
  0   0   0   0   0   0   0   0   0   0   0   0   0   0   0   0   0   0 
  0   0   0   0   0   0   0   0   0   0   0   0   0   0   0   0   0   0 
  0   0   0   0   0   0   0   0   0   0   0   0   0   0   0   0   0   0 
  0   0   0   0   0   0   0   0   0   0   0   0   0   0   0   0   0   0 
  0   0   0   0   0   0   0   0   0   0   0   0   0   0   0   0   0   0 
  0   0   0   0   0   0   0   0   0   0   0   0   0   0   0   0   0   0 
  0   0   0   0   0   0   0   0   0   0   0   0   0   0   0   0   0   0 
  0   0   0   0   0   0   0   0   0   0   0   0   0   0   0   0   0   0 
  0   0   0   0   0   0   0   0   0   0   0   0   0   0   0   0   0   0 
  0   0   0   0   0   0   0   0   0   0   0   0   0   0   0   0   0 103 
103   0   0   0   3   8   2  50  44   0   0   1   0   0   0   0   0   1 
  0   1   0   0   0   0   0   1   0   1   2   2   3   4   5   4   4   4 
  3   3   2   1   0   0   0   0   1   0   2   1   0   1   2   1   2  60 
 31  62   2   1   0   1   3  29  27   8  12   4  21  31   2   1   0   1 
  3   1  16  16  23   2   2   0   0   0   0   0   0   0   0   0   0   0 
  0   0   0   0   0   0   0   0   0   0   0   0   0   0   0   0   0   0 
  0   0   0   0   0   0   0   0   0   0   0   0   0   0   0   0   0   0 
  0   0   0   0   0   0   0   0   0   0   0   0   0   0   0   0   0   0 
  0   0   0   0   0   0   0   0   0   0   0   0   0   0   0   0   0   0 
  0   0   0   0   0   0   0   0   0   0   0   0   0   0   0   0   0   0 
  0   0   0   0   0   0   0   0   0   0   0   0   0   0   0   0   0   0 
  0   0   0   0   0   0   0   0   0   0   0   0   0   0   0   0   0   0 
  0   0   0   0   0   0   0   0   0   0   0   0   0   0   0   0   0   0 
  0   0   0   0   0   0   0   0   0   0   0   0   0   0   0   0   0   0 
  0   0   0   0   0   0   0   0   0   0   0   0   0   0   0   0   0   0 
  0   0   0   0   0   0   0   0   0   0   0   0   0   0   0   0   0   0 
  0   0   0   0   0   0   0   0   0   0   0   0   0   0   0   0   0   0 
  0   0   0   0   0   0   0   0   0   0   0   0   0   0   0   0   0   0 
  0   0   0   0   0   0   0   0   0   0   0   0   0   0   0   0   0   0 
  0   0   0   0   0   0   0   0   0   0   0   0   0   0   0   0   0 103 
104   2   0   0   3  10  10  10  38   1   1   0   0   2   2   1   1   3 
  0   2   0   0   0   0   2   6   3  17  32  45  58  67  70  71  69  70 
 59  49  40  22   6   3   3   1   0   0   2   0   0   1   3   0   2   0 
 31  44  58   6   2   1   2  37  45  11   4  24  21   5   0   1   0   0 
  1   1   3  41  33   1   1   1   0   0   0   0   0   0   0   0   0   0 
  0   0   0   0   0   0   0   0   0   0   0   0   0   0   0   0   0   0 
  0   0   0   0   0   0   0   0   0   0   0   0   0   0   0   0   0   0 
  0   0   0   0   0   0   0   0   0   0   0   0   0   0   0   0   0   0 
  0   0   0   0   0   0   0   0   0   0   0   0   0   0   0   0   0   0 
  0   0   0   0   0   0   0   0   0   0   0   0   0   0   0   0   0   0 
  0   0   0   0   0   0   0   0   0   0   0   0   0   0   0   0   0   0 
  0   0   0   0   0   1   2   0   0   0   0   0   0   0   0   0   0   0 
  0   0   0   0   0   0   0   0   0   0   0   0   0   0   0   0   0   0 
  0   0   0   0   0   0   0   0   0   0   0   0   0   0   0   0   0   0 
  0   0   0   0   0   0   2   0   0   0   0   0   0   0   0   0   0   0 
  0   0   0   0   0   0   0   0   0   0   0   0   0   0   0   0   0   0 
  0   0   0   0   0   0   0   0   0   0   0   0   0   0   0   0   0   0 
  0   0   0   0   0   0   2   1   0   0   0   0   0   0   0   0   0   0 
  0   0   0   0   0   0   0   0   0   0   0   0   0   0   0   0   0   0 
  0   0   0   0   0   0   0   0   0   0   0   0   0   0   0   0   0 103 
101   1   0   0   0  12  11  15  40   1   0   0   0   1   0   2   3   3 
  1   0   6   8  35  60  63  62  79  51  12   4  36  48  52  53  49  57 
 35  11   0  35  76  67  66  60  53  25   0   6   1   1   1   2   4   1 
  1  13  59  69   4   2   3  45  54  13   4  12  21   2   0   0   1   3 
  1   2   5  34  28   1   1   1   0   0   0   0   0   0   0   0   0   0 
  0   0   0   0   0   0   0   0   0   0   0   0   0   0   0   0   0   0 
  0   0   0   0   0   0   0   0   0   0   0   0   0   0   0   0   0   0 
  0   0   0   0   0   0   0   0   0   0   0   0   0   0   0   0   0   0 
  0   0   0   0   0   0   0   0   0   0   0   0   0   0   0   0   0   0 
  0   0   0   0   0   0   0   0   0   0   0   0   0   0   0   0   0   0 
  0   0   0   0   0   0   0   0   0   0   0   0   1   2   0   0   0   0 
  0   2   1   2   1   2   1   0   0   0   0   0   0   0   0   0   0   0 
  0   0   0   0   0   0   0   0   0   0   0   0   0   0   0   0   0   0 
  0   0   0   0   0   0   0   0   0   0   0   2   1   2   0   1   2   1 
  1   0   0   0   0   0   1   0   0   0   0   0   0   0   0   0   0   2 
  1   0   0   0   0   0   0   0   0   0   0   0   0   0   0   0   0   0 
  0   1   2   0   0   0   2   0   0   0   0   0   0   0   0   2   0   0 
  0   0   0   0   0   0   1   2   0   0   0   0   0   0   0   0   0   0 
  0   0   2   0   0   0   2   0   1   0   0   0   0   0   0   0   0   0 
  0   0   0   0   0   0   0   0   0   0   0   0   0   0   0   0   0 103 
103   1   2   0   1  15   6   6  37   1   2   0   1   1   0   1   4   1 
 16  37  92  77   4  54  56  63  78  63  48  37  25  19  16  15  17  13 
 23  35  41  57  74  69  60  54  31  27  95  77  33  11   3   3   2   1 
  0   0  10  66  66   3   0  32  46  17  12  13   5   2   2   2   1   1 
  2   0  20   3  18   0   1   0   0   0   0   0   0   0   0   0   0   0 
  0   0   0   0   0   0   0   0   0   0   0   0   0   0   0   0   0   0 
  0   0   0   0   0   0   0   0   0   0   0   0   0   0   0   0   0   0 
  0   0   0   0   0   0   0   0   0   0   0   0   0   0   0   0   0   0 
  0   0   0   0   0   0   0   0   0   0   0   0   0   0   0   0   0   0 
  0   0   0   0   0   0   0   0   0   0   0   0   0   0   0   0   0   0 
  0   0   0   0   0   0   0   0   0   0   0   0   2   1   0   0   0   0 
  0   0   0   0   0   0   0   0   0   0   0   0   0   0   0   0   0   0 
  0   0   0   0   0   0   0   0   0   0   0   0   0   0   0   0   0   0 
  0   0   0   0   0   0   0   0   0   2   0   1   2   1   0   2   1   0 
  1   1   0   0   0   0   1   0   0   0   2   0   1   2   1   0   0   1 
  2   0   0   0   0   0   0   0   0   0   0   0   0   0   0   0   0   0 
  0   1   1   0   0   0   1   0   0   0   1   2   0   0   0   0   0   1 
  2   0   0   1   2   0   0   0   0   2   0   0   0   0   0   0   0   0 
  0   0   0   0   0   0   0   1   3   1   0   0   0   0   0   0   0   0 
  0   0   0   0   0   0   0   0   0   0   0   0   0   0   0   0   0 103 
103   1   1   0   1   8  11  13  46   0   1   2   4   0   1   2  45  85 
 52   8  86  77  42  20  10   5   0   1   0   0   0   2   0   0   2   1 
  1   2   1   0   0   4   9  15  29  53  91  63  19  51  68  42   4   2 
  0   1   2  10  60  62   2  26  34   9   3  26   0   0   3   2   1   2 
  2   0  44  41   4   1   1   0   0   0   0   0   0   0   0   0   0   0 
  0   0   0   0   0   0   0   0   0   0   0   0   0   0   0   0   0   0 
  0   0   0   0   0   0   0   0   0   0   0   0   0   0   0   0   0   0 
  0   0   0   0   0   0   0   0   0   0   0   0   0   0   0   0   0   0 
  0   0   0   0   0   0   0   0   0   0   0   0   0   0   0   0   0   0 
  0   0   0   0   0   0   0   0   0   0   0   0   0   0   0   0   0   0 
  0   0   0   0   0   0   0   0   0   0   0   0   0   0   0   1   2   1 
  0   0   0   0   0   0   0   0   0   0   0   0   0   0   0   0   0   0 
  0   0   0   0   0   0   0   0   0   0   0   0   0   0   0   0   0   0 
  0   0   0   0   0   0   0   0   0   0   0   2   1   0   0   0   0   0 
  1   2   0   1   2   1   1   1   2   1   0   0   2   2   2   1   2   0 
  1   0   0   0   0   0   0   0   0   0   0   0   0   0   0   0   0   0 
  0   1   0   0   0   0   2   1   0   0   2   1   0   0   0   0   0   2 
  1   0   1   1   1   0   0   0   0   0   0   0   0   2   0   1   0   0 
  0   0   0   0   0   0   0   0   1   2   1   2   0   0   0   0   0   0 
  0   0   0   0   0   0   0   0   0   0   0   0   0   0   0   0   0 103 
103   1   1   0   2   1  26  45  58   1   3   0   7  15  49 114   1 106 
 60  38   8   1   1   0   0   0   0   0   0   0   0   0   0   0   1   0 
  0   1   0   0   0   1   1   1   0   1   1  17  51  65  75  13  80  41 
 12   0   2   2  14  48  49  14  24  10  29  42   3   2   1   1   0   0 
  2  31   9  23   1   0   1   1   0   0   0   0   0   0   0   0   0   0 
  0   0   0   0   0   0   0   0   0   0   0   0   0   0   0   0   0   0 
  0   0   0   0   0   0   0   0   0   0   0   0   0   0   0   0   0   0 
  0   0   0   0   0   0   0   0   0   0   0   0   0   0   0   0   0   0 
  0   0   0   0   0   0   0   0   0   0   0   0   0   0   0   0   0   0 
  0   0   0   0   0   0   0   0   0   0   0   0   0   0   0   0   0   0 
  0   0   0   0   0   0   0   0   0   0   0   0   0   0   4  32  60  69 
 75  75  70  59  36   2   0   1   0   0   0   0   0   0   0   0   0   0 
  0   0   0   0   0   0   0   0   0   0   0   0   0   0   0   0   0   0 
  0   0   0   0   0   0   0   0   0   0   0   0  17  44  68  11   2   0 
  0   0   2  23  49  66   5   2   1   2   1  44  52  50  19   0   0   1 
  2   0   0   0   0   0   0   0   0   0   0   0   0   0   0   0   0   0 
  0   0   0   0   0   0  12  51  51  52  20   1   2   0   0   0   0   1 
  0   0   0   0   0   0   0   0   0  49  50  51  39   0  54  47  52  49 
 51  49  51  35   0   0   0   2   0   0   0   0   0   0   0   0   0   0 
  0   0   0   0   0   0   0   0   0   0   0   0   0   0   0   0   0 103 
103   0   1   1   0   0   8  66  77   1   3   2  79  68  28 100  41   3 
  2   0   1   1   1   0   0   0   0   0   0   0   0   0   0   0   2   0 
  0   2   1   2   1   1   1   0   0   2   2   1  25  19   0  37  89  12 
  8  64  19   2   2  26  41  46  16   0  15  27  46   3   4   1   2   0 
 39  10  41   1   1   0   0   3   1   0   0   0   0   0   0   0   0   0 
  0   0   0   0   0   0   0   0   0   0   0   0   0   0   0   0   0   0 
  0   0   0   0   0   0   0   0   0   0   0   0   0   0   0   0   0   0 
  0   0   0   0   0   0   0   0   0   0   0   0   0   0   0   0   0   0 
  0   0   0   0   0   0   0   0   0   0   0   0   0   0   0   0   0   0 
  0   0   0   0   0   0   0   0   0   0   0   0   0   0   0   0   0   0 
  0   0   0   0   0   0   0   0   0   0   0   0   2  30 114  13  36  58 
 67  64  57  37   5 119  43   1   1   0   0   0   0   0   0   0   0   0 
  0   0   0   0   0   0   0   0   0   0   0   0   0   0   0   0   0   0 
  0   0   0   0   0   0   0   0   2   0   0  18  62   1 124  38  11   0 
  0   2  34  45  12 126  55   5   0   2  41  45  18  45  11  18   0   2 
  1   0   0   0   0   0   0   0   0   0   0   0   0   0   0   0   0   0 
  0   0   2   0   0  11  11  62   9  46  35  18   1   0   0   0   1   1 
  9   2   0   0   0   0   0   0  71  50  12  22  65  92  67   5  13  10 
 10  10  26   4  35   2   0   0   0   0   0   0   0   0   0   0   0   0 
  0   0   0   0   0   0   0   0   0   0   0   0   0   0   0   0   0 103 
103   1   1   2   0   0   0  82 101   5  50 103  42  92  29   0   1   1 
  3   1   1   1   1   0   0   0   0   0   0   0   2   0   0   0   0   0 
  0   0   0   1   1   0   3   1   0   1   1  14  13   6   2  25  26   8 
 25  75  20  48  27   1  65  56  27   2   0  33  14  39  22  24  28  45 
  8  35   2   1   2   2   0   1   0   0   0   0   0   0   0   0   0   0 
  0   0   0   0   0   0   0   0   0   0   0   0   0   0   0   0   0   0 
  0   0   0   0   0   0   0   0   0   0   0   0   0   0   0   0   0   0 
  0   0   0   0   0   0   0   0   0   0   0   0   0   0   0   0   0   0 
  0   0   0   0   0   0   0   0   0   0   0   0   0   0   0   0   0   0 
  0   0   0   0   0   0   0   0   0   0   0   0   0   0   0   0   0   0 
  0   0   0   0   0   0   0   0   0   0   0   0  75  73 148  60  31  13 
 10  10  19  29  54 155  32 106   9   0   0   0   0   0   0   0   0   0 
  0   0   0   0   0   0   0   0   0   0   0   0   0   0   0   0   0   0 
  0   0   0   0   0   0   0   0   0   0   1  83 152  49 114  73  10   1 
  0  17  43 145  45 100  77   3   1   0  75  97  51 101  12  32   0   0 
  0   0   0   0   0   0   0   0   0   0   0   0   0   0   0   0   0   0 
  0   0   0   0   0   0  89 134  42  69  45  61   0   0   2   1   1  11 
 39  15   2   0   2   0   0  21  83 125  34  98  24 135 145  35  38  41 
 40  42  34 160 143   0   0   0   0   0   0   0   0   0   0   0   0   0 
  0   0   0   0   0   0   0   0   0   0   0   0   0   0   0   0   0 103 
103   1   0   0   0   2   0  44   8 163  24  94  32   1   1   2   2   0 
  1   0   0   0   0   0   0   0   0   0   0   0   0   0   0   0   0   0 
  0   0   0   0   1   1   2   1   1   0   2  18  15   1   9   5  16   0 
  0   4  32  46  19  64  29 106 120   2   1   2  30  24   6   4  28  35 
 21   2   3   1   0   0   1   0   0   0   0   0   0   0   0   0   0   0 
  0   0   0   0   0   0   0   0   0   0   0   0   0   0   0   0   0   0 
  0   0   0   0   0   0   0   0   0   0   0   0   0   0   0   0   0   0 
  0   0   0   0   0   0   0   0   0   0   0   0   0   0   0   0   0   0 
  0   0   0   0   0   0   0   0   0   0   0   0   0   0   0   0   0   0 
  0   0   0   0   0   0   0   0   0   0   0   0   0   0   0   0   0   0 
  0   0   0   0   0   0   0   0   0   0   0  66   4 110   0   3  44  83 
 95  91  64  25   2   6  68 133  54   7   0   0   0   0   0   0   0   0 
  0   0   0   0   0   0   0   0   0   0   0   0   0   0   0   0   0   0 
  0   0   0   0   0   0   0   0   0   0   0  83  77   1  88  67  13   2 
  0  17  54  67   6  81  77   6   2   2  75  64   9  64  31  31   0   0 
  0   0   0   0   0   1   0   0   0   0   0   0   0   0   0   0   0   0 
  0   0   0   0   0   1  62  55  25   1 106 122   1   0   0   0   1 102 
197  89   8   0   0   0   0  90 106  12   4 138 130  95 129  20  26  23 
  2   1   3  46  25  52   1   0   0   0   0   0   0   0   0   0   0   0 
  0   0   0   0   0   0   0   0   0   0   0   0   0   0   0   0   0 103 
103   0   0   0   0   0   0   7  29  35  48   2   1   0   1   2   1   0 
  0   0   0   0   0   0   0   0   0   0   0   0   0   0   0   0   0   0 
  0   0   0   0   0   0   0   1   1   2  25  23   2   1  21  15   3   1 
  0   0   1   2  19  65  21 113  68  64  16  14  12  16  23  24  14   8 
  9   9  12  13  16  12   6   1   1   2   1   1   1   1   1   1   1   2 
  0   1   0   1   2   0   0   0   0   0   0   0   0   0   0   0   0   0 
  0   0   0   0   0   0   0   0   0   0   0   0   0   0   0   0   0   0 
  0   0   0   0   0   0   0   0   0   0   0   0   0   0   0   0   0   0 
  0   0   0   0   0   0   0   0   0   0   0   0   0   0   0   0   0   0 
  0   0   0   0   0   0   0   0   0   0   1   0   0   1   1   0   0   1 
  1   1   0   0   0   0   0   0   0   0  19  95 136   7   2 106   8  77 
101  91  45  43 100   1  60 103  52   6   0   0   0   2   1   0  21  53 
 66  66  44   8   2   1   0   0   0   0   0   0   0   1   2  13  50  66 
 66  48   8   2   5  11  10   8   2   1   8  93  77   0  90  85  22   7 
  0  26  68  69   5  81  93  15   4   0  75  63  12  62  27  32   0   0 
  0   0   0   0   1  22  55  68  64  39   4   2   1   0   0   0   0   0 
  0   0   0   0   0   0  24  66  95   8  69  33  37   0   0   0  25  62 
143  13  47   0   0   2  13  76  89   2  53  19  44  68 111  35  35   0 
 23   0   0   8  86  89   1   1   0   0   0   0   0   0   0   0   0   0 
  0   0   0   0   0   0   0   0   0   0   0   0   0   0   0   0   0 103 
103   0   0   0   0   0   0   0   6  13   1   1   2   0   0   0   0   0 
  0   0   0   0   0   0   0   0   0   0   0   0   0   0   0   0   0   0 
  0   0   0   0   2   0   0   1   0  16  14   6   1   8  16  24   2   1 
  2   3   1   0   3   9  14 150 114  33  27  14  17  10  15  13  10   8 
  7   8   9   8  11   9   3  14  14  11   4   1   1   2   1   1   1   1 
  1   3   2   3   1   0   0   0   0   0   0   0   0   0   0   0   0   0 
  0   0   0   0   0   0   0   0   0   0   0   0   0   0   0   0   0   0 
  0   0   0   0   0   0   0   0   0   0   0   0   0   0   0   0   0   0 
  0   0   0   0   0   0   0   0   0   0   0   0   0   0   0   0   0   0 
  0   0   0   0   0   0   2   1   2   1   3   1   1   1   1  27  61   9 
  0   1   0   1   0   0   0   0   0   0  74 105  11   5 107 129  60  18 
  5  10  29  79 110 182  45 125   7   2   1   2   1   1  39 100  64  34 
 54  62  10 106  73   6   1   0   0   0   0   0   0  17  86  93  29  59 
 59  25 108  73  39  66  71  49   9   6  44 149  65   2  81 125  78  46 
 19  69 110  62   3  68 136  70  21   5  75  65  10  61  29  31   0   0 
  0   0   0  48 110  50  38  58  60   6 116  62   0   0   0   0   0   0 
  0   0   0   0   0   0   0 104 107  11   1 123 101   1   0   0  62  47 
 18 147 136   0   0   1  36  35  54   2  82  82  13   1  66  65  85 135 
 66   0   2   2  88  98  19   2   0   0   0   0   0   0   0   0   0   0 
  0   0   0   0   0   0   0   0   0   0   0   0   0   0   0   0   0 103 
103   0   0   0   0   0   0   0   0   0   0   0   0   0   0   0   0   0 
  0   0   0   0   0   0   0   0   0   0   0   0   0   0   0   0   0   0 
  0   0   0   0   1   0   1   0  13   3  14   0   0  26  31   4   0   1 
  2   3   0   1   2  17  10  10  75 102  34  85  21   9  19  22  23  13 
 14  10  10   9  11   9  11   7   5   6  11  23   9   2   0   1   0   1 
  1   1   1   1   1   0   0   0   0   0   0   0   0   0   0   0   0   0 
  0   0   0   0   0   0   0   0   0   0   0   0   0   0   0   0   0   0 
  0   0   0   0   0   0   0   0   0   0   0   0   0   0   0   0   0   0 
  0   0   0   0   0   0   0   0   0   0   0   0   0   0   0   0   0   0 
  0   0   0   0   0   0   0   0   1   0   1   1   3   8  86  39 170  28 
  7   1   1   3   1   0   0   1   2   2  79  82   9   6  44 110   1   1 
  1   0   1   0  31  40  68   0   1   1   0   1   1 101  15  98  91  39 
 29  25  54 109  70 122  23   0   0   0   0   1  43  93  89 105  43  24 
 22  48 118   7  56 143 108 114  71  66  95 122   0   2  10  77 121  79 
136 154  83   0   0   2  84 167  36  21  75  64  10  62  28  32   0   0 
  0   1 122  15 109  82  37  25  30  60 115  52 139  11   0   0   0   0 
  2   1   0   0   2   1   0  31  58  62   2  79  69  15   0   2 130 109 
  1  48   8  45   1   1  96  91  11  12 100  89   2   1   0   0  85  67 
 23   9  64   3  14 100  92   1   0   0   0   0   0   0   0   0   0   0 
  0   0   0   0   0   0   0   0   0   0   0   0   0   0   0   0   0 103 
103   0   0   0   0   0   0   0   0   0   0   0   0   0   0   0   0   0 
  0   0   0   0   0   0   0   0   0   0   0   0   0   0   0   0   0   0 
  0   0   0   0   1   2   3  10   9  20   4   2  21   8  10   1   0   2 
  4   4   2   1   2  25  24   5  11 104 104  93  52  33  15  23  23  20 
 19  16  16  17  18  19  19  27  17   8   4   8  17  32  15   1   0   0 
  2   0   1   2   2   0   0   0   0   0   0   0   0   0   0   0   0   0 
  0   0   0   0   0   0   0   0   0   0   0   0   0   0   0   0   0   0 
  0   0   0   0   0   0   0   0   0   0   0   0   0   0   0   0   0   0 
  0   0   0   0   0   0   0   0   0   0   0   0   0   0   0   0   0   0 
  0   0   0   0   0   0   0   0   1   1   1   1  37 108  68 138  19  50 
  0   0   1   0   1   0   0   2   1   1  79  93   6   0  95 112  93  49 
 27  11   0   1   1  13   1   2   1   0   0   0 110  65  88   6  25  79 
 69  76  42   3  26 157 118  18   1   2   1  34  85 153  12   7  25  72 
 78  52   1  37  24   2  18  40  66  64  54  49   4   1   2  21  55  38 
138  97  25   2   0   1  20  97  46  22  74  62  10  64  29  32   0   0 
  2 125 116  64   0  34  78  71  75  33   2  34 164 131   9   1   2   0 
  1   2   0   0   1   2   1   6  85  90   1  43   7  49   1  52   8  50 
  0  12  76  91   1  19  91 107   9  92  68  25   1   2   1  16  99 116 
  6  88 135  69   5  98  75  17   1   0   0   0   0   0   0   0   0   0 
  0   0   0   0   0   0   0   0   0   0   0   0   0   0   0   0   0 103 
103   0   0   0   0   0   0   0   2   1   2   0   0   0   0   0   0   0 
  0   0   0   0   0   0   0   0   0   0   0   0   0   0   0   0   0   0 
  0   0   0   0   0   3   8  19  23   1   1   8  14  23   2   0   2   2 
  2   2   2   1   5   3  39  16   4   0  10  21  49  38  52   3   0   3 
  3   1   1   1   1   0   0   4   5   6  11  18  25  28   9  45  13   0 
  1   1   2   2   1   0   0   0   0   0   0   0   0   0   0   0   0   0 
  0   0   0   0   0   0   0   0   0   0   0   0   0   0   0   0   0   0 
  0   0   0   0   0   0   0   0   0   0   0   0   0   0   0   0   0   0 
  0   0   0   0   0   0   0   0   0   0   0   0   0   0   0   0   0   0 
  0   0   0   0   0   0   0   0   1   0   0  66  41 111  33  80 110   1 
  1   1   0   0   1   1   1   0   0   0  57  56  44   3   1  81  75   3 
 40  81 106  81  62  34   6   1   1   0   0  64  10  73   7  71  60 114 
 73 100   8 121   9   8 133 121   1   2   9 115 135   1   5 109  48  90 
 90  40 128  24   3   1  23  46  68  46  53  33  23   1  23  19  61  38 
 93  82  27  21   1  26  17  89  30  15  77  64  11  60  26  32   0   0 
 78  42  46   6  90  24 110  72 104  28  91   6  14 119 125   2   1   0 
  0   0   0   0   0   0   0   0  76  79  21   1 122 119   4 103 123   1 
  1   4  97 101  18  71  73  19  13  83 102   0   0   1   0  68  66  23 
 18  56 184  86   8  33  26  56   0   0   2   0   0   0   0   0   0   0 
  0   0   0   0   0   0   0   0   0   0   0   0   0   0   0   0   0 103 
103   0   0   0   0   0   0   0   1   2   1   0   0   0   0   0   0   0 
  0   0   0   0   0   0   0   0   0   0   0   0   0   0   0   0   0   0 
  0   0   0   0   1   8  21  26   1   1   2  27  27   1   2   2   0   0 
  0   1   1   0   0   2  17  21  11   2  39  48   0  20  40  49   7   3 
  1   1   0   1   1   1   1   0   0   0   4   2   4   7  30  40  18  42 
  9   1   3   2   0   2   0   0   0   0   0   0   0   0   0   0   0   0 
  0   0   0   0   0   0   0   0   0   0   0   0   0   0   0   0   0   0 
  0   0   0   0   0   0   0   0   0   0   0   0   0   0   0   0   0   0 
  0   0   0   0   0   0   0   0   0   0   0   0   0   0   0   0   0   0 
  0   0   0   0   0   0   0   1   1   1  89   6  96   1  50  23  29   2 
  1   1   1   1   0   1   2   0   0   0   4 132 144  14   2   3  11  49 
 68  91 118  75  40  22 100  28   2   1  13  90 138   7  59  12 114  11 
 11  11  75  75 109   8  51  23  59   2  89  85  24   4 124  81  89  20 
 15  41 147  86  32   0  23  45  68   2  46 146  70   2  96 143  74  39 
  3  70 124  75   4  81 155  65  13   2  75  64  10  62  29  32   0  19 
 89 126   7  83  17  95  11   9  14  95  27  95   9  70   8  52   0   0 
  0   0   2   1   0   0   0   0  12 109 114  11  74  40  64  38  59   1 
 41   9  15 102  94  85  79   8  44   7  44   1   2   1   2 112  96   2 
 56  19  93  42  30   3 105 125   1   0   1   0   0   0   0   0   0   0 
  0   0   0   0   0   0   0   0   0   0   0   0   0   0   0   0   0 103 
103   0   0   0   0   0   0   0   0   0   0   0   0   0   0   0   0   0 
  0   0   0   0   0   0   0   0   0   0   0   0   0   0   0   0   0   0 
  0   0   0   0  10  17  29   0   3   2  31  25   5   2   1   0   1   1 
  1   1   1   2   3   0   1   0   1   3  22   6  28   2   9  58  60  10 
  2   0   0   1   1   0   0   2   2   1   2   0   0   0   4   6  25  57 
 41  33   2   2   1   1   0   0   0   0   0   0   0   0   0   0   0   0 
  0   0   0   0   0   0   0   0   0   0   0   0   0   0   0   0   0   0 
  0   0   0   0   0   0   0   0   0   0   0   0   0   0   0   0   0   0 
  0   0   0   0   0   0   0   0   0   0   0   0   0   0   0   0   0   0 
  0   0   0   0   0   0   2   3   4 110  49  66   2   1 130 108   1   2 
  1   1   1   1   0   0   1   0   0   1   1  11 129 142  78  47  27   5 
  8  11  10   9  30  54 157  97  33   2  53  34  31  12  45 183  64  64 
 60  66  60 147  33  41   9 136 104  23  69 108   5  76  49  60   0   0 
  2   2   4 131  87   7  22  47  68   1   1  81  78   1  89  66  12   0 
  0  16  54  70   4  82  77   4   0   2  73  63  10  62  28  32   0  79 
100  11  23   8 172  64  62  65  63  62 165  10  28   2 112  82   5   2 
  0   0   1   2   0   0   0   0   1  85  64  21  10  92 169  63  17  70 
101  44   5  90  89 102  81   3 108  87  12   2   1   0  46  12  53   1 
141 120  15 103 119   6  60  10  46   0   2   0   0   0   0   0   0   0 
  0   0   0   0   0   0   0   0   0   0   0   0   0   0   0   0   0 103 
103   0   0   0   0   0   0   0   0   0   0   0   0   0   0   0   0   0 
  0   0   0   0   0   0   0   0   0   0   0   0   0   0   0   0   0   0 
  0   0   0  14   7  21   2   1   2  24  10  13   2   2   2   0   1   1 
  1   1   1   1   1   2   0   2   4   1   0  52  42   2   1   4  58  43 
  9   2   0   2   1   1   2   2   3   3   2   6   4   1   6   3   4   1 
 44  31  59  13   3   1   1   0   1   0   0   0   0   0   0   0   0   0 
  0   0   0   0   0   0   0   0   0   0   0   0   0   0   0   0   0   0 
  0   0   0   0   0   0   0   0   0   0   0   0   0   0   0   1   0   0 
  1   1   0   0   0   0   0   0   0   0   0   0   0   0   0   0   0   0 
  0   0   0   0   0   1   3   8  99  70  57   4   0  72  68  24   0   1 
  1   0   1   2   0   0   1   1   0   0   0   0  10 103  52   7  43  75 
116  91  64  28   2   3   2 145  94  12  71  62  23   6  11  17  36  39 
 34  41  36  31  27  25   3  63  21  77  19  41   9  70 111   1   0   0 
  1   2   1  61  21  33  24  42  66   1   0  85  78   2  88  73  12   0 
  0  16  56  69   6  80  77   5   0   0  76  64  10  62  28  32   5  72 
 78   8  12   4  25  37  36  39  38  35  26  12  16   2  72  55  15   0 
  0   0   0   0   0   1   0   0   0  37  23  54   2  69 175 106   1 110 
194  85  17  41  84  39  19  25  68  76   0   1   0   2 121 135   2  47 
  7  50   1  77  62  23   4 117  97   3   0   0   0   0   0   0   0   0 
  0   0   0   0   0   0   0   0   0   0   0   0   0   0   0   0   0 103 
103   0   0   0   0   0   0   0   0   0   0   0   0   0   0   0   0   0 
  0   0   0   0   0   0   0   0   0   0   0   0   0   0   0   2   1   2 
  1   2  21   0  20   3   2   0  19   3  21   3   2   1   1   0   0   0 
  0   1   1   1   0   2   2   2   1   0   2  20   2  16   2   0   4  49 
 59   2   3   3  13  22  32  32  28  27  25  25  25  29  23  27  25  27 
 29  37  91  12  15  16  17  10   3   1   0   0   1   1   1   1   2   1 
  2   0   0   1   2   1   1   1   1  12  14  12  13  16  11   2   1   0 
  0   0   0   0   1   0   0   0   0   0   0   0   0   0   1   2   1   0 
  1   0   8  14   6   1   1   0   0   0   0   0   0   0   0   0   0   0 
  1   1   2   0   0   1  10  87  46  43   1   1   8  74  84   2   1   0 
  0   0   0   0   0   0   0   0   0   0   0   0   0   0  19  41  64  81 
106  84  38  44  83   4   0  41  27  52  79  78   8   1   6  19  23  22 
 22  21  21  21  19   6   6  45   1 102  48  25  24  29  66   1   1   0 
  0   0   0  28  75  77  17  48  68   0   0  85  80   1  87  68  12   0 
  0  16  57  72   3  81  77   5   0   2  75  64  10  62  28  32   8  65 
 75   6   2  12  21  21  23  21  22  23  24  11   2   6  67  50  18   0 
  0   2   0   0   0   1   0   0   0   9  93 114   2   6  59   2  46  16 
 65  81 101   1  34  25   3  98 111  12   0   1   1  39  14  58   0  87 
187  61  60  80 137  73   5  73  61  25   0   0   0   0   0   0   0   0 
  0   0   0   0   0   0   0   0   0   0   0   0   0   0   0   0   0 103 
103   0   0   0   0   0   0   0   0   0   0   0   0   0   0   0   0   0 
  0   0   0   0   0   0   0   0   0   0   0   0   0   0   0   1   0   4 
  9  23  20  11   1   0   2  20   3  23   1   0   0   1   0   0   0   0 
  0   0   1   0   0   0   0   1   0   0   1   3  40  50   0   0   2   8 
 55  46  44  33  10  11  29  29  28  30  26  31  27  31  26  29  29  29 
 28  27  41  44  18  18  15   2  29  15   6   2   1   0   0   0   0   0 
  0   1   1   1   2   1   0   4  25  16  15   1   3  20   4  31   1   1 
  1   0   1   3   1   0   0   0   1   2   0   0   2   0   1   4  10  15 
 25  19   3  26  17   8   1   1   2   1   1   1   2   0   0   0   2   1 
  1   0   0   0   0  13  54  32  60   1   0   1  40  11  42   0   1   0 
  0   0   0   0   0   0   0   0   0   1   1   1   4  20   0   1   1   2 
  0  11  32  81 108  74   1  13  88  77  78  75  15   4  23 102  97  98 
 97  97 100  97  96 100  96 150  44 106  45  30  21  33  70   0   1   1 
  2   0   0  35  43  62  17  44  67   0   2  85  78   1  90  75  12   2 
  1  17  54  68   6  80  82   2   0   2  74  64  10  62  28  32   7  67 
 77   2   1  46 100  97  97  97  99  96  97 101  98  97 171  23  23   0 
  0   0   0   0   0   1   0   0   0   0  70  53  30   0   1   2  96  78 
 12  98  85  14   3   1  12  73  83   1   0   1   1  89  68  14   7   7 
  2  28  26  24  11  21   2  24  51  77   2   0   0   0   0   0   0   0 
  0   0   0   0   0   0   0   0   0   0   0   0   0   0   0   0   0 103 
103   0   0   0   0   0   0   0   0   0   0   0   0   0   0   0   0   0 
  0   0   0   0   0   0   0   0   0   0   0   0   0   0   0   1   1  10 
  1  24   2   1   0   2  23   3  21   1   2   2   1   1   0   0   0   0 
  0   0   0   2   1   1   1   2   2   1   1   2  36  19  14   1   1   1 
 23  26 118  33  23  12   5   5   2   3   2   2   0   2   3   1   1   3 
  3   2   6  27  13  10  13  11  25   8   6  22  14   2   1   2   1   0 
  1   1   1   1   1   0   4  16  29   2   4  15  10   4  14  33  32   2 
  1   0   2   1   0   2   1   0   2   1   0   0   4  12  24  15   2   8 
 26  23  45   0  17   1   1   1   1   0   0   1   1   0   2   1   1   0 
  0   0   0   2  12  23  51  77   5   3   0   3 115 110   4   0   1   0 
  0   0   0   0   0   0   2   0   0   1   1   1  75  14  50   1   1   1 
  0   0   0   1 124  85   1  16  77  75  67  54  22  21   6 166  91  93 
 90  93  93  90  94 118  91  95  41  45  10  47   2  95 143   1   1   1 
  0   0   0  75  42  27  23  48  68   0   0  84  78   2  87  84  13   1 
  2  17  57  73   6  79  82   6   0   0  74  66  12  64  40  31   4  76 
 84   9  43  79 142  92  90  92  93  91  90 112 111  91  91  21   1   0 
  0   0   0   0   0   0   0   0   0   0  10 113 102   2   1  18  94  87 
  0  36  33  56   1   2  50   4  42   1   0   0  18 104 108   2   2   6 
 33  31  35  33  32   1   2   7 127 114  12   0   0   0   0   0   0   0 
  0   0   0   0   0   0   0   0   0   0   0   0   0   0   0   0   0 103 
103   0   0   0   0   0   0   0   0   0   0   0   0   0   0   0   0   0 
  0   0   0   0   0   0   0   0   0   0   0   0   0   0   1   1   2  11 
 27   8   0   2   2  25   3  15   0   3   2   0   0   0   0   0   0   0 
  0   0   1   1   0   1   1   2   0   2   3   3   5  31  39   0   1   1 
  1  65  15  34   1   0   1   2   2   3   3   1   1   8  12  12  14   9 
  1   0   0   0  26  17   1   9   1   7  13  29   8  30  15   3   2   1 
  1   0   0   0   0   1  20  24   0  10  10   1   1   1   0   0  37  28 
  3   1   0   0   0   1   2   0   0   2   9  19  17   1  30  19   9  10 
  3  35  35  10   1   1   1   1   2   2   1   1   1   0   1   1   1   0 
  0   0   0   9  15  72 112   2   4   4   0  36   8  47   1   1   1   0 
  0   0   0   0   0   0   0   0   0   2  11 148  95 153  66 100  31   2 
  2   0  10  68  95  70   2  29  58  62  44  14  46   4  91 145  20   0 
  2   2   2  23  91   8  95  26   1  14  84 120   8  41  55 115   1   2 
  1   2  35 129  96   1  22  44  68   2   0  83  88   7  66  59  32   1 
  1  16  50  71   3  73 106  12   0   2  70  59  16  50  37  48   1  67 
 74  28   2 115 160   4   2   1   1   2  44  42  42  88  20   1   0   0 
  2  12  12  10   1   0   0   0   0   0   1  80  67  17   5 107 110  15 
  0  11  82  98   1   3 142 133   2   0   0   0  93 116   8   2  33  43 
 46  45  45  44  46  47  16   2  21  67  68   0   0   0   0   0   0   0 
  0   0   0   0   0   0   0   0   0   0   0   0   0   0   0   0   0 103 
103   0   0   0   0   0   0   0   0   0   0   0   0   0   0   0   0   0 
  0   0   0   0   0   0   0   0   0   0   0   0   0   0   1   2   2   1 
 21   6  18   6  34  19  16   0   2   1   0   1   0   0   0   0   0   0 
  0   0   1   1   2   2   0   2   2   4   8  49  10  59  41   8   0   0 
  2   2  92 106   1   2   2   1   0   2   3   2  21   3  13  15   7  10 
 53  33  12   0   2  25  16   2  10   0   0   1  10  25  16  30  11   1 
  1   1   1   0   0   8   1  10   8   9   2   2   0   3   1   2  16   6 
  8   2   1   0   1   1   1   1  12  20   4  14  19  12   2   1   2   7 
 30  35   2   2   1   4  28  48  47  19   2   1   1   1   0   1   1   1 
  1   1   3  14  38  39  21   1   2   2   2  68  68  15   0   0   0   0 
  0   0   0   0   0   2   1   2   0  11  43 136  37   5  87  67  34 126 
 90 104 102   7  91   5   2  93  66  22   3 120 163   8  19 120 125  65 
 31  31  78 110 127 104  91   6  25   1  77  62  32   5  70  38 145  57 
 49  96  83 121  10   2  24  46  68   0   0  68  67  18  11  93 166  34 
  1   8  71 102   0  34  39 136  22   0  64  72  25   9  93 149  47   7 
131 147   4  22 113 151  54  30  34  92  70 117 108  88   3  20   0   2 
 23  64  69  58  11   1   2   1   0   0   0  43   0  52  14  67  88   1 
  1   2  78  75  24  42   3  50   3   1   1  14  77  83   0  37   2  17 
  2   0   4   0   2  33  41  14   8  87  97   5   0   0   0   0   0   0 
  0   0   0   0   0   0   0   0   0   0   0   0   0   0   0   0   0 103 
103   0   0   0   0   0   0   0   0   0   0   0   0   0   0   0   0   0 
  0   0   0   0   0   0   0   0   0   0   0   0   0   0   1   2   1   0 
  1  14  26  13  33   8   3   1   2   0   2   1   0   0   0   0   0   0 
  0   0   1   0   2   1   1   1  11  34  26  53  23  31  16  24   2   1 
  2   1  25  64  78   1   1   0   1   3   3  22  23  10   6  43  45   0 
 34   5  55  48   5   4  24  22   4   9   1   0   1   2   5  35   8  25 
  3   1   2   0   1  14  21   1   3   6   1   0   3   0   1   2   7  11 
 14   1   2   1   0   0   9  21   4  17   8   6   3   1   1   3  17  23 
 36   0   1   6  22  77  25  45  33  39  86  19   0   1   1   1   1   0 
  1   3  21   1  64  81   4   2   2   3   7  83  77   1   0   0   0   0 
  0   0   0   0   0   1   2   1   0   5  59 118  67   4   0  14  64 113 
 74 104  91  43   2   2  72  75  85   1   0  29  86 127  10   7 127   3 
 55  52  25 119   0   2 160  42  18   1   8 117 142   5   1  40 124   6 
 17  53  97   4  20   1  22  44  67   0   0  31  31 119   5  14 152  25 
 34   0  70  65  65   5  47 118  41  22  21  69 141   4   3 151  11  40 
 45  33 105   6  15 133  10  56  49  44  98   1   6 159  62  10   0  21 
 35 169  93 152  74   4   1   1   1   0   0   3 125 133  44   6  44   1 
  0   0  12 112 108  79  93  12   1   1   2  50   2  43   1  83 101  55 
 44  45  42  45  44  72  51  64   5  71  56  32   0   0   0   0   0   0 
  0   0   0   0   0   0   0   0   0   0   0   0   0   0   0   0   0 103 
103   0   0   0   0   0   0   0   0   0   0   0   0   0   0   0   0   0 
  0   0   0   0   0   0   0   0   0   0   0   0   0   0   0   0   0   2 
  1  15  12  64   2   3   0   1   0   4   1   1   1   0   0   0   0   0 
  0   0   1   1   2   0   4  32  36  46  28   9   1   6  71  79   3   0 
  1   3   2  68  32  26   2   1   0   1  25  24   4   3  73  24  65  37 
 26  39  91   6  57   4   1  27  21  10   9   0   1   1   1   2  16  30 
 31   8   1   1   2  15  16   0   3   2   2   2   0   1   0   1   4  14 
 17   0   1   1   1  21   3  17   2   8   1   0   4   2   0  15  11  30 
  0   2  18  11  79 111  58  31  30  63 124  89  30   1   1   1   2   3 
  3  12  12  70 102   5   3   2   0   2  34  25  49   0   0   0   0   0 
  0   0   0   0   0   0   0   0   0   0   8 116   2 129  35  10   6  12 
  2   6  10   3  28 111  27 113   2   2   1   2  60  51 154  23   0  29 
 58  56  25   2  49 153 126  31   2   1   1  23 120 156  32   2   5  29 
 38  12  13  79  27  31  25  52  68   2   1   1  70  29 129  17  14 128 
 68   0   1 125  68  86   3  65  65  44   2  48  78 141  24   2 165  81 
  1  80  19 133  21   4  35  62  48  23   9  52 155 140  18   0   0  20 
 54  71   2  65  75   4   0   0   0   0   0   1  55   7 186 128   1   1 
  0   0   2  86  72 125  89   1   1   2   1 138 149   4  20 104  87   0 
  0   0   0   0   0   0 119 142   5   8 143 115   0   0   0   0   0   0 
  0   0   0   0   0   0   0   0   0   0   0   0   0   0   0   0   0 103 
103   0   0   0   0   0   0   0   0   0   0   0   0   0   0   0   0   0 
  0   0   0   0   0   0   0   0   0   0   0   0   0   0   0   0   0   1 
  1   1  27  20  56   6   2   1   0   3   2   1   2   0   0   0   0   0 
  0   0   1   1   2  16  44  21  39   4   1   0  19  21  62  41  13   2 
  1   1   1  10  67  82   1   1   1  13  14   4   4  70  26  50   1   0 
  2   0   2 104  59  21   1   2  19  24   7   9   0   0   0   3   2   4 
 28  12  15   1   2  10  13   2   3   6   0   0   1   1   1   2   2  21 
 19   1   1  10  17  16   4   0   8   0   1   0   3   0  12  17  29   1 
  2  16  21  62  82  16   1   0   1   0   6 118  91  21   1   1   0   1 
  5  11  17  15  35   2   2   0   1   3  96  95   9   0   0   0   0   0 
  0   0   0   0   0   0   0   0   0   0   0   0  62  85  26  86 110  73 
 67  68  98 101  42  56  77   1   0   0   0   1   3  50  97  50 107  92 
 64  67 102  97  10 120  16   0   0   0   1   2  24 108  35 111  90  66 
 66 116  85  90  26 129  94  99  62   0   0   0   0  62  73  71 182  74 
 23   0   1   1  99  29 116 150 118   4   1   1  44  87  59 180  57  31 
  1   1  63  73  56 116  85  62  72 108  85   4 128   8   0   0   0  18 
 52  72   7  83  73   4   0   0   0   0   0   1  15  47  88  53   0   0 
  0   0   1  46  81   3  32   1   1   1  46  98 116  70 155  87  18   0 
  0   0   0   0   0   0  42  10 125  71 143  24  27   0   0   0   0   0 
  0   0   0   0   0   0   0   0   0   0   0   0   0   0   0   0   0 103 
103   0   0   0   0   0   0   0   0   0   0   0   0   0   0   0   0   0 
  0   0   0   0   0   0   0   0   0   0   0   0   0   0   0   0   0   0 
  1   0   0  13  60  45  29  10   2   0   2   0   0   0   0   0   2   1 
  1   2   0   1  35  29  56  11   2   1   1   1  17  20  22  16  32   0 
  0   3   3   2  70  48  26   1   4  10  17   3  33   3  59   2   2   2 
  1   2   2   2  95  68   0   1   6  20  17   6   7   2   0   2   0   1 
  3  26   8  20   1  16  18   2   7   7   2   0   2   1   0   0   7  12 
 17   1  17   7  21   7   8   2   2   1   1   2   2   7  24  33   1   1 
 13  11  10  33  66   3   2   1   0   0   2   3 133  97   5   1   1   1 
 21  28 105  97   0   0   2   0   1  10  61  76   2   1   0   0   0   0 
  0   0   0   0   0   0   0   0   0   0   0   0   0  15  53  85 104  29 
 27  25  80  97  61  24   0   0   0   0   0   0   1   0  13  61 104  61 
 21  20  81  93  47   2   0   0   0   0   0   0   1   6  57 104  60  18 
 17 102  81  27  41  86  83  62   0   0   0   0   0   1  21  88  26  40 
  0   0   1   1   0  36  99  21  20   0   1   0   0  16  79  43  39   1 
  0   0   0  20  65 110  51  21  21  94  85  44   1   0   0   0   0  20 
 54  75  79  99  62   2   0   0   0   0   0   0   2   8  50   1   0   0 
  0   0   0   6  27  37   0   0   0   0   1  45  85  83  87  19   1   0 
  0   0   0   0   0   0   2  42  85  83  85  27   0   0   0   0   0   0 
  0   0   0   0   0   0   0   0   0   0   0   0   0   0   0   0   0 103 
103   0   0   0   0   0   0   0   0   0   0   0   0   0   0   0   0   0 
  0   0   0   0   0   0   0   0   0   0   0   0   0   0   0   0   0   0 
  0   1   0   0   0  36  29  28  31  10   2   3   1   2   1   2   2   2 
  0   2   2  56  25  36   0   1   4   0   1   0  10   5   3  42  48   0 
  1   2   2   3   4  96  74   3   9   4   5   2  57  70   1   2   1   2 
  2   1   2   4  59  52   6   1   1  10   2  12   8   8   2   3   0   1 
  1   1  24   6  24  15  19   2   3   7   2   2   0   1   2   0   8   4 
  9  21   9  13   7  10   0   2   1   1   0   3   7  31  33   1   1   2 
 17  22  37  18  27   2   2   1   2   3   2   0  42   7  37   2   2  12 
  6  36  27  32   2   0   2   1   2  33   9  46   2   2   0   0   0   0 
  0   0   0   0   0   0   0   0   0   0   0   0   0   0   0   1   2  25 
 30  27   9   1   2   0   0   2   0   0   0   0   0   0   1   0   0  16 
 29  28  11   2   0   0   0   0   0   0   0   0   0   1   1   1  17  30 
 28   6   2   2   2   1   0   0   0   0   0   2   0   0   1   2  18   1 
  1   1   2   1   0   1   3  18   3   1   2   0   0   1   2  14   0   1 
  0   0   0   1   1   1  19  30  26   8   2   0   0   0   0   0   0  21 
 41 227  70  95   3   0   2   0   0   0   0   0   0   0   1   1   0   2 
  0   1   2   1   6   1   0   0   0   0   0   1   2   0   0   0   0   0 
  0   0   0   0   2   0   0   0   0   0   0   0   0   0   0   0   0   0 
  2   0   0   0   0   0   0   0   0   0   0   0   0   0   2   0   0 103 
103   0   0   0   0   0   0   0   0   0   0   0   0   0   0   0   0   0 
  0   0   0   0   0   0   0   0   0   0   0   0   0   0   0   0   0   0 
  0   0   0   0   1   1   8  44   2   2  12   0   1   2   0   3   1   1 
  0   5  46  37  20   0   1   1   2   0   0   0   6   4   5  48  51   1 
  2   2   3   3   1  56  49  19  13  11   5  21  26  42   3   1   2   0 
  1   0   0   1  60  51   8   0   1   0  18  10   2   3   8   0   2   2 
  0   1   2  22   0  23  19  18   4   1   6   0   0   2   2   2  29  19 
 28  14   9  10  10   3   1   2   2   1   1   2  31  37   0   1   1   7 
  4   8  47  45  14   2   2   4   4   4   0   2   2  98  89   1   2  24 
 20  64  66   2   0   0   0   1   0  55  34  25   2   3   1   0   0   0 
  0   0   0   0   0   0   1   2   0   0   2   1   0   1   1   2   1   0 
  2   0   0   0   0   0   0   0   0   0   0   0   0   1   2   0   0   0 
  0   0   0   0   0   0   0   0   0   0   1   0   0   0   0   0   0   0 
  0   0   1   2   1   1   1   0   0   0   0   0   0   0   0   0   0   0 
  1   0   0   0   0   0   1   2   1   0   0   0   0   2   1   0   1   2 
  1   2   0   0   1   1   1   2   1   0   1   0   0   0   0   0   0  11 
 17  86  33   0   0   0   0   0   0   1   1   2   0   0   1   3   1   0 
  0   2   1   2   1   1   1   0   0   0   0   0   0   0   0   0   0   0 
  0   0   0   0   0   0   0   2   1   0   0   0   0   0   0   0   2   0 
  0   0   0   0   0   0   0   0   0   1   1   0   0   0   0   0   0 103 
103   0   0   0   0   0   0   0   0   0   0   0   0   0   0   0   0   0 
  0   0   0   0   0   0   0   0   0   0   0   0   0   0   0   0   0   0 
  0   0   0   0   0   0   0   5   8  12   9   5   2   2   3   3   2   2 
  8  56  50  12   2   0   0   0   1   0   0   0   3  14  18  55  51   8 
  2   3   4   0   0  21  45  59  13  14   2  45  40  15   2   0   2   1 
  1   0   1   5  58  48   8   0   0   1   0  22  25   7   2   3   2   0 
  0   1   1   1  21   2  33  13  10   7   5   4   1   2   1  19   8  41 
 21   8   8  10   2   1   0   0   0   1   1  36  29   2   0   1   1  11 
  6   4  39  25  25   2   1   2   2   0   0   1   1  78  52  16  15  19 
 12  51  54   2   0   1   2   2   0  74  64  10   0   1   0   0   0   0 
  0   0   0   0   0   0   2   1   0   0   1   2   1   1   1   0   0   1 
  0   0   0   0   0   0   2   1   2   0   0   0   0   2   1   0   0   0 
  0   0   2   0   0   0   0   0   2   1   1   0   0   0   0   0   0   0 
  1   0   0   0   0   0   0   0   0   0   0   0   0   0   0   0   0   1 
  2   1   0   0   2   0   0   0   0   2   1   2   0   0   0   0   0   0 
  0   0   0   0   0   1   0   0   0   0   2   0   0   0   0   0   0   1 
  9   6   2   0   0   0   1   2   1   1   0   0   0   0   0   1   0   0 
  0   0   0   1   2   1   2   0   0   0   0   2   0   0   0   0   2   0 
  0   0   0   2   1   2   0   1   2   0   0   0   0   0   0   0   0   0 
  0   1   0   0   0   1   1   0   0   0   0   0   0   0   0   0   0 103 
103   0   0   0   0   0   0   0   0   0   0   0   0   0   0   0   0   0 
  0   0   0   0   0   0   0   0   0   0   0   0   0   0   0   0   0   0 
  0   0   0   0   0   0   0   0  19  18   7  18   2   4   0   2   2  10 
 46  59   5   2   1   0   0   1   1   1   2   1   0  14  14  29   3  31 
  1   0   1   1   1   5  96  93  21  20   3  59  59   7   1   3   2   2 
  1   0   2   2  65  58   4   1   0   2   1   4  17  21  10   7   2   1 
  2   2   3   0   0  24   8  33   6  15  15  13  23  24  29   2  49  19 
  4  10   6   0   0   1   1   1   2   1  19  13  12   1   1   0   1  10 
 10   5  29   1  35   1   1   2   1   2   1   3   4  53  10  31  16  21 
 75  68  10   3   1   1   1   0   2  96  87   1   1   0   0   0   0   0 
  0   0   0   0   0   0   0   0   0   0   0   2   2   4   7  16  10   1 
  1   0   0   2   0   0   1   2   1   0   0   0   0   0   0   0   0   0 
  0   0   0   0   2   0   0   0   1   2   1   0   0   0   0   0   2   1 
  1   0   0   0   2   0   0   0   0   0   0   1   8   0   0   4  12   1 
  2   1   1   1   0   0   0   0   0   1   2   1   0   0   0   0   1   0 
  0   0   0   2   1   2   0   0   2   0   0   0   0   2   0   0   0   0 
  1   2   1   0   2   1   2   1   0   0   0   0   0   0   0   0   0   0 
  2   1   2   0   0   0   0   0   0   1   0   0   0   0   0   0   0   0 
  0   0   0   1   2   1   0   2   1   1  14   2   0   2   5   2   0   0 
 13   0   0   0   0   0   0   0   0   0   0   2   0   0   0   1   0 103 
103   0   0   0   0   0   0   0   0   0   0   0   0   0   0   0   0   0 
  0   0   0   0   0   0   0   0   0   0   0   0   0   0   0   0   0   0 
  0   0   0   0   0   0   0   0   4  15  12  31   2   4   2   0   6  54 
 58   2   0   1   1   0   1   1   1   2   1   1   1  13  14   8  53  58 
  3   2   2   1   1   2  28  32  55  11   5  60  59   3   4   3   2   3 
  2   0   2  18  73  59   1   3   1   0   0   1  13   8   5  10  11   0 
  2   1   0   0   0   0  29  21  15  13  16  19  21  11  25  30  17   7 
  6   6   3   2   1   2   1   1   0  10  21  24   0   0   0   0   0   7 
  2  12   8  62  85   1   1   2   0   0   1   2   4  46   8  46   4   6 
 58  74   2   1   0   0   0   2  27  29  52   1   1   1   0   0   0   0 
  0   0   0   0   0   0   0   0   0   0   1   3  30  39  29   1  27  43 
 33   0   0   0   0   2   0   0   0   0   0   0   2   1   0   0   0   0 
  0   0   0   0   1   0   2   0   0   0   0   0   0   2   1   0   1   1 
  1   0   0   0   0   0   0   0   2   0   2  39  10   8   4  21   5  21 
  1   1   1   2   0   0   0   0   0   0   0   0   2   0   0   1   3   1 
  0   0   0   0   0   0   0   0   1   0   0   2   0   0   0   0   0   0 
  0   0   0   0   0   0   0   0   0   0   0   0   0   0   0   0   0   0 
  0   0   0   0   0   0   0   0   1   1   0   0   0   0   0   0   0   0 
  0   0   0   0   0   0   0   0   1  18   6  30   4  21  28   4   2  22 
  2  36   1   0   0   0   0   0   0   0   0   0   1   2   1   1   0 103 
103   0   0   0   0   0   0   0   0   0   0   0   0   0   0   0   0   0 
  0   0   0   0   0   0   0   0   0   0   0   0   0   0   0   0   0   0 
  0   0   0   0   2   1   0   0   1  10   5   6  22   0   2   0  54  55 
  3   0   1   1   0   1   2   1   1   1   0   0   1   9  10   1  64  62 
  1   2   2   0   1   0   8  60  70   2  16  56  59   6   2   2   0   3 
  3   0   2 105  99   6   1   2   2   0   0   2   4  24  23   4   4   9 
  1   0   2   4   4   1   1  35  33   1   0   0   2   2  15   1  12   3 
  0   3   3   6   2   1   2   3   1  28  32   0   1   1   0   1   0   3 
 15  21   1  60  38  20   0   2   2   5   4   1   4  66  31  43  21  33 
 14  27   2   3   1   1   0   4  56  25  30   1   1   2   0   0   0   0 
  0   0   0   0   0   0   2   0   0   1   2  56  15  50  57  60  59  52 
 33  52   2   0   0   6   9   7   0   0   0   0   6   2   0   8   6   1 
  0   2   1   5   1   2   9   8   2   1   0   0   0   1   6   9   5   1 
  2   1   0   0   0   7   8   6   0   0  42  78  66  41  25  43 116   4 
 12   2   4   1   8   8   0   0   1   1   0   2   8   9   0   2   6   0 
  0   0   0   0   1   0   1   5   8   7   0   0   0   0   0   5   9   8 
  1   0   1   2   1   1   8   8   0   0   4   8   5   0   0   0   0   0 
  8   8   1   0   5   9   3   1   2   1   5   4   0   0   0   4   3   1 
  0   3   4   2   8   8   2   1   9  16 114  43  49  20 102  33  17  11 
119  54  27   0   0   3   9   7   2   0   0   1   2   2   9   9   4 103 
103   0   0   0   0   0   0   0   0   0   0   0   0   0   0   0   0   0 
  0   0   0   0   0   0   0   0   0   0   0   0   0   0   0   0   0   0 
  0   0   0   0   1   2   0   0   1   2   7  48  48   4   1  52  46   8 
  0   0   2   1   1   1   1   0   1   0   0   0   1  14  10   6  53  40 
  9   2   0   0   0   1   2  65  73  23  23  29   4  33   3   1   0   4 
  2   3  33  27  52   1   1   1   4   8  15  13  10  17   8   4  37  38 
 50  49  43  42  44  44  49  45  16  51  10   1   1  14   6  19  23  44 
 44  60  55  48  50  49  56  62  29  65  27   0   0   0   2   1   1   3 
 15  10   4   4  75  96   0   0   2   3   2   0   0 118 108   3   9  48 
 36  13   0   1   3   4   0   0  76  72  10   1   0   0   0   0   0   0 
  0   0   0   0   0   0   0   0   0   2  38  27  47  53   3  31   1  42 
 63  41  22   0  40  30  21  24  49   8   0   5  31  26  47  20  21  48 
  4   1   3  30  32  43  20  21  41   3   2   2   5  47  24  21  33  32 
  3   0   0   4  48  25  24  30  39   2  66  47  24  69  15  42   4  41 
  5  28  30  51  20  22  44   1   0   1  11  44  22  20  46  26  29   5 
  0   0   0   0   1   2  43  27  22  25  45   2   2   0  37  34  19  24 
 45  12   2   1   1  45  20  21  44  21  38  19  34  27   2   1   0  44 
 19  21  40  21  34  20  34  23   1   3  31  26   4   0   3  22  32   5 
  5  32  25  46  19  21  42   2   4  29   2  48  43   8  51  60  22  42 
  2  50   7   2  22  41  21  21  43  13   1   1   8  48  18  23  37 129 
103   0   0   0   0   0   0   0   0   0   0   0   0   0   0   0   0   0 
  0   0   0   0   0   0   0   0   0   0   0   0   0   0   0   0   0   0 
  0   0   0   0   0   0   0   0   1   1   0   4  55  60  31  21  17   1 
  1   0   0   0   0   0   0   0   0   0   0   0   1  12  12   0  39  22 
 15   2   1   0   0   1   2  50  28  29  24  16  38  87   0   0   0   2 
  4  32 117 106   1   8  10  17  14   4  14   2  24  33  62  43   2  25 
 55  51  45  45  46  46  51  51  43   0  71  83  48  24  41  79  27  21 
 49  61  56  52  51  51  60  60  45   3  39  99  70  53  34   7   0   1 
  5   8  19   0  27  53  99   2   4   0   3   4  58   6  58  15   4  83 
 73   1   2   1   2   2   0   1  73  78   3   1   0   0   0   0   0   0 
  0   0   0   0   0   2   1   2   1   9  37  51  54  75  30  17  31  46 
 57  49   2  71  47  63  63  60  72  53  12  46  95  19  22  70  51  73 
 58   3  48 100   5  49  66  53  41  58   2  10  64  69  67  66  71  13 
 54   1  11  67  71  60  64  64  44  87  60  17   7  95  41   2  80  19 
 45  75  24  49  64  55  62  71   1  18  52  68  62  65  58  28 111  48 
  0   0   0   0   4  74  62  60  64  60  61  68   2  64  37  65  62  61 
 71  45  20   0  66  59  57  65  44  64  82  56  68   0  27   3  66  59 
 58  64  36  65  81  58  69  12  20  46  95  62  37   0  30  39 104  40 
 50 106   6  51  63  58  41  60   4  25  81  15   5  56   2  73  27  54 
 89  12  21  37  13  75  66  64  74  46  23   8  60  87  64  69  77  78 
103   0   0   0   0   0   0   0   0   0   0   0   0   0   0   0   0   0 
  0   0   0   0   0   0   0   0   0   0   0   0   0   0   0   0   0   0 
  0   0   0   0   0   0   0   0   0   0   1   1  16   9  49  37   1   1 
  1   0   0   0   0   0   0   0   0   0   0   0   1  12   8   5  34  14 
 20   0   0   0   0   1   0  16  56  58   1  12  44  49 120  33  15  28 
104  33 107  11  23   1   8  14  10  33  72  18  21  36  63  54  32  14 
  2   3   2   2   2   2   4   6  13  42 101 153  78   2 135 121  63  27 
 10   1   1   3   1   2   2   6  13  39  64  93  63  31   5  88  65  21 
  3  13   0  17   2  40  56  90  55  20  25  95  60  90  14  15  20  33 
 53   2   0   0   1   2   2   6  65  69   2   0   0   0   0   0   0   0 
  0   0   0   0   0   1   2   1   1  24  15  42  12  25   2   1   2   6 
 27   0  40  54  56   8  33  12  52  70  58  50  48  13  51  37  17  35 
 32  31  48  52  25  20  36  36  50   6  29  49  77  47  31  43  12  61 
 20  32  46  74  58   9  37  14  81  32  39  31  19   8  37   6  58  27 
 49  36  31  26  35  18  43  44  43  37  76  54  18  35  36  29  48  46 
  1   2   0   2  46  69  47   1  33   2  66  93  73  35  50  21  32  21 
 52  70  41  37  24  51   3  27  48  37  25  42  38  58  33  33  23  52 
  0  24  49  40  21  40  39  58  43  48  55  30  38   0  30  12  64  48 
 46  45  31  21  35  31  48  15  34  31  63  18  31  21  26   2   3  47 
 64   1  40  17  67  24  43  33  45  74  33  44  66  26  48  42  27  57 
103   0   0   0   0   0   0   0   0   0   0   0   0   0   0   0   0   0 
  0   0   0   0   0   0   0   0   0   0   0   0   0   0   0   0   0   0 
  0   0   0   0   0   0   0   0   0   0   0   1   1  13  25   1   1   1 
  1   0   0   0   0   0   0   0   0   0   2   0   1  12   9   3  30   1 
 27   0   0   0   1   1   3   4  96  90   1   2   2  29  95  35  60  37 
 89  70  17   5  27   9  21  50  59  11  83  42  21  10   2   1   4   2 
  2   0   4   2   0   4  12  32  43  56  11 108  49  15  83  34  48  52 
 48  22   3   1   0   2   1   1   2   1   4   3  11  25  45 103  58  63 
 74  53  17   2  22   8  10  85   1  55  55  48  78  10   4  12  52  34 
 19   3   3   1   1   1   0  11  52  63   2   0   0   0   0   0   0   0 
  0   0   0   0   0   0   1   0   0  34  33  48  35  13   1   2   1   0 
  0  10  29  60   9  56  15  39  26  54  24  76  48  52  83  20  70  36 
 71  50  48  54  35  69  20  77  44  66  66   4  52  59  71  46  99  18 
 64  81  26  52  41  37  14  48  29  42  57  49  23  60  25   3  60  27 
 46  40  33  71  19  69  30  47  60  16  48  37  36  18  75  51  52  48 
  2   1   0  15  16  54   7  52  16  41  23  58  44  66  39  68  17  32 
 43  47  32  73  56  34  69  51   2  55  53  48  29  71  34  50  61  37 
 69  52   2  50  52  51  19  71  31  52  55  30  38   0  30  12  66  45 
 49  55  36  71  19  79  49  60  52  29  63   7  54   7  59  58  24  36 
 66   4  63  51  42 101  51  64  85  42  33  73  62  21  77  46  68 145 
103   0   0   0   0   0   0   0   0   0   0   0   0   0   0   0   0   0 
  0   0   0   0   0   0   0   0   0   0   0   0   0   0   0   0   0   0 
  0   0   0   0   0   0   0   0   0   0   0   1   1   2   3   0   1   1 
  1   0   0   0   0   0   0   0   0   0   0   0   0  12  10   3  26   6 
 31   0   1   0   1   0   0   1  56  31  19   1   2   0   5  42  57  62 
 16  19  12   5  20  85  12  59  51  25   0   6   0   2   1   1   3   2 
  2   1   4   4  19  55  55  29  48  47  13  24  10   3   7  15  46  51 
 57  24  86  30  12   5   0   1   1   0   0   2   3   0   0   6  22  65 
 78  41 126  52  25   1  12  15  32  62  52  23   3  16  18   3  72  79 
  5   1   2   0   1   0   0  16  47  60   2   2   1   2   0   0   0   0 
  0   0   0   0   0   0   2   0   0  29  24  44  25  16   0   1   0   1 
 10  19  10  58  37  15   1   0  60  36  66  91  55  22  39   3  31   3 
 62  42  48  64   7  32   2  37  25  49  79  44   8  45  67  66  64  36 
 71  43  23  40  46   2   2   1  19   0  42  44  35  38  19   5  60  26 
 50  47  25  34   0  35  28  43  72  33  48  46   4   1  27  22  71  48 
  0   0   0  29  31  58  59   7   0   0  17  20  13  59  46  16   1   1 
 57  48  55  84  44  32  38  23   4  61  32  25  14  63  19  56  54  21 
 35  23   5  60  35  27   3  62  30  54  56  25  37   0  30  10  64  47 
 48  63   6  31   1  33  15  50  48  31  65   8  42   6  58  31  11  37 
 68   4  64  57   0  63  66  69  57  35  81  65   5  82  64  51  55 113 
103   0   0   0   0   0   0   0   0   0   0   0   0   0   0   0   0   0 
  0   0   0   0   0   0   0   0   0   0   0   0   0   0   0   0   0   0 
  0   0   0   0   0   0   0   0   0   0   0   0   1   1   1   0   0   0 
  0   0   0   0   0   0   0   0   0   0   0   0   0  11   7   5  21  18 
 36   0   1   0   0   0   0   0  37   5  31   2   1   1   2  19  10  17 
 14   1  16  66  25  70  47   6   1   1   1   3   0   1   1   3   1   3 
  1   1  39  53  15  41  62  16   2   2   1  19   6   4   2   6   4   2 
  8  47  78   0  41  70  14   1   0   2   2   0   4   2   2   0   4   1 
  4  35 120   1  82  59  11  11   6   4   0   1   3  16  19  11  43  54 
  4   2   3   1   0   0   0  18  40  58   1   0   0   0   0   0   0   0 
  0   0   0   0   0   0   1   0   0  14  20  42  37  75   5   3   3  39 
  5  48   0  59  29  18   1   2  77  55  52  86  54  31  39   1  30  12 
 65  46  49  62  17  32   0  36  28  50  75  33  41  48  17  11  12  56 
 19  43  27  51  63   5   1   5  44  10  43  54  22  39  21   3  60  29 
 45  41  31  35   0  33  29  44  66  23  51  56  10   0  55  26  57  46 
  0   0   0  25  17  57  40  12   1   2  40  31   8  62  14  30   0   3 
 74  54  48  81  44  36  38  23   1  59  30  25  12  64  25  56  56  23 
 33  24   4  59  33  27   6  68  35  52  61  34  58   1  40   6  67  44 
 49  64  14  31   0  35  27  51  50  30  63   8  44   9  58  47  11  34 
 66   3  70  63  24  57  10  12  21  57   1  16  48  56   1   9  37  23 
103   0   0   0   0   0   0   0   0   0   0   0   0   0   0   0   0   0 
  0   0   0   0   0   0   0   0   0   0   0   0   0   0   0   0   0   0 
  0   0   0   0   0   0   0   0   0   0   0   0   1   1   0   0   0   0 
  0   0   0   0   0   0   0   0   0   0   0   0   0  14  11   2  20  17 
 37   0   1   0   0   0   0   0  26  24  46   2   1  13  19  22  12   6 
 13  58  52  85  39   2   1   2   3   1   1   1   4   2   1   3   5  10 
 37  85  25  66  30  10   0   3   1   0   1   4   3  10   8   2   3   0 
  2   2   0  27  52  80  68  64  25   2   2   2   3   4   5   2   1   1 
  1   2   0  34 106  10 112  32   0   2   1   1   6   2   8  16  29  44 
  2   0   3   1   0   0   0  19  35  56   1   0   0   0   0   0   0   0 
  0   0   0   0   0   0   2   0   0   2  48  67  27  59  68  47  72  35 
 77  25  63  61  52  78  38  72  43  54  19  64  56  27  36   0  30  12 
 61  43  50  64  15  31   0  37  31  48  56  28  59   6  85  50  91  76 
 12  37   4  50  42  77  40  71 118  20  50  60  60  80  31   4  59  29 
 48  44  29  35   2  32  25  45  55   9  49  49  75  65  15  39  49  48 
  0   0   0   7  42  63  43  78  38  75  95   2  75  67  51  61  44  68 
 18  46   1  62  43  35  38  23   0  62  31  25  12  64  25  55  52  29 
 36  24   3  58  33  27   6  66  35  39  34  50  25  62  59  53  63  44 
 48  64  15  31   1  31  22  51  50  29  61   8  40  12  60  30  46  38 
 66   4  54  30  46  47  68  58  62  83  39  31  41  39  62  71  81  17 
103   0   0   0   0   0   0   0   0   0   0   0   0   0   0   0   0   0 
  0   0   0   0   0   0   0   0   0   0   0   0   0   0   0   0   0   0 
  0   0   0   0   0   0   0   0   0   0   0   0   0   0   0   0   0   1 
  1   1   0   0   0   0   0   0   0   0   0   0   0  12  11   2  20  16 
 37   0   0   0   0   0   0   1  13  40  56   4  26   7  19   1   3  46 
 55  52  60   1   2   3   2   0   1   1   2   1   2   1   1   1  70  62 
 29  71  31   9   0   2   3   3   0   2   1   1   6  10   8   4   1   2 
  1   0   1   0   0  12  73  56  15  86  11   1   1   0   2   0   0   0 
  0   0   0   2   4  52  90  21  90   4   1   2  10   8   4  23  16  41 
  1   0   2   3   0   0   0  21  35  56   1   1   0   0   0   0   0   0 
  0   0   0   0   0   0   1   0   0   2   6  61  51  46  54  39  57  49 
 60  34  32   8  75  56  25  43  60  36  48  48  76  47  39   0  28  23 
 87  46  48  84  28  31   0  37  47  70  44  37  23  80  38  17  52  84 
 16  21  51  30  63  49  25  57  70   7  23  51  77  88  35   2  82  23 
 46  63  42  32   1  35  47  60  36  46  23  66  63  58  83  32  67  48 
  0   2   1   1  30   4  76  53  24  49  76  25  36  30  82  54  27  39 
 64  54  49  45  64  52  39  24  12  81  26  25   4  83  19  56  74  41 
 36  24  14  79  30  28   5  88  31  12  55  73  50  31  51  69  33  15 
 47  85  27  31   0  33  38  72  50  28  85   0  22  52  66  73  36  56 
 87   8  28  55  75  64  27  22  69  78  21  40 100  72  23  12  65  40 
103   0   0   0   0   0   0   0   0   0   0   0   0   0   0   0   0   0 
  0   0   0   0   0   0   0   0   0   0   0   0   0   0   0   0   0   0 
  0   0   0   0   0   0   0   0   0   0   0   0   0   0   0   0   0   0 
  1   1   0   0   0   0   0   0   0   0   0   2   1  12  11   2  21  17 
 37   0   0   0   2   0   0   0   8  58  79  15  27   7   1   6  70  10 
 81  10   3   0   2   1   0   2   1   2   1   2   2   6  50  88  29 102 
  1   0   6   5   4   4   2   0   2   1   0   0   0   6   2   2   0   0 
  0   0   0   0  16  19  14   5  54  79  66  64   5   0   1   2   2   0 
  1   2   0   1   1   3   8  73  64 106  37   2  13   9   6  38   9  25 
  1   1   2   2   1   0   0  23  33  56   1   3   1   0   0   0   0   0 
  0   0   0   0   0   0   2   0   0   0   1   1  55   9  37  38  38   6 
 58   7   2  29  48  45  44  47  10  51   0  27  39  26  23   0  19  12 
 48  27  30  48  14  19   0  22  24  37  25   0  44  26  48  49  44  60 
 25   1   1  46  19  46  44  40  51  23   1  14  56  77  46   0  43  14 
 27  33  26  22   0  20  23  33  20   2  58  60  23  26 102   2  71  45 
  0   0   0   1   1  37  35  45  43  46  43  32   1  20  58  40  44  50 
  5  57   3  21  31  29  23  14   4  46  20  14   5  48  13  33  38  25 
 22  15   6  44  20  15   1  48  19   4  10  56  38  45  44  39  25   1 
 29  46  16  19   0  21  21  37  29  13  41   0  10   1  69  61  19  31 
 48   4  14   3  68  19  48  54  14  66   7   2  68  18  50  53  32 165 
103   0   0   0   0   0   0   0   0   0   0   0   0   0   0   0   0   0 
  0   0   0   0   0   0   0   0   0   0   0   0   0   0   0   0   0   0 
  0   0   0   0   0   0   0   0   0   0   0   0   0   0   0   0   0   0 
  0   0   0   0   0   0   0   0   0   0   0   0   1  13  13   0  19  17 
 36   0   0   0   0   0   0   0   0  67  68  19   0   3  35  79  76  37 
  2   0   1   2   2   1   0   0   0   0   2   0  15 114  25  88  30  12 
  8   3   2   2   3   2   1   1   1   1   2   0   1   0   0   1   0   0 
  1   1   0   2  24  29  19   8  28   8  60  75  89  38   1   1   2   1 
  2   0   2   2   4   4   3   3  25 108  35  85  19  15   4  52  35  17 
  0   3   0   0   0   0   0  21  33  57   1   1   0   0   0   0   0   0 
  0   0   0   0   0   0   0   0   0   0   0   1   0  18  35  36  35  19 
  0   0   1   2   8  34  36  37  17   1   0   0  26  24   1   1   1  18 
 29   1   2  29  19   2   1   2  22  26   0   1   3  15  33  36  32   5 
  1   1   0   0  16  35  35  32   7   2   1   0   6  32   0  13  27   6 
  2  24  21   0   0   1  21  24   2  19  12  46 104  91  21  62  18  28 
  0   0   0   0   1   2  12  35  36  33  10   2   1   1   4  33  36  37 
 20   0   0   1  24  23   0   0  14  28   4   0  10  28   6   0  27  21 
  1   1  15  27   4   1  12  29   4   1   1   5  32  36  35   9   0   1 
  0  28  19   1   0   0  20  25   0   5  26  11   0   0   0  29   9   3 
 28  14   0   0   0  25  37  37  24   0   0   0   0  25  37  37  29 104 
103   0   0   0   0   0   0   0   0   0   0   0   0   0   0   0   0   0 
  0   0   0   0   0   0   0   0   0   0   0   0   0   0   0   0   0   0 
  0   0   0   0   0   0   0   0   0   0   0   0   0   0   0   0   0   0 
  0   0   0   0   0   0   0   0   0   0   0   0   1  16  15   0  20  15 
 35   0   0   0   0   0   0   1   6  59  43   9   2  80  12  85   5   1 
  0   2   2   2   2   1   2   2   2   3   6  73  51  93  39   0   1   6 
  0   8   4   3   6   2   1   1   1   0   0   0   0   0   0   1   1   0 
  0   0   2  13   1  14   3   9  21  15  15  13  91   7  81   7   4   4 
  2   1   0   1   2   1   2   0   3   1  85  47 126   5   0  58  50   8 
  0   0   2   0   0   0   2  16  41  56   1   1   2   0   0   0   0   0 
  0   0   0   0   0   0   0   0   2   0   0   0   0   1   1   1   0   0 
  0   0   2   1   0   2   1   0   0   0   0   0   0   0   1   1   1   0 
  0   0   1   2   1   0   0   0   0   0   0   0   1   0   1   0   0   0 
  1   0   0   0   0   0   0   0   0   0   0   1   2   0   1   1   1   1 
  2   0   0   0   1   2   0   0   2  27  65  65  68  61  75  50  49   2 
  0   0   2   1   2   1   0   2   1   0   0   0   0   0   0   0   0   0 
  0   0   0   0   0   0   0   0   0   0   0   0   0   0   0   0   0   0 
  0   0   0   0   0   0   0   0   0   0   0   0   0   0   0   1   1   1 
  0   0   0   1   0   0   0   0   0   0   0   0   0   0   0   0   0   0 
  0   0   0   0   0   0   0   0   0   0   0   0   0   0   0   0   0 103 
103   0   0   0   0   0   0   0   0   0   0   0   0   0   0   0   0   0 
  0   0   0   0   0   0   0   0   0   0   0   0   0   0   0   0   0   0 
  0   0   0   0   0   0   0   0   0   0   0   0   0   0   0   0   0   0 
  0   0   0   0   0   0   0   0   0   0   0   0   3  12  14   0  26  10 
 31   0   0   0   0   0   0   0   0  42  22  30  83  62  46   2   3   5 
  3   2   0   2   4   1   1   0   1   9 111  35  78   6   0   1   0   5 
  6  12   2   7   7   2   1   2   0   0   0   0   0   0   0   0   0   0 
  0   0   1  14   9   6   1   1   3  21   4  21   3  38  94  96  41   7 
  2   3   2   1   1   1   3   1   3   3   1  27 124  92  30  70  66   1 
  0   0   0   0   2   0   0  14  47  62   0   0   0   0   0   0   0   0 
  0   0   0   0   0   0   2   0   0   0   0   0   0   1   0   0   1   2 
  0   0   0   0   0   0   0   0   0   0   0   2   0   0   0   1   1   0 
  0   0   0   1   2   0   0   0   2   1   0   0   0   1   2   0   0   0 
  1   0   0   2   1   2   1   2   0   0   0   2   1   0   0   0   0   0 
  0   0   0   1   1   1   0   0   0   2  42  37  23  32  25  49   3   1 
  0   0   1   2   1   0   0   0   0   0   0   0   0   0   0   0   0   0 
  0   0   0   0   0   0   0   0   0   0   0   0   0   0   0   0   0   0 
  0   0   0   0   0   0   0   0   0   0   0   0   0   0   0   0   0   0 
  0   0   0   0   0   0   0   0   0   0   0   0   0   0   0   0   0   0 
  0   0   0   0   0   0   0   0   0   0   0   0   0   0   0   0   0 103 
103   0   0   0   0   0   0   0   0   0   0   0   0   0   0   0   0   0 
  0   0   0   0   0   0   0   0   0   0   0   0   0   0   0   0   0   0 
  0   0   0   0   0   0   0   0   0   0   0   0   0   0   0   0   0   0 
  0   0   0   0   0   0   0   0   0   0   0   0   7   2   9   1  29   3 
 27   0   0   0   0   0   0   1   2  35  23  91  71  23   1   0   1   1 
  2   1   1   1   1   1   1   1  44  83  97  36   1   0   1   0   0   2 
 14  15   3   4   3   2   1   1   0   2   1   2   0   0   0   0   0   0 
  0   0   0  19  20   1   1   0   2   2  11  17  21   4   8  85   0  89 
  3   1   1   0   0   1   1   0   2   0   3   1   2  85  19 129  80   4 
  0   1   0   1   0   0   0  12  51  64   2   0   0   0   0   0   0   0 
  0   0   0   0   0   0   0   0   0   0   1   2   3   0   0   2   0   1 
  0   0   0   0   2   0   0   0   0   0   0   1   0   0   0   2   1   0 
  0   0   0   0   0   0   0   0   1   2   0   0   0   2   1   0   0   1 
  2   2   2   1   0   1   2   1   1   2   1   0   0   0   0   2   1   2 
  1   0   1   2   2   2   0   2   2   2   2  11  28  30  13   0   0   0 
  0   0   4   6   0   1   2   1   2   0   0   0   0   0   0   0   0   0 
  0   0   0   0   0   0   0   0   0   0   0   0   0   0   0   0   0   0 
  0   0   0   0   0   0   0   0   0   0   0   0   0   0   0   0   0   0 
  0   0   0   0   0   0   0   0   0   0   0   0   0   0   0   0   0   0 
  0   0   0   0   0   0   0   0   0   0   0   0   0   0   0   0   0 103 
103   0   0   0   0   0   0   0   0   0   0   0   0   0   0   0   0   0 
  0   0   0   0   0   0   0   0   0   0   0   0   0   0   0   0   0   0 
  0   0   0   0   0   0   0   0   0   0   0   0   0   0   0   0   0   0 
  0   0   0   0   0   0   0   0   0   0   0   0  13  12   2   1  34  12 
 21   0   0   0   0   0   0   1   3  19  31  51  10   1   1   1   0   1 
  0   1   2   0   1   1   1  76  37 104   7   1   0   0   1   0   1   0 
 17  17   3   0   7   8   1   3   2   3   0   0   0   0   0   0   0   0 
  0   1   3  23  22   1   1   1   0   1   1   3  24  18   9   1  60  48 
 92   9   1   2   0   2   3   2   2   0   2   0   0   0  72  60  35   4 
  0   1   0   1   0   0   0   7  59  63   3   0   0   0   0   0   0   0 
  0   0   0   0   0   0   0   0   0   0   1  42  20   3   0  31  40   2 
  0   0   0   0   0   0   0   0   1   2   1   2   0   0   0   0   0   0 
  0   0   0   0   0   0   0   0   2   1   0   2   0   1   0   2   1   1 
  2  23  41   1   1   0   0   1   3   2   2   0   0   0  20  35  17   2 
  2   1   2  36  28   2   2  31  38  39  39  35  42  28   0   0   1   0 
 18  45  31  29  40  31   1   1   1   0   0   0   0   0   0   0   0   0 
  0   0   0   0   0   0   0   0   0   0   0   0   0   0   0   0   0   0 
  0   0   0   0   0   0   0   0   0   0   0   0   0   0   0   0   0   0 
  0   0   0   0   0   0   0   0   0   0   0   0   0   0   0   0   0   0 
  0   0   0   0   0   0   0   0   0   0   0   0   0   0   0   0   0 103 
103   0   0   0   0   0   0   0   0   0   0   0   0   0   0   0   0   0 
  0   0   0   0   0   0   0   0   0   0   0   0   0   0   0   0   0   0 
  0   0   0   0   0   0   0   0   0   0   0   0   0   0   0   0   0   0 
  0   0   0   0   0   0   0   0   0   0   0   1  18  18   0   2  43  25 
 15   0   0   0   0   0   2   1   1   2  15   6   3   2   1   1   1   0 
  2   1   1   0   2   1 103  54  68   0   2   2   1   0   1   1   1   1 
 13  12   1   1   6   6   0   1   1   2   0   0   0   0   0   0   0   0 
  0   1   9   5  13   1   1   1   1   0   1   1   2  20   6  10   5  26 
100  99  14   1   2   2   1   0   0   0   0   1   1   0   0  31   3   0 
  2   0   1   1   0   2   0   1  80  85   2   2   0   0   0   0   0   0 
  0   0   0   0   0   0   0   0   0   3  30  80  48  30  35  58  93  44 
  0   0   0   0   0   1   0   1   2   1   2   1   0   0   0   0   0   0 
  1   0   0   0   0   0   0   0   0   0   0   0   0   2   0   0   0   1 
 27  30 103  39   2   0   0   0   1   0   0   0   0  19  14  88   8  18 
  0   4  29  78  56  33  34  60  42  45  44  44  54  23  62   1   3  47 
 15  58  48  50  51  31  70   3   1   0   0   0   0   0   0   0   0   0 
  0   0   0   0   0   0   0   0   0   0   0   0   0   0   0   0   0   0 
  0   0   0   0   0   0   0   0   0   0   0   0   0   0   0   0   0   0 
  0   0   0   0   0   0   0   0   0   0   0   0   0   0   0   0   0   0 
  0   0   0   0   0   0   0   0   0   0   0   0   0   0   0   0   0 103 
103   0   0   0   0   0   0   0   0   0   0   0   0   0   0   0   0   0 
  0   0   0   0   0   0   0   0   0   0   0   0   0   0   0   0   0   0 
  0   0   0   0   0   0   0   0   0   0   0   0   0   0   0   0   0   0 
  0   0   0   0   0   0   0   0   0   0   0   2  11  14   0   0  53  45 
  6   1   0   0   0   0   1   1   3   2   4   1   0   0   2   1   1   4 
  2   2   1   0   2 107  58  44   1   2   0   1   2   1   1   0   1   1 
  8   0   7   1   6   3   1   1   0   0   0   0   0   0   0   0   0   0 
  0   1  17  10   7   2   1   1   1   0   0   0   0   1  17   5  10   2 
  9  90  69  30   2   1   1   2   0   2   2   1   0   0   0   0   2   0 
  2   1   1   1   2   0   0   4  78  71  11   1   0   0   0   0   0   0 
  0   0   0   0   0   0   0   0   0   1  65  52  11  60  37  27  61  55 
 38  44  24   1   0   1  29  23  36  37   1   2  25  42  44  31   6   0 
  1  11  31   9   0   0   5  29  17   1   2   6  33  45  38   8  31  19 
 25   7  68  46  37  46  31   3   0   2   0   0   0  20   7  58   8  19 
  0   5  32  48  29  35  38  33  16  25  33  28  46  37  47  41  50  23 
 47  50  18  11  45  37  79  26   2   1   0   0   0   0   0   0   0   0 
  0   0   0   0   0   0   0   0   0   0   0   0   0   0   0   0   0   0 
  0   0   0   0   0   0   0   0   0   0   0   0   0   0   0   0   0   0 
  0   0   0   0   0   0   0   0   0   0   0   0   0   0   0   0   0   0 
  0   0   0   0   0   0   0   0   0   0   0   0   0   0   0   0   0 103 
103   0   0   0   0   0   0   0   0   0   0   0   0   0   0   0   0   0 
  0   0   0   0   0   0   0   0   0   0   0   0   0   0   0   0   0   0 
  0   0   0   0   0   0   0   0   0   0   0   0   0   0   0   0   0   0 
  0   0   0   0   0   0   0   0   0   0   0   6   3   9   0   3  75  66 
  2   0   0   0   0   0   1   0   0   1   0   2   1   2   2   0   2   4 
  1   1   2   3 110  99  31   1   1   0   1   0   0   0   1   1   1   1 
  7   4  10   1   4   2   2   0   2   0   0   2   0   0   0   0   0   0 
  0   1  21  23   2   1   0   1   1   0   0   0   1   1   2  19   8  15 
  1   5 100  76  29   0   1   2   1   1   0   0   1   0   1   2   0   0 
  2   0   0   0   0   0   0   2  50  19  33   3   1   0   0   0   0   0 
  0   0   0   0   0   0   0   2   0  30  30  19  12  34  67  29  49  99 
 62  70   6  51   1  29  48  11  37  83  39  60  10  61  68  29  51  21 
 11   4  57   6   9   5  17  51  12  15  24  53  35  72  60  82  54  14 
 46   8  62  98  41  75  30  56   3   1   0   0   0  20   3  53   5  19 
  0   5  30  46  28  35  38  32  50  74  41  38  79  42  58  59   3  41 
 69  57  43  32  76  58  56  34   2   2   0   0   0   0   0   0   0   0 
  0   0   0   0   0   0   0   0   0   0   0   0   0   0   0   0   0   0 
  0   0   0   0   0   0   0   0   0   0   0   0   0   0   0   0   0   0 
  0   0   0   0   0   0   0   0   0   0   0   0   0   0   0   0   0   0 
  0   0   0   0   0   0   0   0   0   0   0   0   0   0   0   0   0 103 
103   0   0   0   0   0   0   0   0   0   0   0   0   0   0   0   0   0 
  0   0   0   0   0   0   0   0   0   0   0   0   0   0   0   0   0   0 
  0   0   0   0   0   0   0   0   0   0   0   0   0   0   0   0   0   0 
  0   0   0   0   0   0   0   0   0   0   0  10   8   2   2  14  39  51 
  3   2   1   0   1   0   0   0   0   0   0   0   0   0   0   0   0   1 
  2   2   4 108  92  21   0   0   0   0   0   0   0   0   0   0   1   1 
  5   5   9   0   3   2   4   0   2   0   0   1   0   0   0   0   0   0 
  0   0  21  21   0   1   0   0   0   0   0   0   2   1   1   1  16   2 
 15   1   1  93  54  30   2   0   1   2   2   2   1   0   2   3   0   0 
  0   0   0   0   0   0   2   0  21  41  58   1   0   0   0   0   0   0 
  0   0   0   0   0   2   0   0   0  42  91   7  18  99  73  27   4  71 
 31  48  43  26  33  42  54  28  54  44  98  68  61  26  15  66  65  26 
 33   9  78  17  13   6  27  71  15  43  15  64  64  11  44  55  33  20 
 55   8  19  49  48  35  38  57  50   1   0   0   0  39  42  60  44  64 
 48  50  86  46  26  35  38  29  50  38   6   2  31  28  54  30  19  48 
 52  18   2   1   2  27  33   2   2   1   0   0   0   0   0   0   0   0 
  0   0   0   0   0   0   0   0   0   0   0   0   0   0   0   0   0   0 
  0   0   0   0   0   0   0   0   0   0   0   0   0   0   0   0   0   0 
  0   0   0   0   0   0   0   0   0   0   0   0   0   0   0   0   0   0 
  0   0   0   0   0   0   0   0   0   0   0   0   0   0   0   0   0 103 
103   0   0   0   0   0   0   0   0   0   0   0   0   0   0   0   0   0 
  0   0   0   0   0   0   0   0   0   0   0   0   0   0   0   0   0   0 
  0   0   0   0   0   0   0   0   0   0   0   0   0   0   0   0   0   0 
  0   0   0   2   0   0   0   0   0   0   0  19  18   1   2  36  13  23 
  1   0   0   0   1   0   0   0   0   0   0   0   0   0   0   0   0   0 
  1   2 110  82  26   1   0   0   0   0   0   0   0   0   0   0   0   0 
  4   8  14   1   3   1   5   0   1   0   1   2   0   0   0   0   0   0 
  0   1  19  21   0   1   0   0   0   0   0   0   0   0   0   2   2  16 
  7  12   2   2  88  77  24   2   2   4   1   2   0   0   2   2   0   0 
  0   0   0   0   0   0   0   0   1  99  93   1   1   1   0   0   0   0 
  0   0   0   0   0   0   0   0   0   0  81  46   5  74  39  29  36  25 
 56  84  44  72  43  45  42  37  81  73  58  49  16  57  43  58  52  69 
 59  15  60  16  14   6  29  55   5  62  50  45  52  46  69  21  33   6 
 52   8  31  23  70  74  22  62  22  10   1   0  21  21  61   8  34  56 
 59  54  54   9  27  35  77  27  49  70  44  42  62  38  56  81  48  28 
 42   2   1   2   0   2   0   0   1   0   0   0   0   0   0   0   0   0 
  0   0   0   0   0   0   0   0   0   0   0   0   0   0   0   0   0   0 
  0   0   0   0   0   0   0   0   0   0   0   0   0   0   0   0   0   0 
  0   0   0   0   0   0   0   0   0   0   0   0   0   0   0   0   0   0 
  0   0   0   0   0   0   0   0   0   0   0   0   0   0   0   0   0 103 
103   0   0   0   0   0   0   0   0   0   0   0   0   0   0   0   0   0 
  0   0   0   0   0   0   0   0   0   0   0   0   0   0   0   0   0   0 
  0   0   0   0   0   0   0   0   0   0   0   0   0   0   0   0   0   0 
  0   0   0   0   0   2   0   0   0   0   5  10  15   4   5  61  63   5 
  1   1   0   0   1   0   0   0   0   0   0   0   0   1   0   1   2   0 
  3 108  95  27   1   1   0   0   0   0   0   0   0   0   0   0   0   0 
  3  10  14   1   2   0   2   1   2   1   2   1   0   0   0   0   0   0 
  0   2  15  18   1   1   0   0   2   0   0   0   0   2   0   1   2   1 
 20  10   6   0   4 105  83   5   2   2   1   1   1   2   0   1   0   0 
  0   0   0   0   0   0   0   1   4  72  56  13   1   0   0   0   0   0 
  0   0   0   0   0   0   0   0   0   5  29  49  21  31  35  27  57  63 
  0  22  20  60  25  48  44  35  44  31  53  15  51   1   1  34  11  54 
 36  24  64  21  13   8  31  56   5  69  60  18  44   1   2  66  66   7 
 54   6  66  63   4  10  46  64   0  20   1   0  18   8  43   3  18  31 
 29  33  27  12  24  72  77  10   1  38  48  46  46  35  48  83  47  35 
 42   2   0   0   0   2   0   0   2   0   0   0   0   0   0   0   0   0 
  0   0   0   0   0   0   0   0   0   0   0   0   0   0   0   0   0   0 
  0   0   0   0   0   0   0   0   0   0   0   0   0   0   0   0   0   0 
  0   0   0   0   0   0   0   0   0   0   0   0   0   0   0   0   0   0 
  0   0   0   0   0   0   0   0   0   0   0   0   0   0   0   0   0 103 
103   0   0   0   0   0   0   0   0   0   0   0   0   0   0   0   0   0 
  0   0   0   0   0   0   0   0   0   0   0   0   0   0   0   0   0   0 
  0   0   0   0   0   0   0   0   0   0   0   0   0   0   0   0   0   0 
  0   0   0   0   0   0   1   2   0   0  17  19   2   0   9  41  50   0 
  0   1   0   0   0   0   0   0   0   0   0   0   0   1   0   1   2   6 
 87  33  41   2   1   0   0   0   0   0   0   0   0   0   0   0   0   0 
  3  10  14   1   1   3   2   1   0   0   0   0   0   0   0   0   0   0 
  0   3  13  16   1   0   0   0   0   0   0   2   0   0   0   0   0   0 
  1  20  19   6   2  10  85 108   0   1   1   2   0   0   0   2   0   0 
  0   0   0   0   0   0   1   4   5  42  21  29   1   0   0   0   0   0 
  0   0   0   0   0   0   1   2   1   2  35  49  19  31  37  27  59  48 
  0  21   4  63  28  51  42  39  46  24  51   5  37   2   2  23  12  56 
 35  15  60  30  13   6  35  52  10  68  62  13  40   2   0  70  69   6 
 54   6  67  45   1  11  27  68  12  19   1   0   0  37  35  58  35  58 
 40  41  77  45  30  69  50  15   5  25  29  35  33  13  51  37  41  43 
 55  14   1   0   2  30  29   0   0   0   0   0   0   0   0   0   0   0 
  0   0   0   0   0   0   0   0   0   0   0   0   0   0   0   0   0   0 
  0   0   0   0   0   0   0   0   0   0   0   0   0   0   0   0   0   0 
  0   0   0   0   0   0   0   0   0   0   0   0   0   0   0   0   0   0 
  0   0   0   0   0   0   0   0   0   0   0   0   0   0   0   0   0 103 
103   0   0   0   0   0   0   0   0   0   0   0   0   0   0   0   0   0 
  0   0   0   0   0   0   0   0   0   0   0   0   0   0   0   0   0   0 
  0   0   0   0   0   0   0   0   0   0   0   0   0   0   0   0   0   0 
  0   0   0   0   2   1   2   1   0   3  12  14   1   1  13  37  40   0 
  0   0   0   0   0   0   0   0   0   0   0   0   0   0   0   1   2  42 
 17  68   1   0   0   0   0   0   0   0   0   0   0   0   0   0   0   0 
  4   8  13   1   2   3   6   0   0   1   1   0   0   0   0   0   0   0 
  0   4  13  16   1   0   0   0   0   0   0   0   0   0   0   2   0   0 
  0   2  24  19   1   0  17  86  84   4   0   2   0   0   1   0   0   0 
  0   0   0   0   0   0   2   1   1  27  23  53   3   1   0   0   0   0 
  0   0   0   0   0   0   2   1   0   4  32  52  18  67  38  27  56  47 
  0  21   4  62  29  49  44  36  39  46  68  56  70  35  27  75  37  59 
 41  31  58   6  58  48  39  54  12  59  48  44  61  39  61   4  38   8 
 52   6  66  44   3  10  26  64   9  17   1   0   2  20   6  56  11  19 
  2   6  31  46  27  35  69  22  55  77  38  37  35  24   0  23   3  41 
 74  69  39  38  62  44  44  29   0   0   0   0   0   0   0   0   0   0 
  0   0   0   0   0   0   0   0   0   0   0   0   0   0   0   0   0   0 
  0   0   0   0   0   0   0   0   0   0   0   0   0   0   0   0   0   0 
  0   0   0   0   0   0   0   0   0   0   0   0   0   0   0   0   0   0 
  0   0   0   0   0   0   0   0   0   0   0   0   0   0   0   0   0 103 
103   0   0   0   0   0   0   0   0   0   0   0   0   0   0   0   0   0 
  0   0   0   0   0   0   0   0   0   0   0   0   0   0   0   0   0   0 
  0   0   0   0   0   0   0   0   0   0   0   0   0   0   0   0   0   0 
  0   0   0   0   0   0   0   1   2  10   0   6   1   3  43  15  21   0 
  0   0   0   0   0   0   0   0   0   0   0   0   0   0   0   1   8  99 
 99   0   1   1   0   0   0   0   0   0   0   0   0   0   0   0   0   2 
  5   8  11   0   4   1   4   0   0   0   1   1   0   0   0   0   0   0 
  0   4  10  15   1   0   0   0   0   0   0   0   0   0   0   0   0   1 
  1   1   4  12  23   2   3  40   7  52   2   2   2   3   4   1   0   0 
  0   0   0   0   0   0   1   0   0   3  95 104   0   1   0   0   0   0 
  0   0   0   0   0   0   1   2   0   0  39  56  47  47  67  31  66  48 
  2  22   0  72  28  50  48  44  40  10  48  72  53   5   3  44  66   8 
 33  40  75  37  19  15  44  84  51  24   7  68  44  25  35  60  16   9 
 54  11  69  39   3  10  25  73   8  19   2   1   0  19   6  61   5  19 
  0   5  33  50  33  35  38  35  57  38   4   0   2   0   1   1  49  23 
 42  49  25  22  38  35  91  35   2   0   0   0   0   0   0   0   0   0 
  0   0   0   0   0   0   0   0   0   0   0   0   0   0   0   0   0   0 
  0   0   0   0   0   0   0   0   0   0   0   0   0   0   0   0   0   0 
  0   0   0   0   0   0   0   0   0   0   0   0   0   0   0   0   0   0 
  0   0   0   0   0   0   0   0   0   0   0   0   0   0   0   0   0 103 
103   0   0   0   0   0   0   0   0   0   0   0   0   0   0   0   0   0 
  0   0   0   0   0   0   0   0   0   0   0   0   0   0   0   0   0   0 
  0   0   0   0   0   0   0   0   0   0   0   0   0   0   0   0   0   0 
  0   0   0   0   0   0   0   2   2  23  22   1   1   0  81  81   0   0 
  0   0   0   0   0   0   0   0   0   0   0   0   0   0   1   2 104 102 
 10   1   0   2   1   2   0   0   0   0   0   0   0   0   0   2   1   0 
  7   2   8   1   2   2   5   0   0   0   1   2   0   0   0   0   0   0 
  0   4  12  15   2   0   0   0   0   0   0   2   0   0   2   0   0   0 
  1   0   0  14   1   9   0   5  94  64  19   1   0   2   1   2   0   0 
  0   0   0   0   0   0   2   1   1   6  66  41  27   0   0   0   0   0 
  0   0   0   0   0   0   0   0   0   1   1  66  35  94  72  50  79  39 
  1  18  10  86  19  44  68  58  32   1  23  26  46  61  65  49   3  46 
  0   9  54  48  55  56  50  49  14   1  36  30  44  46  52 103  60  18 
 50  28  90  35   2   9  14  89   3  16   1   2   1  17  10  77   7  17 
  0   2  26  69  49  30  33  53  73  27   4   0   0   0   2   1   1  50 
  2  42  50  55  43  35  60   6   0   0   0   0   0   0   0   0   0   0 
  0   0   0   0   0   0   0   0   0   0   0   0   0   0   0   0   0   0 
  0   0   0   0   0   0   0   0   0   0   0   0   0   0   0   0   0   0 
  0   0   0   0   0   0   0   0   0   0   0   0   0   0   0   0   0   0 
  0   0   0   0   0   0   0   0   0   0   0   0   0   0   0   0   0 103 
103   0   0   0   0   0   0   0   0   0   0   0   0   0   0   0   0   0 
  0   0   0   0   0   0   0   0   0   0   0   0   0   0   0   0   0   0 
  0   0   0   0   0   0   0   0   0   0   0   0   0   0   0   0   0   0 
  0   0   0   0   0   0   0   1  12  10   6   1   0  25   6  36   0   0 
  0   0   0   0   0   0   0   0   0   0   0   0   1   1   1  54  33  35 
  3   1   1   1   0   0   0   0   0   0   0   0   0   0   0   1   1   0 
 10   3   7   0   2   2   2   0   1   3   1   0   0   0   1   0   0   0 
  0   3  13  17   0   1   1   0   0   2   0   0   0   0   0   0   0   0 
  2   0   0   2  18  24   1   1   4  83  80   2   2   2   4   0   0   0 
  0   0   0   0   0   0   1   1   2   2   6  94  80   1   1   0   0   0 
  0   0   0   0   0   0   0   0   0   1   1   1  29  37   1  33  35   0 
  1   1  15  39   6   1  33  33   1   1   1  15  35  40  43  37  21   2 
  0   0   6  34  40  40  35  10   3   2  22  29  78  67  90  13  63  25 
 12  25  39   2   0   0  10  38  15   0   0   1   2   0  18  37  16   0 
  0   1   3  34  29   0   0  32  37   4   1   0   0   0   0   0   0   0 
 20  36  41  43  35  32   2   1   0   0   0   0   0   0   0   0   0   0 
  0   0   0   0   0   0   0   0   0   0   0   0   0   0   0   0   0   0 
  0   0   0   0   0   0   0   0   0   0   0   0   0   0   0   0   0   0 
  0   0   0   0   0   0   0   0   0   0   0   0   0   0   0   0   0   0 
  0   0   0   0   0   0   0   0   0   0   0   0   0   0   0   0   0 103 
103   0   0   0   0   0   0   0   0   0   0   0   0   0   0   0   0   0 
  0   0   0   0   0   0   0   0   0   0   0   0   0   0   0   0   0   0 
  0   0   0   0   0   0   0   0   0   0   0   0   0   0   0   0   0   0 
  0   0   0   0   2   0   1   2  21  17   0   0   1  48  48   6   0   1 
  0   0   0   0   0   0   0   0   1   1   0   3   2   2  12  91  85   0 
  1   0   0   0   0   0   0   0   0   0   0   0   0   0   2   1   1   0 
 14  13   2   1   2   1   4   0   0   1   1   2   1   1   2   0   2   0 
  0   2  17  15   2   1   2   1   0   0   0   0   0   0   0   0   0   0 
  0   0   0   2   7  15  19   2   2  37  10  62   3   0   1   0   0   0 
  0   0   0   0   0   0   0   1   1   1   2  70  77  10   1   0   0   0 
  0   2   0   0   0   0   0   0   0   0   0   0   0   1   0   0   1   0 
  0   0   1   0   0   0   1   0   0   0   0   0   0   1   0   0   0   0 
  0   0   0   0   1   1   0   0   1  15   8 117  41   2  17  62  56  45 
  2   2   1   1   0   2   0   1   0   0   0   0   0   0   0   1   0   0 
  0   0   0   1   0   0   0   0   1   0   0   0   0   0   0   0   0   0 
  0   0   0   0   1   0   0   0   0   0   0   0   0   0   0   0   0   0 
  0   0   0   0   0   0   0   0   0   0   0   0   0   0   0   0   0   0 
  0   0   0   0   0   0   0   0   0   0   0   0   0   0   0   0   0   0 
  0   0   0   0   0   0   0   0   0   0   0   0   0   0   0   0   0   0 
  0   0   0   0   0   0   0   0   0   0   0   0   0   0   0   0   0 103 
103   0   0   0   0   0   0   0   0   0   0   0   0   0   0   0   0   0 
  0   0   0   0   0   0   0   0   0   0   0   0   0   0   0   0   0   0 
  0   0   0   0   0   0   0   0   0   0   0   0   0   0   0   0   0   0 
  0   0   0   0   0   0   0  16   9   7   0   2   4  72  57   0   0   1 
  0   0   0   0   0   0   0   0   1   1   0   2   3   2  95 112   6   0 
  0   0   0   0   0   0   0   0   0   0   0   0   0   0   1   2   1   0 
 19  19   0   1   4   0   1   0   1   2   1   3   4   2   7   0   1   0 
  0   0  21  25   3   1   1   1   0   0   0   0   0   0   0   0   0   0 
  0   0   0   1   3  17   8   7   1   3  90  59  10   1   1   2   0   0 
  0   0   0   0   0   0   0   1   1   2   0  41   1  45   1   1   1   2 
  1   1   1   2   0   0   0   0   0   0   0   0   0   0   0   0   0   0 
  0   0   0   0   0   0   0   0   0   0   0   0   0   0   0   0   0   0 
  0   0   0   0   0   0   0   0   1   3  31  25  58  52  60  23  64   2 
  1   2   1   0   0   0   0   0   0   0   0   0   0   0   0   0   0   0 
  0   0   0   0   0   0   0   0   0   0   0   0   0   0   0   0   0   0 
  0   0   0   0   0   0   0   0   0   0   0   0   0   0   0   0   0   0 
  0   0   0   0   0   0   0   0   0   0   0   0   0   0   0   0   0   0 
  0   0   0   0   0   0   0   0   0   0   0   0   0   0   0   0   0   0 
  0   0   0   0   0   0   0   0   0   0   0   0   0   0   0   0   0   0 
  0   0   0   0   0   0   0   0   0   0   0   0   0   0   0   0   0 103 
103   0   0   0   0   0   0   0   0   0   0   0   0   0   0   0   0   0 
  0   0   0   0   0   0   0   0   0   0   0   0   0   0   0   0   0   0 
  0   0   0   0   0   0   0   0   0   0   0   0   0   0   0   0   0   0 
  0   0   0   2   1   1   4  10  17   1   0   3  68  57  17   2   2   0 
  0   0   0   0   0   0   0   0   0   3   0   2   3  23  27  50   2   0 
  0   0   0   0   0   0   0   0   0   0   0   0   0   0   0   0   0   3 
  9  18   6  10  10   2   5   4   6  13  22  15   8   0   4   9   2  10 
  6   1  23  21   3   1   1   1   1   0   0   0   0   0   0   0   0   0 
  0   0   2   1   2   0  15  17   1   0  15  41  58   1   0   1   0   0 
  0   0   0   0   0   0   0   0   0   2   2   5 119 120   2   1   1   2 
  1   1   1   1   0   0   0   0   0   0   0   0   0   0   0   0   0   0 
  0   0   0   0   0   0   0   0   0   0   0   0   0   0   0   0   0   0 
  0   0   0   0   0   0   0   0   0   1   2  17  38  34  35  29   0   1 
  0   1   2   0   0   0   0   0   0   0   0   0   0   0   0   0   0   0 
  0   0   0   0   0   0   0   0   0   0   0   0   0   0   0   0   0   0 
  0   0   0   0   0   0   0   0   0   0   0   0   0   0   0   0   0   0 
  0   0   0   0   0   0   0   0   0   0   0   0   0   0   0   0   0   0 
  0   0   0   0   0   0   0   0   0   0   0   0   0   0   0   0   0   0 
  0   0   0   0   0   0   0   0   0   0   0   0   0   0   0   0   0   0 
  0   0   0   0   0   0   0   0   0   0   0   0   0   0   0   0   0 103 
103   0   0   0   0   0   0   0   0   0   0   0   0   0   0   0   0   0 
  0   0   0   0   0   0   0   0   0   0   0   0   0   0   0   0   0   0 
  0   0   0   0   0   0   0   0   0   0   0   0   0   0   0   0   0   0 
  0   0   0   0   0   0  26  19   0   0   0  13  44  62   4   0   0   1 
  0   0   0   0   0   0   0   0   3   2   3   1   4 110  92   4   1   0 
  0   0   0   0   0   0   0   0   0   0   0   0   0   0   0   0   0   4 
  4  12   6   2  31  39  18  17  11   2  21  25  11   6  10   6  22   5 
 11  15  36  10   9   1   1   2   1   1   0   0   0   0   0   0   0   0 
  0   0   1   2   1   1  15  13   6   2   0  77  75  12   1   1   0   0 
  0   0   0   0   0   0   2   1   2   2   1   0  33  35  49   1   1   2 
  1   1   1   1   0   0   0   0   0   0   0   0   0   0   0   0   0   0 
  0   0   0   0   0   0   0   0   0   0   0   0   0   0   0   0   0   0 
  0   0   0   0   0   0   0   0   2   0   0   0   1   3   2   0   0   1 
  0   0   0   0   0   0   0   0   0   0   0   0   0   0   0   0   0   0 
  0   0   0   0   0   0   0   0   0   0   0   0   0   0   0   0   0   0 
  0   0   0   0   0   0   0   0   0   0   0   0   0   0   0   0   0   0 
  0   0   0   0   0   0   0   0   0   0   0   0   0   0   0   0   0   0 
  0   0   0   0   0   0   0   0   0   0   0   0   0   0   0   0   0   0 
  0   0   0   0   0   0   0   0   0   0   0   0   0   0   0   0   0   0 
  0   0   0   0   0   0   0   0   0   0   0   0   0   0   0   0   0 103 
103   0   0   0   0   0   0   0   0   0   0   0   0   0   0   0   0   0 
  0   0   0   0   0   0   0   0   0   0   0   0   0   0   0   0   0   0 
  0   0   0   0   0   0   0   0   0   0   0   0   0   0   0   0   0   0 
  0   0   2   1   0  13  25   5   2   2   1  56  39  14   1   2   1   1 
  0   0   0   0   0   0   0   1   4   0   4   2  47  16  41   0   0   0 
  0   0   0   0   0   0   0   0   0   0   0   0   0   0   0   0   0   0 
  4  11  10   7   4  20  17  19  14   8   3   1   3  10  12  15  16   9 
 17  18  21   8   1   1   2   3   1   1   0   0   0   0   0   0   0   0 
  0   2   0   1   2   1   0  24  17   0   0   3  95  77   4   2   0   0 
  0   0   0   0   0   1   4   1   2   1   2   0   2  89 119   3   0   0 
  0   1   1   1   0   0   0   0   0   0   0   0   0   0   0   0   0   0 
  0   0   0   0   0   0   0   0   0   0   0   0   0   0   0   0   0   0 
  0   0   0   0   0   0   0   0   1   0   0   0   0   2   0   0   0   0 
  0   2   1   2   0   0   0   0   0   0   0   0   0   0   0   0   0   0 
  0   0   0   0   0   0   0   0   0   0   0   0   0   0   0   0   0   0 
  0   0   0   0   0   0   0   0   0   0   0   0   0   0   0   0   0   0 
  0   0   0   0   0   0   0   0   0   0   0   0   0   0   0   0   0   0 
  0   0   0   0   0   0   0   0   0   0   0   0   0   0   0   0   0   0 
  0   0   0   0   0   0   0   0   0   0   0   0   0   0   0   0   0   0 
  0   0   0   0   0   0   0   0   0   0   0   0   0   0   0   0   0 103 
103   0   0   0   0   0   0   0   0   0   0   0   0   0   0   0   0   0 
  0   0   0   0   0   0   0   0   0   0   0   0   0   0   0   0   0   0 
  0   0   0   0   0   0   0   0   0   0   0   0   0   0   0   0   0   0 
  0   0   1   2   1   5   3  19  16  14  17  48  59   2   3   2   1   1 
  0   0   0   0   0   0   0   0   2   0   3   2  68  79   3   0   0   0 
  0   0   0   0   0   0   0   0   0   0   0   0   0   0   0   0   0   0 
  1   2   0   1   1   2   0   0   1   1   1   1   1   1   1   1   1   2 
  1   1   0   0   0   1   2   2   0   2   0   0   0   0   0   0   0   0 
  0   1   0   2   1   0   1  10   9   3   2   1  52  44  13   0   0   0 
  0   0   0   0   0   0   1   0   0   0   0   0   0  29  62  79   0   0 
  1   2   1   0   0   0   0   0   0   0   0   0   0   0   0   0   0   0 
  0   0   0   0   0   0   0   0   0   0   0   0   0   0   0   0   0   0 
  0   0   0   0   0   0   0   0   2   1   2   0   0   0   0   0   0   0 
  0   1   2   1   0   0   0   0   0   0   0   0   0   0   0   0   0   0 
  0   0   0   0   0   0   0   0   0   0   0   0   0   0   0   0   0   0 
  0   0   0   0   0   0   0   0   0   0   0   0   0   0   0   0   0   0 
  0   0   0   0   0   0   0   0   0   0   0   0   0   0   0   0   0   0 
  0   0   0   0   0   0   0   0   0   0   0   0   0   0   0   0   0   0 
  0   0   0   0   0   0   0   0   0   0   0   0   0   0   0   0   0   0 
  0   0   0   0   0   0   0   0   0   0   0   0   0   0   0   0   0 103 
103   0   0   0   0   0   0   0   0   0   0   0   0   0   0   0   0   0 
  0   0   0   0   0   0   0   0   0   0   0   0   0   0   0   0   0   0 
  0   0   0   0   0   0   0   0   0   0   0   0   0   0   0   0   0   0 
  0   0   0   0   1   2   8  17  16   8  74  90   1   4   1   2   0   0 
  1   0   1   1   0   0   0   0   0   3   4  17  58  58   2   1   0   0 
  0   0   0   0   0   0   0   0   0   0   0   0   0   0   0   0   0   0 
  2   1   0   1   0   1   1   0   0   1   1   1   1   1   1   0   0   0 
  1   1   1   0   1   2   2   2   1   0   0   0   0   0   0   0   0   0 
  0   2   1   1   2   0   0   4  11  17   3   2  19  35  58   3   0   0 
  0   0   0   0   0   0   0   0   0   0   3   3   2   2  79  50  25   1 
  2   1   0   0   0   0   0   0   0   0   0   0   0   0   0   0   0   0 
  0   0   0   0   0   0   0   0   0   0   0   0   0   0   0   0   0   0 
  0   0   0   0   0   0   0   0   1   2   1   1   2   1   2   1   2   1 
  2   0   1   2   0   0   0   0   0   0   0   0   0   0   0   0   0   0 
  0   0   0   0   0   0   0   0   0   0   0   0   0   0   0   0   0   0 
  0   0   0   0   0   0   0   0   0   0   0   0   0   0   0   0   0   0 
  0   0   0   0   0   0   0   0   0   0   0   0   0   0   0   0   0   0 
  0   0   0   0   0   0   0   0   0   0   0   0   0   0   0   0   0   0 
  0   0   0   0   0   0   0   0   0   0   0   0   0   0   0   0   0   0 
  0   0   0   0   0   0   0   0   0   0   0   0   0   0   0   0   0 103 
103   0   0   0   0   0   0   0   0   0   0   0   0   0   0   0   0   0 
  0   0   0   0   0   0   0   0   0   0   0   0   0   0   0   0   0   0 
  0   0   0   0   0   0   0   0   0   0   0   0   0   0   0   0   0   0 
  0   0   0   0   0   1   1   3   2  46  68 105  44  25  18  12   8   6 
  8  13  10   1   0   0   0   0   0   0   4  88  80  13   1   1   0   0 
  0   0   0   0   0   0   0   0   0   0   0   0   0   0   0   2   0   0 
  0   0   0   0   0   0   0   0   0   2   1   0   0   1   0   0   0   0 
  1   0   1   1   1   2   3   2   2   0   0   0   0   0   0   0   0   0 
  0   1   2   0   0   0   0   0  17  16   2   2   1  85  81   6   0   1 
  1   1   1   0   0   0  21  13   8   9  12  19  29  44  81 164  66   0 
  1   0   0   2   0   0   0   0   0   0   0   0   0   0   0   0   0   0 
  0   0   0   0   0   0   0   0   0   0   0   0   0   0   0   0   0   0 
  0   0   0   0   0   0   0   0   0   0   0   2   1   0   0   0   1   2 
  1   0   2   1   0   0   0   0   0   0   0   0   0   0   0   0   0   0 
  0   0   0   0   0   0   0   0   0   0   0   0   0   0   0   0   0   0 
  0   0   0   0   0   0   0   0   0   0   0   0   0   0   0   0   0   0 
  0   0   0   0   0   0   0   0   0   0   0   0   0   0   0   0   0   0 
  0   0   0   0   0   0   0   0   0   0   0   0   0   0   0   0   0   0 
  0   0   0   0   0   0   0   0   0   0   0   0   0   0   0   0   0   0 
  0   0   0   0   0   0   0   0   0   0   0   0   0   0   0   0   0 103 
103   0   0   0   0   0   0   0   0   0   0   0   0   0   0   0   0   0 
  0   0   0   0   0   0   0   0   0   0   0   0   0   0   0   0   0   0 
  0   0   0   0   0   0   0   0   0   0   0   0   0   0   0   0   0   0 
  0   0   0   0   0   0   0   1   0   1  50  61  13  25  39  49  56  55 
 50  21  23  12   1   0   1   0   1   1  12  56  69   1   1   0   0   0 
  0   0   0   0   0   0   0   0   0   0   0   0   0   0   0   0   0   0 
  0   0   0   0   0   0   0   0   0   0   0   0   0   0   0   0   0   0 
  0   0   0   0   0   0   1   0   0   0   0   0   0   0   0   0   0   0 
  0   0   0   0   0   0   0   0   6   8  12   0   1  25  31  44   0   2 
  2   0   3   0   1  52   6  44  49  51  48  28  28   6  51  84   2   3 
  1   1   0   0   0   0   0   0   0   0   0   0   0   0   0   0   0   0 
  0   0   0   0   0   0   0   0   0   0   0   0   0   0   0   0   0   0 
  0   0   0   0   0   0   0   0   0   0   0   0   0   0   0   0   0   0 
  0   0   0   0   0   0   0   0   0   0   0   0   0   0   0   0   0   0 
  0   0   0   0   0   0   0   0   0   0   0   0   0   0   0   0   0   0 
  0   0   0   0   0   0   0   0   0   0   0   0   0   0   0   0   0   0 
  0   0   0   0   0   0   0   0   0   0   0   0   0   0   0   0   0   0 
  0   0   0   0   0   0   0   0   0   0   0   0   0   0   0   0   0   0 
  0   0   0   0   0   0   0   0   0   0   0   0   0   0   0   0   0   0 
  0   0   0   0   0   0   0   0   0   0   0   0   0   0   0   0   0 103 
103   0   0   0   0   0   0   0   0   0   0   0   0   0   0   0   0   0 
  0   0   0   0   0   0   0   0   0   0   0   0   0   0   0   0   0   0 
  0   0   0   0   0   0   0   0   0   0   0   0   0   0   0   0   0   0 
  0   0   0   0   0   0   0   0   0   1   1  12  26  44  54  59  62  76 
 29  44  73  84   1   2   0   0   1   2  45  25  29   1   0   0   0   0 
  0   0   0   0   0   0   0   0   0   0   0   0   0   0   0   0   0   0 
  0   0   0   0   0   0   0   0   0   0   0   0   0   0   0   0   0   0 
  0   0   0   0   0   0   0   0   0   0   0   0   0   0   0   0   0   0 
  0   0   0   0   0   0   0   1   1  14  13   0   2   7  57  54   1   0 
  1   1   1   3  58   4  70  44  48  44  29  47  55  34  15   0   3   2 
  0   1   0   0   0   0   0   0   0   0   0   0   0   0   0   0   0   0 
  0   0   0   0   0   0   0   0   0   0   0   0   0   0   0   0   0   0 
  0   0   0   0   0   0   0   0   0   0   0   0   0   0   0   0   0   0 
  0   0   0   0   0   0   0   0   0   0   0   0   0   0   0   0   0   0 
  0   0   0   0   0   0   0   0   0   0   0   0   0   0   0   0   0   0 
  0   0   0   0   0   0   0   0   0   0   0   0   0   0   0   0   0   0 
  0   0   0   0   0   0   0   0   0   0   0   0   0   0   0   0   0   0 
  0   0   0   0   0   0   0   0   0   0   0   0   0   0   0   0   0   0 
  0   0   0   0   0   0   0   0   0   0   0   0   0   0   0   0   0   0 
  0   0   0   0   0   0   0   0   0   0   0   0   0   0   0   0   0 103 
103   0   0   0   0   0   0   0   0   0   0   0   0   0   0   0   0   0 
  0   0   0   0   0   0   0   0   0   0   0   0   0   0   0   0   0   0 
  0   0   0   0   0   0   0   0   0   0   0   0   0   0   0   0   0   0 
  0   0   0   0   0   0   0   0   0   1   1   0   1   0   0   2   1   1 
 22  13   6  63  87   2   0   1   0   2  59  54  10   1   0   0   0   0 
  0   0   0   0   0   0   0   0   0   0   0   0   0   0   0   0   0   0 
  0   0   0   0   0   0   0   0   0   0   0   0   0   0   0   0   0   0 
  0   0   0   0   0   0   0   0   0   0   0   0   0   0   0   0   0   0 
  0   0   0   0   0   0   0   0   2  14  15   2   2   1  60  66   6   0 
  1   1   3  62  42  69   6   4   4   8  12   9   1   1   2   3   2   0 
  0   1   0   0   0   0   0   0   0   0   0   0   0   0   0   0   0   0 
  0   0   0   0   0   0   0   0   0   0   0   0   0   0   0   0   0   0 
  0   0   0   0   0   0   0   0   0   0   0   0   0   0   0   0   0   0 
  0   0   0   0   0   0   0   0   0   0   0   0   0   0   0   0   0   0 
  0   0   0   0   0   0   0   0   0   0   0   0   0   0   0   0   0   0 
  0   0   0   0   0   0   0   0   0   0   0   0   0   0   0   0   0   0 
  0   0   0   0   0   0   0   0   0   0   0   0   0   0   0   0   0   0 
  0   0   0   0   0   0   0   0   0   0   0   0   0   0   0   0   0   0 
  0   0   0   0   0   0   0   0   0   0   0   0   0   0   0   0   0   0 
  0   0   0   0   0   0   0   0   0   0   0   0   0   0   0   0   0 103 
103   0   0   0   0   0   0   0   0   0   0   0   0   0   0   0   0   0 
  0   0   0   0   0   0   0   0   0   0   0   0   0   0   0   0   0   0 
  0   0   0   0   0   0   0   0   0   0   0   0   0   0   0   0   0   0 
  0   0   0   0   0   0   0   0   0   0   0   0   0   0   0   1   1   1 
  1  20   2   6  50  89  15   0   2   0  85  80   1   1   0   0   0   0 
  0   0   0   0   0   0   0   0   0   0   0   0   0   0   0   0   0   0 
  0   0   0   0   0   0   0   0   0   0   0   0   0   0   0   0   0   0 
  0   0   0   0   0   0   0   0   0   0   0   0   0   0   0   0   0   0 
  0   0   0   0   0   0   0   0   1  11   7   6   1   2  40  12  30   4 
  0   3  80  46 105   8  11   9   4   4   2   2   1   1   3   2   0   1 
  1   1   0   1   0   0   0   0   0   0   0   0   0   0   0   0   0   0 
  0   0   0   0   0   0   0   0   0   0   0   0   0   0   0   0   0   0 
  0   0   0   0   0   0   0   0   0   0   0   0   0   0   0   0   0   0 
  0   0   0   0   0   0   0   0   0   0   0   0   0   0   0   0   0   0 
  0   0   0   0   0   0   0   0   0   0   0   0   0   0   0   0   0   0 
  0   0   0   0   0   0   0   0   0   0   0   0   0   0   0   0   0   0 
  0   0   0   0   0   0   0   0   0   0   0   0   0   0   0   0   0   0 
  0   0   0   0   0   0   0   0   0   0   0   0   0   0   0   0   0   0 
  0   0   0   0   0   0   0   0   0   0   0   0   0   0   0   0   0   0 
  0   0   0   0   0   0   0   0   0   0   0   0   0   0   0   0   0 103 
103   0   0   0   0   0   0   0   0   0   0   0   0   0   0   0   0   0 
  0   0   0   0   0   0   0   0   0   0   0   0   0   0   0   0   0   0 
  0   0   0   0   0   0   0   0   0   0   0   0   0   0   0   0   0   0 
  0   0   0   0   0   0   0   0   0   0   0   0   0   0   0   0   0   0 
  1   2  10  24  10  97  91  46   4  29  19  44   2   3   1   0   0   0 
  0   0   0   0   0   0   0   0   0   0   0   0   0   0   0   0   0   0 
  0   0   0   0   0   0   0   0   0   0   0   0   0   0   0   0   0   0 
  0   0   0   0   0   0   0   0   0   0   0   0   0   0   0   0   0   0 
  0   0   0   0   0   0   0   0   0   1  19  18   2   1  10  56  64   4 
 13 112  38  82   0   2   5   2   1   0   1   1   0   0   1   1   1   1 
  1   1   1   1   0   0   0   0   0   0   0   0   0   0   0   0   0   0 
  0   0   0   0   0   0   0   0   0   0   0   0   0   0   0   0   0   0 
  0   0   0   0   0   0   0   0   0   0   0   0   0   0   0   0   0   0 
  0   0   0   0   0   0   0   0   0   0   0   0   0   0   0   0   0   0 
  0   0   0   0   0   0   0   0   0   0   0   0   0   0   0   0   0   0 
  0   0   0   0   0   0   0   0   0   0   0   0   0   0   0   0   0   0 
  0   0   0   0   0   0   0   0   0   0   0   0   0   0   0   0   0   0 
  0   0   0   0   0   0   0   0   0   0   0   0   0   0   0   0   0   0 
  0   0   0   0   0   0   0   0   0   0   0   0   0   0   0   0   0   0 
  0   0   0   0   0   0   0   0   0   0   0   0   0   0   0   0   0 103 
103   0   0   0   0   0   0   0   0   0   0   0   0   0   0   0   0   0 
  0   0   0   0   0   0   0   0   0   0   0   0   0   0   0   0   0   0 
  0   0   0   0   0   0   0   0   0   0   0   0   0   0   0   0   0   0 
  0   0   0   0   0   0   0   0   0   0   0   0   0   1   1   1   0   0 
  1   2   1   2  12   8 100   3 102  78  44  17   1   2   2   0   0   0 
  0   0   0   0   0   0   0   0   0   0   0   0   0   0   0   0   0   0 
  0   0   0   0   0   0   0   0   0   0   0   0   0   0   0   0   0   0 
  0   0   0   0   0   0   0   0   0   0   0   0   0   0   0   0   0   0 
  0   0   0   0   0   0   0   0   1   1  18  17   1   1   5  74  80  70 
 77  71  45   2   2   0   1   0   1   1   3   0   1   2   1   1   0   1 
  1   0   0   0   0   0   0   0   0   0   0   0   0   0   0   0   0   0 
  0   0   0   0   0   0   0   0   0   0   0   0   0   0   0   0   0   0 
  0   0   0   0   0   0   0   0   0   0   0   0   0   0   0   0   0   0 
  0   0   0   0   0   0   0   0   0   0   0   0   0   0   0   0   0   0 
  0   0   0   0   0   0   0   0   0   0   0   0   0   0   0   0   0   0 
  0   0   0   0   0   0   0   0   0   0   0   0   0   0   0   0   0   0 
  0   0   0   0   0   0   0   0   0   0   0   0   0   0   0   0   0   0 
  0   0   0   0   0   0   0   0   0   0   0   0   0   0   0   0   0   0 
  0   0   0   0   0   0   0   0   0   0   0   0   0   0   0   0   0   0 
  0   0   0   0   0   0   0   0   0   0   0   0   0   0   0   0   0 103 
103   0   0   0   0   0   0   0   0   0   0   0   0   0   0   0   0   0 
  0   0   0   0   0   0   0   0   0   0   0   0   0   0   0   0   0   0 
  0   0   0   0   0   0   0   0   0   0   0   0   0   0   0   0   0   0 
  0   0   0   0   0   0   0   0   0   0   2   1   0   0   0   1   0   0 
  1   0   1   2   2   2   1  40 117 150  77   1   1   0   0   0   0   0 
  0   0   0   0   0   0   0   0   0   0   0   0   0   0   0   0   0   0 
  0   0   0   0   0   0   0   0   0   0   0   0   0   0   0   0   0   0 
  0   0   0   0   0   0   0   0   0   0   0   0   0   0   0   0   0   0 
  0   0   0   0   0   0   0   0   0   1  11   9   6  11  25  83 120   7 
 97  17   2   3   2   0   0   0   0   0   1   1   0   1   2   1   0   0 
  2   1   1   0   0   0   0   0   0   0   0   0   0   0   0   0   0   0 
  0   0   0   0   0   0   0   0   0   0   0   0   0   0   0   0   0   0 
  0   0   0   0   0   0   0   0   0   0   0   0   0   0   0   0   0   0 
  0   0   0   0   0   0   0   0   0   0   0   0   0   0   0   0   0   0 
  0   0   0   0   0   0   0   0   0   0   0   0   0   0   0   0   0   0 
  0   0   0   0   0   0   0   0   0   0   0   0   0   0   0   0   0   0 
  0   0   0   0   0   0   0   0   0   0   0   0   0   0   0   0   0   0 
  0   0   0   0   0   0   0   0   0   0   0   0   0   0   0   0   0   0 
  0   0   0   0   0   0   0   0   0   0   0   0   0   0   0   0   0   0 
  0   0   0   0   0   0   0   0   0   0   0   0   0   0   0   0   0 103 
205 103 103 103 103 103 103 103 103 103 103 103 103 103 103 103 103 103 
103 103 103 103 103 103 103 103 103 103 103 103 103 103 103 103 103 103 
103 103 103 103 103 103 103 103 103 103 103 103 103 103 103 103 103 103 
103 103 103 103 103 103 103 103 103 103 104 101 103 103 103 102 102 103 
103 103 103 103 103 104 104 101 106 160 100 104 102 102 103 103 103 103 
103 103 103 103 103 103 103 103 103 103 103 103 103 103 103 103 103 103 
103 103 103 103 103 103 103 103 103 103 103 103 103 103 103 103 103 103 
103 103 103 103 103 103 103 103 103 103 103 103 103 103 103 103 103 103 
103 103 103 103 103 103 103 103 103 103 112  92  77 114 120 105 155 136 
102 104 101 104 101 104 101 103 103 103 103 103 103 103 103 103 103 102 
104 104 101 103 103 103 103 103 103 103 103 103 103 103 103 103 103 103 
103 103 103 103 103 103 103 103 103 103 103 103 103 103 103 103 103 103 
103 103 103 103 103 103 103 103 103 103 103 103 103 103 103 103 103 103 
103 103 103 103 103 103 103 103 103 103 103 103 103 103 103 103 103 103 
103 103 103 103 103 103 103 103 103 103 103 103 103 103 103 103 103 103 
103 103 103 103 103 103 103 103 103 103 103 103 103 103 103 103 103 103 
103 103 103 103 103 103 103 103 103 103 103 103 103 103 103 103 103 103 
103 103 103 103 103 103 103 103 103 103 103 103 103 103 103 103 103 103 
103 103 103 103 103 103 103 103 103 103 103 103 103 103 103 103 103 103 
103 103 103 103 103 103 103 103 103 103 103 103 103 103 103 103 103 205 
