P2
# Written by pgmwrite
 360  240
 255
255 252 249 246 243 240 238 236 235 233 232 231 231 230 230 229 229 229 
229 229 229 229 229 229 229 229 229 229 229 229 229 229 229 229 229 229 
229 229 229 229 229 229 229 229 229 229 229 229 229 229 229 229 229 229 
229 230 230 230 230 231 231 232 232 233 233 234 235 236 236 237 238 239 
239 240 240 241 239 241 240 241 240 239 238 239 236 223 208 236 235 234 
233 232 232 232 231 231 230 230 230 229 229 229 229 229 229 229 229 229 
229 229 229 229 229 229 229 230 229 230 230 230 230 230 230 230 230 230 
230 230 230 230 229 229 229 229 229 229 229 229 229 229 229 229 229 229 
230 230 230 230 231 231 232 232 232 233 235 236 237 237 237 239 241 239 
242 240 241 241 242 240 241 239 241 238 239 236 238 234 236 234 234 233 
233 232 232 231 231 230 230 229 230 229 229 229 229 229 229 229 229 229 
229 229 229 229 229 229 229 229 229 229 229 229 229 229 229 229 229 229 
229 229 229 229 229 229 229 229 229 229 229 229 229 229 229 229 229 229 
229 229 229 229 229 229 229 229 229 229 229 229 229 229 229 229 229 229 
229 229 229 229 229 229 229 229 229 229 229 229 229 229 229 229 229 229 
229 229 229 229 229 229 229 229 229 229 229 229 229 229 229 229 229 229 
229 229 229 229 229 229 229 229 229 229 229 229 229 229 229 229 229 229 
229 229 229 229 229 229 229 229 229 229 229 229 229 229 229 229 229 229 
229 229 229 229 229 229 229 229 229 229 229 229 229 229 229 229 229 229 
229 229 229 230 230 231 231 232 233 235 236 238 240 243 246 249 252 255 
252 245 239 233 228 223 218 215 211 209 207 205 204 202 202 201 201 200 
200 200 200 200 200 200 200 200 200 200 200 200 200 200 200 200 200 200 
200 200 200 200 200 200 200 200 200 200 200 200 200 200 200 200 200 201 
201 201 202 202 203 204 205 205 207 208 209 209 212 212 215 215 218 219 
220 220 222 222 224 222 224 222 224 192 222 209 182 176 178 213 211 209 
209 208 206 205 204 203 203 202 202 201 201 201 201 200 200 200 200 200 
201 200 201 201 201 201 201 201 201 201 202 201 202 202 202 202 202 202 
202 201 201 201 201 201 201 201 201 201 201 201 201 200 201 201 201 201 
201 202 202 203 204 205 206 208 209 211 212 214 215 218 218 222 155 225 
222 226 222 227 223 225 222 225 220 221 217 219 213 215 212 212 209 209 
206 207 204 204 203 203 202 202 201 201 200 200 200 200 200 200 200 200 
200 200 200 200 200 200 200 200 200 200 200 200 200 200 200 200 200 200 
200 200 200 200 200 200 200 200 200 200 200 200 200 200 200 200 200 200 
200 200 200 200 200 200 200 200 200 200 200 200 200 200 200 200 200 200 
200 200 200 200 200 200 200 200 200 200 200 200 200 200 200 200 200 200 
200 200 200 200 200 200 200 200 200 200 200 200 200 200 200 200 200 200 
200 200 200 200 200 200 200 200 200 200 200 200 200 200 200 200 200 200 
200 200 200 200 200 200 200 200 200 200 200 200 200 200 200 200 200 200 
200 200 200 200 200 200 200 200 200 200 200 200 200 200 200 200 200 200 
200 201 201 202 202 204 205 207 209 211 215 218 223 228 233 239 245 252 
249 239 230 221 213 206 199 194 189 185 182 179 177 176 175 174 173 173 
173 172 172 172 172 172 172 172 172 172 172 172 172 172 172 172 172 172 
172 172 172 172 172 172 172 172 172 172 172 172 172 172 172 173 173 173 
174 174 175 176 176 178 179 181 182 184 185 188 190 193 194 197 198 202 
202 205 204 207 206 209 207 185  81  13 161 162 161 160 154 188 190 189 
186 184 181 180 179 177 176 175 175 174 174 173 173 173 173 173 173 173 
173 173 173 174 174 174 174 174 174 175 175 175 175 175 175 175 175 175 
175 175 174 174 174 174 174 174 173 173 173 173 173 173 173 173 173 174 
174 175 176 177 178 179 182 183 186 187 190 191 197 197 200 202  26  20 
127 207 212 207 211 205 210 204 207 200 203 195 198 192 193 187 188 184 
184 180 180 177 178 175 176 174 174 173 173 173 173 172 172 172 172 172 
172 172 172 172 172 172 172 172 172 172 172 172 172 172 172 172 172 172 
172 172 172 172 172 172 172 172 172 172 172 172 172 172 172 172 172 172 
172 172 172 172 172 172 172 172 172 172 172 172 172 172 172 172 172 172 
172 172 172 172 172 172 172 172 172 172 172 172 172 172 172 172 172 172 
172 172 172 172 172 172 172 172 172 172 172 172 172 172 172 172 172 172 
172 172 172 172 172 172 172 172 172 172 172 172 172 172 172 172 172 172 
172 172 172 172 172 172 172 172 172 172 172 172 172 172 172 172 172 172 
172 172 172 172 172 172 172 172 172 172 172 172 172 172 172 172 172 173 
173 173 174 175 176 177 179 182 185 189 194 199 206 213 221 230 239 249 
246 233 221 210 199 190 181 174 168 163 159 156 153 151 149 148 148 147 
147 146 146 146 146 146 146 146 146 146 146 146 146 146 146 146 146 146 
146 146 146 146 146 146 146 146 146 146 146 146 146 146 147 147 147 147 
148 149 150 151 152 153 155 157 159 161 165 166 170 172 176 177 182 183 
188 185 192 189 193 191 127   4  14   6  86 148 144 141 139 154 171 167 
165 161 159 157 155 153 152 151 150 149 148 148 147 147 147 147 147 147 
147 147 148 148 148 148 149 149 149 149 150 150 150 150 150 150 150 150 
150 149 149 149 149 149 148 148 148 148 148 147 147 147 147 148 148 148 
149 150 151 153 154 156 158 161 163 168 170 175 175 182 182 185  22   2 
  9  31 177 163 186 197 189 194 184 189 180 183 175 177 169 170 164 164 
159 159 155 155 152 152 149 150 148 148 147 147 147 147 146 146 146 146 
146 146 146 146 146 146 146 146 146 146 146 146 146 146 146 146 146 146 
146 146 146 146 146 146 146 146 146 146 146 146 146 146 146 146 146 146 
146 146 146 146 146 146 146 146 146 146 146 146 146 146 146 146 146 146 
146 146 146 146 146 146 146 146 146 146 146 146 146 146 146 146 146 146 
146 146 146 146 146 146 146 146 146 146 146 146 146 146 146 146 146 146 
146 146 146 146 146 146 146 146 146 146 146 146 146 146 146 146 146 146 
146 146 146 146 146 146 146 146 146 146 146 146 146 146 146 146 146 146 
146 146 146 146 146 146 146 146 146 146 146 146 146 146 146 146 146 147 
147 148 148 149 151 153 156 159 163 168 174 181 190 199 210 221 233 246 
243 228 213 199 186 175 165 156 149 143 138 134 130 128 126 125 124 123 
123 122 122 122 122 122 122 122 122 122 122 122 122 122 122 122 122 122 
122 122 122 122 122 122 122 122 122 122 122 122 122 122 123 123 123 124 
124 125 126 128 129 131 133 136 138 142 144 148 151 156 158 162 165 169 
170 176 174 180 178  52   0   3   1   1  12 139 127 126 120 122 152 148 
145 142 138 136 132 131 129 128 126 125 125 124 124 124 123 123 123 124 
124 124 124 125 125 125 125 126 126 127 126 127 127 127 127 127 127 127 
127 127 126 126 126 126 125 125 124 124 124 124 124 124 124 124 124 125 
126 127 128 130 132 135 138 141 145 148 153 156 163 164 172  93  23  19 
 13  17   0  98 149 154 185 174 178 169 172 160 164 155 156 147 148 141 
141 135 136 131 131 128 128 125 125 124 124 123 123 122 122 122 122 122 
122 122 122 122 122 122 122 122 122 122 122 122 122 122 122 122 122 122 
122 122 122 122 122 122 122 122 122 122 122 122 122 122 122 122 122 122 
122 122 122 122 122 122 122 122 122 122 122 122 122 122 122 122 122 122 
122 122 122 122 122 122 122 122 122 122 122 122 122 122 122 122 122 122 
122 122 122 122 122 122 122 122 122 122 122 122 122 122 122 122 122 122 
122 122 122 122 122 122 122 122 122 122 122 122 122 122 122 122 122 122 
122 122 122 122 122 122 122 122 122 122 122 122 122 122 122 122 122 122 
122 122 122 122 122 122 122 122 122 122 122 122 122 122 122 122 122 123 
123 124 125 126 128 130 134 138 143 149 156 165 175 186 199 213 228 243 
240 223 206 190 175 162 150 140 131 124 118 114 110 107 105 104 103 102 
101 101 101 100 100 100 100 100 100 100 100 100 100 100 100 100 100 100 
100 100 100 100 100 100 100 100 100 100 100 100 101 101 101 101 102 102 
103 104 105 107 109 111 114 116 120 123 127 131 135 138 145 147 149 147 
150 144 150 149  38  13   8  13   9  17  15 106 118 110 107 102 134 130 
128 124 120 117 114 111 109 107 106 105 104 103 103 102 102 102 102 102 
103 103 103 103 104 104 105 105 106 106 107 106 107 107 107 107 107 106 
107 106 106 105 105 105 104 104 104 103 103 103 103 102 103 103 104 104 
105 107 108 110 113 116 119 124 127 132 136 143 144 154 154   9  36  23 
 29  19  25  17  93 138 133 167 158 163 152 154 144 146 135 136 127 127 
119 120 113 114 109 109 105 106 103 103 102 102 101 101 101 101 100 100 
100 100 100 100 100 100 100 100 100 100 100 100 100 100 100 100 100 100 
100 100 100 100 100 100 100 100 100 100 100 100 100 100 100 100 100 100 
100 100 100 100 100 100 100 100 100 100 100 100 100 100 100 100 100 100 
100 100 100 100 100 100 100 100 100 100 100 100 100 100 100 100 100 100 
100 100 100 100 100 100 100 100 100 100 100 100 100 100 100 100 100 100 
100 100 100 100 100 100 100 100 100 100 100 100 100 100 100 100 100 100 
100 100 100 100 100 100 100 100 100 100 100 100 100 100 100 100 100 100 
100 100 100 100 100 100 100 100 100 100 100 100 100 100 100 101 101 101 
102 103 104 105 107 110 114 118 124 131 140 150 162 175 190 206 223 240 
238 218 199 181 165 150 137 126 116 108 101  96  92  89  87  85  84  83 
 82  82  82  81  81  81  81  81  81  81  81  81  81  81  81  81  81  81 
 81  81  81  81  81  81  81  81  81  81  81  81  81  82  82  82  83  84 
 84  86  87  89  91  93  96 100 103 108 111 116 121 127 126 100 101 108 
110 115 117   7  22  17  21  17  23  20  27  73 101 101  94  91 109 119 
112 109 104 101  97  93  92  90  88  86  85  84  84  84  83  83  83  84 
 84  85  84  86  85  87  86  88  87  89  88  89  89  90  89  90  89  89 
 89  89  88  88  87  87  86  86  85  85  84  84  84  84  84  85  85  86 
 87  89  91  93  96 100 104 108 114 116 125 128 136 139 135  34  37  39 
 28  36  25  36  25  85 127 115 156 145 150 136 138 125 128 116 117 107 
108 100 100  93  93  89  89  86  86  84  84  82  82  82  82  81  81  81 
 81  81  81  81  81  81  81  81  81  81  81  81  81  81  81  81  81  81 
 81  81  81  81  81  81  81  81  81  81  81  81  81  81  81  81  81  81 
 81  81  81  81  81  81  81  81  81  81  81  81  81  81  81  81  81  81 
 81  81  81  81  81  81  81  81  81  81  81  81  81  81  81  81  81  81 
 81  81  81  81  81  81  81  81  81  81  81  81  81  81  81  81  81  81 
 81  81  81  81  81  81  81  81  81  81  81  81  81  81  81  81  81  81 
 81  81  81  81  81  81  81  81  81  81  81  81  81  81  81  81  81  81 
 81  81  81  81  81  81  81  81  81  81  81  81  81  81  81  82  82  82 
 83  84  85  87  89  92  96 101 108 116 126 137 150 165 181 199 218 238 
236 215 194 174 156 140 126 113 102  94  87  81  76  73  70  69  67  66 
 66  65  65  65  65  65  65  65  65  64  64  64  64  64  64  64  64  64 
 64  64  64  64  64  64  65  65  65  65  65  65  65  65  65  66  66  67 
 68  69  71  73  75  78  82  85  89  94  99 104 109  80  59  23  14  15 
 31  48  37  30  24  28  24  28  26  33  35  12 101  91  86  78  87 106 
101  96  92  87  83  80  77  75  72  71  70  69  68  67  67  67  68  67 
 68  68  69  69  71  70  72  72  73  73  74  74  75  74  75  74  75  74 
 74  73  73  72  72  71  71  70  70  69  69  68  68  68  68  68  70  70 
 72  74  76  79  82  86  91  96 101 108 111 120 124 133  90  51  51  39 
 43  34  40  32  42  14  66  47  27  48  40  63  78 120 110 111  99 100 
 89  90  82  82  76  76  71  71  68  68  67  67  66  66  65  65  65  65 
 65  65  65  65  64  64  64  64  64  64  64  64  64  64  64  64  64  64 
 64  64  64  64  64  64  64  64  64  64  64  64  64  64  64  64  64  64 
 64  64  64  64  64  64  64  64  64  64  64  64  64  64  64  64  64  64 
 64  64  64  64  64  64  64  64  64  64  64  64  64  64  64  64  64  64 
 64  64  64  64  64  64  64  64  64  64  64  64  64  64  64  64  64  64 
 64  64  64  64  64  64  64  64  64  64  64  64  64  64  64  64  64  64 
 64  64  64  64  64  64  64  64  64  64  64  64  64  64  64  64  64  64 
 64  64  64  64  64  64  64  64  64  65  65  65  65  65  65  65  65  66 
 66  67  69  70  73  76  81  87  94 102 113 126 140 156 174 194 215 236 
235 211 189 168 149 131 116 102  91  82  74  68  63  60  57  55  53  52 
 52  51  51  51  51  51  50  50  50  50  50  50  50  50  50  50  50  50 
 50  50  50  50  50  50  50  50  50  51  51  51  51  51  51  52  52  53 
 54  56  58  60  62  65  69  73  78  83  54  35  86  77  72  60  54  46 
 46  40  40  32  33  28  32  30  34  35  43  45  90  85  77  72  64  97 
 92  86  81  76  72  68  65  62  60  58  57  55  55  54  54  54  54  54 
 54  55  55  57  57  57  58  59  60  61  60  62  61  63  62  62  62  62 
 60  62  60  60  59  58  57  57  56  55  55  55  55  55  55  56  56  58 
 59  62  64  67  71  76  80  86  92  98 105 111 120 123   4  61  50  51 
 41  46  36  46  36  49  46  58  50  66  64  80  81  99  52  27  95  83 
 83  73  72  66  66  60  60  56  56  54  54  52  52  51  51  51  51  51 
 51  50  50  50  50  50  50  50  50  50  50  50  50  50  50  50  50  50 
 50  50  50  50  50  50  50  50  50  50  50  50  50  50  50  50  50  50 
 50  50  50  50  50  50  50  50  50  50  50  50  50  50  50  50  50  50 
 50  50  50  50  50  50  50  50  50  50  50  50  50  50  50  50  50  50 
 50  50  50  50  50  50  50  50  50  50  50  50  50  50  50  50  50  50 
 50  50  50  50  50  50  50  50  50  50  50  50  50  50  50  50  50  50 
 50  50  50  50  50  50  50  50  50  50  50  50  50  50  50  50  50  50 
 50  50  50  50  50  50  50  50  50  50  50  50  51  51  51  51  51  52 
 52  53  55  57  60  63  68  74  82  91 102 116 131 149 168 189 211 235 
233 209 185 163 143 124 108  94  82  72  64  57  52  48  45  43  42  41 
 40  40  39  39  39  39  39  39  39  39  39  39  39  39  39  39  39  39 
 39  39  39  39  39  39  39  39  39  39  39  39  39  39  40  40  41  42 
 43  44  46  49  51  55  59  63  68  73  36  94  86  81  70  65  58  56 
 47  45  38  39  33  35  32  38  35  43  44  54  17  80  73  65  59  70 
 85  78  73  68  62  60  55  53  49  48  46  45  44  43  43  43  43  43 
 44  44  45  46  47  47  49  49  51  50  52  52  53  51  53  52  53  51 
 52  50  51  50  49  48  48  46  45  44  45  44  44  44  45  45  46  47 
 50  51  55  58  63  67  73  79  84  92  99 106 113 101  77  58  59  47 
 51  39  48  39  50  44  56  49  64  60  75  76  89  89 104  26  76  80 
 69  69  57  59  52  52  47  47  43  43  41  41  40  40  39  39  39  39 
 39  39  39  39  39  39  39  39  39  39  39  39  39  39  39  39  39  39 
 39  39  39  39  39  39  39  39  39  39  39  39  39  39  39  39  39  39 
 39  39  39  39  39  39  39  39  39  39  39  39  39  39  39  39  39  39 
 39  39  39  39  39  39  39  39  39  39  39  39  39  39  39  39  39  39 
 39  39  39  39  39  39  39  39  39  39  39  39  39  39  39  39  39  39 
 39  39  39  39  39  39  39  39  39  39  39  39  39  39  39  39  39  39 
 39  39  39  39  39  39  39  39  39  39  39  39  39  39  39  39  39  39 
 39  39  39  39  39  39  39  39  39  39  39  39  39  39  39  39  40  40 
 41  42  43  45  48  52  57  64  72  82  94 108 124 143 163 185 209 233 
232 207 182 159 138 118 101  87  74  64  55  49  43  39  36  34  32  31 
 31  30  30  30  29  29  29  29  29  29  29  29  29  29  29  29  29  29 
 29  29  29  29  29  29  29  29  29  29  29  30  30  30  30  31  32  33 
 34  35  37  40  43  46  50  55  60  66  72  39  96  86  78  71  66  58 
 54  47  45  39  40  33  38  35  42  40  47  50  44  72  69  63  55  52 
 77  73  67  62  58  52  49  44  43  39  38  36  36  35  34  34  34  35 
 35  36  36  38  37  39  40  41  42  44  43  44  44  46  45  46  44  46 
 44  44  43  43  40  41  38  39  35  37  36  36  35  36  36  37  37  40 
 41  45  47  52  56  62  67  74  81  88  96 102 113   1  68  66  54  55 
 44  50  40  49  40  53  46  62  57  73  68  85  85 101  95  37  38  29 
 41  41  52  46  47  40  40  36  36  33  33  31  31  30  30  30  30  29 
 29  29  29  29  29  29  29  29  29  29  29  29  29  29  29  29  29  29 
 29  29  29  29  29  29  29  29  29  29  29  29  29  29  29  29  29  29 
 29  29  29  29  29  29  29  29  29  29  29  29  29  29  29  29  29  29 
 29  29  29  29  29  29  29  29  29  29  29  29  29  29  29  29  29  29 
 29  29  29  29  29  29  29  29  29  29  29  29  29  29  29  29  29  29 
 29  29  29  29  29  29  29  29  29  29  29  29  29  29  29  29  29  29 
 29  29  29  29  29  29  29  29  29  29  29  29  29  29  29  29  29  29 
 29  29  29  29  29  29  29  29  29  29  29  29  29  29  30  30  30  31 
 31  32  34  36  39  43  49  55  64  74  87 101 118 138 159 182 207 232 
231 205 179 156 134 114  96  81  68  57  49  42  36  32  29  27  25  24 
 23  23  22  22  22  22  22  22  22  22  22  22  22  22  22  22  22  22 
 22  22  22  22  22  22  22  22  22  22  22  22  22  22  23  23  24  25 
 26  28  30  32  35  39  43  48  54  60  66  73  85  91  83  74  66  60 
 53  50  43  42  37  39  35  40  38  45  46  54  60  43  71  60  54  46 
 67  72  64  59  52  49  43  41  36  35  31  31  29  28  28  27  28  28 
 29  29  31  31  32  32  34  36  38  31  38  39  40  40  40  40  41  38 
 40  38  38  36  34  34  33  31  32  29  30  29  30  29  30  30  33  33 
 37  38  44  47  53  57  65  71  79  85  93 104 108  60  71  60  60  49 
 52  42  49  40  51  44  57  52  68  64  82  77  98 101  15  46  30  28 
 16  14  38  43  36  36  31  30  27  27  24  24  23  23  22  22  22  22 
 22  22  22  22  22  22  22  22  22  22  22  22  22  22  22  22  22  22 
 22  22  22  22  22  22  22  22  22  22  22  22  22  22  22  22  22  22 
 22  22  22  22  22  22  22  22  22  22  22  22  22  22  22  22  22  22 
 22  22  22  22  22  22  22  22  22  22  22  22  22  22  22  22  22  22 
 22  22  22  22  22  22  22  22  22  22  22  22  22  22  22  22  22  22 
 22  22  22  22  22  22  22  22  22  22  22  22  22  22  22  22  22  22 
 22  22  22  22  22  22  22  22  22  22  22  22  22  22  22  22  22  22 
 22  22  22  22  22  22  22  22  22  22  22  22  22  22  22  22  23  23 
 24  25  27  29  32  36  42  49  57  68  81  96 114 134 156 179 205 231 
231 204 177 153 130 110  92  76  63  52  43  36  31  26  23  21  19  18 
 17  17  16  16  16  16  16  16  16  16  16  16  16  16  16  16  16  16 
 16  16  16  16  16  16  16  16  16  16  16  16  16  17  17  17  18  19 
 20  22  24  27  30  34  38  43  49  55  62  68   3  94  85  76  69  61 
 56  49  46  40  40  36  38  37  41  42  47  53  60  50  72  62  55  43 
 43  67  64  54  52  44  42  35  34  29  29  25  25  23  23  23  23  23 
 23  25  25  27  28  13  13   7   5   2   4   0   9  16  31  38  36  21 
  3   4  11   3  22  11   5   7  24  27  25  25  24  25  25  27  27  31 
 32  37  39  46  49  57  62  71  78  86  94 102  13  83  67  65  53  54 
 44  49  40  48  42  54  48  62  58  73  75  93  91  77  49  32  33  18 
 17  33  43  34  34  28  27  23  22  20  19  18  18  17  17  16  16  16 
 16  16  16  16  16  16  16  16  16  16  16  16  16  16  16  16  16  16 
 16  16  16  16  16  16  16  16  16  16  16  16  16  16  16  16  16  16 
 16  16  16  16  16  16  16  16  16  16  16  16  16  16  16  16  16  16 
 16  16  16  16  16  16  16  16  16  16  16  16  16  16  16  16  16  16 
 16  16  16  16  16  16  16  16  16  16  16  16  16  16  16  16  16  16 
 16  16  16  16  16  16  16  16  16  16  16  16  16  16  16  16  16  16 
 16  16  16  16  16  16  16  16  16  16  16  16  16  16  16  16  16  16 
 16  16  16  16  16  16  16  16  16  16  16  16  16  16  16  16  17  17 
 18  19  21  23  26  31  36  43  52  63  76  92 110 130 153 177 204 231 
230 202 176 151 128 107  89  73  60  48  39  32  26  22  19  16  15  14 
 13  12  12  12  11  11  11  11  11  11  11  11  11  11  11  11  11  11 
 11  11  11  11  11  11  11  11  11  11  11  12  12  12  12  13  14  15 
 16  18  20  22  25  29  34  39  45  52  58  65  74  93  88  77  71  64 
 56  52  45  43  38  38  35  38  37  42  46  52  58  67  16  60  53  48 
 36  56  60  58  48  46  38  37  30  29  24  24  21  21  19  19  19  20 
 21  21  23  23  26  12  25  25  22  24  19  11   4   5   6   5  20  21 
 20  20  22  14  11  12  11   5  25  23  23  21  22  21  24  23  27  27 
 32  34  40  43  51  55  65  71  80  87  96  88  89  74  69  58  56  47 
 49  40  46  39  49  43  57  53  68  66  83  85 107  14  39  37  22  20 
 16  45  35  35  27  26  21  20  17  16  14  14  13  13  12  12  12  12 
 11  11  11  11  11  11  11  11  11  11  11  11  11  11  11  11  11  11 
 11  11  11  11  11  11  11  11  11  11  11  11  11  11  11  11  11  11 
 11  11  11  11  11  11  11  11  11  11  11  11  11  11  11  11  11  11 
 11  11  11  11  11  11  11  11  11  11  11  11  11  11  11  11  11  11 
 11  11  11  11  11  11  11  11  11  11  11  11  11  11  11  11  11  11 
 11  11  11  11  11  11  11  11  11  11  11  11  11  11  11  11  11  11 
 11  11  11  11  11  11  11  11  11  11  11  11  11  11  11  11  11  11 
 11  11  11  11  11  11  11  11  11  11  11  11  11  11  12  12  12  13 
 14  15  16  19  22  26  32  39  48  60  73  89 107 128 151 176 202 230 
230 202 175 149 126 105  87  70  57  45  36  29  23  19  16  13  11  10 
  9   9   8   8   8   8   8   8   8   8   8   8   8   8   8   8   8   8 
  8   8   8   8   8   8   8   8   8   8   8   8   8   9   9  10  10  11 
 12  14  16  19  22  26  31  35  42  48  55  63  70  19  94  82  71  64 
 59  51  47  41  39  36  36  35  38  40  45  49  56  63  52  67  59  47 
 43  36  67  53  53  43  42  33  33  26  26  21  21  18  18  17  17  18 
 18  20  20  22  23   4  28  24  25  21  23  20  20  14  20  21  19  21 
 22  21  25   9  11  12  15   2  21  22  20  21  19  21  20  24  24  29 
 30  36  38  46  50  59  64  75  79  91  99   1  80  72  63  58  50  50 
 41  45  38  46  40  52  48  62  60  77  75  94  60  53  44  28  26  11 
 47  38  36  27  27  20  19  15  15  12  12  10  10   9   9   8   8   8 
  8   8   8   8   8   8   8   8   8   8   8   8   8   8   8   8   8   8 
  8   8   8   8   8   8   8   8   8   8   8   8   8   8   8   8   8   8 
  8   8   8   8   8   8   8   8   8   8   8   8   8   8   8   8   8   8 
  8   8   8   8   8   8   8   8   8   8   8   8   8   8   8   8   8   8 
  8   8   8   8   8   8   8   8   8   8   8   8   8   8   8   8   8   8 
  8   8   8   8   8   8   8   8   8   8   8   8   8   8   8   8   8   8 
  8   8   8   8   8   8   8   8   8   8   8   8   8   8   8   8   8   8 
  8   8   8   8   8   8   8   8   8   8   8   8   8   8   8   8   9   9 
 10  11  13  16  19  23  29  36  45  57  70  87 105 126 149 175 202 230 
229 201 174 148 125 104  85  69  55  43  34  27  21  16  13  11   9   8 
  7   6   6   6   6   6   5   5   5   5   5   5   5   5   5   5   5   5 
  5   5   5   5   5   5   5   5   5   6   6   6   6   6   7   7   8   9 
 10  11  13  16  19  23  27  33  39  46  53  61  67  72  76  80  75  65 
 58  52  46  42  37  36  34  35  36  38  43  47  55  58  71   5  61  54 
 41  36  45  63  50  49  39  39  30  30  23  23  19  19  17  17  16  17 
 18  18  20  21  23   0  27  26  23  23  20  19  19  20  17  19  17  20 
 19  22  23  10  11  13  16   8  22  20  21  19  21  19  22  22  27  27 
 33  35  43  46  55  59  70  75  85  93  78  90  76  67  63  53  51  43 
 44  37  43  37  47  43  56  54  68  69  85  87  15  52  35  32  17  35 
 41  40  30  28  21  20  15  14  11  10   8   8   7   7   6   6   6   6 
  6   6   5   5   5   5   5   5   5   5   5   5   5   5   5   5   5   5 
  5   5   5   5   5   5   5   5   5   5   5   5   5   5   5   5   5   5 
  5   5   5   5   5   5   5   5   5   5   5   5   5   5   5   5   5   5 
  5   5   5   5   5   5   5   5   5   5   5   5   5   5   5   5   5   5 
  5   5   5   5   5   5   5   5   5   5   5   5   5   5   5   5   5   5 
  5   5   5   5   5   5   5   5   5   5   5   5   5   5   5   5   5   5 
  5   5   5   5   5   5   5   5   5   5   5   5   5   5   5   5   5   5 
  5   5   5   5   5   5   5   5   5   5   5   5   6   6   6   6   6   7 
  8   9  11  13  16  21  27  34  43  55  69  85 104 125 148 174 201 229 
229 201 173 148 124 103  84  67  53  42  32  25  19  15  11   9   7   6 
  5   5   4   4   4   4   4   4   4   4   4   4   4   4   4   4   4   4 
  4   4   4   4   4   4   4   4   4   4   4   4   4   4   5   5   6   7 
  8   9  12  14  17  21  26  30  37  43  51  59  67  76  34  86  76  66 
 59  52  47  41  38  35  34  33  35  37  39  46  50  59  61  72  41  52 
 49  36  35  51  59  46  47  35  35  27  28  21  22  18  18  16  17  17 
 17  18  19  21  21   6  28  26  24  21  21  18  19  18  18  17  19  18 
 20  20  23  10  12  12  17  16  21  22  19  21  19  22  21  26  25  32 
 32  41  41  52  55  65  70  81  87  96  66  80  72  64  57  53  45  44 
 37  41  35  43  39  50  48  62  61  77  81  85  52  42  40  24  22  44 
 43  34  31  23  22  16  15  11  10   7   7   6   5   5   4   4   4   4 
  4   4   4   4   4   4   4   4   4   4   4   4   4   4   4   4   4   4 
  4   4   4   4   4   4   4   4   4   4   4   4   4   4   4   4   4   4 
  4   4   4   4   4   4   4   4   4   4   4   4   4   4   4   4   4   4 
  4   4   4   4   4   4   4   4   4   4   4   4   4   4   4   4   4   4 
  4   4   4   4   4   4   4   4   4   4   4   4   4   4   4   4   4   4 
  4   4   4   4   4   4   4   4   4   4   4   4   4   4   4   4   4   4 
  4   4   4   4   4   4   4   4   4   4   4   4   4   4   4   4   4   4 
  4   4   4   4   4   4   4   4   4   4   4   4   4   4   4   4   5   5 
  6   7   9  11  15  19  25  32  42  53  67  84 103 124 148 173 201 229 
229 200 173 147 123 102  83  66  52  41  31  24  18  14  10   8   6   5 
  4   3   3   3   3   3   2   2   2   2   2   2   2   2   2   2   2   2 
  2   2   2   2   2   2   2   2   2   3   3   3   3   3   3   4   4   5 
  6   8  10  12  15  19  23  29  34  42  47  57  64  74  60 100  78  68 
 60  53  47  42  37  35  33  32  34  35  39  41  50  52  63  65  50  68 
 47  47  30  39  56  55  43  45  33  35  26  27  21  21  18  18  17  17 
 18  18  20  21  23   8  28  25  21  22  19  19  17  18  16  18  17  19 
 18  21  21  10  11  12  16  20  24  21  22  20  23  21  26  25  31  31 
 38  40  50  52  62  67  79  83  94  18  85  78  66  61  55  48  45  38 
 40  34  40  36  45  43  55  55  70  71  91  27  55  47  32  26  32  49 
 38  36  26  24  17  16  11  10   7   7   5   5   4   4   3   3   3   3 
  3   2   2   2   2   2   2   2   2   2   2   2   2   2   2   2   2   2 
  2   2   2   2   2   2   2   2   2   2   2   2   2   2   2   2   2   2 
  2   2   2   2   2   2   2   2   2   2   2   2   2   2   2   2   2   2 
  2   2   2   2   2   2   2   2   2   2   2   2   2   2   2   2   2   2 
  2   2   2   2   2   2   2   2   2   2   2   2   2   2   2   2   2   2 
  2   2   2   2   2   2   2   2   2   2   2   2   2   2   2   2   2   2 
  2   2   2   2   2   2   2   2   2   2   2   2   2   2   2   2   2   2 
  2   2   2   2   2   2   2   2   2   2   2   2   3   3   3   3   3   4 
  5   6   8  10  14  18  24  31  41  52  66  83 102 123 147 173 200 229 
229 200 173 147 123 101  82  66  52  40  31  23  17  13   9   7   5   4 
  3   3   2   2   2   2   2   2   2   2   2   2   2   2   2   2   2   2 
  2   2   2   2   2   2   2   2   2   2   2   2   2   2   3   3   4   4 
  5   7   9  11  14  17  22  27  33  39  47  55  64  72  82  56  80  69 
 61  54  47  42  37  34  32  32  31  35  35  42  43  53  53  67  71  21 
 59  42  44  26  49  52  54  41  43  32  34  24  26  21  22  19  19  18 
 19  20  21  23  23  12  28  22  21  20  19  17  17  16  16  15  17  16 
 18  18  19   8  10  10  16  26  23  24  22  24  22  27  25  31  31  39 
 39  49  50  61  64  76  78  91  63  98  81  71  65  57  49  45  40  40 
 34  38  34  41  39  49  48  62  64  79  89  48  56  40  36  22  56  44 
 40  30  28  19  18  13  12   8   7   5   5   3   3   2   2   2   2   2 
  2   2   2   2   2   2   2   2   2   2   2   2   2   2   2   2   2   2 
  2   2   2   2   2   2   2   2   2   2   2   2   2   2   2   2   2   2 
  2   2   2   2   2   2   2   2   2   2   2   2   2   2   2   2   2   2 
  2   2   2   2   2   2   2   2   2   2   2   2   2   2   2   2   2   2 
  2   2   2   2   2   2   2   2   2   2   2   2   2   2   2   2   2   2 
  2   2   2   2   2   2   2   2   2   2   2   2   2   2   2   2   2   2 
  2   2   2   2   2   2   2   2   2   2   2   2   2   2   2   2   2   2 
  2   2   2   2   2   2   2   2   2   2   2   2   2   2   2   2   3   3 
  4   5   7   9  13  17  23  31  40  52  66  82 101 123 147 173 200 229 
229 200 172 146 122 101  82  65  51  40  30  23  17  12   9   6   5   3 
  3   2   2   1   1   1   1   1   1   1   1   1   1   1   1   1   1   1 
  1   1   1   1   1   1   1   1   1   1   1   1   1   2   2   2   3   4 
  5   6   8  10  13  16  20  26  31  38  44  53  60  70  79  19  81  71 
 63  56  48  42  38  34  33  30  32  31  37  36  45  44  57  56  70  68 
 29  57  39  44  24  59  51  54  40  43  31  33  26  27  22  22  20  21 
 21  21  23  23  24  12  26  23  19  18  17  17  15  15  14  15  14  16 
 16  18  16   8   7  11  12  26  25  24  27  24  28  26  32  31  39  39 
 47  47  60  62  74  76  88  92  67  85  76  68  60  53  47  42  40  35 
 37  33  38  35  44  44  55  58  70  76  57  67  48  43  28  41  50  44 
 35  31  23  21  15  13   9   8   6   5   3   3   2   2   2   1   1   1 
  1   1   1   1   1   1   1   1   1   1   1   1   1   1   1   1   1   1 
  1   1   1   1   1   1   1   1   1   1   1   1   1   1   1   1   1   1 
  1   1   1   1   1   1   1   1   1   1   1   1   1   1   1   1   1   1 
  1   1   1   1   1   1   1   1   1   1   1   1   1   1   1   1   1   1 
  1   1   1   1   1   1   1   1   1   1   1   1   1   1   1   1   1   1 
  1   1   1   1   1   1   1   1   1   1   1   1   1   1   1   1   1   1 
  1   1   1   1   1   1   1   1   1   1   1   1   1   1   1   1   1   1 
  1   1   1   1   1   1   1   1   1   1   1   1   1   1   1   2   2   3 
  3   5   6   9  12  17  23  30  40  51  65  82 101 122 146 172 200 229 
229 200 172 146 122 101  82  65  51  39  30  22  16  12   8   6   4   3 
  2   2   1   1   1   1   1   1   1   1   1   1   1   1   1   1   1   1 
  1   1   1   1   1   1   1   1   1   1   1   1   1   1   2   2   2   3 
  4   5   7   9  12  15  19  24  30  36  43  51  59  68  78  57  76  74 
 65  57  49  43  38  35  31  32  29  33  31  39  37  49  47  62  60  76 
 67  33  55  34  40  23  64  50  53  40  42  32  34  27  28  24  24  23 
 23  23  24  26  26  14  25  21  19  17  16  14  14  13  13  12  14  13 
 15  15  16   4   6   7   8  30  28  29  27  30  28  34  32  40  39  48 
 48  59  60  72  75  86  91  38  93  78  70  63  59  49  46  42  37  37 
 32  36  33  41  40  50  51  63  68  82   6  57  51  36  31  46  52  40 
 37  27  25  18  16  11  10   6   6   4   3   2   2   1   1   1   1   1 
  1   1   1   1   1   1   1   1   1   1   1   1   1   1   1   1   1   1 
  1   1   1   1   1   1   1   1   1   1   1   1   1   1   1   1   1   1 
  1   1   1   1   1   1   1   1   1   1   1   1   1   1   1   1   1   1 
  1   1   1   1   1   1   1   1   1   1   1   1   1   1   1   1   1   1 
  1   1   1   1   1   1   1   1   1   1   1   1   1   1   1   1   1   1 
  1   1   1   1   1   1   1   1   1   1   1   1   1   1   1   1   1   1 
  1   1   1   1   1   1   1   1   1   1   1   1   1   1   1   1   1   1 
  1   1   1   1   1   1   1   1   1   1   1   1   1   1   1   1   2   2 
  3   4   6   8  12  16  22  30  39  51  65  82 101 122 146 172 200 229 
229 200 172 146 122 100  81  65  51  39  30  22  16  12   8   6   4   3 
  2   1   1   1   1   1   0   0   0   0   0   0   0   0   0   0   0   0 
  0   0   0   0   0   1   0   1   1   1   1   1   1   1   1   2   2   3 
  4   5   6   9  11  14  18  23  28  35  41  49  57  67  74  79  75  72 
 67  59  51  44  40  34  33  29  32  29  35  32  42  39  53  48  64  61 
 80  51  44  55  34  41  28  65  49  52  39  42  33  34  29  29  26  26 
 25  26  27  27  29  13  21  19  17  15  14  14  12  12  11  12  11  13 
 12  14  13   4   1   6   3  31  33  30  33  31  36  34  41  40  49  49 
 59  59  71  73  83  88   3  93  80  77  66  61  54  48  43  39  38  33 
 35  32  38  37  45  46  57  60  75  81  23  59  44  38  27  59  46  42 
 32  29  21  18  13  11   8   7   4   4   2   2   1   1   1   1   1   1 
  0   0   0   0   0   0   0   0   0   0   0   0   0   0   0   0   0   0 
  0   0   0   0   0   0   0   0   0   0   0   0   0   0   0   0   0   0 
  0   0   0   0   0   0   0   0   0   0   0   0   0   0   0   0   0   0 
  0   0   0   0   0   0   0   0   0   0   0   0   0   0   0   0   0   0 
  0   0   0   0   0   0   0   0   0   0   0   0   0   0   0   0   0   0 
  0   0   0   0   0   0   0   0   0   0   0   0   0   0   0   0   0   0 
  0   0   0   0   0   0   0   0   0   0   0   0   0   0   0   0   0   0 
  0   0   0   0   0   0   0   0   0   0   0   0   1   1   1   1   1   2 
  3   4   6   8  12  16  22  30  39  51  65  81 100 122 146 172 200 229 
229 200 172 146 122 100  81  65  51  39  29  22  16  11   8   6   4   3 
  2   1   1   1   0   0   0   0   0   0   0   0   0   0   0   0   0   0 
  0   0   0   0   0   0   0   0   1   1   1   1   1   1   1   2   2   3 
  3   5   6   8  10  13  17  22  27  33  39  47  56  65  74  82  41  79 
 68  61  52  46  40  37  32  33  29  34  29  38  34  46  41  57  50  70 
 62  84  48  45  51  33  37  30  63  48  52  41  42  35  36  31  31  29 
 29  29  29  30  30  13  20  18  16  14  13  11  11  10  10   9  10  10 
 12  11  14   0   2   1   5  36  34  35  34  39  37  43  42  50  49  59 
 60  71  71  84  86   2  98  81  79  68  65  56  52  46  43  39  35  36 
 32  37  35  42  42  52  54  67  72  91  60  53  46  30  50  53  48  37 
 33  25  22  16  14   9   8   5   4   3   2   2   1   1   1   0   0   0 
  0   0   0   0   0   0   0   0   0   0   0   0   0   0   0   0   0   0 
  0   0   0   0   0   0   0   0   0   0   0   0   0   0   0   0   0   0 
  0   0   0   0   0   0   0   0   0   0   0   0   0   0   0   0   0   0 
  0   0   0   0   0   0   0   0   0   0   0   0   0   0   0   0   0   0 
  0   0   0   0   0   0   0   0   0   0   0   0   0   0   0   0   0   0 
  0   0   0   0   0   0   0   0   0   0   0   0   0   0   0   0   0   0 
  0   0   0   0   0   0   0   0   0   0   0   0   0   0   0   0   0   0 
  0   0   0   0   0   0   0   0   0   0   0   0   0   0   1   1   1   2 
  3   4   6   8  11  16  22  29  39  51  65  81 100 122 146 172 200 229 
229 200 172 146 122 100  81  65  51  39  29  22  16  11   8   6   4   3 
  2   1   1   1   0   0   0   0   0   0   0   0   0   0   0   0   0   0 
  0   0   0   0   0   0   0   1   0   1   1   1   1   1   1   2   2   3 
  3   4   6   7  10  13  16  20  26  31  38  46  54  63  72  80  24  85 
 71  62  54  47  43  36  36  30  34  29  36  31  42  36  50  43  61  54 
 73  64  85  34  44  52  30  37  36  64  49  53  43  44  37  37  34  33 
 32  32  32  33  34  10  17  17  13  12  11   9   9   9   8   8   8   9 
  8  10  12   2   3   1   2  37  40  36  42  40  45  44  52  51  60  60 
 70  71  84  84  33 100  86  83  72  68  60  55  49  46  41  38  37  34 
 36  34  40  39  48  49  61  65  77  63  68  56  40  35  58  54  43  38 
 29  26  19  15  11  10   7   5   4   3   2   2   1   1   0   0   0   0 
  0   0   0   0   0   0   0   0   0   0   0   0   0   0   0   0   0   0 
  0   0   0   0   0   0   0   0   0   0   0   0   0   0   0   0   0   0 
  0   0   0   0   0   0   0   0   0   0   0   0   0   0   0   0   0   0 
  0   0   0   0   0   0   0   0   0   0   0   0   0   0   0   0   0   0 
  0   0   0   0   0   0   0   0   0   0   0   0   0   0   0   0   0   0 
  0   0   0   0   0   0   0   0   0   0   0   0   0   0   0   0   0   0 
  0   0   0   0   0   0   0   0   0   0   0   0   0   0   0   0   0   0 
  0   0   0   0   0   0   0   0   0   0   0   0   0   0   1   1   1   2 
  3   4   6   8  11  16  22  29  39  51  65  81 100 122 146 172 200 229 
229 200 172 146 122 100  81  65  50  39  29  22  16  11   8   5   4   2 
  2   1   1   0   0   0   0   0   0   0   0   0   0   0   0   0   0   0 
  0   0   0   0   0   0   1   0   1   1   1   1   1   1   1   2   2   3 
  3   4   5   7   9  12  15  20  24  31  37  45  52  60  69  80  83  90 
 72  64  55  50  43  40  33  36  30  35  30  38  33  46  37  53  46  65 
 54  76  64  88  46  42  48  31  36  33  64  51  53  45  44  39  39  37 
 35  35  34  36  36   8  16  13  12   9   9   8   8   6   7   6   7   6 
  7   7  11   3   5   4   1  40  40  45  43  47  47  54  53  62  60  72 
 72  82  83  13 103  87  86  74  72  63  59  54  50  46  39  39  35  37 
 34  37  36  45  45  56  57  71  79  14  67  48  41  35  60  49  44  34 
 30  22  19  14  12   8   7   4   4   2   2   1   1   1   0   0   0   0 
  0   0   0   0   0   0   0   0   0   0   0   0   0   0   0   0   0   0 
  0   0   0   0   0   0   0   0   0   0   0   0   0   0   0   0   0   0 
  0   0   0   0   0   0   0   0   0   0   0   0   0   0   0   0   0   0 
  0   0   0   0   0   0   0   0   0   0   0   0   0   0   0   0   0   0 
  0   0   0   0   0   0   0   0   0   0   0   0   0   0   0   0   0   0 
  0   0   0   0   0   0   0   0   0   0   0   0   0   0   0   0   0   0 
  0   0   0   0   0   0   0   0   0   0   0   0   0   0   0   0   0   0 
  0   0   0   0   0   0   0   0   0   0   0   0   0   0   0   1   1   2 
  2   4   5   8  11  16  22  29  39  50  65  81 100 122 146 172 200 229 
229 200 172 146 122 100  81  65  50  39  29  22  16  11   8   5   4   2 
  2   1   1   0   0   0   0   0   0   0   0   0   0   0   0   0   0   0 
  0   0   0   0   0   1   1   1   1   1   1   1   1   2   2   2   2   3 
  4   4   6   7   9  12  15  19  24  29  36  42  51  59  69  77  86  72 
 74  66  58  50  47  40  39  33  37  30  37  33  42  34  49  41  58  48 
 68  58  79  68  88  42  38  48  31  35  38  64  53  53  47  47  43  41 
 40  40  39  39  40   3  11  12   9   8   6   7   5   5   4   5   4   5 
  4   6   7   1   9   8   7  37  49  45  51  50  56  54  63  62  73  70 
 82  82   7 100  89  88  77  75  64  64  55  54  48  45  42  38  40  36 
 39  37  43  44  52  53  65  68  88  33  58  50  36  42  56  51  40  35 
 27  23  17  14  10   8   6   5   3   2   1   1   1   1   0   0   0   0 
  0   0   0   0   0   0   0   0   0   0   0   0   0   0   0   0   0   0 
  0   0   0   0   0   0   0   0   0   0   0   0   0   0   0   0   0   0 
  0   0   0   0   0   0   0   0   0   0   0   0   0   0   0   0   0   0 
  0   0   0   0   0   0   0   0   0   0   0   0   0   0   0   0   0   0 
  0   0   0   0   0   0   0   0   0   0   0   0   0   0   0   0   0   0 
  0   0   0   0   0   0   0   0   0   0   0   0   0   0   0   0   0   0 
  0   0   0   0   0   0   0   0   0   0   0   0   0   0   0   0   0   0 
  0   0   0   0   0   0   0   0   0   0   0   0   0   0   0   1   1   2 
  2   4   5   8  11  16  22  29  39  50  65  81 100 122 146 172 200 229 
229 200 172 146 122 100  81  65  50  39  29  22  16  11   8   5   4   2 
  2   1   1   0   0   0   0   0   0   0   0   0   0   0   0   0   0   0 
  0   0   0   0   1   1   1   1   1   1   2   1   2   2   2   2   3   3 
  4   5   5   7   9  12  14  19  23  29  33  41  49  58  66  75  85  48 
 75  68  59  54  46  45  38  41  33  39  31  43  35  49  38  53  43  62 
 52  72  61  80  69  90  60  34  47  30  35  34  63  55  56  50  49  46 
 45  44  43  42  43   6  10   8   7   6   5   4   4   3   3   2   3   1 
  3   1   5   4  10  13   9  38  49  54  52  59  58  66  63  74  71  83 
 82  10 105  91  90  79  78  69  69  60  58  51  52  45  42  43  39  40 
 38  43  42  49  49  60  63  74  83  60  56  46  36  51  58  46  41  32 
 27  20  17  12  10   7   6   4   3   2   2   1   1   0   0   0   0   0 
  0   0   0   0   0   0   0   0   0   0   0   0   0   0   0   0   0   0 
  0   0   0   0   0   0   0   0   0   0   0   0   0   0   0   0   0   0 
  0   0   0   0   0   0   0   0   0   0   0   0   0   0   0   0   0   0 
  0   0   0   0   0   0   0   0   0   0   0   0   0   0   0   0   0   0 
  0   0   0   0   0   0   0   0   0   0   0   0   0   0   0   0   0   0 
  0   0   0   0   0   0   0   0   0   0   0   0   0   0   0   0   0   0 
  0   0   0   0   0   0   0   0   0   0   0   0   0   0   0   0   0   0 
  0   0   0   0   0   0   0   0   0   0   0   0   0   0   0   1   1   2 
  2   4   5   8  11  16  22  29  39  50  65  81 100 122 146 172 200 229 
229 200 172 146 122 100  81  64  50  39  29  22  16  11   8   5   4   2 
  2   1   1   0   0   0   0   0   0   0   0   0   0   0   0   0   0   0 
  0   0   0   1   1   1   1   1   1   2   2   2   2   3   3   3   3   4 
  4   5   6   7   9  11  15  18  23  27  34  40  49  56  66  73  84  27 
 77  70  62  54  51  44  44  39  41  34  37  38  47  37  52  40  58  48 
 65  52  75  63  83  72  90  71  14  48  33  34  31  63  57  55  53  52 
 49  48  47  47  46   7   6   6   4   3   4   3   1   1   0   1   1   0 
  1   0   0   0  17  14  16  33  59  57  63  59  68  67  76  74  84  80 
 52 106  91  93  82  80  71  69  63  60  57  55  50  49  48  38  44  41 
 42  42  48  48  55  58  67  73  78  63  52  46  30  63  53  47  37  32 
 25  21  15  13   9   7   5   4   3   2   1   1   1   0   0   0   0   0 
  0   0   0   0   0   0   0   0   0   0   0   0   0   0   0   0   0   0 
  0   0   0   0   0   0   0   0   0   0   0   0   0   0   0   0   0   0 
  0   0   0   0   0   0   0   0   0   0   0   0   0   0   0   0   0   0 
  0   0   0   0   0   0   0   0   0   0   0   0   0   0   0   0   0   0 
  0   0   0   0   0   0   0   0   0   0   0   0   0   0   0   0   0   0 
  0   0   0   0   0   0   0   0   0   0   0   0   0   0   0   0   0   0 
  0   0   0   0   0   0   0   0   0   0   0   0   0   0   0   0   0   0 
  0   0   0   0   0   0   0   0   0   0   0   0   0   0   0   1   1   2 
  2   4   5   8  11  16  22  29  39  50  64  81 100 122 146 172 200 229 
229 200 172 146 122 100  81  64  50  39  29  22  16  11   8   5   4   2 
  2   1   1   0   0   0   0   0   0   0   0   0   0   0   0   0   0   0 
  1   0   1   1   1   1   2   2   2   2   3   3   3   3   3   4   4   5 
  5   6   6   8   9  12  14  18  21  28  32  40  47  56  63  73  82  10 
 80  72  63  58  51  49  42  46  39  46  33  20  41  51  41  55  45  61 
 50  67  56  74  66  82  74  91  85   8  47  35  36  29  58  59  58  56 
 54  53  50  51  32   5   3   2   3   0   1   0   0   1   1   2   2   3 
  2   4   2   4  17  21  20  34  58  66  64  71  69  76  75  85  57  73 
105  93  93  82  83  73  75  66  67  60  59  54  52  54  13 103  54  46 
 44  48  47  53  53  64  68  78  65  56  54  40  36  60  54  44  38  29 
 25  19  16  11   9   6   5   3   3   2   1   1   1   0   0   0   0   0 
  0   0   0   0   0   0   0   0   0   0   0   0   0   0   0   0   0   0 
  0   0   0   0   0   0   0   0   0   0   0   0   0   0   0   0   0   0 
  0   0   0   0   0   0   0   0   0   0   0   0   0   0   0   0   0   0 
  0   0   0   0   0   0   0   0   0   0   0   0   0   0   0   0   0   0 
  0   0   0   0   0   0   0   0   0   0   0   0   0   0   0   0   0   0 
  0   0   0   0   0   0   0   0   0   0   0   0   0   0   0   0   0   0 
  0   0   0   0   0   0   0   0   0   0   0   0   0   0   0   0   0   0 
  0   0   0   0   0   0   0   0   0   0   0   0   0   0   0   1   1   2 
  2   4   5   8  11  16  22  29  39  50  64  81 100 122 146 172 200 229 
229 200 172 146 122 100  81  64  50  39  29  22  16  11   8   5   4   2 
  2   1   1   0   0   0   0   0   0   0   0   0   0   0   0   0   0   1 
  0   1   1   1   1   2   2   2   2   3   3   4   4   4   4   4   5   5 
  6   6   8   8  10  11  15  17  23  26  33  38  46  54  63  71  80   3 
 82  73  66  57  56  48  49  43  46  46  41 103  53  41  55  45  60  48 
 65  54  69  59  75  67  82  77  90  86  60  48  35  34  29  49  63  61 
 59  57  56  55  13   0   1   1   2   1   3   2   3   3   4   3   5   4 
  7   5   7   6  18  21  27  29  69  67  73  70  79  76  87  13  99 104 
 93  95  84  86  76  79  67  68  63  64  57  58  55  15 107 118  58  47 
 48  47  53  53  60  63  73  77  60  60  49  42  42  62  51  45  35  30 
 23  19  14  12   8   7   4   3   2   2   1   1   0   0   0   0   0   0 
  0   0   0   0   0   0   0   0   0   0   0   0   0   0   0   0   0   0 
  0   0   0   0   0   0   0   0   0   0   0   0   0   0   0   0   0   0 
  0   0   0   0   0   0   0   0   0   0   0   0   0   0   0   0   0   0 
  0   0   0   0   0   0   0   0   0   0   0   0   0   0   0   0   0   0 
  0   0   0   0   0   0   0   0   0   0   0   0   0   0   0   0   0   0 
  0   0   0   0   0   0   0   0   0   0   0   0   0   0   0   0   0   0 
  0   0   0   0   0   0   0   0   0   0   0   0   0   0   0   0   0   0 
  0   0   0   0   0   0   0   0   0   0   0   0   0   0   0   1   1   2 
  2   4   5   8  11  16  22  29  39  50  64  81 100 122 146 172 200 229 
229 200 172 146 122 100  81  64  50  39  29  22  16  11   8   5   4   2 
  2   1   1   0   0   0   0   0   0   0   0   0   0   0   0   0   1   0 
  1   1   1   1   2   2   3   3   4   4   4   5   5   5   5   6   6   7 
  6   8   7  10  10  13  14  19  21  28  32  39  44  54  61  70  78  15 
 83  76  67  62  55  54  47  53  44  55  70  88 100  71  14  62  46  65 
 52  66  57  72  63  79  69  85  79  90  90  83   3  43  36  30  37  61 
 63  61  59  56   7   5   5   4   3   5   4   5   4   6   5   7   6   9 
  7  11   9  14  15  31  26  34  67  76  74  81  79  66  55 109 103  93 
 96  85  86  77  79  71  73  67  67  61  63  55  40 106 102 113  39  51 
 50  52  52  59  60  69  72  82  54  56  49  39  51  58  52  42  36  28 
 24  18  15  10   8   6   5   3   2   1   1   1   0   0   0   0   0   0 
  0   0   0   0   0   0   0   0   0   0   0   0   0   0   0   0   0   0 
  0   0   0   0   0   0   0   0   0   0   0   0   0   0   0   0   0   0 
  0   0   0   0   0   0   0   0   0   0   0   0   0   0   0   0   0   0 
  0   0   0   0   0   0   0   0   0   0   0   0   0   0   0   0   0   0 
  0   0   0   0   0   0   0   0   0   0   0   0   0   0   0   0   0   0 
  0   0   0   0   0   0   0   0   0   0   0   0   0   0   0   0   0   0 
  0   0   0   0   0   0   0   0   0   0   0   0   0   0   0   0   0   0 
  0   0   0   0   0   0   0   0   0   0   0   0   0   0   0   1   1   2 
  2   4   5   8  11  16  22  29  39  50  64  81 100 122 146 172 200 229 
229 200 172 146 122 100  81  64  50  39  29  22  16  11   8   5   4   2 
  2   1   1   0   0   0   0   0   0   0   0   0   0   0   0   1   0   1 
  1   2   1   2   2   3   3   4   4   5   5   6   6   7   7   7   8   7 
  9   8  10   9  12  12  17  18  23  26  33  38  45  52  62  69  78  22 
 85  77  70  61  60  53  55  49  51  52  86  94  81 115 118   5  63  51 
 67  56  72  60  74  64  80  72  84  81  91  89  99  51  29  38  33  27 
 51  63  63  51   9   7   8   6   7   6   7   6   7   6   8   7  10   9 
 12  11  16  14  19  29  36  30  66  76  82  73  17 115 100 104  93  96 
 85  88  80  83  74  77  69  71  64  68  44  79 101  97 100 109  20  53 
 55  55  58  58  65  69  77  80  55  56  47  39  54  60  49  43  34  29 
 22  18  13  11   8   6   4   3   2   1   1   1   0   0   0   0   0   0 
  0   0   0   0   0   0   0   0   0   0   0   0   0   0   0   0   0   0 
  0   0   0   0   0   0   0   0   0   0   0   0   0   0   0   0   0   0 
  0   0   0   0   0   0   0   0   0   0   0   0   0   0   0   0   0   0 
  0   0   0   0   0   0   0   0   0   0   0   0   0   0   0   0   0   0 
  0   0   0   0   0   0   0   0   0   0   0   0   0   0   0   0   0   0 
  0   0   0   0   0   0   0   0   0   0   0   0   0   0   0   0   0   0 
  0   0   0   0   0   0   0   0   0   0   0   0   0   0   0   0   0   0 
  0   0   0   0   0   0   0   0   0   0   0   0   0   0   0   1   1   2 
  2   4   5   8  11  16  22  29  39  50  64  81 100 122 146 172 200 229 
229 200 172 146 122 100  81  64  50  39  29  22  16  11   8   5   4   2 
  2   1   1   0   0   0   0   0   0   0   0   0   0   0   1   0   1   1 
  2   1   2   2   3   3   5   5   6   6   7   7   8   8   8  10   8  10 
  7  11  10  13  12  15  15  20  22  28  32  40  45  54  60  70  77  21 
 86  79  70  67  59  59  52  57  49  50  94  82  90 111 128 113  83  63 
 56  71  57  75  63  76  68  82  74  87  83  91  89  97  89  39  45  34 
 31  36  59  38   9  13   9  11   8   9   7   9   8   9   8  11  11  13 
 12  16  14  20  15  32  35  40  46  84  29  81 112 102 104  95  98  87 
 91  81  84  76  81  73  77  68  82  18  86  96  91  96 103 137  14  57 
 57  59  58  64  65  72  75  86  48  53  49  35  60  55  50  40  35  27 
 23  17  14  10   8   5   4   3   2   1   1   1   0   0   0   0   0   0 
  0   0   0   0   0   0   0   0   0   0   0   0   0   0   0   0   0   0 
  0   0   0   0   0   0   0   0   0   0   0   0   0   0   0   0   0   0 
  0   0   0   0   0   0   0   0   0   0   0   0   0   0   0   0   0   0 
  0   0   0   0   0   0   0   0   0   0   0   0   0   0   0   0   0   0 
  0   0   0   0   0   0   0   0   0   0   0   0   0   0   0   0   0   0 
  0   0   0   0   0   0   0   0   0   0   0   0   0   0   0   0   0   0 
  0   0   0   0   0   0   0   0   0   0   0   0   0   0   0   0   0   0 
  0   0   0   0   0   0   0   0   0   0   0   0   0   0   0   1   1   2 
  2   4   5   8  11  16  22  29  39  50  64  81 100 122 146 172 200 229 
229 200 172 146 122 100  81  64  50  39  29  22  16  11   8   5   4   2 
  2   1   1   0   0   0   0   0   0   0   0   0   0   1   0   1   1   2 
  1   3   2   4   3   5   5   6   7   8   8   9  10  10  11  10  11  11 
 13  10  14  12  15  14  19  19  25  27  34  38  47  52  61  67  77  20 
 87  79  72  66  64  57  60  54  60  27  81  87  80 123 113 123 109 121 
  6  59  73  62  74  67  80  70  82  78  87  84  92  90  96 100  93  14 
 30  34  31  14  14  12  14  11  12   9  11   9  10  14  11  11  14  13 
 16  16  20  19  24  23  42  42  12  64 117 112 100 104  95  98  90  93 
 83  89  77  84  75  79  76  43  62  90  92  87  95 110 134 132  42  60 
 60  60  62  65  70  71  81  85  51  55  44  39  58  58  48  41  33  28 
 21  17  13  10   7   6   4   3   2   1   1   1   0   0   0   0   0   0 
  0   0   0   0   0   0   0   0   0   0   0   0   0   0   0   0   0   0 
  0   0   0   0   0   0   0   0   0   0   0   0   0   0   0   0   0   0 
  0   0   0   0   0   0   0   0   0   0   0   0   0   0   0   0   0   0 
  0   0   0   0   0   0   0   0   0   0   0   0   0   0   0   0   0   0 
  0   0   0   0   0   0   0   0   0   0   0   0   0   0   0   0   0   0 
  0   0   0   0   0   0   0   0   0   0   0   0   0   0   0   0   0   0 
  0   0   0   0   0   0   0   0   0   0   0   0   0   0   0   0   0   0 
  0   0   0   0   0   0   0   0   0   0   0   0   0   0   0   1   1   2 
  2   4   5   8  11  16  22  29  39  50  64  81 100 122 146 172 200 229 
229 200 172 146 122 100  81  64  50  39  29  22  16  11   8   5   4   2 
  2   1   1   0   0   0   0   0   0   0   0   0   1   0   1   1   2   1 
  3   2   4   4   5   5   7   7   9   9  10  11  12  12  12  13  12  15 
 12  15  12  17  15  19  18  23  24  30  33  41  45  53  60  69  75  20 
 88  81  72  70  63  64  57  62  55  20  88  76  90 110 122 109 118 107 
118  84  45  78  67  80  70  83  75  83  80  89  88  91  93  95  97  99 
 98  22  26  18  15  17  13  14  11  14  12  12  14  25  11  14  13  17 
 16  21  18  24  20  29  13  88 114 107 110 102 104  98  99  90  96  86 
 89  83  86  79  84  76  25  85  80  88  81 101 125 130 127 132  68  64 
 65  63  63  67  70  77  80  89  50  52  46  37  60  55  49  40  34  26 
 22  17  13  10   8   5   4   3   2   1   1   1   0   0   0   0   0   0 
  0   0   0   0   0   0   0   0   0   0   0   0   0   0   0   0   0   0 
  0   0   0   0   0   0   0   0   0   0   0   0   0   0   0   0   0   0 
  0   0   0   0   0   0   0   0   0   0   0   0   0   0   0   0   0   0 
  0   0   0   0   0   0   0   0   0   0   0   0   0   0   0   0   0   0 
  0   0   0   0   0   0   0   0   0   0   0   0   0   0   0   0   0   0 
  0   0   0   0   0   0   0   0   0   0   0   0   0   0   0   0   0   0 
  0   0   0   0   0   0   0   0   0   0   0   0   0   0   0   0   0   0 
  0   0   0   0   0   0   0   0   0   0   0   0   0   0   0   1   1   2 
  2   4   5   8  11  16  22  29  39  50  64  81 100 122 146 172 200 229 
229 200 172 146 122 100  81  64  50  39  29  22  16  11   8   5   4   2 
  2   1   1   0   0   0   0   0   0   0   0   1   0   1   1   2   1   3 
  2   4   4   6   5   8   8  10  10  12  12  13  15  15  16  14  16   8 
 17  15  19  16  20  18  23  22  28  29  37  39  47  52  62  68  77  19 
 90  82  76  69  68  61  64  59  64   6  74  81  85 120 107 118 105 117 
101 113 102  59  47  76  81  73  85  77  88  84  91  91  94  97  97 100 
100 107  93  56   1  21  17  13  15  10  13   9  25  24  21  10  18  13 
 20  16  30  22  37  92 116 117 107 111 103 107 100 102  92  98  90  95 
 87  90  86  80   6  67  85  76  81  91 116 119 125 122 128 126  93  68 
 67  66  68  69  74  76  84  89  59  53  42  37  59  56  47  41  33  27 
 21  17  13  10   7   6   4   3   2   1   1   1   0   0   0   0   0   0 
  0   0   0   0   0   0   0   0   0   0   0   0   0   0   0   0   0   0 
  0   0   0   0   0   0   0   0   0   0   0   0   0   0   0   0   0   0 
  0   0   0   0   0   0   0   0   0   0   0   0   0   0   0   0   0   0 
  0   0   0   0   0   0   0   0   0   0   0   0   0   0   0   0   0   0 
  0   0   0   0   0   0   0   0   0   0   0   0   0   0   0   0   0   0 
  0   0   0   0   0   0   0   0   0   0   0   0   0   0   0   0   0   0 
  0   0   0   0   0   0   0   0   0   0   0   0   0   0   0   0   0   0 
  0   0   0   0   0   0   0   0   0   0   0   0   0   0   0   1   1   2 
  2   4   5   8  11  16  22  29  39  50  64  81 100 122 146 172 200 229 
229 200 172 146 122 100  81  64  50  39  29  22  16  11   8   5   4   2 
  2   1   1   0   0   0   0   0   0   0   1   0   1   1   2   1   3   2 
  4   3   6   5   8   8  10  11  13  13  15  16  17  19  18  20   0  19 
  0  22  17  22  19  24  21  26  27  34  35  43  47  55  60  70  76   7 
 89  83  75  73  66  68  61  67  62  26  81  68 109 105 117 102 115  99 
102  81  98  94 107  35  54  84  81  86  83  90  88  95  94  96  98  98 
100  99 104 105 113  82  16   6  14  14   9  19  23  28  30  22  12  21 
 11   2  64 123 123 112 116 108 110 104 111 100 107  95 102  95  96  91 
 96  76  25  77  71  77  73  87 107 121 115 120 118 124 122 126 115  69 
 68  68  69  72  74  79  83  91  64  49  45  35  62  55  49  40  34  27 
 22  17  13  10   8   5   4   3   2   1   1   1   0   0   0   0   0   0 
  0   0   0   0   0   0   0   0   0   0   0   0   0   0   0   0   0   0 
  0   0   0   0   0   0   0   0   0   0   0   0   0   0   0   0   0   0 
  0   0   0   0   0   0   0   0   0   0   0   0   0   0   0   0   0   0 
  0   0   0   0   0   0   0   0   0   0   0   0   0   0   0   0   0   0 
  0   0   0   0   0   0   0   0   0   0   0   0   0   0   0   0   0   0 
  0   0   0   0   0   0   0   0   0   0   0   0   0   0   0   0   0   0 
  0   0   0   0   0   0   0   0   0   0   0   0   0   0   0   0   0   0 
  0   0   0   0   0   0   0   0   0   0   0   0   0   0   0   1   1   2 
  2   4   5   8  11  16  22  29  39  50  64  81 100 122 146 172 200 229 
229 200 172 146 122 100  81  64  50  39  29  22  16  11   8   5   4   2 
  2   1   1   0   0   0   0   0   0   1   0   1   1   2   1   3   2   4 
  3   6   5   8   8  11  11  14  14  17  18  19  19  20  23   7  15  15 
 15  19  25  20  26  22  28  26  33  32  40  42  51  55  64  69  76   4 
 89  82  78  71  71  65  69  63  74  61  69  78 105 114 102 114  70  78 
 64  70  58  70  67 103  91  74  25  95  93  86  93  92  95  96  97 101 
100 105 105 105 108 109 111 104  86  31  19  28  28  25  66  60   5  80 
110 125 119 123 115 119 111 115 107 113 105 108 101 106  99 100 103  75 
 26  57  70  66  72  86 111 110 116 104 113 115 121 118 121 121 124  45 
 72  71  71  72  78  79  87  90  73  50  43  37  59  57  47  41  33  28 
 21  17  13  10   7   6   4   3   2   1   1   1   0   0   0   0   0   0 
  0   0   0   0   0   0   0   0   0   0   0   0   0   0   0   0   0   0 
  0   0   0   0   0   0   0   0   0   0   0   0   0   0   0   0   0   0 
  0   0   0   0   0   0   0   0   0   0   0   0   0   0   0   0   0   0 
  0   0   0   0   0   0   0   0   0   0   0   0   0   0   0   0   0   0 
  0   0   0   0   0   0   0   0   0   0   0   0   0   0   0   0   0   0 
  0   0   0   0   0   0   0   0   0   0   0   0   0   0   0   0   0   0 
  0   0   0   0   0   0   0   0   0   0   0   0   0   0   0   0   0   0 
  0   0   0   0   0   0   0   0   0   0   0   0   0   0   0   1   1   2 
  2   4   5   8  11  16  22  29  39  50  64  81 100 122 146 172 200 229 
229 200 172 146 122 100  81  64  50  39  29  22  16  11   8   5   4   2 
  2   1   1   0   0   0   0   0   0   0   1   0   1   1   2   2   4   3 
  6   5   8   8  11  11  15  15  18  18  21  22  22   9  32   5  14  11 
 15   6  22  29  24  30  26  33  30  38  39  47  50  58  63  71  77  20 
 89  84  77  75  69  71  65  72  56  76  75  81 113  89   4  91  77  90 
 35  24  72  55  63  60  98  89  94  81  14  42  80 104 101  98  98 100 
104 103 104 106 108 108 112 110 114 117 118  78  34   6  74 112 139 127 
129 121 125 117 121 113 118 109 116 107 113 108 115 101  73  26  28  71 
 58  65  73  91 104 109 100  17  75  94 100  52  55 118 116 119 118  29 
 80  75  74  77  78  83  85  93  82  47  45  35  60  55  49  40  34  27 
 22  17  14  10   8   6   4   3   2   1   1   1   0   0   0   0   0   0 
  0   0   0   0   0   0   0   0   0   0   0   0   0   0   0   0   0   0 
  0   0   0   0   0   0   0   0   0   0   0   0   0   0   0   0   0   0 
  0   0   0   0   0   0   0   0   0   0   0   0   0   0   0   0   0   0 
  0   0   0   0   0   0   0   0   0   0   0   0   0   0   0   0   0   0 
  0   0   0   0   0   0   0   0   0   0   0   0   0   0   0   0   0   0 
  0   0   0   0   0   0   0   0   0   0   0   0   0   0   0   0   0   0 
  0   0   0   0   0   0   0   0   0   0   0   0   0   0   0   0   0   0 
  0   0   0   0   0   0   0   0   0   0   0   0   0   0   0   1   1   2 
  2   4   5   8  11  16  22  29  39  50  64  81 100 122 146 172 200 229 
229 200 172 146 122 100  81  65  50  39  29  22  16  11   8   5   4   2 
  2   1   1   0   0   0   0   0   0   1   0   1   1   2   2   4   3   6 
  5   8   7  12  11  15  15  19  19  22  23  25  27  51  57  26   7  11 
  6  11   6  27  33  28  34  31  38  37  44  46  53  58  65  71  78  38 
 90  83  80  73  74  68  74  69  14  78  65 101  94  48  82  68  81  70 
 83  77   5  64  52  58  62  90  85  87  81  83  80  53  19  79 100 102 
104 108 108 109 108 113 110 113 112 114  89  31  27  38  24  60 120 129 
123 130 120 126 117 121 114 118 110 114 102  55   8  47  54  50  57  66 
 88  95 101  97 105 101  62  92  84  89  82  85  80  32  87 110 118 107 
 85  76  78  78  83  82  88  92  94  47  40  36  58  57  48  41  34  28 
 22  18  14  11   8   6   4   3   2   1   1   1   0   0   0   0   0   0 
  0   0   0   0   0   0   0   0   0   0   0   0   0   0   0   0   0   0 
  0   0   0   0   0   0   0   0   0   0   0   0   0   0   0   0   0   0 
  0   0   0   0   0   0   0   0   0   0   0   0   0   0   0   0   0   0 
  0   0   0   0   0   0   0   0   0   0   0   0   0   0   0   0   0   0 
  0   0   0   0   0   0   0   0   0   0   0   0   0   0   0   0   0   0 
  0   0   0   0   0   0   0   0   0   0   0   0   0   0   0   0   0   0 
  0   0   0   0   0   0   0   0   0   0   0   0   0   0   0   0   0   0 
  0   0   0   0   0   0   0   0   0   0   0   0   0   0   0   1   1   2 
  2   4   5   8  11  16  22  29  39  50  64  81 100 122 146 172 200 229 
229 200 172 146 122 100  81  65  50  39  29  22  16  11   8   5   4   2 
  2   1   1   0   0   0   0   0   1   0   1   1   2   1   4   2   6   4 
  8   7  12  10  14  14  20  19  24  23  27  29  30  59  56  52  12   2 
  7   2  11  12  30  36  33  39  37  44  44  51  54  62  66  73  79  56 
 87  86  77  78  70  75  68  77  51  63  72  99  52  82  71  83  73  85 
 75  85  82   8  57  46  52  79  86  79  80  78  76  75  73  74  69  21 
  7  11  22  21  25  22  22  13   5  21  26  26  56  62  59  65  61  41 
 16  15  26  19  26  17  16   2   1  33  45  48  58  74  73  83  86  92 
 90  95  93  99  92  59  98  89  91  85  89  84  87  64  81  77 104 116 
 55  80  80  82  82  86  89  95 105  41  44  35  59  56  49  41  35  28 
 23  18  14  11   8   6   4   3   2   2   1   1   0   0   0   0   0   0 
  0   0   0   0   0   0   0   0   0   0   0   0   0   0   0   0   0   0 
  0   0   0   0   0   0   0   0   0   0   0   0   0   0   0   0   0   0 
  0   0   0   0   0   0   0   0   0   0   0   0   0   0   0   0   0   0 
  0   0   0   0   0   0   0   0   0   0   0   0   0   0   0   0   0   0 
  0   0   0   0   0   0   0   0   0   0   0   0   0   0   0   0   0   0 
  0   0   0   0   0   0   0   0   0   0   0   0   0   0   0   0   0   0 
  0   0   0   0   0   0   0   0   0   0   0   0   0   0   0   0   0   0 
  0   0   0   0   0   0   0   0   0   0   0   0   0   0   0   1   1   2 
  2   4   5   8  11  16  22  29  39  50  64  81 100 122 146 172 200 229 
229 200 172 146 122 100  81  65  50  39  29  22  16  11   8   5   4   2 
  2   1   1   1   0   0   0   1   0   1   1   2   1   3   2   5   4   8 
  6  11   9  15  14  20  19  24  23  29  29  19  53  52  49  51  45   4 
  2   4   2   4  23  35  40  38  44  42  50  52  58  62  68  74  79  83 
 89  82  81  75  79  72  75  57  55  70  77 108  40  72  84  73  86  76 
 87  79  90  76  47  51  43  56  78  79  75  74  73  71  71  69  61  13 
 14  12  14   9  12   7  10   3  18  19  22  51  61  57  62  57  62  59 
 38   8  16  10  19  13  20  16  23  19  40  36  52  77  82  80  85  82 
 88  88  93  91  23 101  94  94  89  92  88  91  88  97  47  72  79 112 
 16  82  84  82  87  87  90  94 109   7  43  35  58  56  49  42  35  29 
 23  19  15  11   9   6   5   3   2   2   1   1   0   0   0   0   0   0 
  0   0   0   0   0   0   0   0   0   0   0   0   0   0   0   0   0   0 
  0   0   0   0   0   0   0   0   0   0   0   0   0   0   0   0   0   0 
  0   0   0   0   0   0   0   0   0   0   0   0   0   0   0   0   0   0 
  0   0   0   0   0   0   0   0   0   0   0   0   0   0   0   0   0   0 
  0   0   0   0   0   0   0   0   0   0   0   0   0   0   0   0   0   0 
  0   0   0   0   0   0   0   0   0   0   0   0   0   0   0   0   0   0 
  0   0   0   0   0   0   0   0   0   0   0   0   0   0   0   0   0   0 
  0   0   0   0   0   0   0   0   0   0   0   0   0   0   0   1   1   2 
  2   4   5   8  11  16  22  29  39  50  64  81 100 122 146 172 200 229 
229 200 172 146 122 100  81  65  50  39  29  22  16  11   8   6   4   3 
  2   1   1   0   0   0   1   0   1   0   2   1   3   2   5   3   7   5 
 11   9  15  13  20  18  24  23  30  29  33  31  52  50  50  45  48  35 
  1   6   1   6   1  21  39  46  43  51  51  57  59  66  71  75  76 102 
 86  86  77  79  74  78  72  44  68  58 105  93  65  86  76  87  78  91 
 81  91  85  99  21  42  44  36  77  72  71  70  67  67  63  67  17  12 
 10  13   6  11   7   9   3  14  17  17  40  58  53  59  53  59  55  61 
 56  19   4  15   9  18  12  19  12  20  18  38  31  68  72  78  76  82 
 81  86  85  92 105 100 101  95  98  92  93  92  93  96   9  70  68 107 
 47  92  85  87  86  91  92  98 104  43  47  32  55  57  50  43  36  30 
 24  19  15  12   9   7   5   4   2   2   1   1   0   0   0   0   0   0 
  0   0   0   0   0   0   0   0   0   0   0   0   0   0   0   0   0   0 
  0   0   0   0   0   0   0   0   0   0   0   0   0   0   0   0   0   0 
  0   0   0   0   0   0   0   0   0   0   0   0   0   0   0   0   0   0 
  0   0   0   0   0   0   0   0   0   0   0   0   0   0   0   0   0   0 
  0   0   0   0   0   0   0   0   0   0   0   0   0   0   0   0   0   0 
  0   0   0   0   0   0   0   0   0   0   0   0   0   0   0   0   0   0 
  0   0   0   0   0   0   0   0   0   0   0   0   0   0   0   0   0   0 
  0   0   0   0   0   0   0   0   0   0   0   0   0   0   0   1   1   2 
  2   4   5   8  11  16  22  29  39  50  64  81 100 122 146 172 200 229 
229 200 172 146 122 100  81  65  51  39  29  22  16  11   8   6   4   3 
  2   1   1   1   0   1   0   1   0   1   1   2   1   4   3   7   5  10 
  8  14  12  19  17  24  22  30  29  26   6  53  50  45  43  43  41  44 
 27   4  10   4  11   5  24  46  52  50  57  57  64  68  73  77  21  96 
 87  84  83  75  81  74  88  26  57  79  92 103  81  78  89  77  90  81 
 92  85  97  89  85  42  36  36  64  70  67  64  64  61  63  29   7   4 
  8   4   7   3   5   1   7  16  15  36  54  26   7   3  12  11  17  19 
 45  52  16   2  10   7  13   8  17   9  17  21  31  27  69  70  74  75 
 80  79  84  23 112 106 101 101  98  97  95  96  93  99   6  66  67  90 
105  88  89  90  89  90  96  99 106  92  50  33  48  57  51  43  37  30 
 25  19  16  12  10   7   5   4   3   2   1   1   1   0   0   0   0   0 
  0   0   0   0   0   0   0   0   0   0   0   0   0   0   0   0   0   0 
  0   0   0   0   0   0   0   0   0   0   0   0   0   0   0   0   0   0 
  0   0   0   0   0   0   0   0   0   0   0   0   0   0   0   0   0   0 
  0   0   0   0   0   0   0   0   0   0   0   0   0   0   0   0   0   0 
  0   0   0   0   0   0   0   0   0   0   0   0   0   0   0   0   0   0 
  0   0   0   0   0   0   0   0   0   0   0   0   0   0   0   0   0   0 
  0   0   0   0   0   0   0   0   0   0   0   0   0   0   0   0   0   0 
  0   0   0   0   0   0   0   0   0   0   0   0   0   0   0   1   1   2 
  2   4   5   8  11  16  22  29  39  50  64  81 100 122 146 172 200 229 
229 200 172 146 122 100  81  65  51  39  29  22  16  12   8   6   4   3 
  2   1   1   1   1   0   1   0   1   1   2   1   4   2   6   4   9   6 
 13  10  18  14  23  20  30  26   6   5  25  47  45  43  41  38  39  39 
 40  30   7  14   8  14   9  24  51  58  57  63  64  71  75  79  37  93 
 85  86  78  82  76  85  66  62  61  82 100  87  56  91  80  93  82  95 
 85  96  93 100  88  23  36  29  62  65  62  62  58  59  44   4   0   3 
  1   5   3   1   3   5  11  14  24  52  16   1   5   2   6   0   3  16 
 10  43  45   6   2   8   1  10   3  11   4  11  21  28  39  69  68  72 
 73  75  77  34 115 109 107 102 103  99 101  99 100 105  13  61  60  86 
103   5  95  94  95  96  97 100 105 115  31  33  41  59  50  45  36  32 
 25  21  16  13   9   8   5   4   3   2   1   1   1   0   0   0   0   0 
  0   0   0   0   0   0   0   0   0   0   0   0   0   0   0   0   0   0 
  0   0   0   0   0   0   0   0   0   0   0   0   0   0   0   0   0   0 
  0   0   0   0   0   0   0   0   0   0   0   0   0   0   0   0   0   0 
  0   0   0   0   0   0   0   0   0   0   0   0   0   0   0   0   0   0 
  0   0   0   0   0   0   0   0   0   0   0   0   0   0   0   0   0   0 
  0   0   0   0   0   0   0   0   0   0   0   0   0   0   0   0   0   0 
  0   0   0   0   0   0   0   0   0   0   0   0   0   0   0   0   0   0 
  0   0   0   0   0   0   0   0   0   0   0   0   0   0   0   1   1   2 
  2   4   5   8  11  16  22  29  39  50  64  81 100 122 146 172 200 229 
229 200 172 146 122 100  81  65  51  39  30  22  16  12   8   6   4   3 
  2   1   1   1   0   1   0   1   0   2   1   3   2   5   3   8   5  12 
  9  17  13  22  17  28   9   2   3   7  39  41  42  38  37  38  34  37 
 33  36  25   8  19  15  18  15  23  51  64  64  70  72  75  83  82  89 
 89  83  85  78  84  78   9  63  64  97  87  96   5  85  95  86  98  85 
100  91 104  96 101  20  29  27  61  59  57  53  56  42   0   3   1   3 
  0   6   1   7   1   6  11  28  49  31   7   9   3   7   1   9   3   5 
 12   9  49  41   5   5   3   2   6   1   6   2   8  17  23  43  65  65 
 70  71  75  63 115 112 110 110 107 106 102 104 106 110  55  57  54  87 
 97  80  91  97  98  97 100 103 107 116   4  31  36  57  52  43  39  31 
 27  20  18  13  11   7   6   4   3   2   2   1   1   0   0   0   0   0 
  0   0   0   0   0   0   0   0   0   0   0   0   0   0   0   0   0   0 
  0   0   0   0   0   0   0   0   0   0   0   0   0   0   0   0   0   0 
  0   0   0   0   0   0   0   0   0   0   0   0   0   0   0   0   0   0 
  0   0   0   0   0   0   0   0   0   0   0   0   0   0   0   0   0   0 
  0   0   0   0   0   0   0   0   0   0   0   0   0   0   0   0   0   0 
  0   0   0   0   0   0   0   0   0   0   0   0   0   0   0   0   0   0 
  0   0   0   0   0   0   0   0   0   0   0   0   0   0   0   0   0   0 
  0   0   0   0   0   0   0   0   0   0   0   0   0   0   0   1   1   2 
  2   4   5   8  11  16  22  29  39  50  64  81 100 122 146 172 200 229 
229 200 172 146 122 101  81  65  51  39  30  22  16  12   8   6   4   3 
  2   1   1   1   1   1   1   0   2   1   3   1   4   2   7   4  11   7 
 15  12  21  16  27  10  10  31  44  52  43  42  38  37  35  29  32  29 
 33  28  32  25   6  23  19  23  20  22  50  69  72  75  79  59  85  90 
 84  87  82  85  80  85  43  51  94  85  93  82  68  97  88 100  90 102 
 92 103  99 108  98  13  26  24  58  54  53  53  47   3   8   6   7   5 
 10   6  12   6   3   8  25  45  40   2  12  10  12   6  12   7  11   0 
  4  11  23  49  34   1   7   2   6   1   4   1   4   5  14  20  52  62 
 62  67  68  57 122 119 115 113 111 110 109 109 108  60  55  50  52  87 
 93  91  62 103 101 100 104 105 110 113  34  33  24  60  50  47  37  34 
 25  23  16  15  10   9   6   5   3   3   1   1   1   1   0   0   0   0 
  0   0   0   0   0   0   0   0   0   0   0   0   0   0   0   0   0   0 
  0   0   0   0   0   0   0   0   0   0   0   0   0   0   0   0   0   0 
  0   0   0   0   0   0   0   0   0   0   0   0   0   0   0   0   0   0 
  0   0   0   0   0   0   0   0   0   0   0   0   0   0   0   0   0   0 
  0   0   0   0   0   0   0   0   0   0   0   0   0   0   0   0   0   0 
  0   0   0   0   0   0   0   0   0   0   0   0   0   0   0   0   0   0 
  0   0   0   0   0   0   0   0   0   0   0   0   0   0   0   0   0   0 
  0   0   0   0   0   0   0   0   0   0   0   0   0   0   0   1   1   2 
  2   4   5   8  11  16  22  29  39  50  64  81 100 122 146 172 200 229 
229 200 172 146 122 101  82  65  51  39  30  22  17  12   9   6   4   3 
  2   2   1   1   1   1   1   1   1   2   1   4   2   6   3   9   6  13 
 10  19  15  24  21  15  59  50  52  42  44  36  37  31  30  30  27  28 
 27  28  23  27  23   6  28  22  28  27  31  36  69  80  81  37  92  88 
 87  84  88  79  90  38  51  72  83  92  80  89  78  55 103  91 104  94 
104  99 112 104 102  20  20  48  54  50  51  44   1  11   7  13   9  15 
 11  15   8   1   4  31  41  37  36  13  13  16  11  15  11  15   9  14 
  6   1  17  38  46  36   2  13   6  10   4   8   4   6   4  12  18  56 
 59  62  64  18 131 122 121 118 117 115 116 113 114   8  45  46  53  87 
 87  88  56 118 106 106 105 110 111 116  76  32  27  49  54  43  41  31 
 29  21  19  13  12   8   7   4   4   2   2   1   1   0   0   0   0   0 
  0   0   0   0   0   0   0   0   0   0   0   0   0   0   0   0   0   0 
  0   0   0   0   0   0   0   0   0   0   0   0   0   0   0   0   0   0 
  0   0   0   0   0   0   0   0   0   0   0   0   0   0   0   0   0   0 
  0   0   0   0   0   0   0   0   0   0   0   0   0   0   0   0   0   0 
  0   0   0   0   0   0   0   0   0   0   0   0   0   0   0   0   0   0 
  0   0   0   0   0   0   0   0   0   0   0   0   0   0   0   0   0   0 
  0   0   0   0   0   0   0   0   0   0   0   0   0   0   0   0   0   0 
  0   0   0   0   0   0   0   0   0   0   0   0   0   0   0   1   1   2 
  2   4   5   8  11  16  22  29  39  50  64  81 100 122 146 172 200 229 
229 200 172 147 122 101  82  66  51  40  30  23  17  13   9   7   5   4 
  3   2   2   1   1   1   1   1   2   1   3   2   5   3   8   5  10   7 
 17  11  23   4  41  65  50  55  44  47  37  38  32  33  28  28  26  24 
 25  23  24  23  22  22  10  20  31  33  35  36  39  56  85  27  88  89 
 83  88  83  90  79  43  59  82  91  78  88  74  86  63  82 106 100 109 
101 112 107 120  57  19  33  53  49  49  43   5  14  10  15  12  17  13 
 19   9   6  10  33  37  33  36  27  14  18  14  17  15  18  14  18  13 
  4   2   3  41  35  42  33   4  20   9  13   9  12   7   9   1   9  20 
 53  56  60  55 134 129 126 125 122 122 121 127  50  40  40  37  68  78 
 79  82  84  51 110 109 111 109 117 114 127  39  21  43  48  47  36  36 
 26  25  17  16  11  10   6   6   3   3   2   1   1   1   0   0   0   0 
  0   0   0   0   0   0   0   0   0   0   0   0   0   0   0   0   0   0 
  0   0   0   0   0   0   0   0   0   0   0   0   0   0   0   0   0   0 
  0   0   0   0   0   0   0   0   0   0   0   0   0   0   0   0   0   0 
  0   0   0   0   0   0   0   0   0   0   0   0   0   0   0   0   0   0 
  0   0   0   0   0   0   0   0   0   0   0   0   0   0   0   0   0   0 
  0   0   0   0   0   0   0   0   0   0   0   0   0   0   0   0   0   0 
  0   0   0   0   0   0   0   0   0   0   0   0   0   0   0   0   0   0 
  0   0   0   0   0   0   0   0   0   0   0   0   0   0   0   1   1   2 
  2   4   5   8  11  16  22  29  39  50  64  81 100 122 146 172 200 229 
229 200 173 147 123 101  82  66  52  40  31  23  18  13  10   7   5   4 
  3   2   2   2   1   2   1   2   1   3   1   4   2   6   3   8   6  13 
 10  20   5  63  67  53  58  47  48  39  41  33  34  28  28  25  24  22 
 21  21  19  19  20  20  20  19   6  33  37  40  40  47  51  90  91  84 
 89  81  91  82  32  55  73  89  77  86  73  81  69  78  42  93 111 105 
114 109 118  97  31  44  52  49  47  41   2  17  15  18  15  22  18  22 
 10   6  21  30  32  29  33  29  26  20  18  21  19  19  17  21  17  20 
  1   9   8  30  36  31  37  31   8  21  15  17  12  16  12  13   1   7 
 23  51  53  57  10 134 133 128 130 128 128  69  35  32  30  45  72  74 
 75  75  79  42 111 117 112 118 115 124 124  33  29  26  55  42  42  31 
 31  21  21  13  14   8   8   5   4   2   2   1   1   1   1   0   0   0 
  0   0   0   0   0   0   0   0   0   0   0   0   0   0   0   0   0   0 
  0   0   0   0   0   0   0   0   0   0   0   0   0   0   0   0   0   0 
  0   0   0   0   0   0   0   0   0   0   0   0   0   0   0   0   0   0 
  0   0   0   0   0   0   0   0   0   0   0   0   0   0   0   0   0   0 
  0   0   0   0   0   0   0   0   0   0   0   0   0   0   0   0   0   0 
  0   0   0   0   0   0   0   0   0   0   0   0   0   0   0   0   0   0 
  0   0   0   0   0   0   0   0   0   0   0   0   0   0   0   0   0   0 
  0   0   0   0   0   0   0   0   0   0   0   0   0   0   0   1   1   2 
  2   4   5   8  11  16  22  29  39  50  64  81 100 122 146 172 200 229 
229 200 173 147 123 102  83  67  52  41  31  24  18  14  10   8   6   5 
  4   3   3   2   2   2   2   1   2   2   4   2   5   3   8   4  12   8 
 17  12  21  12  61  62  50  54  42  44  34  36  29  30  24  25  21  21 
 19  18  18  18  17  18  15  15  13   7  15  43  46  46   1  97  86  89 
 84  89  84  93  46  61  88  75  83  71  79  68  76  65  73  52  15 108 
123 124  45  43  54  49  48  46  40   3  18  15  19  19  25  21  21  12 
  8  26  27  29  27  29  26  29  26  20  24  21  24  22  23  22  26  19 
 10   7   1  33  27  33  27  31  28  24  17  21  22  15  17  14  16   6 
  5  25  50  49  54   0 118 151 147 106  15  25  24  22  37  64  66  68 
 69  72  71  76  53 121 122 115 125 120 132 101  20  29  45  50  35  38 
 26  27  16  18  11  11   6   6   4   4   2   2   1   1   0   0   0   0 
  0   0   0   0   0   0   0   0   0   0   0   0   0   0   0   0   0   0 
  0   0   0   0   0   0   0   0   0   0   0   0   0   0   0   0   0   0 
  0   0   0   0   0   0   0   0   0   0   0   0   0   0   0   0   0   0 
  0   0   0   0   0   0   0   0   0   0   0   0   0   0   0   0   0   0 
  0   0   0   0   0   0   0   0   0   0   0   0   0   0   0   0   0   0 
  0   0   0   0   0   0   0   0   0   0   0   0   0   0   0   0   0   0 
  0   0   0   0   0   0   0   0   0   0   0   0   0   0   0   0   0   0 
  0   0   0   0   0   0   0   0   0   0   0   0   0   0   0   1   1   2 
  2   4   5   8  11  16  22  29  39  50  64  81 100 122 146 172 200 229 
229 200 173 147 124 102  84  67  53  41  33  25  19  14  12   9   7   5 
  5   4   3   3   3   3   2   3   2   3   2   5   3   7   3  10   6  14 
  9  21  16  28  14  39  60  46  50  36  41  30  33  25  26  21  21  18 
 18  16  13  14  14  13  11  11  12   6   9   5  23  44  60  85  91  84 
 92  84  93  13  54  88  75  82  70  79  66  75  62  71  61  67  58  64 
 53  59  52  52  48  46  44  34   6  20  17  23  21  27  23  15   6  22 
 27  21  26  23  26  23  26  23  26  16  26  28  25  27  24  30  25  20 
 10  15  15  23  29  23  28  24  29  26  29   3  17  25  18  20  15  15 
  8   1  21  47  47  51  51  48  30  29  16  18  20  39  57  59  59  60 
 64  64  68  67  73 112 118 126 120 131 123 133  11  10  54  40  44  30 
 33  21  22  14  15   9   9   5   5   3   3   1   1   1   1   0   0   0 
  0   0   0   0   0   0   0   0   0   0   0   0   0   0   0   0   0   0 
  0   0   0   0   0   0   0   0   0   0   0   0   0   0   0   0   0   0 
  0   0   0   0   0   0   0   0   0   0   0   0   0   0   0   0   0   0 
  0   0   0   0   0   0   0   0   0   0   0   0   0   0   0   0   0   0 
  0   0   0   0   0   0   0   0   0   0   0   0   0   0   0   0   0   0 
  0   0   0   0   0   0   0   0   0   0   0   0   0   0   0   0   0   0 
  0   0   0   0   0   0   0   0   0   0   0   0   0   0   0   0   0   0 
  0   0   0   0   0   0   0   0   0   0   0   0   0   0   0   1   1   2 
  2   4   5   8  11  16  22  29  39  50  64  81 100 122 146 172 200 229 
229 201 173 148 124 103  84  68  54  43  33  27  20  16  12  10   8   7 
  6   5   4   4   4   3   3   3   4   3   4   3   6   4   9   6  13   9 
 18  13  23  18  31  26  24  54  40  46  33  37  27  29  22  23  18  18 
 15  15  13  11  11  11   9  10   5   9   4   4   3   8  81  91  85  91 
 84  94  53  41  51  45  66  71  77  66  73  60  68  58  65  54  61  53 
 57  50  51  46  45  42  30  14  19  21  26  22  28   4  14  23  21  24 
 19  23  19  22  20  22  21  22  22  17  35  28  30  29  32  28  32  15 
 17  10  20  25  21  24  21  25  22  25  23  27  24   5  26  22  23  21 
 18  15   1  18  43  44  46  47  48  47  48  46  50  50  51  51  52  55 
 55  61  59  64  60   6 138 123 133 121 139 127  48  22  27  50  34  39 
 25  28  17  19  11  12   7   7   4   4   2   2   1   1   0   0   0   0 
  0   0   0   0   0   0   0   0   0   0   0   0   0   0   0   0   0   0 
  0   0   0   0   0   0   0   0   0   0   0   0   0   0   0   0   0   0 
  0   0   0   0   0   0   0   0   0   0   0   0   0   0   0   0   0   0 
  0   0   0   0   0   0   0   0   0   0   0   0   0   0   0   0   0   0 
  0   0   0   0   0   0   0   0   0   0   0   0   0   0   0   0   0   0 
  0   0   0   0   0   0   0   0   0   0   0   0   0   0   0   0   0   0 
  0   0   0   0   0   0   0   0   0   0   0   0   0   0   0   0   0   0 
  0   0   0   0   0   0   0   0   0   0   0   0   0   0   0   1   1   2 
  2   4   5   8  11  16  22  29  39  50  64  81 100 122 146 172 200 229 
229 201 174 148 125 103  86  69  56  44  35  27  22  17  15  11  10   8 
  7   6   6   5   5   4   4   4   3   5   3   6   4   8   5  11   6  14 
 11  21  15  27  21  34  29   8  54  39  40  30  33  24  26  18  20  15 
 15  12  12  10   9   8   9   4   6   2   6   1   0  32  92  86  93  85 
 96  76  40  51  37  43  31  35  31  42  34  46  41  49  44  51  46  50 
 44  44  37  37  30  16  17  23  24  23   3   9  25  20  23  18  21  17 
 19  17  19  17  18  18  18  18  18  19   2  37  34  33  33  34  22  19 
 14  14  22  17  22  18  20  17  22  18  23  21  23  23  24   7   4  21 
 23  21  18   8  11  40  39  42  41  42  42  44  42  45  44  46  48  47 
 52  50  58  54  63  56  44 144 126 141 128 146 119  14  20  36  44  28 
 32  20  24  14  16   9  10   5   6   3   3   1   2   1   1   0   0   0 
  0   0   0   0   0   0   0   0   0   0   0   0   0   0   0   0   0   0 
  0   0   0   0   0   0   0   0   0   0   0   0   0   0   0   0   0   0 
  0   0   0   0   0   0   0   0   0   0   0   0   0   0   0   0   0   0 
  0   0   0   0   0   0   0   0   0   0   0   0   0   0   0   0   0   0 
  0   0   0   0   0   0   0   0   0   0   0   0   0   0   0   0   0   0 
  0   0   0   0   0   0   0   0   0   0   0   0   0   0   0   0   0   0 
  0   0   0   0   0   0   0   0   0   0   0   0   0   0   0   0   0   0 
  0   0   0   0   0   0   0   0   0   0   0   0   0   0   0   1   1   2 
  2   4   5   8  11  16  22  29  39  50  64  81 100 122 146 172 200 229 
230 202 174 149 126 105  86  71  57  47  36  30  23  20  16  14  11  11 
  9   8   7   7   6   6   6   5   5   4   6   5   7   5  10   7  12   9 
 18  13  24  18  31  26  38  34   3  47  33  36  26  29  20  22  15  17 
 12  13   9   9   7   7   4   7   1   5   0   3   5  91  86  92  85  94 
 85  23   2   4  24  26  33  23  29  20  26  17  21  10  16   7  11   3 
  4   1   1   7   9  15   8   5  21  26  21  24  18  21  16  19  14  18 
 15  17  15  16  15  16  15  15  16  17  17   7  27  30  25  17  19   6 
 16  19  15  18  15  19  15  19  16  18  17  20  18  20  21  23  23  24 
 21   5  15  21  12   1  33  35  36  36  37  36  37  38  39  40  40  44 
 43  50  46  54  49  61  47  98 147 130 146 133 157  30   1  43  30  38 
 23  28  16  20  11  13   7   8   4   4   2   2   1   1   0   1   0   0 
  0   0   0   0   0   0   0   0   0   0   0   0   0   0   0   0   0   0 
  0   0   0   0   0   0   0   0   0   0   0   0   0   0   0   0   0   0 
  0   0   0   0   0   0   0   0   0   0   0   0   0   0   0   0   0   0 
  0   0   0   0   0   0   0   0   0   0   0   0   0   0   0   0   0   0 
  0   0   0   0   0   0   0   0   0   0   0   0   0   0   0   0   0   0 
  0   0   0   0   0   0   0   0   0   0   0   0   0   0   0   0   0   0 
  0   0   0   0   0   0   0   0   0   0   0   0   0   0   0   0   0   0 
  0   0   0   0   0   0   0   0   0   0   0   0   0   0   0   1   1   2 
  2   4   5   8  11  16  22  29  39  50  64  81 100 122 146 172 200 229 
230 202 175 150 128 106  89  72  60  47  40  31  27  22  19  16  15  12 
 12  10  10   9   8   8   7   7   6   7   6   8   6   9   7  12   9  16 
 12  21  15  27  22  34  29  42  37   3  45  30  33  23  25  17  19  12 
 14   9  10   6   8   3   6   0   4   0   5   3  35  88  95  87  95  92 
 38   1  12   6  18  11  23  15  23  18  26  21  29  25  32  30  37  37 
 44  42  52  26  15  29  28  25  24  20  22  16  19  14  17  14  16  13 
 15  12  13  13  14  12  14  14  13  14  14  15  15  14  15  15  15  14 
 16  12  15  13  16  12  16  13  15  14  15  15  16  17  18  19  20  21 
 22  24  23  22  16   5   3  29  30  31  31  32  30  31  34  33  37  34 
 42  38  48  41  52  44  60  38 117 151 134 152 139 122  13  14  43  26 
 33  19  24  13  16   8  10   5   6   3   3   1   2   1   1   0   0   0 
  0   0   0   0   0   0   0   0   0   0   0   0   0   0   0   0   0   0 
  0   0   0   0   0   0   0   0   0   0   0   0   0   0   0   0   0   0 
  0   0   0   0   0   0   0   0   0   0   0   0   0   0   0   0   0   0 
  0   0   0   0   0   0   0   0   0   0   0   0   0   0   0   0   0   0 
  0   0   0   0   0   0   0   0   0   0   0   0   0   0   0   0   0   0 
  0   0   0   0   0   0   0   0   0   0   0   0   0   0   0   0   0   0 
  0   0   0   0   0   0   0   0   0   0   0   0   0   0   0   0   0   0 
  0   0   0   0   0   0   0   0   0   0   0   0   0   0   0   1   1   2 
  2   4   5   8  11  16  22  29  39  50  64  81 100 122 146 172 200 229 
230 203 176 152 128 109  89  75  61  52  41  36  29  26  21  20  17  16 
 14  13  12  11  10  10   9   9   9   8   9   7  10   8  11   9  14  11 
 18  15  24  20  30  26  36  33  44  42   9  37  27  29  18  22  14  15 
 10  10   6   9   5   8   3   6   1   5   0   3  65  95  90  97  90  50 
  1  12   5  16  12  22  19  29  26  34  31  40  35  45  41  49  44  50 
 52  49   6  28  28  26  24  24  20  21  16  18  14  16  12  14  11  13 
 10  12  10  11  11  11  11  12  12  12  13  13  13  13  13  14  13  14 
 12  14  11  13  11  13  11  13  11  13  12  14  13  15  15  17  17  18 
 19  20  22  22  24  24  25  25  26  26  26  27  27  28  27  30  29  34 
 31  40  34  46  37  53  39  57  16 129 157 138 159 142  21  14  27  35 
 20  27  15  20  10  13   6   8   4   5   2   2   1   1   0   1   0   0 
  0   0   0   0   0   0   0   0   0   0   0   0   0   0   0   0   0   0 
  0   0   0   0   0   0   0   0   0   0   0   0   0   0   0   0   0   0 
  0   0   0   0   0   0   0   0   0   0   0   0   0   0   0   0   0   0 
  0   0   0   0   0   0   0   0   0   0   0   0   0   0   0   0   0   0 
  0   0   0   0   0   0   0   0   0   0   0   0   0   0   0   0   0   0 
  0   0   0   0   0   0   0   0   0   0   0   0   0   0   0   0   0   0 
  0   0   0   0   0   0   0   0   0   0   0   0   0   0   0   0   0   0 
  0   0   0   0   0   0   0   0   0   0   0   0   0   0   0   1   1   2 
  2   4   5   8  11  16  22  29  39  50  64  81 100 122 146 172 200 229 
231 203 177 152 131 109  93  76  65  53  46  38  34  28  25  22  21  19 
 18  16  16  14  14  13  12  12  11  11  10  11  10  12  10  14  12  17 
 14  22  18  27  23  34  29  42  35  50  47  22  32  21  25  15  17  11 
 12   5   8   3   7   1   5   1   3   0   5  12  99  88  97  92  43   0 
 13   8  18  12  23  20  30  25  36  32  41  37  47  43  48  48  53  53 
 19  31  27  26  25  23  22  19  19  15  16  13  14  11  12  10  11   9 
 10   9   9   9   9   9   9  10  10  10  10  11  11  11  11  11  12  10 
 12  10  11   9  11   9  11   9  11   9  11  10  12  12  13  13  15  15 
 16  17  18  19  19  20  20  21  21  22  22  22  23  22  24  23  27  25 
 32  27  38  30  45  34  51  34  54  19 136 160 143 166 104   7  35  22 
 31  17  23  12  16   8  10   5   6   3   3   1   2   1   1   0   0   0 
  0   0   0   0   0   0   0   0   0   0   0   0   0   0   0   0   0   0 
  0   0   0   0   0   0   0   0   0   0   0   0   0   0   0   0   0   0 
  0   0   0   0   0   0   0   0   0   0   0   0   0   0   0   0   0   0 
  0   0   0   0   0   0   0   0   0   0   0   0   0   0   0   0   0   0 
  0   0   0   0   0   0   0   0   0   0   0   0   0   0   0   0   0   0 
  0   0   0   0   0   0   0   0   0   0   0   0   0   0   0   0   0   0 
  0   0   0   0   0   0   0   0   0   0   0   0   0   0   0   0   0   0 
  0   0   0   0   0   0   0   0   0   0   0   0   0   0   0   1   1   2 
  2   4   5   8  11  16  22  29  39  50  64  81 100 122 146 172 200 229 
231 204 178 155 131 113  94  81  67  59  48  44  35  34  29  28  25  24 
 22  21  18  19  17  16  16  15  14  13  14  12  14  12  15  13  17  15 
 21  18  25  22  30  28  38  35  45  41  54  42  25  27  20  20  12  14 
  7  10   4   5   2   4   1   8   0   6   2  83  91  97  97  45   1  13 
  7  19  12  24  19  27  27  34  32  42  38  46  45  51  52  57  17  17 
 30  25  23  24  18  21  18  18  14  15  12  13  10  11   8  10   8   9 
  7   8   7   8   7   8   8   8   8   8   9   9   9   9   9  10   9  10 
  8   9   8   9   7   9   7   9   7   9   8  10   9  10  10  11  12  13 
 13  14  15  15  16  16  17  17  17  18  18  18  18  19  18  22  20  25 
 21  31  24  37  27  43  29  47  31  51   6 125 168 148 174  29   5  33 
 18  26  13  17   9  12   6   8   3   5   2   3   1   1   0   1   0   0 
  0   0   0   0   0   0   0   0   0   0   0   0   0   0   0   0   0   0 
  0   0   0   0   0   0   0   0   0   0   0   0   0   0   0   0   0   0 
  0   0   0   0   0   0   0   0   0   0   0   0   0   0   0   0   0   0 
  0   0   0   0   0   0   0   0   0   0   0   0   0   0   0   0   0   0 
  0   0   0   0   0   0   0   0   0   0   0   0   0   0   0   0   0   0 
  0   0   0   0   0   0   0   0   0   0   0   0   0   0   0   0   0   0 
  0   0   0   0   0   0   0   0   0   0   0   0   0   0   0   0   0   0 
  0   0   0   0   0   0   0   0   0   0   0   0   0   0   0   1   1   2 
  2   4   5   8  11  16  22  29  39  50  64  81 100 122 146 172 200 229 
232 205 180 155 135 114  99  83  73  60  53  35  42  37  35  32  30  28 
 28  25  25  23  22  21  20  19  18  17  16  17  16  17  16  18  17  21 
 19  25  22  30  26  36  33  43  40  50  48  59  24  23  24  14  16   8 
 11   4   8   1   5  11  43  29   3   8  27  90 100  87  33   1  14   6 
 18  14  23  19  29  27  36  33  43  41  47  48  50  42  12  32  29  26 
 26  23  21  20  18  16  17  14  14  11  12   9  10   8   9   7   8   6 
  7   6   6   6   6   6   6   7   7   7   7   8   7   8   8   8   8   7 
  8   7   8   6   7   6   7   6   7   6   8   7   8   8   9   9  10  10 
 11  11  12  12  13  13  14  14  14  14  14  14  15  14  17  15  20  17 
 24  19  29  21  36  24  41  26  45  28  47  27 111 173 154 125   0  14 
 27  14  21  10  15   7  10   4   6   2   3   1   2   1   1   0   0   0 
  0   0   0   0   0   0   0   0   0   0   0   0   0   0   0   0   0   0 
  0   0   0   0   0   0   0   0   0   0   0   0   0   0   0   0   0   0 
  0   0   0   0   0   0   0   0   0   0   0   0   0   0   0   0   0   0 
  0   0   0   0   0   0   0   0   0   0   0   0   0   0   0   0   0   0 
  0   0   0   0   0   0   0   0   0   0   0   0   0   0   0   0   0   0 
  0   0   0   0   0   0   0   0   0   0   0   0   0   0   0   0   0   0 
  0   0   0   0   0   0   0   0   0   0   0   0   0   0   0   0   0   0 
  0   0   0   0   0   0   0   0   0   0   0   0   0   0   0   1   1   2 
  2   4   5   8  11  16  22  29  39  50  64  81 100 122 146 172 200 229 
232 206 181 159 136 119 101  89  75  68  49  16  17  43  40  39  36  35 
 31  32  30  29  27  26  24  23  23  21  21  20  21  19  21  20  23  21 
 25  23  29  27  34  32  41  39  49  46  56  53  65   7  16  18   9  14 
  2   8   1   9   2   4  49  45  51  80  65 104  54   3   7  18  11  21 
 15  24  21  32  30  39  37  46  45  40  16  10  25  29  31  26  26  24 
 23  21  18  18  16  15  13  13  10  11   8   9   7   8   6   7   5   6 
  5   5   5   5   5   5   5   5   6   6   6   6   6   6   6   6   6   6 
  6   6   5   6   5   6   5   6   5   6   5   6   6   7   6   8   7   8 
  8   9   9  10  10  11  11  11  11  11  11  12  11  13  12  15  13  18 
 14  23  16  28  19  34  20  39  23  42  23  40  23  44 180 165  50  13 
 15  22  10  17   8  11   5   7   3   4   2   2   1   1   0   1   0   0 
  0   0   0   0   0   0   0   0   0   0   0   0   0   0   0   0   0   0 
  0   0   0   0   0   0   0   0   0   0   0   0   0   0   0   0   0   0 
  0   0   0   0   0   0   0   0   0   0   0   0   0   0   0   0   0   0 
  0   0   0   0   0   0   0   0   0   0   0   0   0   0   0   0   0   0 
  0   0   0   0   0   0   0   0   0   0   0   0   0   0   0   0   0   0 
  0   0   0   0   0   0   0   0   0   0   0   0   0   0   0   0   0   0 
  0   0   0   0   0   0   0   0   0   0   0   0   0   0   0   0   0   0 
  0   0   0   0   0   0   0   0   0   0   0   0   0   0   0   1   1   2 
  2   4   5   8  11  16  22  29  39  50  64  81 100 122 146 172 200 229 
233 207 184 159 141 120 107  91  82  69  45  18  15  12  33  43  43  41 
 40  37  37  34  33  32  30  29  28  27  26  26  25  25  24  26  25  28 
 26  31  29  35  33  39  38  46  45  55  53  63  59  61  20  10  14   6 
  9   0   6   2   6   1  26  51  43  10  90  12  76  82  71  68  49  47 
 27  30  21  23  15  21  20  31  40  41  34  34  28  29  26  24  22  20 
 20  17  16  14  13  11  12  10  10   8   8   6   7   5   6   5   5   4 
  5   4   4   4   4   4   4   5   4   5   5   5   5   5   5   5   5   5 
  5   4   5   4   5   4   5   4   5   4   5   4   5   5   6   5   6   6 
  7   7   8   8   8   8   9   8   9   9   9   9  10   9  11  10  14  11 
 17  12  22  15  27  17  32  19  36  20  37  20  36  19  11 138 153  25 
 23  12  18   9  13   6   9   4   5   2   3   1   2   1   1   0   0   0 
  0   0   0   0   0   0   0   0   0   0   0   0   0   0   0   0   0   0 
  0   0   0   0   0   0   0   0   0   0   0   0   0   0   0   0   0   0 
  0   0   0   0   0   0   0   0   0   0   0   0   0   0   0   0   0   0 
  0   0   0   0   0   0   0   0   0   0   0   0   0   0   0   0   0   0 
  0   0   0   0   0   0   0   0   0   0   0   0   0   0   0   0   0   0 
  0   0   0   0   0   0   0   0   0   0   0   0   0   0   0   0   0   0 
  0   0   0   0   0   0   0   0   0   0   0   0   0   0   0   0   0   0 
  0   0   0   0   0   0   0   0   0   0   0   0   0   0   0   1   1   2 
  2   4   5   8  11  16  22  29  39  50  64  81 100 122 146 172 200 229 
233 209 184 164 142 127 108  99  84  79  34  27  22  20  14  16  41  48 
 46  46  43  42  40  38  37  35  34  33  32  31  31  30  31  30  31  30 
 33  32  37  36  41  39  44  45  54  53  61  60  69  66  42  17   5  11 
  0   7   3   7   4   6  11  43  38  10  80  75  81  70  78  67  65  52 
 66  57  61  52  53  45  47  39  40  34  33  29  29  23  24  22  19  19 
 16  16  14  13  11  11   9   9   7   8   6   6   5   5   4   5   4   4 
  4   4   4   4   4   4   4   4   4   4   4   4   4   4   4   4   4   4 
  4   4   3   4   3   4   3   4   3   4   3   4   4   4   4   5   5   5 
  5   6   6   6   6   7   6   7   7   7   7   8   7   9   7  10   8  13 
  9  17  11  21  13  26  15  30  17  33  18  33  18  31  17  18  43  35 
  9  19   9  13   6  10   4   6   3   4   1   2   1   1   0   1   0   0 
  0   0   0   0   0   0   0   0   0   0   0   0   0   0   0   0   0   0 
  0   0   0   0   0   0   0   0   0   0   0   0   0   0   0   0   0   0 
  0   0   0   0   0   0   0   0   0   0   0   0   0   0   0   0   0   0 
  0   0   0   0   0   0   0   0   0   0   0   0   0   0   0   0   0   0 
  0   0   0   0   0   0   0   0   0   0   0   0   0   0   0   0   0   0 
  0   0   0   0   0   0   0   0   0   0   0   0   0   0   0   0   0   0 
  0   0   0   0   0   0   0   0   0   0   0   0   0   0   0   0   0   0 
  0   0   0   0   0   0   0   0   0   0   0   0   0   0   0   1   1   2 
  2   4   5   8  11  16  22  29  39  50  64  81 100 122 146 172 200 229 
234 209 188 164 148 128 116 101  94  81  37  33  30  25  26  20  18  25 
 40  53  52  47  48  46  44  43  41  40  39  38  37  37  36  37  36  38 
 37  40  39  44  43  47  47  53  54  60  60  68  67  75  72   8   9   3 
  7   3   5   3   5   6  13  52  88  57  75  79  71  77  52  37  21  27 
 17  26  35  53  45  47  40  40  35  34  29  28  25  23  21  18  18  15 
 15  13  12  11  10   8   9   7   7   6   6   5   5   4   5   4   4   4 
  4   3   4   4   3   4   3   4   3   4   4   4   4   4   4   4   4   3 
  3   3   3   3   3   2   3   2   3   2   3   3   3   3   4   3   4   4 
  4   4   5   5   5   5   6   5   6   5   6   6   7   6   8   6  10   7 
 13   8  17  10  21  12  25  14  28  15  29  14  29  15  26  13  20  14 
 20   9  15   6  11   5   7   3   5   2   3   1   2   0   1   0   0   0 
  0   0   0   0   0   0   0   0   0   0   0   0   0   0   0   0   0   0 
  0   0   0   0   0   0   0   0   0   1   0   1   0   1   0   1   0   1 
  0   0   0   0   0   0   0   0   0   0   0   0   0   0   0   0   0   0 
  0   0   0   0   0   0   0   0   1   0   1   0   1   0   1   0   1   0 
  0   0   0   0   0   0   0   0   0   0   0   0   0   0   0   0   0   0 
  0   0   0   0   0   0   0   0   0   0   0   0   0   0   0   0   0   0 
  0   0   0   0   0   0   0   0   0   0   0   0   0   0   0   0   0   0 
  0   0   0   0   0   0   0   0   0   0   0   0   0   0   0   1   1   2 
  2   4   5   8  11  16  22  29  39  50  64  81 100 122 146 172 200 229 
234 212 188 169 148 135 118 110  26  56  30  45  36  36  32  30  28  28 
 25  25  42  52  55  54  52  50  49  48  46  45  44  43  44  43  44  42 
 45  44  47  47  51  49  56  56  61  61  68  68  75  73  81  45   5   6 
  3   5   4   5   5  57 110 121  24  41  81  71  76  61  25  16  21  19 
 22  13  15  25  46  40  40  34  34  29  28  24  23  20  19  17  15  14 
 13  12  10  10   8   8   7   7   6   6   5   5   4   5   4   4   4   4 
  4   4   4   4   4   3   4   3   4   3   4   3   4   3   4   3   3   3 
  3   3   2   3   2   2   2   2   2   2   2   2   2   3   3   3   3   3 
  3   4   4   4   4   5   4   5   5   5   5   6   5   7   5   8   6  10 
  7  13   8  16   9  20  11  23  12  25  13  26  13  25  13  23  11  20 
  3   1   7  12   5   8   3   5   2   3   1   2   1   1   0   1   0   0 
  0   0   0   0   0   0   0   0   0   0   0   0   0   0   0   0   0   0 
  0   0   0   0   1   0   1   1   1   1   1   1   1   0   1   0   1   0 
  1   0   1   0   0   0   0   0   0   0   0   0   0   0   0   0   0   0 
  0   0   0   1   0   1   1   1   1   1   1   1   1   1   0   1   0   1 
  0   1   0   0   0   0   0   0   0   0   0   0   0   0   0   0   0   0 
  0   0   0   0   0   0   0   0   0   0   0   0   0   0   0   0   0   0 
  0   0   0   0   0   0   0   0   0   0   0   0   0   0   0   0   0   0 
  0   0   0   0   0   0   0   0   0   0   0   0   0   0   0   1   1   2 
  2   4   5   8  11  16  22  29  39  50  64  81 100 122 146 172 200 229 
236 212 192 169 155 136 127 110  56 101  97  38  55  42  42  37  39  37 
 35  32  31  29  31  45  59  59  57  54  55  53  51  52  51  50  50  50 
 51  53  51  55  55  59  59  64  64  69  69  75  73  81  79  82   1   2 
  5   6   6  61 107 104 116  37  39  41  72  75  39  14  24  20  30  20 
  3  16   9   9  22  41  33  33  29  28  24  23  20  18  16  15  14  12 
 11  10   9   8   8   7   7   6   6   5   5   5   5   4   5   4   4   4 
  4   4   4   4   4   4   4   4   4   4   4   4   4   4   3   3   3   3 
  3   2   2   2   2   2   2   2   2   2   2   2   2   2   2   2   3   3 
  3   3   4   3   4   4   4   4   5   4   5   5   6   5   7   5   8   6 
 10   7  13   8  16   9  19  10  21  11  23  12  23  12  21  11  19   9 
 15   7  12   6   9   4   6   3   4   2   2   1   1   0   1   0   0   0 
  0   0   0   0   0   0   0   0   0   0   0   0   0   0   0   0   0   0 
  0   0   0   1   1   1   1   1   1   1   1   1   1   1   1   1   1   1 
  0   1   0   1   0   0   0   0   0   0   0   0   0   0   0   0   0   0 
  0   0   1   1   1   1   1   1   1   1   1   1   1   1   1   1   1   1 
  1   0   1   0   0   0   0   0   0   0   0   0   0   0   0   0   0   0 
  0   0   0   0   0   0   0   0   0   0   0   0   0   0   0   0   0   0 
  0   0   0   0   0   0   0   0   0   0   0   0   0   0   0   0   0   0 
  0   0   0   0   0   0   0   0   0   0   0   0   0   0   0   1   1   2 
  2   4   5   8  11  16  22  29  39  50  64  81 100 122 146 172 200 229 
236 214 192 175 156 144 128 116  91  87  96 100  89  10  44  52  47  45 
 41  44  40  39  35  31  29  35  45  52  52  58  61  60  58  58  59  59 
 59  59  61  60  64  64  66  68  72  71  72  63  64  53  51  43  42   2 
 19  68 101 113 102 115  98   5  44  31  74  59  18  26  21  31  26  35 
 35  15  10   3   3  32  34  28  28  24  23  20  18  16  14  13  12  11 
 10   9   8   8   7   7   6   6   6   6   5   6   5   5   5   5   5   5 
  5   5   5   5   5   5   5   5   5   5   5   4   4   4   4   4   3   3 
  3   3   2   2   2   2   2   2   2   2   2   2   2   2   2   2   2   3 
  3   3   3   4   4   4   4   5   4   5   5   6   5   6   5   8   6   9 
  7  11   7  14   8  16   9  18  10  20  11  20  11  20  10  18   9  15 
  8  13   5   9   4   7   3   5   2   3   1   2   1   1   0   0   0   0 
  0   0   0   0   0   0   0   0   0   0   0   0   0   0   0   0   0   0 
  1   1   1   1   1   1   1   1   2   1   2   1   2   1   2   1   2   1 
  1   1   1   0   1   0   1   0   0   0   0   0   0   0   0   0   0   1 
  1   1   1   1   1   1   1   2   1   2   1   2   1   2   1   2   1   1 
  1   1   1   1   0   1   0   0   0   0   0   0   0   0   0   0   0   0 
  0   0   0   0   0   0   0   0   0   0   0   0   0   0   0   0   0   0 
  0   0   0   0   0   0   0   0   0   0   0   0   0   0   0   0   0   0 
  0   0   0   0   0   0   0   0   0   0   0   0   0   0   0   1   1   2 
  2   4   5   8  11  16  22  29  39  50  64  81 100 122 146 172 200 229 
237 215 197 175 162 145 137  88  77  85  85  93  90  97  96  21  52  54 
 55  51  50  47  45  44  42  40  38  36  34  32  30  37  45  50  53  53 
 60  61  63  59  58  56  51  45  38  40  40  44  44  51  47  50   7  92 
110 100 109 102 112 103  17   8  35  37  65  14  25  21  31  29  36  34 
 42  41  22   4   5  10  30  28  25  23  20  18  16  14  13  12  11  10 
  9   8   8   7   7   7   7   6   7   6   7   6   7   6   7   7   7   7 
  7   7   7   7   6   7   6   6   6   6   6   6   5   5   4   4   4   4 
  3   3   3   3   2   2   2   2   2   2   2   2   2   2   2   2   3   3 
  3   3   4   4   4   4   5   5   5   5   6   6   7   6   8   7   9   7 
 10   8  12   8  14   9  16  10  18  10  18  11  18  10  17   9  15   8 
 13   7  10   5   7   4   5   2   3   2   2   1   1   0   1   0   0   0 
  0   0   0   0   0   0   0   0   0   0   0   0   0   0   0   1   1   1 
  1   1   1   1   1   2   2   2   2   3   2   3   2   3   2   3   1   2 
  1   2   1   1   0   1   0   1   0   0   0   0   0   0   1   1   1   1 
  1   1   1   1   2   2   2   2   3   2   3   2   3   2   3   2   2   1 
  2   1   1   1   1   0   1   0   0   0   0   0   0   0   0   0   0   0 
  0   0   0   0   0   0   0   0   0   0   0   0   0   0   0   0   0   0 
  0   0   0   0   0   0   0   0   0   0   0   0   0   0   0   0   0   0 
  0   0   0   0   0   0   0   0   0   0   0   0   0   0   0   1   1   2 
  2   4   5   8  11  16  22  29  39  50  64  81 100 122 146 172 200 229 
237 217 197 182 163 153 137  75  74  72  84  80  87  84  89  91  85  54 
  1  62  67  59  57  53  52  52  47  45  44  43  41  40  38  37  36  35 
 35  35  36  36  37  40  40  41  45  45  50  55  43  20  65  99 104 106 
 98 108 100 109 111  43   3   8  42  29  67  11  21  29  29  35  34  41 
 40  45  44   6   5   6  28  25  23  21  18  16  15  13  12  11  10   9 
  8   8   8   8   7   8   7   8   8   8   8   8   8   8   8   9   9   9 
  9   9   9   9   9   8   8   8   8   8   7   7   7   6   6   5   5   4 
  4   4   3   3   3   2   2   2   2   2   2   2   2   2   2   3   3   3 
  3   4   4   5   5   5   6   6   6   7   7   8   8   9   8  10   9  11 
  9  12  10  14  10  15  11  17  11  17  11  17  11  17  10  15   8  13 
  7  11   6   8   4   6   3   4   2   3   1   2   1   1   0   1   0   0 
  0   0   0   0   0   0   0   0   0   0   0   0   0   1   1   1   1   1 
  1   1   2   2   2   2   3   3   3   3   4   3   4   2   4   2   3   2 
  3   1   2   1   2   1   1   0   1   0   1   0   1   1   1   1   1   1 
  1   2   2   2   2   3   3   3   3   4   3   4   3   4   2   3   2   3 
  1   2   1   1   1   1   0   1   0   0   0   0   0   0   0   0   0   0 
  0   0   0   0   0   0   0   0   0   0   0   0   0   0   0   0   0   0 
  0   0   0   0   0   0   0   0   0   0   0   0   0   0   0   0   0   0 
  0   0   0   0   0   0   0   0   0   0   0   0   0   0   0   1   1   2 
  2   4   5   8  11  16  22  29  39  50  64  81 100 122 146 172 200 229 
239 218 202 182 171 152 146  60  62  71  71  78  75  79  77  81  79  83 
 85  91  41  16  42  54  64  62  59  56  54  51  51  49  47  47  44  44 
 44  44  44  46  47  48  50  45  31  20  20  74 113 104 103  99 104  98 
107 100 109 103  52   3  12   9  33  34  55   7  30  28  35  33  40  39 
 47  45  51  29   6   6  24  24  21  19  17  15  14  12  11  10  10   9 
  9   8   8   8   9   9   9   9   9  10  10  10  11  11  11  11  12  12 
 12  12  12  12  11  11  11  11  10  10   9   9   9   8   7   7   6   6 
  5   5   4   4   3   3   3   3   2   2   2   2   2   3   3   3   4   4 
  4   5   5   6   6   7   7   8   8   9   9   9  10  10  11  11  12  11 
 14  12  15  12  16  12  17  12  17  12  18  12  17  11  16  10  14   9 
 12   7   9   6   7   4   5   3   3   2   2   1   1   1   1   0   0   0 
  0   0   0   0   0   0   0   0   0   0   0   0   1   1   1   1   1   2 
  2   2   2   3   3   4   3   4   4   5   4   5   4   5   3   5   3   4 
  2   3   2   2   1   2   1   1   1   1   1   1   1   1   1   1   2   2 
  2   2   3   3   4   3   4   4   5   4   5   4   5   4   5   3   4   2 
  3   2   2   1   2   1   1   0   1   0   0   0   0   0   0   0   0   0 
  0   0   0   0   0   0   0   0   0   0   0   0   0   0   0   0   0   0 
  0   0   0   0   0   0   0   0   0   0   0   0   0   0   0   0   0   0 
  0   0   0   0   0   0   0   0   0   0   0   0   0   0   0   1   1   2 
  2   4   5   8  11  16  22  29  39  50  64  81 100 122 146 172 200 229 
238 221 201 188 169 161 146  69  62  61  68  65  71  69  74  70  73  72 
 75  74  77  79  78  74  69  26   5  45  70  67  63  61  59  58  57  57 
 58  58  59  42   9  25  70  92  95 100 102 102 100 101  99 104  99 104 
100 108 109  51   2  11   7  20  33  24  57  34  32  34  35  39  41  43 
 47  52  54  52   7   8  24  22  19  18  15  14  12  12  10  10   9   9 
  9   9  10  10  10  11  11  11  12  13  13  13  14  14  15  15  15  15 
 15  15  15  15  15  15  15  14  14  13  13  12  12  11  10   9   9   8 
  7   6   6   5   5   4   4   3   3   3   3   3   3   3   4   4   5   5 
  6   6   7   8   8   9  10  10  11  12  12  13  13  14  14  15  14  16 
 15  17  15  18  15  19  15  19  15  19  14  18  14  17  12  14  11  13 
  9  11   7   8   6   6   4   5   3   3   2   2   1   1   1   1   1   0 
  0   0   0   0   0   0   0   0   0   0   1   1   1   1   1   2   2   2 
  3   3   4   4   5   5   6   5   6   5   7   5   7   5   7   4   6   3 
  5   3   4   2   3   1   2   1   1   1   1   1   1   1   2   2   2   3 
  3   4   4   5   4   6   5   6   5   7   5   7   5   7   5   6   4   5 
  3   4   2   3   1   2   1   1   0   1   0   0   0   0   0   0   0   0 
  0   0   0   0   0   0   0   0   0   0   0   0   0   0   0   0   0   0 
  0   0   0   0   0   0   0   0   0   0   0   0   0   0   0   0   0   0 
  0   0   0   0   0   0   0   0   0   0   0   0   0   0   0   1   1   2 
  2   4   5   8  11  16  22  29  39  50  64  81 100 122 146 172 200 229 
240 220 206 187 177 161 145  45  51  60  58  64  60  64  61  64  62  65 
 64  67  66  69  70  73  76  81  83  91  91  81  73  67  65  58  63  71 
 78  86 101 106 103 101  98  97  98  98  97  97  99  97 101  98 105 101 
106 106  46   5  10   5  15  14  16  28  49  60  21  34  41  41  45  46 
 50  53  55  61  10  15  22  20  19  16  15  13  13  11  11  10  10  10 
 11  11  11  12  12  13  14  15  15  16  17  17  18  18  19  19  20  20 
 20  20  20  20  20  19  19  19  18  17  16  16  15  14  13  12  11  11 
  9   9   7   7   6   6   5   5   4   4   4   4   4   5   5   6   6   7 
  7   8   9  10  11  12  13  13  14  15  16  16  17  17  19  18  20  19 
 21  19  21  19  22  19  22  19  22  18  21  17  20  16  18  14  16  12 
 13  10  11   8   8   6   6   4   4   3   3   2   2   1   1   1   1   1 
  0   0   0   0   0   0   0   0   1   1   1   1   1   2   2   2   3   3 
  4   4   5   6   6   7   7   8   7   9   7   9   7   9   6   8   5   7 
  4   6   3   4   2   3   2   2   1   2   1   2   2   2   2   3   3   3 
  4   5   6   6   7   7   8   7   9   7   9   7   9   7   8   6   7   4 
  5   3   4   2   3   1   2   1   1   0   1   0   0   0   0   0   0   0 
  0   0   0   0   0   0   0   0   0   0   0   0   0   0   0   0   0   0 
  0   0   0   0   0   0   0   0   0   0   0   0   0   0   0   0   0   0 
  0   0   0   0   0   0   0   0   0   0   0   0   0   0   0   1   1   2 
  2   4   5   8  11  16  22  29  39  50  64  81 100 122 146 172 200 229 
240 224 204 192 174 163 116  63  53  51  58  53  59  55  58  55  57  55 
 58  58  61  61  65  65  68  68  72  72  76  76  80  80  84  85  87  87 
 89  89  90  91  93  92  93  92  94  94  95  95  96 100  98 102  99 106 
 96  20   0  11   6  18  12  26  15  19  53  53  31  41  42  45  48  49 
 53  54  59  53   8  24  20  19  17  16  14  14  12  12  11  12  11  12 
 13  13  14  15  16  17  18  19  20  21  21  22  23  24  24  25  25  26 
 26  26  26  25  25  25  24  24  23  22  21  20  20  18  17  15  15  13 
 13  11  11   8   9   7   7   6   6   5   6   5   6   6   7   7   8   9 
 10  11  12  13  14  15  16  17  18  19  20  21  22  23  23  24  24  25 
 24  26  25  26  24  26  24  26  23  25  22  23  20  21  18  19  16  16 
 13  14  11  11   9   8   7   6   5   4   4   3   2   2   2   1   1   1 
  1   0   1   0   1   0   1   1   1   1   1   2   2   2   3   3   4   4 
  5   6   7   7   8   8  10   9  11  10  12  10  12   9  11   8  10   6 
  8   5   6   3   5   2   3   2   3   2   2   2   3   3   3   4   4   5 
  5   7   7   8   8  10   9  11  10  12  10  12   9  11   8  10   6   8 
  5   6   4   4   2   3   1   2   1   1   0   0   0   0   0   0   0   0 
  0   0   0   0   0   0   0   0   0   0   0   0   0   0   0   0   0   0 
  0   0   0   0   0   0   0   0   0   0   0   0   0   0   0   0   0   0 
  0   0   0   0   0   0   0   0   0   0   0   0   0   0   0   1   1   2 
  2   4   5   8  11  16  22  29  39  50  64  81 100 122 146 172 200 229 
241 222 209 190 182 131 124  74  43  52  49  54  49  53  49  52  49  51 
 49  52  51  54  53  57  57  61  61  66  65  70  70  74  74  78  78  82 
 81  83  84  85  85  87  89  90  88  93  91  95  95  97 100  99 110  48 
 62   0   8   6  16  14  23  22   7  20  47  53  48  26  47  48  50  53 
 55  59  62   1  24  18  19  17  17  14  15  13  13  12  13  13  14  14 
 15  16  17  19  20  21  22  24  25  26  27  28  29  30  31  31  32  32 
 32  32  32  32  32  31  31  30  29  28  27  26  24  24  21  21  18  18 
 15  15  12  13  10  10   8   9   7   8   7   8   7   9   9  10  11  12 
 13  14  16  17  18  20  21  22  24  25  26  27  28  28  30  30  31  31 
 32  31  32  31  32  30  32  29  31  28  29  26  27  24  24  21  21  18 
 18  15  15  12  12  10   9   8   7   6   5   4   3   3   2   2   1   1 
  1   1   1   1   1   1   1   1   1   1   2   2   3   3   4   4   5   6 
  7   8   9  10  10  12  12  14  13  15  13  16  12  15  11  14   9  11 
  7   9   5   7   4   5   3   4   3   3   3   3   3   4   4   5   6   7 
  8   8  10  10  12  12  14  13  15  13  15  13  15  12  13  10  11   7 
  9   6   6   4   4   2   3   1   2   1   1   0   0   0   0   0   0   0 
  0   0   0   0   0   0   0   0   0   0   0   0   0   0   0   0   0   0 
  0   0   0   0   0   0   0   0   0   0   0   0   0   0   0   0   0   0 
  0   0   0   0   0   0   0   0   0   0   0   0   0   0   0   1   1   2 
  2   4   5   8  11  16  22  29  39  50  64  81 100 122 146 172 200 229 
240 224 206 196 151 136  76  36  46  43  50  46  50  45  48  44  46  44 
 46  44  47  45  49  48  53  52  57  56  62  61  66  66  70  71  74  73 
 77  79  80  81  83  83  86  86  90  88  92  93  95  98 101  91   2  85 
 85   5   6  14  14  23  21  30   7  13  53  46  46  42  28  26  50  59 
 61  54  23  25  18  21  17  17  15  16  13  15  13  15  14  16  16  18 
 19  20  22  23  25  26  28  30  31  33  34  35  36  37  38  39  39  40 
 40  40  40  40  40  39  38  37  36  35  34  32  31  29  28  25  25  21 
 21  17  18  14  15  11  13  10  11   9  11   9  11  11  12  13  15  15 
 17  18  20  22  24  25  27  28  30  31  32  34  35  36  36  38  38  39 
 38  40  38  40  38  39  37  38  35  36  33  33  31  31  28  27  24  24 
 21  20  18  16  14  13  11  10   9   7   6   5   5   3   3   2   2   1 
  2   1   1   1   1   1   1   1   2   2   3   3   4   4   5   6   7   8 
  9  10  12  13  15  15  17  16  19  17  20  17  19  15  18  13  16  11 
 13   8  10   6   7   4   5   4   4   3   4   4   5   5   6   7   8   9 
 10  12  12  14  14  17  16  19  17  20  17  19  16  18  14  14  11  13 
  9   9   6   7   4   4   2   3   1   1   1   1   0   0   0   0   0   0 
  0   0   0   0   0   0   0   0   0   0   0   0   0   0   0   0   0   0 
  0   0   0   0   0   0   0   0   0   0   0   0   0   0   0   0   0   0 
  0   0   0   0   0   0   0   0   0   0   0   0   0   0   0   1   1   2 
  2   4   5   8  11  16  22  29  39  50  64  81 100 122 146 172 200 229 
242 222 211 185 149  72  28  40  39  47  43  48  43  46  42  44  40  42 
 39  42  39  43  41  46  44  50  48  54  53  59  58  63  63  68  67  72 
 72  74  76  79  79  82  82  87  86  90  90  95  96 103  42  80  87  85 
 79  23  16  14  22  21  28  29   0  15  47  43  41  40  37  34  29  25 
 22  23  23  19  21  18  19  15  17  14  16  14  16  15  18  18  20  21 
 23  25  27  29  31  33  35  37  38  40  42  43  45  46  47  48  48  49 
 49  49  49  49  48  48  47  46  44  43  41  40  37  37  33  33  28  29 
 24  24  20  21  16  17  13  15  12  14  12  14  13  15  15  17  18  20 
 21  24  25  28  29  32  33  35  37  39  40  42  43  44  45  46  47  47 
 48  47  48  47  48  46  46  44  45  42  42  39  39  36  35  32  31  28 
 26  24  22  20  18  16  14  13  11  10   8   7   5   5   4   4   2   3 
  2   2   1   2   1   2   2   2   2   3   3   4   5   6   7   8   9  11 
 12  14  15  17  18  20  20  23  21  24  21  24  20  23  18  21  15  17 
 12  14   9  10   7   8   5   6   5   6   5   6   6   7   8   9  11  12 
 14  14  17  17  20  20  22  21  24  22  24  21  23  19  21  16  16  12 
 12   9  10   6   7   4   4   2   2   1   1   1   1   0   0   0   0   0 
  0   0   0   0   0   0   0   0   0   0   0   0   0   0   0   0   0   0 
  0   0   0   0   0   0   0   0   0   0   0   0   0   0   0   0   0   0 
  0   0   0   0   0   0   0   0   0   0   0   0   0   0   0   1   1   2 
  2   4   5   8  11  16  22  29  39  50  64  81 100 122 146 172 200 229 
240 225 207 172  82  27  32  32  43  40  47  42  46  41  43  39  41  37 
 39  36  39  36  40  38  43  41  48  45  52  50  57  56  62  61  67  67 
 71  72  74  76  78  81  84  84  89  89  96 102  41  54  90  88  84  81 
 78  43  17  19  22  29  28  37   3  17  45  41  39  36  34  31  28  28 
 24  22  19  20  17  18  13  18  14  18  15  18  17  20  20  23  24  26 
 28  31  33  35  38  40  43  45  47  49  51  52  54  55  56  57  58  59 
 59  59  59  59  58  57  57  55  54  52  51  48  47  43  43  38  38  32 
 33  27  28  22  24  18  21  16  19  15  18  16  19  18  21  21  24  25 
 28  29  32  34  37  39  41  43  45  47  49  51  52  54  54  56  56  57 
 57  58  57  58  56  56  54  55  52  52  49  48  46  44  42  40  37  35 
 32  30  28  25  23  20  18  15  14  12  11   8   8   6   6   4   4   3 
  3   2   3   2   2   2   3   3   4   4   5   6   7   8   9  11  12  14 
 16  17  20  21  23  24  27  26  29  27  30  26  29  24  27  20  23  17 
 19  13  15  10  11   7   9   6   7   6   7   7   8   9  11  12  13  15 
 17  19  20  23  24  27  26  29  27  30  27  29  25  27  20  23  17  18 
 13  14   9  10   6   6   4   4   2   2   1   1   1   0   0   0   0   0 
  0   0   0   0   0   0   0   0   0   0   0   0   0   0   0   0   0   0 
  0   0   0   0   0   0   0   0   0   0   0   0   0   0   0   0   0   0 
  0   0   0   0   0   0   0   0   0   0   0   0   0   0   0   1   1   2 
  2   4   5   8  11  16  22  29  39  50  64  81 100 122 146 172 200 229 
242 224 211 171   6  25  27  40  38  46  43  47  42  45  40  41  37  38 
 34  37  33  37  33  39  35  43  39  47  44  52  50  57  56  62  62  66 
 67  72  71  76  77  81  81  86  86  87  45  70  96  89  90  84  81  78 
 75  64  24  21  28  28  33  39   2  25  41  39  35  33  31  28  26  21 
 24  20  21  17  19  15  19  14  19  15  20  18  22  21  26  26  30  31 
 35  37  40  43  46  49  51  54  56  59  60  63  64  66  67  68  69  69 
 70  70  70  69  69  68  67  66  63  63  59  59  54  54  48  48  42  43 
 35  37  29  32  24  28  21  24  19  23  19  23  21  25  24  28  28  32 
 33  37  39  42  44  47  49  52  54  57  59  60  62  64  65  66  67  67 
 68  67  68  67  68  66  66  64  63  61  60  57  55  53  50  48  45  42 
 39  37  33  31  27  26  22  21  17  16  13  12   9   9   6   7   4   5 
  3   4   2   3   3   4   3   4   5   6   6   8   9  10  12  14  16  18 
 20  22  24  27  28  31  31  35  33  36  33  36  31  33  28  30  23  25 
 18  20  14  15  11  12   9  10   8   9   9  10  11  12  14  15  18  19 
 22  24  27  28  31  31  34  33  36  33  36  32  34  28  30  23  25  19 
 19  14  14   9   9   6   6   3   3   2   2   1   1   0   0   0   0   0 
  0   0   0   0   0   0   0   0   0   0   0   0   0   0   0   0   0   0 
  0   0   0   0   0   0   0   0   0   0   0   0   0   0   0   0   0   0 
  0   0   0   0   0   0   0   0   0   0   0   0   0   0   0   1   1   2 
  2   4   5   8  11  16  22  29  39  50  64  81 100 122 146 172 200 229 
241 223 202  13  15  22  35  34  44  43  48  45  47  43  44  39  40  35 
 37  32  36  31  37  32  39  34  43  39  48  44  53  51  58  57  63  64 
 69  69  73  75  79  82  94  61  31  86  98  99  90  91  84  84  78  75 
 69  69  21  26  29  34  37  43   7  32  38  35  33  29  26  25  23  23 
 19  20  17  20  15  19  15  20  16  22  18  25  23  29  28  34  34  39 
 41  45  48  52  55  58  61  64  67  69  71  73  75  77  78  79  80  81 
 81  81  81  81  80  79  78  76  75  72  71  67  66  60  61  53  54  46 
 48  39  42  32  36  27  32  24  29  23  28  24  30  27  32  32  37  38 
 42  44  48  50  54  56  60  62  65  67  69  71  73  75  76  78  78  79 
 79  80  79  79  78  78  76  76  73  72  70  68  65  63  60  57  54  50 
 48  44  41  37  35  30  29  24  23  18  18  13  14   9  10   6   8   4 
  6   3   5   3   5   4   5   5   7   7   9  10  12  13  15  18  20  23 
 25  28  31  33  36  37  40  40  43  41  44  39  42  36  38  31  33  25 
 27  20  21  15  16  12  13  10  12  11  12  12  14  16  18  20  22  25 
 27  30  32  35  36  40  39  43  41  44  40  42  35  38  31  32  25  26 
 19  19  14  13   9   9   5   5   3   3   2   1   1   1   0   0   0   0 
  0   0   0   0   0   0   0   0   0   0   0   0   0   0   0   0   0   0 
  0   0   0   0   0   0   0   0   0   0   0   0   0   0   0   0   0   0 
  0   0   0   0   0   0   0   0   0   0   0   0   0   0   0   1   1   2 
  2   4   5   8  11  16  22  29  39  50  64  81 100 122 146 172 200 229 
240 223 103   3  12  28  31  42  43  49  47  51  47  48  43  44  39  40 
 35  37  31  37  30  38  31  40  34  45  40  50  46  55  54  61  59  65 
 67  75  79  69  38   3  77 107 107 100 100  92  94  85  86  78  77  71 
 70  65  18  31  32  36  39  41   6  35  35  32  30  27  25  22  22  19 
 20  15  19  14  19  15  19  16  23  19  27  24  31  30  37  37  44  45 
 50  53  58  61  65  68  71  75  77  80  82  85  87  88  90  91  92  93 
 93  93  93  93  92  91  89  88  85  85  80  80  74  74  66  67  58  60 
 49  53  41  46  35  41  30  37  28  35  29  35  31  38  36  42  42  47 
 49  54  56  60  63  67  70  73  75  78  81  83  85  86  88  89  90  90 
 92  91  92  90  91  89  89  86  85  83  81  79  76  73  70  67  63  60 
 56  53  48  46  40  39  33  32  26  25  20  20  14  15  10  12   7   9 
  5   7   4   6   5   7   6   8   8  10  11  13  15  17  20  22  25  28 
 31  34  37  40  43  46  47  50  49  52  48  51  44  47  39  35  33  35 
 27  28  21  21  16  17  14  15  13  15  15  16  18  20  22  25  28  30 
 34  36  40  42  46  46  50  48  52  48  51  46  47  40  28  34  34  26 
 26  19  19  13  12   8   8   5   4   3   2   1   1   1   1   0   0   0 
  0   0   0   0   0   0   0   0   0   0   0   0   0   0   0   0   0   0 
  0   0   0   0   0   0   0   0   0   0   0   0   0   0   0   0   0   0 
  0   0   0   0   0   0   0   0   0   0   0   0   0   0   0   1   1   2 
  2   4   5   8  11  16  22  29  39  50  64  81 100 122 146 172 200 229 
240 220   8   1  19  27  38  42  50  49  54  52  53  50  50  44  45  40 
 41  34  39  31  38  30  40  32  43  37  47  43  54  50  58  58  65  66 
 53  11  83 118 113 114 106  94  81  85  89  96  87  88  79  79  71  71 
 64  64  15  32  37  41  43  37   5  34  32  30  27  25  22  22  18  20 
 15  19  14  19  14  21  16  24  19  28  24  34  31  41  39  48  48  56 
 58  63  67  71  75  79  83  86  89  92  94  95  98  89  48  20  12  33 
 34  34  32  31   9  14  49  91  98  94  94  88  87  80  81  71  73  61 
 66  52  58  44  51  38  46  34  43  34  42  36  44  40  48  46  53  54 
 60  62  67  70  74  77  81  84  87  90  92  95  95  99 100  76  42  21 
 21  23  21  21  44  65  97  99  97  95  93  90  88  84  82  77  75  70 
 67  61  59  53  51  44  42  35  35  28  28  21  22  15  17  10  13   8 
 10   6   9   6   8   7   9   9  11  12  15  16  19  22  25  28  31  35 
 38  41  45  48  52  54  57  57  60  58  60  53  57   9 186  16  44  35 
 36  28  28  22  22  18  19  16  18  17  19  20  23  25  28  30  34  36 
 41  45  46  51  53  57  56  60  58  60  55  57  39 157  45  43  35  34 
 25  25  19  17  12  11   7   7   4   4   2   2   1   1   0   0   0   0 
  0   0   0   0   0   0   0   0   0   0   0   0   0   0   0   0   0   0 
  0   0   0   0   0   0   0   0   0   0   0   0   0   0   0   0   0   0 
  0   0   0   0   0   0   0   0   0   0   0   0   0   0   0   1   1   2 
  2   4   5   8  11  16  22  29  39  50  64  81 100 122 146 172 200 229 
239 175  80  21  29  39  41  50  53  59  59  59  56  57  52  53  46  47 
 40  44  36  40  33  41  31  43  34  44  23  19   3  12  56  73  98 117 
127 122 120 117 113  80  69  63  66  57  59  53  68  80  83  72  73  65 
 65  57   9  36  39  44  45  29  18  32  30  27  25  22  21  18  19  15 
 18  14  19  14  21  16  25  19  30  24  36  32  44  41  52  51  61  62 
 69  72  77  82  85  90  93  97  36  18  56  83 111 124 121 118 115 116 
113 114 114 114 116 118 123 126 113  87  63  26  18  80  84  87  75  79 
 64  71  55  62  47  57  42  52  40  50  41  51  45  54  51  60  59  66 
 68  74  75  82  85  88  92  95  89  31  20  56  81 105 123 124 118 118 
116 119 118 118 119 123 123 108  87  61  27  22  81  95  92  88  85  82 
 76  73  67  64  57  55  46  46  38  37  29  31  22  24  15  19  11  15 
  9  12   8  11   8  11  10  13  14  17  18  21  24  27  30  34  38  42 
 46  50  53  58  60  64  65  69  67  69  66  50 107 194 196  27  45  45 
 37  36  29  29  23  24  21  22  21  22  23  26  28  31  33  37  40  45 
 48  53  57  59  64  64  68  67  70  65  68  70 183 204  34  45  44  35 
 33  24  24  17  16  11  10   6   5   3   3   2   1   1   1   0   0   0 
  0   0   0   0   0   0   0   0   0   0   0   0   0   0   0   0   0   0 
  0   0   0   0   0   0   0   0   0   0   0   0   0   0   0   0   0   0 
  0   0   0   0   0   0   0   0   0   0   0   0   0   0   0   1   1   2 
  2   4   5   8  11  16  22  29  39  50  64  81 100 122 146 172 200 229 
238 220 201 185 167  78  15  42  62  62  65  65  65  59  60  55  55  47 
 50  41  45  37  43  33  44  34  46  40  63 121 103 108 104 134 128 129 
122 123 118 117  76  73  71  69  63  64  53  56  44  50  70  77  66  69 
 57  60  13  36  44  44  50  21  31  31  27  25  22  21  17  18  15  17 
 13  18  13  20  15  25  19  31  24  38  33  47  43  56  53  65  65  75 
 77  83  87  93  82  42  56 130 121 113 108 106 104 104 101  99 100  99 
 98  98  99  99 101 103 102 105 105 111 110 118 122 137  83   4  71  75 
 85  67  76  57  69  50  63  46  60  47  60  50  62  56  67  64  73  72 
 81  82  89  92  93  79  23  79 126 118 110 107 105 104 101 100 101  99 
100  98  99  98 101  99 103 104 105 107 110 118 128  94  11  77  91  91 
 89  81  79  71  68  61  60  49  50  39  41  30  33  22  26  16  21  12 
 17  10  15  10  14  12  16  15  19  20  23  26  30  33  37  41  46  50 
 55  59  63  67  71  73  77  76  80  69  23 185 177 186 185  30  56  47 
 46  38  37  30  30  26  27  25  26  27  29  31  34  37  41  44  49  54 
 58  63  65  71  73  77  76  80  76  20 172 181 185 191  30  55  45  43 
 33  32  24  22  16  14   9   8   5   4   3   2   1   1   1   0   0   0 
  0   0   0   0   0   0   0   0   0   0   0   0   0   0   0   0   0   0 
  0   0   0   0   0   0   0   0   0   0   0   0   0   0   0   0   0   0 
  0   0   0   0   0   0   0   0   0   0   0   0   0   0   0   1   1   2 
  2   4   5   8  11  16  22  29  39  50  64  81 100 122 146 172 200 229 
238 218 199 181 168 153 144 118  75  47  78  74  69  69  64  64  57  58 
 49  54  43  49  37  48  35  48  36  52  41  58 109  94 100 117 132 124 
124 120 118  97  79  60  18   3  22  57  66  48  51  39  44  63  71  60 
 63  52   8  44  44  50  51   1  31  26  26  22  21  17  18  14  17  13 
 17  13  20  15  24  19  31  25  39  33  49  43  58  55  70  68  80  81 
 91  93  71  65 104 116 111 105 104  99  96  95  93  90  89  89  89  88 
 87  87  87  87  89  89  92  92  98  95 105 102 114 109 124 121 128  93 
  3  90  69  81  59  75  55  71  52  69  55  70  60  74  69  80  78  88 
 88  96  98  12  90 107 114 107 103 101  98  95  92  92  90  89  88  88 
 87  87  86  88  86  89  90  92  93  96  97 100 103 107 114 110  90   1 
 97  95  85  85  76  74  64  64  52  54  40  44  31  35  23  28  17  23 
 14  19  13  18  14  19  17  21  22  26  28  33  36  40  45  49  55  59 
 64  69  74  77  82  85  86  88  28 136 167 164 173 173 180  41  59  57 
 48  46  39  38  33  33  30  31  31  33  35  38  41  45  49  53  58  63 
 68  72  77  80  85  85  89  73 115 166 167 173 173 188  20  57  54  43 
 41  32  29  22  19  14  12   8   7   4   3   2   2   1   1   0   0   0 
  0   0   0   0   0   0   0   0   0   0   0   0   0   0   0   0   0   0 
  0   0   0   0   0   0   0   0   0   0   0   0   0   0   0   0   0   0 
  0   0   0   0   0   0   0   0   0   0   0   0   0   0   0   1   1   2 
  2   4   5   8  11  16  22  29  39  50  64  81 100 122 146 172 200 229 
236 216 197 180 162 150 137 128 123 119  69  18  77  78  76  68  68  61 
 64  51  58  44  54  39  53  38  54  40  56  37  84 107  91  95 122 127 
121 119 116  68  44  93  96  93 103 102  68  10  46  47  32  45  62  64 
 54  57  17  40  49  48  54  26  24  27  22  22  18  18  14  16  12  17 
 12  19  14  24  18  31  24  40  33  50  44  61  56  73  70  83  84  96 
 45  57 130 112 106 103  98  97  90  90  86  85  82  82  80  79  79  78 
 78  78  78  79  79  81  81  85  85  91  88 100  96 109 106 121 114 135 
130 123   4  67  87  62  82  60  79  61  79  66  83  74  88  84  93  94 
 75   6 106 122 105 104  98  96  93  89  86  84  82  82  79  78  78  77 
 76  76  77  77  77  77  80  80  82  84  88  88  92  95  98 103 106 120 
114  11  77  91  90  79  79  65  68  52  57  42  47  32  38  24  31  18 
 25  16  23  16  22  19  25  24  29  30  36  39  44  48  53  59  64  70 
 75  80  85  89  93  96  69  65 157 155 152 159 160 168 170  45  69  60 
 57  49  47  41  40  36  37  36  38  39  42  45  49  53  58  63  68  74 
 79  84  88  92  95  92  26 157 154 155 158 160 169 178  16  66  56  52 
 41  38  29  26  19  16  11  10   6   5   3   3   2   1   1   1   0   0 
  0   0   0   0   0   0   0   0   0   0   0   0   0   0   0   0   0   0 
  0   0   0   0   0   0   0   0   0   0   0   0   0   0   0   0   0   0 
  0   0   0   0   0   0   0   0   0   0   0   0   0   0   0   1   1   2 
  2   4   5   8  11  16  22  29  39  50  64  81 100 122 146 172 200 229 
236 214 193 176 159 144 133 123 116 110 108 107  94  40  83  81  71  75 
 63  68  54  62  47  59  41  57  41  58  44  61  36  88 100  88 107 122 
124 117 101  83  81  85  85  92  91 100  96 110  67  39  43  25  58  55 
 60  47  13  46  47  57  16  27  28  21  22  18  18  14  16  12  16  12 
 18  14  23  18  30  24  40  33  51  44  64  57  76  71  88  84  90  74 
116 112 103 102  95  92  88  84  83  79  77  76  74  73  72  71  70  71 
 70  70  70  70  71  71  75  76  79  79  87  84  95  91 107  99 120 107 
133 119 146 123  20  93  69  90  67  89  72  91  79  96  87 103  98  11 
115 107 105  98  96  90  88  84  81  78  75  74  73  71  71  69  68  67 
 67  68  67  68  68  70  70  70  72  75  76  78  81  84  89  91  95  98 
107 109 123  28  90  96  82  84  68  72  54  60  43  49  32  40  25  33 
 21  29  19  27  21  29  26  33  33  39  41  47  51  57  63  68  74  80 
 86  91  95 101 102  12 149 141 141 141 145 146 154 156 164  55  73  69 
 60  57  50  48  44  43  42  43  44  46  49  53  58  63  68  73  79  85 
 90  94 100 104  44 144 140 142 141 145 148 153 157 173   8  69  64  53 
 48  38  34  26  22  16  13   9   8   5   4   3   2   1   1   1   0   0 
  0   0   0   0   0   0   0   0   0   0   0   0   0   0   0   0   0   0 
  0   0   0   0   0   0   0   0   0   0   0   0   0   0   0   0   0   0 
  0   0   0   0   0   0   0   0   0   0   0   0   0   0   0   1   1   2 
  2   4   5   8  11  16  22  29  39  50  64  81 100 122 146 172 200 229 
234 212 192 171 155 140 125 117 109 104  98 100  98 101  61  41  93  75 
 81  65  72  54  67  48  63  45  61  44  62  50  65  11  95  95  82 119 
116 120  52  79  86  83  90  86  99  93 105 100 118  74  35  35  36  65 
 51  55  21  44  53  47  25  28  23  23  18  19  15  16  12  15  12  17 
 13  22  17  29  23  39  32  51  43  65  56  79  72  92  87   8 116 110 
108  97  97  89  86  81  78  76  73  72  69  68  68  66  64  65  64  64 
 63  64  64  65  65  66  66  70  70  77  74  85  79  95  88 108  97 120 
105 133 114 141 128  92  84  74 100  77 101  84 105  91 111   4  89 117 
100 101  91  90  85  80  78  75  72  69  67  66  64  63  63  61  61  60 
 60  58  60  60  61  61  62  64  64  65  66  71  72  75  77  82  85  91 
 93 100 103 116  97   6 100  83  87  68  75  55  63  43  52  33  43  27 
 37  24  33  25  33  28  37  35  43  44  51  55  61  66  73  79  85  92 
 97 102 108  33  98 139 130 130 130 132 132 141 142 151 155  60  82  73 
 68  61  58  52  51  49  49  49  52  54  58  62  67  73  78  83  90  96 
102 107  76  73 140 131 131 129 132 133 140 143 152 164   4  77  66  60 
 49  42  34  29  22  18  13  11   7   6   4   3   2   1   1   1   0   0 
  0   0   0   0   0   0   0   0   0   0   0   0   0   0   0   0   0   0 
  0   0   0   0   0   0   0   0   0   0   0   0   0   0   0   0   0   0 
  0   0   0   0   0   0   0   0   0   0   0   0   0   0   0   1   1   2 
  2   4   5   8  11  16  22  29  39  50  64  81 100 122 146 172 200 229 
235 211 189 169 151 134 121 111 102  96  92  91  91  91  96  96  17  85 
 78  85  67  78  57  71  50  67  48  66  48  67  52  77  52  84  90  84 
123 101  68  83  82  87  85  94  90 103  98 112 106 126  46  29  42  54 
 59  45  16  50  48  30  31  23  25  19  20  15  16  12  15  12  16  13 
 20  16  27  22  38  31  50  43  65  57  80  71  95  75  54 126 103 107 
 91  92  83  81  76  73  70  67  66  64  63  61  61  60  60  60  60  60 
 61  60  60  60  62  61  65  64  69  67  76  72  85  78  97  85 109  94 
121 102 133 109 145  24  83 110  84 110  89 112  98  95  74 107 106  92 
 95  85  84  78  76  71  69  65  64  61  60  58  57  56  55  55  54  55 
 53  54  53  56  54  55  55  57  57  59  60  62  65  66  68  72  76  79 
 86  89  96  97 110 115  79  81  85  90  70  77  56  65  44  54  35  46 
 30  41  29  39  31  41  38  47  47  55  58  65  70  78  83  90  97 103 
110  87  60 133 124 121 118 118 119 120 126 127 136 141 148  68  86  81 
 73  68  62  60  57  56  56  57  60  63  67  72  78  83  88  96 100 108 
 99  10 134 125 120 119 118 120 121 126 129 137 144 159   4  80  72  61 
 54  44  38  29  25  18  15  11   8   6   4   3   2   1   1   1   0   0 
  0   0   0   0   0   0   0   0   0   0   0   0   0   0   0   0   0   0 
  0   0   0   0   0   0   0   0   0   0   0   0   0   0   0   0   0   0 
  0   0   0   0   0   0   0   0   0   0   0   0   0   0   0   1   1   2 
  2   4   5   8  11  16  22  29  39  50  64  81 100 122 146 172 200 229 
234 210 187 166 147 130 116 104  96  89  85  84  82  86  84  93  89  87 
 60  85  89  67  82  59  76  53  72  51  70  53  71  58  59  89  81  88 
106 105  74  80  88  83  92  88  99  94 107 101 118 111 126  14  41  64 
 47  52  29  47  61  23  25  27  20  21  15  17  13  15  11  15  12  19 
 15  25  21  35  30  48  42  64  56  80  71  96  66  96 122 100 104  88 
 89  78  78  71  69  65  63  61  59  59  58  58  57  57  57  57  57  57 
 57  58  58  59  59  61  60  64  62  70  66  77  71  88  77  99  84 110 
 92 121  98 133  11  89 119  90 120  94 121 102  40 106  95 102  87  90 
 78  80  71  71  65  64  60  59  57  55  54  53  52  51  51  51  51  50 
 51  50  51  50  51  51  52  51  53  53  54  56  57  59  61  65  66  72 
 73  82  82  94  93 109 106 120  12  85  92  70  79  56  67  43  57  37 
 50  34  46  35  47  41  51  49  59  61  70  73  82  87  95 102 109 115 
 25 118 121 115 111 109 106 107 108 112 115 121 126 135 140  73  94  85 
 80  73  69  66  64  63  63  66  68  72  77  82  88  95 101 107 114  32 
113 122 116 112 109 108 108 109 113 115 123 128 138 151   7  87  74  66 
 55  48  38  32  25  20  15  12   8   6   4   3   2   1   1   1   0   0 
  0   0   0   0   0   0   0   0   0   0   0   0   0   0   0   0   0   0 
  0   0   0   0   0   0   0   0   0   0   0   0   0   0   0   0   0   0 
  0   0   0   0   0   0   0   0   0   0   0   0   0   0   0   1   1   2 
  2   4   5   8  11  16  22  29  39  50  64  81 100 122 146 172 200 229 
233 208 184 163 143 126 111  99  89  83  78  75  76  74  80  78  89  84 
101   3  87  94  72  86  61  80  56  75  54  74  56  73  64  23  94  77 
 90 113  56  86  84  91  86  97  91 104  96 113 106 123 116  13  68  51 
 57  42  25  55  11  26  28  20  23  16  18  13  15  11  15  12  18  15 
 24  20  33  29  46  40  61  54  79  70  96  47 108 122  97 103  84  87 
 74  75  66  66  61  59  58  56  56  55  56  54  56  55  56  56  57  57 
 57  58  58  57  60  59  62  60  66  63  72  66  81  71  90  78 102  85 
114  90 126   3  97 127  96 128  98 130 105   9 122  86  98  80  87  72 
 76  66  67  60  60  56  55  53  52  51  50  49  49  49  48  49  48  49 
 48  49  48  49  48  49  48  49  49  50  50  51  52  53  56  57  62  62 
 69  69  80  79  91  91 107 103 132  30  84  95  69  81  55  69  46  59 
 40  54  40  53  44  56  51  63  63  74  77  86  91 100 106 114  39  92 
125 111 107 103  99  97  97  97  99 102 107 112 120 127 135  81  98  93 
 84  79  76  72  71  70  72  74  78  82  87  93 100 106 113  71  59 126 
114 109 105 100  98  97  97 100 103 109 114 123 130 148  14  89  80  68 
 59  48  41  32  27  20  16  12   9   6   5   3   2   1   1   1   0   0 
  0   0   0   0   0   0   0   0   0   0   0   0   0   0   0   0   0   0 
  0   0   0   0   0   0   0   0   0   0   0   0   0   0   0   0   0   0 
  0   0   0   0   0   0   0   0   0   0   0   0   0   0   0   1   1   2 
  2   4   5   8  11  16  22  29  39  50  64  81 100 122 146 172 200 229 
232 207 183 160 140 121 107  93  84  76  71  69  66  70  67  76  71  87 
 77  99  54  75  97  72  90  63  82  60  77  59  75  60  75  66  31  86 
 73 110  53  87  90  86  95  90 102  94 112 103 120 112 129  13  53  61 
 44  51  42  39  22  32  21  24  17  19  13  15  11  14  11  16  14  22 
 19  30  26  42  38  58  53  76  69  95  66 106 120  97 102  82  86  70 
 73  62  63  57  57  54  53  53  52  54  53  55  55  56  56  58  58  59 
 59  60  60  61  60  62  61  65  63  70  65  77  67  85  74  94  78 107 
 83 117  15 104 135 103 136 102 137 105  61 108  81  95  72  84  67  74 
 61  64  56  57  52  52  50  49  48  48  48  47  48  48  48  48  49  48 
 49  48  49  48  49  48  49  48  48  48  48  48  49  50  50  54  54  59 
 59  67  66  78  76  92  87 108 102 126  82  73  96  69  82  56  71  48 
 63  45  60  48  62  55  68  66  78  79  89  93 104 109 100  86 122 112 
107 100  95  92  89  87  87  88  90  94  99 106 112 121 128  86 106  97 
 92  86  81  79  78  79  80  83  87  92  97 103 111 111  31 126 114 106 
101  97  91  90  88  87  88  91  95 100 108 115 126 141  17  94  81  72 
 60  51  41  34  27  21  16  12   9   7   5   3   2   2   1   1   0   0 
  0   0   0   0   0   0   0   0   0   0   0   0   0   0   0   0   0   0 
  0   0   0   0   0   0   0   0   0   0   0   0   0   0   0   0   0   0 
  0   0   0   0   0   0   0   0   0   0   0   0   0   0   0   1   1   2 
  2   4   5   8  11  16  22  29  39  50  64  81 100 122 146 172 200 229 
232 206 180 158 136 118 102  89  78  70  65  61  62  58  65  61  73  67 
 85  74  98  63  57 101  74  93  67  85  62  80  61  78  63  78  45  82 
 80  79 116  15  87  93  88 101  94 109 101 118 109 127 118  24  66  48 
 55  36  43  10  36  22  27  17  21  14  16  11  14  11  15  13  20  18 
 28  25  39  36  53  50  73  67  91  65 103 123  96 103  80  86  68  72 
 59  61  54  54  51  51  51  50  53  52  55  55  58  58  60  60  62  62 
 63  63  64  64  65  65  67  65  70  66  75  68  82  71  90  76 101  78 
112  13 111 142 108 142 109 144  93  54 105  74  93  67  81  62  69  56 
 61  52  54  49  50  47  47  47  47  47  47  48  48  49  49  50  50  51 
 51  52  51  52  50  51  49  50  48  49  48  48  48  48  49  49  52  52 
 58  57  67  64  78  74  94  88 108 101 130  90  57  95  68  83  58  73 
 52  68  51  68  58  73  68  82  82  94  97 107 113  28 115 114 108 101 
 94  90  84  81  78  77  78  80  82  86  92  99 107 115 122  92 111 103 
 98  92  89  86  85  86  89  92  97 102 109 115  14  98 120 109 104  95 
 90  85  82  79  78  78  80  83  87  94 101 111 120 138  22  96  85  73 
 63  52  43  35  28  21  17  12   9   7   5   3   2   2   1   1   0   0 
  0   0   0   0   0   0   0   0   0   0   0   0   0   0   0   0   0   0 
  0   0   0   0   0   0   0   0   0   0   0   0   0   0   0   0   0   0 
  0   0   0   0   0   0   0   0   0   0   0   0   0   0   0   1   1   2 
  2   4   5   8  11  16  22  29  39  50  64  81 100 122 146 172 200 229 
231 204 179 155 134 114  98  84  74  65  59  56  52  56  52  61  55  71 
 63  82  72  96  71  53 106  76  93  69  87  65  82  65  81  68  87  15 
 77  78 102 111  32  89 100  92 105 100 114 105 123 119  75  69  49  59 
 38  14  15  39  25  30  18  23  15  17  12  15  11  14  12  18  16  25 
 23  36  34  51  48  69  65  89  83  57 124  96 107  82  87  67  71  57 
 60  51  52  49  49  49  49  52  51  55  55  59  59  63  63  66  66  68 
 68  70  70  71  70  72  70  74  70  77  71  82  73  89  76  96  77 106 
 46 112 145 114 147 113 149  86  74 101  68  91  62  79  57  67  53  59 
 48  53  46  48  45  46  46  46  47  48  49  49  51  52  53  53  55  55 
 56  55  56  55  55  54  54  52  52  50  50  49  48  48  47  49  48  52 
 50  58  55  67  63  80  73  95  89 113 103 129  94  62  94  68  84  59 
 77  58  75  62  78  71  86  83  96  99 111  45 118 122 109 103  96  89 
 84  78  74  71  70  69  69  71  75  80  86  93 101 109 117  97 115 110 
102  99  93  94  92  95  97 102 106 113  74  81 125 110 105  98  90  85 
 80  75  72  70  69  70  72  76  81  88  96 105 117 133  24 100  87  76 
 63  54  44  36  28  22  17  13   9   7   5   3   2   2   1   1   0   0 
  0   0   0   0   0   0   0   0   0   0   0   0   0   0   0   0   0   0 
  0   0   0   0   0   0   0   0   0   0   0   0   0   0   0   0   0   0 
  0   0   0   0   0   0   0   0   0   0   0   0   0   0   0   1   1   2 
  2   4   5   8  11  16  22  29  39  50  64  81 100 122 146 172 200 229 
231 204 177 154 131 112  95  81  69  60  55  49  50  45  52  46  59  52 
 70  59  83  68  95  75  44 106  78  94  71  88  68  82  68  80  72  76 
 67  70  92 103 108  53  77 110  97 111 102 122 119  53  69  54  64  43 
 23  54  26  27  33  21  24  16  18  12  15  11  14  11  16  15  22  21 
 32  31  46  44  63  61  84  80   3 134  98 105  82  87  66  71  55  59 
 49  51  46  47  47  47  50  50  55  55  61  61  66  66  70  71  74  74 
 76  76  77  77  78  77  79  77  81  77  84  77  89  78  94  78 101  67 
119 148 118 150 118 152 112  57  97  63  87  58  77  52  66  48  58  45 
 51  44  47  44  46  45  47  48  49  51  52  54  55  57  58  60  60  62 
 61  62  61  62  60  61  58  58  56  55  53  52  51  49  49  47  50  48 
 53  50  59  56  70  64  83  76  98  90 116 104 132 109  56  93  68  85 
 63  81  65  83  73  89  84  98 100  91 102 122 117 106 100  91  84  79 
 73  68  66  62  60  62  61  64  68  74  80  88  96 105 112 102 122 114 
109 104 102  99 100 102 107 109 117  56 119 116 108 100  93  86  80  74 
 69  66  63  61  61  62  65  69  75  83  91 102 112 131  27 101  89  76 
 65  54  45  36  29  22  17  13  10   7   5   3   2   2   1   1   0   0 
  0   0   0   0   0   0   0   0   0   0   0   0   0   0   0   0   0   0 
  0   0   0   0   0   0   0   0   0   0   0   0   0   0   0   0   0   0 
  0   0   0   0   0   0   0   0   0   0   0   0   0   0   0   1   1   2 
  2   4   5   8  11  16  22  29  39  50  64  81 100 122 146 172 200 229 
230 203 177 152 130 109  92  78  66  57  49  47  41  44  39  49  42  57 
 47  69  56  82  67  93  73  42 109  79  98  72  88  71  84  71  84  75 
  4  78  65 110  98 103  92  54   6  19  34   1  35  77  56  66  45  28 
 29  65  22  36  22  28  17  21  13  15  11  14  11  15  13  19  19  28 
 28  41  41  58  56  78  75  80 125 104 108  85  89  69  71  55  59  47 
 50  44  46  45  46  49  49  55  55  62  62  70  70  76  76  81  80  84 
 85  85  85  86  86  88  86  88  84  89  83  92  83  97  82  99  87  74 
147 120 149 120 153 116  44  95  62  84  54  75  50  64  45  56  42  50 
 41  47  42  46  45  47  49  50  53  54  58  59  62  63  66  66  69  68 
 70  69  70  69  69  67  67  64  63  60  59  56  55  53  51  52  49  52 
 49  55  51  62  56  73  67  87  79 103  94 119 109 136  86  72  94  71 
 88  69  87  75  91  85 103  94  24 139 120 116 104  98  87  81  75  68 
 63  60  56  54  53  53  56  57  63  68  75  83  91 100 108 107 126 120 
113 110 107 108 107 111 113  18 113 123 113 105  97  89  83  76  70  65 
 60  56  56  54  54  56  59  64  70  78  88  98 110 128  29 104  90  78 
 66  56  45  37  29  23  17  13  10   7   5   4   2   2   1   1   0   0 
  0   0   0   0   0   0   0   0   0   0   0   0   0   0   0   0   0   0 
  0   0   0   0   0   0   0   0   0   0   0   0   0   0   0   0   0   0 
  0   0   0   0   0   0   0   0   0   0   0   0   0   0   0   1   1   2 
  2   4   5   8  11  16  22  29  39  50  64  81 100 122 146 172 200 229 
230 202 175 151 128 108  90  75  63  53  47  40  40  35  41  35  46  39 
 56  46  68  55  80  67  93  73  62 107  81  96  75  88  73  85  75  86 
 77  73  72  88 105  94  99  87  94  77  87  69  79  59  69  49  30  10 
 69  59  40  25  29  19  24  14  18  11  14  10  14  12  17  17  24  25 
 36  37  52  53  71  71  93  25 112 112  89  92  70  74  56  59  47  49 
 43  44  43  44  47  48  54  54  62  62  72  72  80  80  84  82  83  82 
 83  84  88  90  96  95  97  94  96  92  97  90  99  88 103  90   3 144 
122 148 124 153 128  19  95  59  83  52  73  46  64  42  55  40  48  39 
 46  41  46  45  48  50  52  55  57  61  63  67  69  72  73  76  76  79 
 78  80  78  79  77  77  74  73  70  69  65  63  61  58  57  53  54  51 
 55  51  59  54  66  62  78  71  92  84 109  98 127 112 141  85  74  94 
 74  92  77  94  87 100  26 141 134 119 115 102  97  86  81  72  66  60 
 56  51  49  47  47  47  50  53  58  64  71  79  87  97 104 110 131 123 
119 114 114 112 114  80 108 128 116 111 102  95  87  80  73  67  61  56 
 53  49  48  47  48  50  54  59  66  75  84  95 107 126  31 105  92  79 
 67  56  46  37  30  23  18  13  10   7   5   4   2   2   1   1   0   0 
  0   0   0   0   0   0   0   0   0   0   0   0   0   0   0   0   0   0 
  0   0   0   0   0   0   0   0   0   0   0   0   0   0   0   0   0   0 
  0   0   0   0   0   0   0   0   0   0   0   0   0   0   0   1   1   2 
  2   4   5   8  11  16  22  29  39  50  64  81 100 122 146 172 200 229 
230 202 175 149 127 106  88  73  60  51  42  39  33  36  30  38  32  46 
 37  56  45  68  55  81  67  93  68  74 104  84  95  77  89  76  86  78 
 93   2  65  84  97 101  89  95  81  88  71  81  63  73  53  32   0  57 
 81  15  27  35  21  26  15  20  12  15  10  14  11  15  15  21  22  31 
 33  45  48  64  66  86  78 124 118  94  95  74  76  58  61  47  49  42 
 44  40  42  45  46  52  53  63  62  73  76  93  22  48  89  97 107 110 
115 112 102  87  66   9  71 119 107 107  99 105  95 105  93  66 139 121 
145 124 150 129  27  94  59  82  51  72  45  62  40  54  38  49  38  46 
 40  46  45  48  52  53  58  60  65  68  73  75  79  80  84  86  88  90 
 94  94  95  91  88  86  85  82  80  76  75  71  68  65  61  60  56  57 
 55  58  55  63  58  73  66  84  77  99  90 115 104 131 117 143  36  78 
 95  80  97  87 105 104 138 135 118 117 102  97  85  79  70  64  57  53 
 48  45  42  41  41  42  45  49  54  60  67  75  84  93 101 114 133 129 
121 121 118 120  21 125 125 115 111 101  94  86  79  71  65  59  53  49 
 45  43  41  42  43  46  50  55  63  71  82  93 105 124  32 106  92  80 
 68  57  46  38  30  23  18  13  10   7   5   4   2   2   1   1   0   0 
  0   0   0   0   0   0   0   0   0   0   0   0   0   0   0   0   0   0 
  0   0   0   0   0   0   0   0   0   0   0   0   0   0   0   0   0   0 
  0   0   0   0   0   0   0   0   0   0   0   0   0   0   0   1   1   2 
  2   4   5   8  11  16  22  29  39  50  64  81 100 122 146 172 200 229 
229 201 174 149 126 105  87  71  59  48  42  34  34  27  33  27  37  30 
 45  36  56  45  69  56  81  68  91  47  89 103  84  94  79  88  79  88 
 81  68  68  67 102  91  97  84  89  76  83  65  74  52  31   3  52  78 
 71  20  38  23  29  17  22  13  16  10  14  10  14  13  18  19  27  29 
 39  43  56  61  78  80  13 127 102 100  80  80  62  63  49  50  41  43 
 39  42  42  42  50  50  60  59  75  55  22 133 133 132 123 124 117 118 
114 114 112 112 112 113 112  95   3  63 109 108 111  99 117  84 119 139 
123 147 129 105  96  60  82  52  71  43  61  39  53  36  48  36  45  39 
 46  45  50  51  55  61  63  69  73  78  79  86  90 100  84  61  44  18 
  4   4   6   9  39  55  73  95  94  88  82  81  76  72  70  65  65  61 
 62  58  64  60  71  63  81  72  93  85 107  98 124 111 135 121 156  16 
 81  99  87 105  98 132 137 120 119 103  98  85  80  69  64  56  51  45 
 42  38  37  36  36  38  41  45  50  57  64  73  81  91  97 116 138 130 
128 124 124 123  51 124 116 109 102  95  85  79  71  64  57  52  47  42 
 40  37  37  36  39  41  46  52  60  69  80  91 104 123  34 107  93  80 
 68  57  47  38  30  23  18  13  10   7   5   4   2   2   1   1   0   0 
  0   0   0   0   0   0   0   0   0   0   0   0   0   0   0   0   0   0 
  0   0   0   0   0   0   0   0   0   0   0   0   0   0   0   0   0   0 
  0   0   0   0   0   0   0   0   0   0   0   0   0   0   0   1   1   2 
  2   4   5   8  11  16  22  29  39  50  64  81 100 122 146 172 200 229 
229 201 174 148 125 104  86  70  57  48  38  35  28  30  24  31  25  37 
 29  46  37  57  47  69  58  80  69  93  29  99 102  84  94  81  89  81 
 90  87  46  65  96  99  86  92  78  85  68  77  50  29  13  44  73  64 
 68  40  26  32  19  24  14  18  11  14  10  13  11  16  16  23  25  34 
 38  49  54  70  74  89  83 110 107  87  85  67  66  52  52  42  43  38 
 39  40  41  47  47  58  57  70   3 141 142 132 130 121 121 113 113 108 
107 105 105 103 104 104 105 105 108 103  97  11 111 118   3 114 132 121 
142 127 135  87  63  80  54  70  45  60  39  53  36  47  35  45  38  46 
 44  50  52  58  62  66  71  75  83  85  92 100  34  81 112 115 114 115 
112 114 112 115 114 115 113 110  16  92 100  89  85  82  77  75  70  71 
 65  70  65  70  65  78  72  88  82 101  94 115 107 129 118 141  76  81 
 99  87 104  96 114 138 123 122 105 103  88  82  71  65  56  51  44  40 
 36  34  32  32  32  34  37  42  48  54  62  70  79  88  96 120 140 135 
130 130 127 130  48 117 111 101  96  87  80  71  65  57  51  46  41  37 
 34  33  32  33  35  39  43  50  58  67  78  90 103 122  34 108  94  81 
 68  57  47  38  30  24  18  14  10   7   5   4   2   2   1   1   0   0 
  0   0   0   0   0   0   0   0   0   0   0   0   0   0   0   0   0   0 
  0   0   0   0   0   0   0   0   0   0   0   0   0   0   0   0   0   0 
  0   0   0   0   0   0   0   0   0   0   0   0   0   0   0   1   1   2 
  2   4   5   8  11  16  22  29  39  50  64  81 100 122 146 172 200 229 
229 201 173 148 124 103  85  69  57  45  39  31  29  23  27  22  30  24 
 37  30  47  38  58  49  70  61  81  71  92  33  94  98  86  92  82  90 
 83  94  30  65  87  92  94  83  86  74  78  45  32  13  38  69  61  77 
 33  28  35  21  27  16  20  12  15  10  13  10  14  14  19  21  29  32 
 43  48  61  67  83  82 106 114  96  91  73  71  56  55  44  44  38  38 
 38  37  44  43  54  54  72  32 146 145 132 131 120 120 110 110 103 103 
 98  98  96  96  95  97  95  99  99 103 102 108  94  25 103 124 117 135 
125 146   1  69  81  57  71  47  61  40  52  35  47  35  44  38  46  44 
 51  53  57  64  68  76  80  85  99  78  26 102 116 111 108 105 104 102 
102 100 102 101 104 104 108 110 114 117  60  33 105  91  88  83  82  76 
 77  72  75  72  79  75  87  83  97  92 111 105 124 115 140   4  85  98 
 86 102  94 109 106 123 126 110 106  90  86  74  68  58  53  45  40  35 
 32  30  29  28  29  31  35  40  45  52  60  69  77  86  93 121 143 137 
135 130 133 132  42 114 104  98  89  82  74  66  59  52  46  41  37  32 
 31  28  29  29  32  35  41  48  56  66  77  89 102 121  35 108  94  81 
 69  57  47  38  30  24  18  14  10   7   5   4   2   2   1   1   0   0 
  0   0   0   0   0   0   0   0   0   0   0   0   0   0   0   0   0   0 
  0   0   0   0   0   0   0   0   0   0   0   0   0   0   0   0   0   0 
  0   0   0   0   0   0   0   0   0   0   0   0   0   0   0   1   1   2 
  2   4   5   8  11  16  22  29  39  50  64  81 100 122 146 172 200 229 
229 201 173 148 124 103  84  69  55  46  36  32  25  26  21  26  21  31 
 25  38  32  48  41  60  52  71  63  83  77  94  92  93  95  88  91  84 
 90  89  99  64  71  97  87  88  79  80  39  34  17  40  65  57  73  73 
  2  37  24  29  18  22  13  16  10  13  10  13  12  16  18  24  27  36 
 40  53  59  74  79  74 132 104 100  81  77  62  59  47  46  39  38  37 
 36  41  40  49  51  62  15 150 148 135 135 122 122 110 110 101 100  94 
 94  90  91  89  90  89  91  91  95  95  99  99 107 106 117 113 128 122 
140  92  87  82  62  70  50  60  41  52  36  46  34  44  37  45  43  50 
 53  58  65  69  76  82  92  87   8 120 113 110 103 101  96  94  91  89 
 89  90  87  91  90  94  95  99 100 107 110 115  70  87  99  94  89  89 
 82  83  80  83  80  89  85  96  93 108 105 121 119 120  58  87  97  86 
 98  91 106 101 119 128 118 112  98  92  78  73  61  56  47  42  36  32 
 29  27  26  26  27  29  33  38  44  51  59  67  76  84  92 124 144 139 
135 136 134 138  40 108 102  92  86  77  70  62  55  48  42  38  32  30 
 27  27  26  28  30  34  39  46  55  65  76  88 101 121  35 108  95  81 
 69  58  47  38  30  24  18  14  10   7   5   4   2   2   1   1   0   0 
  0   0   0   0   0   0   0   0   0   0   0   0   0   0   0   0   0   0 
  0   0   0   0   0   0   0   0   0   0   0   0   0   0   0   0   0   0 
  0   0   0   0   0   0   0   0   0   0   0   0   0   0   0   1   1   2 
  2   4   5   8  11  16  22  29  39  50  64  81 100 122 146 172 200 229 
229 201 173 147 124 103  85  68  56  44  38  30  28  22  25  20  27  22 
 32  27  40  34  50  44  62  54  74  69  84  81  68  99  93  95  87  91 
 88  91  93  17  63  93  92  84  69  38  38  17  39  63  54  68  63  63 
 41  27  32  21  24  15  18  11  14   9  12  10  14  15  20  22  30  35 
 45  50  64  70  87  14 121 107  92  85  69  65  52  49  41  39  36  35 
 38  37  45  45  56  64  95 156 140 141 125 126 112 112 100 101  93  92 
 88  87  85  85  84  85  86  88  89  93  93  99 100 109 108 119 118 132 
126  46  84  64  72  53  60  43  51  37  45  35  43  37  44  43  50  52 
 59  64  70  77  84  97  46  92 115 107 103  96  94  88  87  82  80  78 
 79  76  78  77  80  81  85  86  91  94  98 102 108 107   2 115 101  95 
 95  91  91  89  94  91 100  98 108 106 119 122  66  86  88  94  84  94 
 87 101  96 112 110 121 118 105 100  85  79  67  61  51  46  38  34  30 
 27  25  24  24  25  28  32  37  43  50  57  66  74  84  90 125 147 141 
139 135 138 139  35 107  97  90  82  75  66  59  52  45  40  34  31  27 
 26  24  25  25  29  32  38  45  54  64  75  87 100 120  36 109  95  82 
 69  58  47  38  30  24  18  14  10   7   5   4   2   2   1   1   0   0 
  0   0   0   0   0   0   0   0   0   0   0   0   0   0   0   0   0   0 
  0   0   0   0   0   0   0   0   0   0   0   0   0   0   0   0   0   0 
  0   0   0   0   0   0   0   0   0   0   0   0   0   0   0   1   1   2 
  2   4   5   8  11  16  22  29  39  50  64  81 100 122 146 172 200 229 
229 201 173 148 124 103  84  69  55  46  36  32  25  25  21  25  21  28 
 24  34  30  43  38  53  49  64  60  76  74  87  85  23 103  92  92  90 
 91  89  92  22  59  95  82  60  38  43  11  44  55  51  66  61  77  13 
 31  35  24  27  17  20  12  15  10  12  10  12  12  16  18  24  29  37 
 43  55  62  76  84  18 123 103  95  78  72  59  55  45  42  37  36  36 
 36  41  41  50  51  68 163 147 148 131 132 116 117 104 104  94  94  87 
 87  83  83  81  82  82  83  84  87  87  92  95 102 104 113 114 126 126 
 91  86  72  75  58  62  46  53  39  45  35  42  36  43  42  49  51  58 
 64  70  79  85  95   4 117 112 103  99  91  88  81  79  72  73  68  69 
 66  67  66  68  68  71  72  77  79  84  87  92  97 100 106  28 111 108 
103 104  99 102  99 104 103 111 110 120 118  16  99  85  93  82  91  83 
 94  90 104 104 118 126 115 109  94  88  74  68  57  51  43  38  32  29 
 25  24  23  23  24  27  31  36  42  49  57  65  74  82  90 127 146 143 
138 139 138 142  35 105  97  88  81  72  65  57  50  44  37  34  28  27 
 23  24  23  25  27  32  37  45  53  63  74  87 100 120  36 109  95  82 
 69  58  47  38  30  24  18  14  10   7   5   4   2   2   1   1   0   0 
  0   0   0   0   0   0   0   0   0   0   0   0   0   0   0   0   0   0 
  0   0   0   0   0   0   0   0   0   0   0   0   0   0   0   0   0   0 
  0   0   0   0   0   0   0   0   0   0   0   0   0   0   0   1   1   2 
  2   4   5   8  11  16  22  29  39  50  64  81 100 122 146 172 200 229 
229 201 173 148 124 103  85  69  56  45  38  30  28  23  25  21  26  23 
 31  27  38  34  46  43  57  53  68  67  79  77  88  90  81  96  91  89 
 89  91  91  55  63  66  52  45  46   1  42  49  48  58  58  70  53  33 
 37  26  30  20  22  14  16  11  12   9  11  10  14  15  20  23  31  36 
 46  53  66  74  89  53 117 106  89  82  67  62  50  46  39  37  35  33 
 37  36  45  43  58  21 154 155 139 140 124 124 110 110  99  99  90  90 
 84  84  81  81  79  81  82  84  85  89  91  97  98 108 110 120 120 134 
 64  78  77  62  63  50  53  41  45  36  41  36  42  41  47  50  57  63 
 69  80  83 104  30 114 111  99  96  86  83  75  73  66  65  60  60  57 
 57  55  57  56  59  59  63  65  69  72  77  80  86  91  95 100  63 115 
115 113 112 110 113 111 116 118 122 117  65  95  83  89  79  86  79  88 
 84  96  95 110 111 121 119 104  98  85  77  65  59  49  44  37  32  28 
 25  23  22  23  24  27  30  35  41  49  56  65  73  82  89 126 149 143 
141 138 140 141  34 104  95  87  80  72  64  56  50  43  38  32  29  25 
 24  22  23  24  28  31  37  44  53  63  74  86 100 120  36 109  95  82 
 69  58  47  38  30  24  18  14  10   7   5   4   2   2   1   1   0   0 
  0   0   0   0   0   0   0   0   0   0   0   0   0   0   0   0   0   0 
  0   0   0   0   0   0   0   0   0   0   0   0   0   0   0   0   0   0 
  0   0   0   0   0   0   0   0   0   0   0   0   0   0   0   1   1   2 
  2   4   5   8  11  16  22  29  39  50  64  81 100 122 146 172 200 229 
229 201 173 148 124 104  85  70  55  47  37  33  27  27  23  26  23  29 
 26  34  32  41  39  51  49  61  61  72  73  82  84  92  41  95  92  91 
 89  92  91  85  65  55  54  44  12  37  44  45  53  53  65  70  14  42 
 30  33  23  25  17  18  12  13  10  11   9  12  12  16  19  25  29  38 
 44  55  63  77  85  50 119 100  92  77  71  57  53  44  40  36  34  35 
 33  40  38  50  49  63 163 148 149 133 133 118 119 106 106  96  95  88 
 88  84  83  81  82  82  83  84  87  89  94  97 103 107 115 119 129  67 
 91  80  66  65  53  54  43  45  37  41  36  41  40  46  50  54  63  69 
 78  83 100  50 114 108  96  94  82  80  70  68  60  59  53  53  49  49 
 46  47  46  48  48  51  52  56  58  63  66  71  75  80  85  88  92  35 
137 126 123 123 123 124 124 138  53  79  90  81  84  76  80  74  81  77 
 88  86  99 101 115 128 116 110  95  88  75  68  58  52  43  39  33  29 
 25  23  22  22  24  26  30  35  41  48  56  64  73  81  89 127 148 144 
140 140 139 142  34 104  96  87  80  73  64  57  51  45  37  34  28  27 
 23  24  22  26  26  32  36  44  52  63  74  87 100 120  36 109  95  82 
 69  58  47  38  30  24  18  14  10   7   5   4   2   2   1   1   0   0 
  0   0   0   0   0   0   0   0   0   0   0   0   0   0   0   0   0   0 
  0   0   0   0   0   0   0   0   0   0   0   0   0   0   0   0   0   0 
  0   0   0   0   0   0   0   0   0   0   0   0   0   0   0   1   1   2 
  2   4   5   8  11  16  22  29  39  50  64  81 100 122 146 172 200 229 
229 201 174 148 125 104  86  70  58  47  39  33  30  25  27  23  28  26 
 32  30  37  37  46  46  55  56  65  67  74  79  86  90  94  71  95  91 
 91  90  92 102  53  58  34  28  32  35  40  47  50  57  61  25  44  35 
 35  27  27  20  20  14  15  10  11   9  11  10  13  15  20  23  30  36 
 46  53  66  74  88  36 117 105  88  82  67  62  50  46  39  36  34  34 
 35  35  44  41  55  61  96 159 143 144 127 129 115 115 104 104  95  95 
 89  88  85  85  84  85  86  87  89  93  96 101 105 112 116 125 129  19 
 82  72  68  57  55  46  46  38  40  36  39  39  45  47  52  61  66  76 
 82  99  18 114 108  96  92  80  77  67  64  56  54  48  47  42  42  39 
 39  37  39  38  41  41  44  46  50  52  57  61  66  69  74  78  82  86 
 11 136 134 133 133 134 130  15  85  83  78  78  72  74  69  74  70  79 
 78  89  90 104 107 125 122 108 101  87  79  68  61  51  46  39  34  30 
 27  24  23  23  24  27  30  35  41  49  56  65  73  82  88 126 148 143 
140 138 139 140  35 105  97  89  82  75  67  58  52  45  41  34  31  26 
 26  22  25  24  28  31  38  44  53  62  74  86 100 120  36 109  95  82 
 69  58  47  38  30  24  18  14  10   7   5   4   2   2   1   1   0   0 
  0   0   0   0   0   0   0   0   0   0   0   0   0   0   0   0   0   0 
  0   0   0   0   0   0   0   0   0   0   0   0   0   0   0   0   0   0 
  0   0   0   0   0   0   0   0   0   0   0   0   0   0   0   1   1   2 
  2   4   5   8  11  16  22  29  39  50  64  81 100 122 146 172 200 229 
229 201 174 149 125 105  86  72  58  49  40  36  29  30  26  29  27  32 
 31  37  36  43  43  52  52  60  62  71  74  81  85  90  95  64 102  95 
 88  92  91 100  13   0  23  29  30  36  42  45  51  55  61  43  40  39 
 31  30  24  23  17  16  12  12   9  10   9  11  12  16  18  24  29  37 
 42  55  62  76  84  11 123 101  94  78  72  58  54  44  41  36  34  35 
 33  37  37  47  45  60  42 142 154 139 140 126 126 114 114 104 104  97 
 96  92  92  90  90  89  91  92  94  97 101 105 110 115 122 126 137  79 
 75  71  60  57  48  46  40  40  36  38  38  42  45  51  57  64  72  80 
 92   9 115 109  96  92  79  76  64  62  52  51  43  42  37  36  33  33 
 31  31  30  32  32  35  35  39  41  45  47  52  55  60  64  69  72  74 
 78  77 150 142 144 128  46  78  77  72  72  68  68  64  67  64  70  69 
 78  80  92  95 108 133 122 115 101  93  80  73  63  57  48  42  36  32 
 28  26  25  24  25  27  31  35  42  48  57  64  74  82  90 127 147 143 
138 138 137 139  37 107  99  93  84  77  69  63  55  49  41  38  31  30 
 25  26  24  26  27  33  37  45  53  63  74  87 100 120  36 109  95  82 
 69  58  47  38  30  24  18  14  10   7   5   4   2   2   1   1   0   0 
  0   0   0   0   0   0   0   0   0   0   0   0   0   0   0   0   0   0 
  0   0   0   0   0   0   0   0   0   0   0   0   0   0   0   0   0   0 
  0   0   0   0   0   0   0   0   0   0   0   0   0   0   0   1   1   2 
  2   4   5   8  11  16  22  29  39  50  64  81 100 122 146 172 200 229 
229 201 174 149 126 105  88  72  60  48  43  36  34  14  22  25  33  31 
 37  36  42  42  49  50  56  59  66  70  70  72  72  68  58  61  46  89 
 93  88  93  94  61  15  24  24  32  36  41  46  51  57  31  47  41  37 
 34  28  26  20  19  14  13  10  10   9  10  10  13  14  19  22  30  34 
 45  51  64  71  87  18 121 108  90  85  69  64  51  49  40  38  35  33 
 35  34  41  40  51  48  63  61  58 138 137 137 125 126 115 115 107 107 
101 100  97  97  95  96  96  98 100 103 107 111 116 122 127 134  57  86 
 73  63  58  51  47  41  40  37  37  37  41  43  47  55  60  70  76  90 
 78 113 110  98  92  79  75  63  60  50  48  40  39  33  32  28  28  25 
 26  24  25  25  27  27  30  31  34  36  41  43  48  50  56  57  63  63 
 68  69 126 161  81  68  72  69  68  65  63  60  58  60  57  62  61  68 
 69  80  83  96 100 133 130 115 108  95  87  75  68  59  52  46  40  35 
 31  28  26  26  26  29  31  36  42  49  56  65  74  83  90 125 146 141 
138 135 135 136  40 110 103  95  89  81  74  65  60  51  47  38  37  30 
 28  25  27  26  30  32  38  44  53  63  74  86 100 120  36 109  95  82 
 69  58  47  38  30  24  18  14  10   7   5   4   2   2   1   1   0   0 
  0   0   0   0   0   0   0   0   0   0   0   0   0   0   0   0   0   0 
  0   0   0   0   0   0   0   0   0   0   0   0   0   0   0   0   0   0 
  0   0   0   0   0   0   0   0   0   0   0   0   0   0   0   1   1   2 
  2   4   5   8  11  16  22  29  39  50  64  81 100 122 146 172 200 229 
229 201 174 149 126 106  88  74  60  52  43  40  34   4   8   5   7   4 
 11  20  24  33  33  34  34  38  33  32  40  42  48  51  59  56  25  97 
 88  94  88  98  66  18  20  28  29  36  38  47  53   5  52  47  42  38 
 33  29  24  21  17  15  12  11   9   9   9  10  11  15  17  23  27  36 
 41  53  59  74  79  72 131 103  99  81  77  61  58  46  44  37  36  34 
 33  36  35  42  41  54  50  63  64  77   2 101 135 125 125 119 118 111 
111 106 107 104 105 104 105 106 107 111 114 118 123 128 134 140  57  75 
 65  59  53  48  43  40  37  36  36  37  41  44  51  56  66  73  85  92 
 94 115 100  94  81  76  63  60  49  47  38  37  30  29  24  24  21  21 
 19  20  19  20  20  22  23  26  27  31  32  37  39  44  46  51  52  57 
 57  60   1  23  60  63  60  61  57  57  54  53  53  51  54  53  59  59 
 68  71  82  87  99 142 131 124 110 103  91  83  73  66  57  49  43  38 
 34  30  28  27  28  29  33  37  43  49  58  65  75  83  91 124 144 139 
135 133 132 133  44 115 106 101  92  86  76  73  62  58  49  45  37  36 
 29  30  27  29  29  34  38  46  53  64  74  87 100 120  36 109  95  82 
 69  58  47  38  30  24  18  14  10   7   5   4   2   2   1   1   0   0 
  0   0   0   0   0   0   0   0   0   0   0   0   0   0   0   0   0   0 
  0   0   0   0   0   0   0   0   0   0   0   0   0   0   0   0   0   0 
  0   0   0   0   0   0   0   0   0   0   0   0   0   0   0   1   1   2 
  2   4   5   8  11  16  22  29  39  50  64  81 100 122 146 172 200 229 
230 201 175 149 127 106  89  74  63  52  47  40  39   5   3   2   0   1 
  3   4   9   9  15  18  24  28  32  35  39  46  48  54  56  67  51  76 
 96  88  94  90  80  14  24  24  31  34  42  47   3  59  52  46  42  37 
 32  29  25  21  18  15  13  11  10   9   9  10  12  13  18  21  28  32 
 43  47  62  67  84  82 108 114  94  91  73  70  55  54  43  42  36  36 
 35  33  39  37  44  43  55  53  66  65  80  85  73  39  16  29  60 101 
117 118 114 114 113 113 114 115 117 119 121 126 130 134 141 124  77  66 
 62  54  49  44  40  37  35  35  36  38  41  47  52  61  68  79  88  39 
118 103  98  83  77  65  61  48  47  37  35  28  27  22  21  18  18  15 
 16  14  15  15  16  17  19  20  22  24  27  29  33  35  39  41  46  46 
 51  50  54  52  54  51  54  50  51  47  47  46  45  46  46  50  50  57 
 59  70  73  86  90 143 140 126 119 106  98  87  80  75  32  51  46  41 
 37  33  30  29  29  31  33  38  43  50  58  67  75  85  92 122 143 137 
133 129 129 129  48 119 113 104 100  92  86  75  76  52  42  47  42  36 
 36  30  31  29  32  34  40  45  54  63  75  87 100 120  36 109  95  82 
 69  58  47  38  30  24  18  14  10   7   5   4   2   2   1   1   0   0 
  0   0   0   0   0   0   0   0   0   0   0   0   0   0   0   0   0   0 
  0   0   0   0   0   0   0   0   0   0   0   0   0   0   0   0   0   0 
  0   0   0   0   0   0   0   0   0   0   0   0   0   0   0   1   1   2 
  2   4   5   8  11  16  22  29  39  50  64  81 100 122 146 172 200 229 
230 202 175 150 127 108  89  76  63  55  47  44  39  18   1   2   2   6 
  7  11  12  17  19  24  26  30  33  38  44  46  50  45  33  10  15  28 
 88  95  88  97  78  19  20  28  27  38  40  12  64  56  52  47  43  36 
 34  27  25  21  18  15  13  11  10   9   9  10  11  14  16  22  24  34 
 37  50  53  70  74  89  90 109 106  86  85  66  65  51  50  40  40  36 
 35  36  34  40  38  47  44  55  54  65  63  74  74  83  82  94  98 108 
108  77  37   2  42  77  92 101 115 126 131 135 138 143 147  87  66  61 
 55  49  45  40  37  35  34  34  36  38  43  47  55  62  74  82 106  95 
109 103  87  82  68  63  51  48  37  35  27  26  20  19  15  15  13  13 
 11  12  11  12  12  14  14  16  17  20  21  25  26  30  31  36  36  41 
 40  45  41  47  43  46  42  45  40  42  39  40  39  39  42  42  48  49 
 58  61  72  76  88 153 142 136 122 115 102  98  76  45 171  53  52  45 
 40  36  33  31  31  32  35  38  45  51  59  67  77  85  94 121 140 135 
129 127 125 125  53 125 117 112 104  97  92  86   0 183  22  53  45  42 
 35  35  31  32  32  36  40  47  54  64  75  87 100 120  36 109  95  82 
 69  58  47  38  30  24  18  14  10   7   5   4   2   2   1   1   0   0 
  0   0   0   0   0   0   0   0   0   0   0   0   0   0   0   0   0   0 
  0   0   0   0   0   0   0   0   0   0   0   0   0   0   0   0   0   0 
  0   0   0   0   0   0   0   0   0   0   0   0   0   0   0   1   1   2 
  2   4   5   8  11  16  22  29  39  50  64  81 100 122 146 172 200 229 
230 202 175 150 128 107  91  76  66  55  50  44  43  36   4   5   7   8 
 12  13  18  20  24  26  31  35  40  39  17   5  19  18  22  13  16  12 
 83  87  96  90  87  14  26  22  34  34   5  71  59  59  50  49  42  39 
 32  30  24  22  17  16  12  11   9   9   9   9  11  12  16  18  26  29 
 39  42  57  60  79  81  33 126 101 100  79  80  61  62  48  48  39  39 
 36  34  37  35  41  39  47  45  54  54  64  62  71  71  79  78  85  84 
 90  89  93  94  97  96  91  82  75  66  36  21  83 150 156  51  59  56 
 50  45  40  37  34  33  32  34  35  40  43  51  57  67  75  89  22 115 
107  93  86  72  66  53  50  39  36  27  26  19  19  14  14  11  11   9 
  9   8   9   8  10  10  11  12  14  15  18  18  22  23  27  27  32  31 
 36  33  38  35  39  34  38  34  36  32  34  33  33  34  35  39  40  47 
 49  59  63  75  78 155 153 139 132 119 116  63 137 171 147  58  56  50 
 44  39  35  34  32  34  36  40  45  52  59  69  77  87  95 119 139 131 
127 122 121 120  58 130 124 117 112 105  90 111 168 173  32  56  52  43 
 41  35  35  32  35  36  42  47  55  64  75  87 100 120  36 109  95  82 
 69  58  47  38  30  24  18  14  10   7   5   4   2   2   1   1   0   0 
  0   0   0   0   0   0   0   0   0   0   0   0   0   0   0   0   0   0 
  0   0   0   0   0   0   0   0   0   0   0   0   0   0   0   0   0   0 
  0   0   0   0   0   0   0   0   0   0   0   0   0   0   0   1   1   2 
  2   4   5   8  11  16  22  29  39  50  64  81 100 122 146 172 200 229 
230 202 175 151 128 109  91  78  66  58  51  48  16  70  55  41  30  21 
 17  10   8   8   7  10  14  22  30  36  30  26  20  21  13  18   8  17 
 53  95  89  99  77  22  19  31  31  11  76  66  64  52  52  44  45  36 
 34  28  26  21  19  15  14  10  10   8   9   9  10  13  14  20  21  31 
 33  46  48  65  66  87  53 131 117  94  96  74  76  58  59  47  47  39 
 39  37  36  38  37  42  40  48  46  54  53  61  60  67  68  74  74  78 
 78  81  81  83  83  83  84  83  82  79  79  80  80  79  36  35  53  49 
 44  39  36  33  32  30  31  32  36  39  46  51  62  68  84  88  70 115 
 99  92  77  71  57  53  41  38  29  26  20  18  13  13  10   9   7   7 
  6   7   6   7   7   8   8  10  10  12  13  16  16  20  20  24  23  28 
 26  31  28  32  28  32  28  31  27  29  27  28  28  29  31  32  38  39 
 48  50  61  65  77 166 156 151 137 129   6 143 155 162 142  65  61  54 
 48  42  39  35  35  35  37  41  46  52  61  69  79  88  97 117 136 129 
122 118 116 115  64 136 130 126 124  33 135 155 165 165  35  63  53  50 
 42  40  35  36  35  39  41  48  55  65  75  87 100 120  36 109  95  82 
 69  58  47  38  30  24  18  14  10   7   5   4   2   2   1   1   0   0 
  0   0   0   0   0   0   0   0   0   0   0   0   0   0   0   0   0   0 
  0   0   0   0   0   0   0   0   0   0   0   0   0   0   0   0   0   0 
  0   0   0   0   0   0   0   0   0   0   0   0   0   0   0   1   1   2 
  2   4   5   8  11  16  22  29  39  50  64  81 100 122 146 172 200 229 
230 202 176 151 129 109  93  78  68  58  54  48  31  67  66  66  61  62 
 57  57  52  48  44  43  40  37  33  30  28  21  21  15  17  10  14   8 
 20  93  98  92  78  14  28  26  28  82  59  40  22  21  13  11  21  40 
 33  31  24  23  18  17  12  12   9   9   8   9  10  11  15  16  23  24 
 36  37  52  53  72  70  94  73 111 114  89  91  70  73  57  58  46  47 
 40  40  39  37  40  38  43  41  48  46  53  51  58  57  63  62  67  67 
 70  71  73  73  74  74  74  73  72  70  68  66  62  60  55  52  46  44 
 39  35  32  30  29  29  29  33  35  41  45  55  62  74  83  87 107 106 
 99  83  77  62  57  45  41  31  28  21  19  14  13   9   9   6   6   5 
  5   4   5   5   5   5   6   7   8   9  11  11  14  14  18  17  21  19 
 24  21  26  22  27  23  26  22  25  22  24  23  24  25  26  30  31  38 
 39  49  52  63  67 168 167 153 128  92 125 138 146 157 136  67  66  58 
 51  46  41  38  36  37  38  42  47  54  61  71  79  90  98 114 134 125 
120 113 111 110  71 142 138 131  56 134 139 151 156 161  43  66  60  51 
 48  41  40  36  38  38  43  48  56  65  76  87 101 120  36 109  95  82 
 69  58  47  38  30  24  18  14  10   7   5   4   2   2   1   1   0   0 
  0   0   0   0   0   0   0   0   0   0   0   0   0   0   0   0   0   0 
  0   0   0   0   0   0   0   0   0   0   0   0   0   0   0   0   0   0 
  0   0   0   0   0   0   0   0   0   0   0   0   0   0   0   1   1   2 
  2   4   5   8  11  16  22  29  39  50  64  81 100 122 146 172 200 229 
230 202 176 152 129 110  93  80  68  61  53  52  47  67  65  61  60  57 
 53  50  48  42  42  39  36  33  29  27  23  22  16  17  12  14   9  13 
  5  74  89 101  57  25  17  55  85  45  36  26  27  17  19   7   8   2 
 24  29  28  21  20  15  15  11  10   8   8   8   9  11  12  17  18  27 
 26  41  41  58  57  78  76  60 127 104 108  87  89  67  73  55  58  47 
 48  42  41  40  39  41  39  44  42  47  45  51  50  55  54  58  58  61 
 62  64  64  65  65  65  65  64  63  62  60  58  55  51  49  45  41  36 
 34  30  29  27  27  27  29  31  36  40  48  54  66  72  92  49 115 107 
 91  83  69  62  49  45  34  31  22  20  14  13   9   9   6   6   4   4 
  3   4   3   4   3   4   4   6   6   7   7  10   9  13  12  16  14  18 
 16  20  17  21  18  21  18  21  18  20  18  19  20  20  23  24  29  30 
 39  40  51  53  63 180 176  32  99 108 120 129 141 150 129  74  71  63 
 55  49  44  40  38  38  40  43  48  54  63  71  81  91 101 113 130 123 
115 110 106 103  74 153  55  93 120 126 135 142 153 153  46  73  62  57 
 49  46  40  40  38  41  43  49  56  66  76  88 100 120  36 109  95  82 
 69  58  47  38  30  24  18  14  10   7   5   4   2   2   1   1   0   0 
  0   0   0   0   0   0   0   0   0   0   0   0   0   0   0   0   0   0 
  0   0   0   0   0   0   0   0   0   0   0   0   0   0   0   0   0   0 
  0   0   0   0   0   0   0   0   0   0   0   0   0   0   0   1   1   2 
  2   4   5   8  11  16  22  29  39  50  64  81 100 122 146 172 200 229 
230 202 176 152 130 110  94  80  70  61  57  52  52  43  61  61  55  54 
 48  47  43  41  37  34  31  29  26  23  22  18  18  14  15   9  13   8 
 16  32  99  94  53   7  82  90  57  43  31  34  14  14   3   8   5   4 
  6  28  25  25  18  18  13  13   9   9   8   8   9   9  13  13  20  20 
 31  30  46  44  64  61  84  80  60 130 100 107  82  88  66  71  56  58 
 49  49  44  43  43  41  43  41  44  43  47  45  49  49  52  52  54  54 
 56  57  58  58  57  58  58  57  56  54  53  50  48  46  42  38  37  33 
 30  28  26  25  24  26  27  32  35  42  47  58  65  79  94  27 116 100 
 92  76  69  55  50  38  34  25  23  16  14  10   9   6   6   4   4   3 
  3   2   3   2   3   3   4   4   5   5   7   6   9   8  11  10  14  11 
 16  13  17  13  17  14  17  14  16  14  16  15  16  18  18  22  23  30 
 31  40  40  52  53 148  30  85  89 104 111 124 133 145 125  79  76  66 
 59  52  46  42  40  40  41  44  49  56  63  73  82  93 102 110 128 119 
112 106 101  99  66   3 102 107 112 119 126 137 145 149  54  75  69  59 
 54  46  44  40  41  41  45  49  57  65  76  88 101 120  36 109  95  82 
 69  58  47  38  30  24  18  14  10   7   5   4   2   2   1   1   0   0 
  0   0   0   0   0   0   0   0   0   0   0   0   0   0   0   0   0   0 
  0   0   0   0   0   0   0   0   0   0   0   0   0   0   0   0   0   0 
  0   0   0   0   0   0   0   0   0   0   0   0   0   0   0   1   1   2 
  2   4   5   8  11  16  22  29  39  50  64  81 100 122 146 172 200 229 
230 203 176 152 130 111  94  81  70  63  57  55  52  12  66  56  56  49 
 48  44  42  37  35  32  29  27  24  23  20  19  14  15   9  14   9  14 
  9  24  88 108  53  89  92  82  48  37  10  43  45  56  55  62  51   9 
  1   2  29  22  22  15  15  11  11   8   8   8   8  10  10  15  14  23 
 22  35  33  51  47  69  64  89  82  94 122 100 104  81  87  68  72  58 
 60  51  51  47  46  45  43  45  43  46  44  47  46  48  48  50  50  51 
 51  52  52  53  52  52  52  51  50  48  46  45  43  39  38  34  31  30 
 26  24  23  22  23  24  27  30  36  41  51  57  70  77 103  91 109 101 
 85  78  63  57  44  39  29  26  18  16  11  10   7   6   4   4   2   2 
  2   2   2   2   2   2   2   3   3   4   4   6   5   8   7  10   8  12 
  9  13  10  14  10  14  11  14  11  13  12  13  13  14  17  17  22  23 
 30  31  41  43  53  51  70  73  88  94 107 116 129 138 119  85  79  72 
 62  54  49  44  42  41  42  45  50  56  64  73  84  94 104 109 125 116 
108 101  97  93  87  93  96  99 106 112 122 129 141 142  57  82  71  64 
 55  50  44  43  41  43  45  51  57  66  76  88 101 120  36 109  95  82 
 69  58  47  38  30  24  18  14  10   7   5   4   2   2   1   1   0   0 
  0   0   0   0   0   0   0   0   0   0   0   0   0   0   0   0   0   0 
  0   0   0   0   0   0   0   0   0   0   0   0   0   0   0   0   0   0 
  0   0   0   0   0   0   0   0   0   0   0   0   0   0   0   1   1   2 
  2   4   5   8  11  16  22  29  39  50  64  81 100 122 146 172 200 229 
230 203 177 152 131 111  95  81  71  62  58  54  52  52  55  57  51  50 
 45  44  40  36  33  30  27  25  24  20  19  14  16  13  15   9  14   9 
 17  10  82  83  92  95  85  88  34  15  49  44  52  49  61  61  73  76 
 38   6  26  26  18  19  13  13   9   9   7   7   8   8  11  10  17  16 
 26  24  39  35  55  49  73  67  91  48 118 123  96 104  82  87  70  73 
 61  62  55  54  51  49  48  46  47  45  47  46  47  46  48  47  49  48 
 49  49  49  49  49  48  48  46  45  43  42  40  38  35  33  30  28  25 
 24  22  21  21  21  24  26  31  35  43  49  61  68  82  99 120 110  95 
 87  72  65  51  46  34  31  22  19  13  12   8   7   4   4   2   2   2 
  2   1   1   1   2   1   2   2   3   3   4   3   6   4   7   6   9   7 
 10   7  11   8  12   8  11   8  11   9  11  10  11  12  13  17  17  23 
 23  31  32  41  44  56  60  72  78  91  99 112 120 135 114  88  84  74 
 65  57  51  46  43  42  43  46  50  57  65  75  84  96 105 106 123 113 
105  98  93  89  88  87  90  94  99 106 115 125 133 139  63  84  76  65 
 59  51  47  43  43  43  46  50  58  66  77  88 101 120  36 109  95  82 
 69  58  47  38  30  24  18  14  10   7   5   4   2   2   1   1   0   0 
  0   0   0   0   0   0   0   0   0   0   0   0   0   0   0   0   0   0 
  0   0   0   0   0   0   0   0   0   0   0   0   0   0   0   0   0   0 
  0   0   0   0   0   0   0   0   0   0   0   0   0   0   0   1   1   2 
  2   4   5   8  11  16  22  29  39  50  64  81 100 122 146 172 200 229 
230 203 176 152 130 111  95  82  70  64  58  56  54  51  35  55  52  48 
 46  41  38  34  32  29  26  24  21  20  18  16  14  15  11  14   7  14 
  8  60  13  54  97  88  92  81   9  41  39  49  46  59  57  68  66  77 
 79  18  30  22  23  16  16  11  11   8   8   7   7   8   8  12  11  19 
 17  29  26  43  38  59  52  76  69  94  54 110 122  97 105  84  88  73 
 75  65  65  59  58  55  53  52  50  50  49  49  48  49  48  49  48  48 
 48  48  47  47  46  46  45  44  42  41  38  37  34  32  29  28  24  23 
 21  20  19  19  21  22  26  29  36  41  51  58  72  78  83 123 106  97 
 82  74  60  53  41  36  27  24  16  14   9   8   5   5   3   3   2   2 
  1   1   1   1   1   1   1   2   2   3   2   4   3   6   4   7   5   8 
  5   9   6  10   6  10   7  10   7   9   8   9   9  10  12  12  17  17 
 23  24  32  34  44  47  57  63  76  81  96 104 118 128 110  92  88  77 
 67  59  53  47  44  43  44  46  51  57  66  75  86  96 108 105 120 111 
100  95  88  85  83  83  85  88  94 100 110 119 130 133  65  90  78  70 
 60  54  48  45  43  44  46  51  58  67  76  88 101 121  36 109  95  82 
 69  58  47  38  30  24  18  14  10   7   5   4   2   2   1   1   0   0 
  0   0   0   0   0   0   0   0   0   0   0   0   0   0   0   0   0   0 
  0   0   0   0   0   0   0   0   0   0   0   0   0   0   0   0   0   0 
  0   0   0   0   0   0   0   0   0   0   0   0   0   0   0   1   1   2 
  2   4   5   8  11  16  22  29  39  50  64  81 100 122 146 172 200 229 
230 203 177 152 131 111  95  81  71  63  59  53  55  28  10  58  52  48 
 44  40  37  35  31  29  26  24  21  18  18  15  15  12  13  11   6  41 
 59  65  54   9  92  94  85  88  35  35  43  43  52  52  61  60  72  70 
 80  63  26  27  19  19  13  13   9   9   7   7   7   6   9   8  14  12 
 22  18  32  27  45  39  61  54  79  69  95  54  99 124  99 106  86  91 
 77  79  69  69  63  63  59  58  56  55  54  53  53  52  51  51  50  50 
 49  49  48  47  47  45  45  42  42  40  39  34  34  30  29  25  24  20 
 21  18  18  19  20  22  25  30  34  44  50  62  69  84  74 118 109  93 
 85  69  63  49  44  33  29  20  18  12  11   7   6   4   3   2   2   1 
  1   1   1   1   1   1   1   1   2   2   3   2   4   3   6   3   7   4 
  8   5   9   5   9   6   9   6   8   6   8   7   8   9   9  12  12  17 
 17  24  25  34  36  46  50  62  67  80  88 102 111 125 105  96  91  80 
 70  61  54  49  45  44  44  47  52  59  66  76  86  98 108 102 119 107 
 99  91  85  80  78  78  80  84  89  97 104 115 125 130  71  91  82  71 
 63  55  50  46  45  44  47  51  58  66  77  88 101 120  36 109  95  82 
 69  58  47  38  30  24  18  14  10   7   5   4   2   2   1   1   0   0 
  0   0   0   0   0   0   0   0   0   0   0   0   0   0   0   0   0   0 
  0   0   0   0   0   0   0   0   0   0   0   0   0   0   0   0   0   0 
  0   0   0   0   0   0   0   0   0   0   0   0   0   0   0   1   1   2 
  2   4   5   8  11  16  22  29  39  50  64  81 100 122 146 172 200 229 
230 203 176 152 130 111  95  82  71  64  58  56  52  15  14  56  54  50 
 45  41  38  34  33  29  25  25  23  21  17  16  14  15  12  15  17  50 
 66  60  65  14  85  89  90  82  39  39  38  47  48  57  56  66  64  75 
 74  87  31  22  23  15  16  10  11   7   8   6   6   7   6  10   8  15 
 13  24  20  35  29  49  41  64  55  81  70  97  83  52 126 102 107  90 
 94  81  84  73  76  69  68  65  63  61  59  59  58  57  56  55  55  53 
 52  52  50  50  47  47  45  44  41  41  37  36  32  31  27  26  22  22 
 19  19  17  18  19  21  25  29  36  41  51  58  72  79  79 122 105  97 
 81  74  58  53  40  36  26  23  16  14   9   8   5   4   3   2   1   1 
  1   1   1   1   1   1   1   2   1   3   2   4   2   5   3   6   3   8 
  4   9   5   9   5   9   5   8   5   8   6   7   7   8   9   9  13  13 
 18  18  26  27  36  38  49  54  66  73  86  95 109 120 102 100  93  83 
 72  63  56  50  47  45  45  48  53  59  67  76  88  99 110 101 116 106 
 96  88  81  77  74  74  75  79  85  91 101 110 122 125  73  95  83  74 
 64  57  51  47  45  45  47  52  58  67  77  88 101 121  36 109  95  82 
 69  58  47  38  30  24  18  14  10   7   5   4   2   2   1   1   0   0 
  0   0   0   0   0   0   0   0   0   0   0   0   0   0   0   0   0   0 
  0   0   0   0   0   0   0   0   0   0   0   0   0   0   0   0   0   0 
  0   0   0   0   0   0   0   0   0   0   0   0   0   0   0   1   1   2 
  2   4   5   8  11  16  22  29  39  50  64  81 100 122 146 172 200 229 
230 203 177 152 130 111  95  81  71  63  58  55  46  14  33  58  54  50 
 46  43  40  36  33  30  28  25  23  20  20  16  16  13  14  11  15   9 
 10  65  17  43  55  68  86  88  23  33  43  42  54  52  61  62  69  71 
 82  53  26  26  18  19  13  13   8   9   6   6   6   5   7   6  11   9 
 17  14  26  21  38  30  51  42  66  55  82  70  97  83  59 120 105 110 
 94  99  86  89  79  81  75  74  72  70  66  67  64  64  62  61  60  59 
 59  56  55  53  52  50  49  46  45  41  40  35  35  30  30  24  24  20 
 20  17  18  18  19  21  24  30  34  43  49  61  68  83  73 118 110  93 
 86  69  64  49  45  33  29  21  19  12  11   7   6   4   3   2   2   1 
  1   1   1   1   1   1   2   1   2   1   3   2   5   3   6   3   8   4 
  9   5   9   5  10   5   9   5   8   6   8   6   7   7   8  10  10  13 
 13  19  20  27  29  38  42  53  59  72  80  94 104 118  98 102  96  84 
 74  65  57  51  47  46  46  48  53  60  67  78  88 100 111  99 115 104 
 94  85  79  73  71  70  72  75  80  88  97 107 118 123  76  97  86  75 
 66  58  52  48  46  45  48  52  59  67  77  88 101 121  36 109  95  82 
 69  58  47  38  30  24  18  14  10   7   5   4   2   2   1   1   0   0 
  0   0   0   0   0   0   0   0   0   0   0   0   0   0   0   0   0   0 
  0   0   0   0   0   0   0   0   0   0   0   0   0   0   0   0   0   0 
  0   0   0   0   0   0   0   0   0   0   0   0   0   0   0   1   1   2 
  2   4   5   8  11  16  22  29  39  50  64  81 100 122 146 172 200 229 
230 203 176 152 130 111  94  81  70  63  57  52  39  12  58  58  55  51 
 47  45  42  38  35  32  31  28  25  21  20  18  15  16  12  13  10  14 
 13   9  57  81  62  50  62  81  39  44  40  48  47  56  55  67  69  75 
 76  17  30  22  22  15  16  10  11   7   7   5   5   6   5   8   6  12 
  9  19  15  28  22  40  31  53  43  68  56  82  70  95  85 107   6  71 
124 101 103  93  95  87  87  83  81  77  78  74  74  71  70  68  67  65 
 64  63  62  60  57  56  52  52  47  47  41  41  35  35  28  29  23  23 
 19  20  17  19  19  21  25  28  35  40  51  57  70  79  99 123 106  99 
 82  76  60  55  41  38  27  25  16  15  10   9   5   5   3   3   2   2 
  1   1   1   1   1   2   1   2   1   3   2   5   3   6   3   8   4  10 
  5  11   6  11   6  11   6  10   6   9   6   8   7   7   8   8  10  10 
 14  14  20  22  29  32  42  47  58  66  79  89 103 114  97 105  98  86 
 75  66  58  52  48  46  46  49  53  60  68  78  89 100 112  99 113 103 
 92  83  76  71  68  67  68  72  77  85  94 104 116 120  78 100  87  77 
 67  60  53  49  46  46  48  53  59  67  77  89 101 121  36 109  95  82 
 69  58  47  38  30  24  18  14  10   7   5   4   2   2   1   1   0   0 
  0   0   0   0   0   0   0   0   0   0   0   0   0   0   0   0   0   0 
  0   0   0   0   0   0   0   0   0   0   0   0   0   0   0   0   0   0 
  0   0   0   0   0   0   0   0   0   0   0   0   0   0   0   1   1   2 
  2   4   5   8  11  16  22  29  39  50  64  81 100 122 146 172 200 229 
230 202 176 152 130 110  94  80  70  61  55  53  34  13  65  59  56  53 
 50  47  42  41  37  35  32  30  26  25  22  18  17  15  14  12  14  13 
 14  16  92 101  49  56  49  48  79  30  42  45  53  54  62  63  72  69 
  0  33  25  25  18  18  12  13   8   8   5   6   5   4   6   5   9   7 
 14  10  21  16  31  23  43  32  56  44  69  57  83  69  95  82 106  96 
 65  70  95 110  98 102  94  95  91  90  85  84  84  82  81  79  77  74 
 72  70  70  66  65  61  61  55  56  49  49  42  42  34  35  28  28  22 
 23  18  20  18  20  21  24  29  33  42  47  59  66  81 102 108 113  95 
 90  72  67  51  48  35  32  22  21  14  13   8   8   5   4   3   3   2 
  2   1   2   1   2   1   3   2   4   2   5   3   7   4   9   5  11   6 
 12   7  13   7  13   8  12   8  11   7  10   7   9   8   8   9   9  11 
 11  16  16  22  25  33  37  47  53  65  74  88  99 113  94 106 100  87 
 77  67  59  53  48  47  47  49  53  60  68  78  89 102 113  97 113 101 
 91  81  74  69  66  64  66  69  74  82  91 102 113 118  80 101  89  78 
 69  60  54  49  47  46  48  53  59  67  77  89 101 121  36 109  95  82 
 69  58  47  38  30  24  18  14  10   7   5   4   2   2   1   1   0   0 
  0   0   0   0   0   0   0   0   0   0   0   0   0   0   0   0   0   0 
  0   0   0   0   0   0   0   0   0   0   0   0   0   0   0   0   0   0 
  0   0   0   0   0   0   0   0   0   0   0   0   0   0   0   1   1   2 
  2   4   5   8  11  16  22  29  39  50  64  81 100 122 146 172 200 229 
230 202 176 152 129 110  93  79  68  59  55  51  49  50  65  60  60  56 
 54  50  47  45  42  39  36  32  29  27  25  22  19  17  15  14  11  14 
 13  29  93 101  35  14  56  46  45  74  62  21  22  48  44  36   8  31 
 36  27  29  21  21  14  15   9  10   6   7   5   5   5   4   6   5  10 
  7  16  11  24  17  34  24  45  34  58  45  71  57  83  69  93  81 102 
 92 111  84  66  16  88 124 107 104  98  98  94  94  91  90  86  87  84 
 82  80  78  75  72  71  65  65  58  58  51  51  42  43  34  35  27  28 
 21  23  19  20  19  22  24  27  34  38  49  54  69  74 101  53 110 103 
 85  81  63  60  44  42  30  28  19  18  12  11   7   7   4   4   3   3 
  2   2   2   2   2   3   2   4   3   6   3   8   5  10   6  12   7  14 
  8  16   9  16  10  16  10  15   9  13   9  11   8   9   9   9  10  10 
 12  13  17  19  25  28  37  43  53  61  74  84  98 110  93 108 101  89 
 77  68  59  53  49  47  47  49  54  60  69  79  90 102 114  97 111 100 
 89  80  72  67  63  62  63  67  72  80  89  99 111 116  81 103  90  79 
 69  61  54  50  47  47  49  53  59  67  77  89 101 121  36 109  95  82 
 69  58  47  38  30  24  18  14  10   7   5   4   2   2   1   1   0   0 
  0   0   0   0   0   0   0   0   0   0   0   0   0   0   0   0   0   0 
  0   0   0   0   0   0   0   0   0   0   0   0   0   0   0   0   0   0 
  0   0   0   0   0   0   0   0   0   0   0   0   0   0   0   1   1   2 
  2   4   5   8  11  16  22  29  39  50  64  81 100 122 146 172 200 229 
230 202 176 151 129 109  92  78  67  58  52  48  43  71  66  66  63  59 
 57  54  50  47  44  41  37  35  32  30  26  23  21  19  15  13  14  13 
 13  53  96  97  58  23   6  44  44  38  67  69  63  60  52  51  42  40 
 32  32  24  24  17  17  11  12   7   8   5   5   4   4   5   4   7   6 
 12   8  18  13  27  18  37  26  48  35  61  46  73  57  83  68  93  79 
101  89 107  97 111 103  94  27  24  57  78  99 111 109 104 100  95  93 
 92  89  86  84  83  77  76  70  71  61  62  52  53  43  44  34  35  26 
 28  21  23  19  21  21  24  28  32  40  44  57  62  78  87  31 119 100 
 96  76  73  56  54  39  37  26  25  17  16  10  10   7   7   4   4   3 
  3   3   3   3   4   3   5   3   6   4   8   5  11   7  14   8  17  10 
 19  11  20  12  20  13  19  12  17  12  15  11  12  10  10  10  10  11 
 11  14  15  20  22  29  34  43  50  61  71  84  96 110  91 109 102  89 
 78  68  60  54  49  47  47  50  54  61  69  79  90 103 114  96 111  99 
 88  78  71  65  62  61  62  65  71  78  87  98 110 115  83 103  91  80 
 70  61  55  50  47  47  49  53  59  67  77  89 101 121  36 109  95  82 
 69  58  47  38  30  24  18  14  10   7   5   4   2   2   1   1   0   0 
  0   0   0   0   0   0   0   0   0   0   0   0   0   0   0   0   0   0 
  0   0   0   0   0   0   0   0   0   0   0   0   0   0   0   0   0   0 
  0   0   0   0   0   0   0   0   0   0   0   0   0   0   0   1   1   2 
  2   4   5   8  11  16  22  29  39  50  64  81 100 122 146 172 200 229 
230 202 176 151 128 108  92  77  66  56  51  47  24  72  71  69  66  63 
 60  58  55  51  49  45  42  40  36  33  30  26  23  21  17  17  12  14 
  7  94  93  97  70  20  24  29  32  38  37  64  65  57  55  45  45  36 
 36  28  27  20  20  14  14   9   9   6   6   4   4   4   4   5   5   9 
  7  14  10  21  14  30  21  41  28  53  37  65  47  76  57  84  67  93 
 76  98  84 102  90 104  97 108 102 108 104 106  95  44   5  55 102 108 
104 103  99  95  91  91  84  84  74  75  65  64  53  54  43  44  33  35 
 26  27  21  23  20  22  24  27  33  36  46  50  65  70  87  77 110 112 
 91  88  69  67  50  49  34  34  23  23  15  15  10  10   7   7   5   5 
  4   4   4   4   4   5   4   7   5   9   7  12   8  16  10  19  12  22 
 14  24  16  25  16  24  16  22  15  20  14  17  12  14  11  12  11  11 
 12  13  16  18  23  27  34  40  50  59  71  82  95 108  91 110 103  90 
 79  69  60  54  50  47  47  50  54  61  69  79  91 103 115  95 110  98 
 87  78  70  64  60  59  60  64  69  77  86  97 109 114  84 104  92  81 
 70  62  55  50  47  47  49  53  59  67  77  89 101 121  36 109  95  82 
 69  58  47  38  30  24  18  14  10   7   5   4   2   2   1   1   0   0 
  0   0   0   0   0   0   0   0   0   0   0   0   0   0   0   0   0   0 
  0   0   0   0   0   0   0   0   0   0   0   0   0   0   0   0   0   0 
  0   0   0   0   0   0   0   0   0   0   0   0   0   0   0   1   1   2 
  2   4   5   8  11  16  22  29  39  50  64  81 100 122 146 172 200 229 
230 202 175 150 128 108  91  76  64  55  49  45   9  81  73  55  42  28 
 19  16  13  10  17  21  31  43  48  40  33  30  26  22  19  15  14  13 
 41  93  94  95  79  19  24  27  30  16  36  36  63  58  51  49  42  40 
 32  31  23  23  16  16  11  11   7   7   5   5   4   4   4   4   7   6 
 11   8  17  12  25  17  35  24  47  31  58  40  69  49  79  58  85  66 
 92  74  94  80  98  86  99  91 100  94 101  97 104 102 106 106 109 104 
 84  64  41  18  13  43  83 100  96  79  77  64  66  53  55  42  44  32 
 34  25  27  21  23  22  24  27  30  38  41  53  56  72  77  91  91 106 
105  83  82  62  62  45  45  31  32  21  22  15  15  10  10   8   7   6 
  6   5   6   5   7   6   8   7  11   8  14  10  18  12  22  15  26  17 
 29  19  30  21  31  21  29  20  26  19  22  16  18  14  15  13  13  12 
 13  14  15  19  21  27  32  40  48  59  69  81  94 108  89 110 103  91 
 79  69  61  54  50  48  48  50  54  61  69  79  91 103 115  95 110  97 
 86  77  69  63  60  58  59  63  68  76  85  96 108 113  85 105  93  81 
 71  62  55  50  48  47  49  53  59  67  77  89 101 121  36 109  95  82 
 69  58  47  38  30  24  18  14  10   7   5   4   2   2   1   1   0   0 
  0   0   0   0   0   0   0   0   0   0   0   0   0   0   0   0   0   0 
  0   0   0   0   0   0   0   0   0   0   0   0   0   0   0   0   0   0 
  0   0   0   0   0   0   0   0   0   0   0   0   0   0   0   1   1   2 
  2   4   5   8  11  16  22  29  39  50  64  81 100 122 146 172 200 229 
230 202 175 150 127 107  90  75  62  54  48  42  27  24  38  39  41  42 
 45  47  51  54  57  60  64  67  62  36   2  20  22  27  21  17  14  15 
 75  92  93  96  83  18  24  27  31  39   9  29  34  57  53  47  44  35 
 35  27  26  19  19  13  13   8   9   5   6   4   4   4   4   5   5   9 
  7  14  11  21  15  31  21  41  27  53  35  64  43  74  51  82  59  88 
 66  91  72  93  76  93  81  93  84  93  88  94  91  96  94  98  98 101 
103 105 109 110 116 117 125 112  51  31  62  76  68  68  53  55  42  43 
 31  32  24  26  22  23  24  26  31  33  43  45  60  62  79  84  13 121 
 98  99  76  77  58  58  42  43  30  30  21  21  15  15  11  11   9   9 
  8   8   7   8   7  10   8  12  10  15  12  20  15  24  18  29  21  33 
 24  35  26  37  26  37  26  34  25  30  22  25  19  20  16  17  14  14 
 14  15  16  18  22  26  33  39  48  57  69  80  93 107  89 111 104  91 
 79  69  61  54  50  48  48  50  54  61  69  79  91 103 115  95 109  97 
 86  76  68  62  59  57  58  62  67  75  84  95 107 113  85 106  93  81 
 71  62  55  50  48  47  49  53  59  67  77  89 101 121  36 109  95  82 
 69  58  47  38  30  24  18  14  10   7   5   4   2   2   1   1   0   0 
  0   0   0   0   0   0   0   0   0   0   0   0   0   0   0   0   0   0 
  0   0   0   0   0   0   0   0   0   0   0   0   0   0   0   0   0   0 
  0   0   0   0   0   0   0   0   0   0   0   0   0   0   0   1   1   2 
  2   4   5   8  11  16  22  29  39  50  64  81 100 122 146 172 200 229 
230 202 175 150 127 106  89  74  62  53  44  41  36  35  35  36  37  39 
 41  44  46  50  53  57  60  63  67  72  77  81  72  62  12  21  17  18 
 90  93  95  94  83  18  24  27  32  35  44   4  24  39  52  47  41  39 
 29  30  23  22  16  16  10  11   7   7   4   5   4   5   5   5   7   7 
 12  10  18  14  27  19  38  25  49  32  61  40  72  47  80  54  86  60 
 90  65  91  70  90  73  89  76  87  78  87  81  87  84  88  87  90  91 
 94  96  98 103 104 112 111 122 122 134 124 117  25  79  69  51  53  39 
 41  29  31  24  25  22  24  26  27  35  36  48  50  65  69  89  92 113 
116  93  94  72  73  53  56  40  41  29  30  21  21  16  16  13  12  11 
 11  10  10  10  12  11  14  12  17  14  22  17  27  21  33  25  38  28 
 42  31  45  33  45  33  43  32  39  29  33  24  28  21  22  18  18  15 
 16  16  17  19  22  27  32  39  47  57  68  80  93 106  89 111 104  91 
 80  70  61  54  50  48  48  50  54  61  69  80  91 104 115  94 109  96 
 86  76  68  62  58  57  58  61  67  74  84  95 107 112  85 106  93  82 
 71  62  55  50  48  47  49  53  59  67  77  89 101 121  36 109  95  82 
 69  58  47  38  30  24  18  14  10   7   5   4   2   2   1   1   0   0 
  0   0   0   0   0   0   0   0   0   0   0   0   0   0   0   0   0   0 
  0   0   0   0   0   0   0   0   0   0   0   0   0   0   0   0   0   0 
  0   0   0   0   0   0   0   0   0   0   0   0   0   0   0   1   1   2 
  2   4   5   8  11  16  22  29  39  50  64  81 100 122 146 172 200 229 
230 201 174 149 126 105  88  73  61  51  44  38  35  33  32  32  34  35 
 38  39  43  45  50  53  57  60  66  69  75  79  84  88  93  60  30  56 
 94  91  94  96  82  18  22  27  31  39  41  48   4  20  47  45  42  36 
 34  27  26  19  19  13  13   8   9   5   6   4   5   4   6   6   7  10 
 10  16  14  24  19  34  25  46  31  58  38  70  44  80  52  87  57  90 
 62  90  66  90  68  87  70  85  72  82  73  81  75  80  78  81  81  84 
 85  87  91  93  99 100 109 109 121 120 134 133 148 134   1  72  48  50 
 35  37  27  28  23  24  23  24  28  29  39  40  54  54  73  72  99  10 
109 110  88  90  67  71  52  54  39  40  29  30  23  22  18  17  15  15 
 14  14  13  14  14  16  15  20  17  24  20  30  24  36  27  43  32  48 
 37  52  40  53  41  51  40  49  37  42  33  37  28  30  23  24  19  20 
 17  18  18  20  23  27  32  39  48  57  68  80  93 106  88 112 104  92 
 80  70  61  55  50  48  48  50  55  61  70  80  91 104 116  94 109  96 
 85  75  67  62  58  56  57  61  66  74  83  94 106 112  86 106  93  82 
 71  63  56  51  48  47  49  53  59  67  77  89 101 121  36 109  95  82 
 69  58  47  38  30  24  18  14  10   7   5   4   2   2   1   1   0   0 
  0   0   0   0   0   0   0   0   0   0   0   0   0   0   0   0   0   0 
  0   0   0   0   0   0   0   0   0   0   0   0   0   0   0   0   0   0 
  0   0   0   0   0   0   0   0   0   0   0   0   0   0   0   1   1   2 
  2   4   5   8  11  16  22  29  39  50  64  81 100 122 146 172 200 229 
229 201 174 149 125 105  87  72  59  50  41  37  32  31  29  29  30  32 
 33  37  39  43  45  51  54  59  63  68  73  79  82  89  77  58  48  98 
 94  93  93  95  74  18  26  25  31  37  43  46  56   3  17  47  40  39 
 31  29  22  22  15  16  10  11   7   8   5   6   4   6   6   7   9  10 
 14  14  22  19  32  25  44  32  55  39  69  45  80  52  87  57  92  62 
 94  65  93  66  89  68  85  68  81  69  78  70  76  71  75  73  76  76 
 78  81  83  88  88  96  97 107 108 121 121 136 134 152 151  23  59  45 
 45  33  34  25  26  22  23  24  25  31  31  43  43  59  59  78  77  85 
117 104 107  84  87  66  69  51  53  39  40  31  31  25  24  21  20  18 
 18  17  18  17  19  18  22  21  27  24  33  28  40  33  47  38  54  43 
 59  47  62  49  61  49  60  47  54  42  47  36  39  30  32  25  25  20 
 21  19  21  21  24  27  33  39  48  57  68  80  92 106  88 112 104  92 
 80  70  61  55  50  48  48  50  55  61  70  80  91 104 116  94 108  96 
 85  75  67  61  57  56  57  60  66  73  83  94 106 112  86 106  94  82 
 71  63  56  51  48  47  49  53  59  67  77  89 101 121  36 109  95  82 
 69  58  47  38  30  24  18  14  10   7   5   4   2   2   1   1   0   0 
  0   0   0   0   0   0   0   0   0   0   0   0   0   0   0   0   0   0 
  0   0   0   0   0   0   0   0   0   0   0   0   0   0   0   0   0   0 
  0   0   0   0   0   0   0   0   0   0   0   0   0   0   0   1   1   2 
  2   4   5   8  11  16  22  29  39  50  64  81 100 122 146 172 200 229 
229 201 174 148 125 104  86  71  57  48  40  34  30  26  27  26  28  28 
 32  33  37  39  44  47  52  55  63  66  72  77  84  85  55  56  17  95 
 92  92  93  95  65  20  22  27  33  37  40  48  51  53  11  31  44  35 
 35  26  26  19  19  13  13   8   9   6   7   5   7   5   8   8  10  12 
 14  20  20  29  26  41  33  55  40  67  47  80  54  89  54  63  37  98 
 67  97  68  94  68  88  68  83  67  78  67  74  67  72  68  71  70  72 
 73  75  79  80  87  87  97  97 110 109 124 124 140 140 156 125  56  54 
 41  41  30  30  24  24  22  22  26  25  35  32  47  46  64  62  85  84 
 39 125 100 105  81  85  65  68  52  53  41  42  34  33  28  27  25  24 
 23  23  22  23  23  26  25  30  28  36  32  44  37  52  43  59  49  65 
 54  70  23 100  41  71  55  67  53  58  47  51  40  42  32  33  26  27 
 22  23  21  24  24  29  33  40  48  57  68  80  92 106  88 112 104  92 
 80  70  61  55  50  48  48  50  55  61  70  80  91 104 116  94 108  96 
 85  75  67  61  57  56  57  60  66  73  83  94 106 112  86 106  94  82 
 72  63  56  51  48  47  49  53  59  67  77  89 101 121  36 109  95  82 
 69  58  47  38  30  24  18  14  10   7   5   4   2   2   1   1   0   0 
  0   0   0   0   0   0   0   0   0   0   0   0   0   0   0   0   0   0 
  0   0   0   0   0   0   0   0   0   0   0   0   0   0   0   0   0   0 
  0   0   0   0   0   0   0   0   0   0   0   0   0   0   0   1   1   2 
  2   4   5   8  11  16  22  29  39  50  64  81 100 122 146 172 200 229 
229 201 173 148 125 104  85  70  57  47  38  31  28  27  24  25  25  27 
 28  32  33  39  41  47  50  57  59  68  71  79  82  61  51  59  85  93 
 93  91  94 100   7   7  26  27  33  35  43  46  55  57  51  16  39  40 
 30  31  22  23  15  16  10  11   7   8   5   7   5   8   7  10  11  14 
 18  20  27  27  39  34  53  42  66  50  81  56  93  52  78 160  95  64 
105  72 101  72  94  71  89  69  82  67  76  66  72  66  69  66  69  69 
 70  73  74  79  80  88  87 100  99 114 113 130 129 147 146 163  65  49 
 47  35  36  26  27  22  22  22  22  27  26  37  35  51  47  71  65  88 
 91  32 122  98 103  81  84  66  68  54  54  44  44  37  36  33  31  30 
 29  28  29  28  31  30  34  33  40  37  48  42  56  49  65  55  72  61 
 79  65  95 160 149  12  79  64  73  58  64  50  53  42  43  33  34  27 
 28  23  25  23  27  29  35  40  49  57  68  79  92 106  88 112 105  92 
 80  70  61  55  50  48  48  50  55  61  70  80  91 104 116  94 108  96 
 85  75  67  61  57  56  57  60  65  73  83  94 106 111  86 106  94  82 
 72  63  56  51  48  47  49  53  59  67  77  89 101 121  36 109  95  82 
 69  58  47  38  30  24  18  14  10   7   5   4   2   2   1   1   0   0 
  0   0   0   0   0   0   0   0   0   0   0   0   0   0   0   0   0   0 
  0   0   0   0   0   0   0   0   0   0   0   0   0   0   0   0   0   0 
  0   0   0   0   0   0   0   0   0   0   0   0   0   0   0   1   1   2 
  2   4   5   8  11  16  22  29  39  50  64  81 100 122 146 172 200 229 
229 201 173 148 124 103  85  69  57  44  38  30  28  24  24  22  24  24 
 28  28  34  35  42  44  51  54  63  65  74  75  74  48  58  39  96  96 
 89  93  90 107  69  90  30  32  33  40  42  50  49  60  62  27  26  35 
 36  26  27  19  20  13  14   9  10   6   8   5   8   7  10  10  14  16 
 20  25  27  36  35  50  44  66  53  80  59  95  52 100 154 116 150  88 
 72 109  77 103  76  97  74  89  71  81  68  75  67  71  66  69  67  69 
 69  71  74  75  81  82  92  92 104 104 120 119 137 136 154 153  57  55 
 43  42  31  31  24  23  21  20  23  22  30  26  42  37  55  51  74  67 
 90  86  88 121  97 102  81  84  68  69  57  57  48  47  42  40  38  37 
 36  35  35  36  36  39  38  45  42  52  48  61  54  70  61  79  68  85 
 74  63 152 132 148 135  78  86  69  78  62  67  53  55  43  44  34  35 
 27  29  24  28  27  32  34  42  48  58  68  80  92 106  88 112 105  92 
 80  70  61  55  50  48  48  50  55  61  70  80  91 104 116  94 108  96 
 85  75  67  61  57  56  57  60  65  73  82  93 106 111  86 107  94  82 
 72  63  56  51  48  47  49  53  59  68  77  89 101 121  36 109  95  82 
 69  58  47  38  30  24  18  14  10   7   5   4   2   2   1   1   0   0 
  0   0   0   0   0   0   0   0   0   0   0   0   0   0   0   0   0   0 
  0   0   0   0   0   0   0   0   0   0   0   0   0   0   0   0   0   0 
  0   0   0   0   0   0   0   0   0   0   0   0   0   0   0   1   1   2 
  2   4   5   8  11  16  22  29  39  50  64  81 100 122 146 172 200 229 
229 201 173 148 124 103  84  69  55  45  36  31  26  24  20  23  22  25 
 25  30  31  38  39  47  48  58  60  70  70  76  43  53  36  94  96  91 
 93  90  96  95  94  94  88  55  24  38  46  46  56  54  65  65   2  41 
 29  32  22  24  16  18  11  13   8  10   6   9   6  10   9  14  14  20 
 22  27  34  36  48  45  64  55  79  63  96  27 111 148 110 142 106 142 
 79  56 115  84 106  81  99  78  90  74  82  71  76  69  72  68  70  69 
 71  72  73  78  79  87  87  98  98 112 112 128 128 145 145 151  66  48 
 49  36  36  26  26  21  21  21  19  24  22  32  29  44  39  58  54  75 
 69  96  80  90 119  97 102  83  86  71  71  61  60  54  52  48  46  45 
 44  43  43  44  46  45  50  49  57  54  66  60  75  68  85  75  92  82 
  2 143 120 138 123 138 130 111  48  75  81  65  69  54  56  43  45  34 
 36  28  31  26  31  31  37  41  50  57  69  80  93 106  88 112 105  92 
 80  70  62  55  50  48  48  50  55  61  70  80  91 104 116  94 108  96 
 85  75  67  61  57  55  56  60  65  73  82  93 105 111  86 107  94  82 
 72  63  56  51  48  48  49  53  59  68  77  89 101 121  36 109  95  82 
 69  58  47  38  30  24  18  14  10   7   5   4   2   2   1   1   0   0 
  0   0   0   0   0   0   0   0   0   0   0   0   0   0   0   0   0   0 
  0   0   0   0   0   0   0   0   0   0   0   0   0   0   0   0   0   0 
  0   0   0   0   0   0   0   0   0   0   0   0   0   0   0   1   1   2 
  2   4   5   8  11  16  22  29  39  50  64  81 100 122 146 172 200 229 
229 201 173 147 124 103  85  68  56  44  37  30  26  22  23  20  22  22 
 28  27  34  35  43  44  54  55  66  67  77  48  50  55  37  99  89  95 
 89  94  91  65  98  90  92  81  81  22  41  51  50  60  58  72  49  28 
 38  25  29  19  22  13  16   9  12   7  10   7  11   8  14  13  19  20 
 26  31  35  44  46  61  57  78  67  94  32 113 141 105 134  98 131  96 
130  96  63 119  91 110  87 101  82  92  78  84  74  78  72  75  72  74 
 74  75  78  79  85  84  94  93 107 107 121 121 138 138 155  97  56  54 
 41  41  30  30  23  22  20  19  21  19  26  23  34  30  46  41  61  55 
 78  72  95  79 106 120  99 103  87  88  76  75  67  65  60  58  56  53 
 53  52  52  53  52  57  56  63  61  71  67  80  75  91  82 100  90   5 
136 112 127 110 126 113 130 119 138   4  78  84  65  70  53  56  42  44 
 33  36  28  33  29  35  36  44  49  59  68  81  92 106  88 112 105  92 
 80  70  62  55  51  48  48  50  55  62  70  80  92 104 116  94 108  96 
 84  75  67  61  57  55  56  60  65  73  82  93 105 111  86 107  94  82 
 72  63  56  51  48  48  49  53  60  68  78  89 101 121  35 109  95  82 
 69  58  47  38  30  24  18  14  10   7   5   4   2   2   1   1   0   0 
  0   0   0   0   0   0   0   0   0   0   0   0   0   0   0   0   0   0 
  0   0   0   0   0   0   0   0   0   0   0   0   0   0   0   0   0   0 
  0   0   0   0   0   0   0   0   0   0   0   0   0   0   0   1   1   2 
  2   4   5   8  11  16  22  29  39  50  64  81 100 122 146 172 200 229 
229 201 173 148 124 103  84  69  55  45  36  31  25  24  21  23  21  26 
 25  32  31  40  40  51  50  62  62  75  48  46  46  11 108  91  96  88 
 93  89  96  23  93  96  85  88  76  80   9  53  56  54  65  61  74  14 
 29  34  23  26  16  19  12  14   8  11   7  11   8  13  11  18  18  25 
 27  34  41  45  57  56  75  68  93   8 117 136 102 127  92 124  89 123 
 89 122  98  20 123  98 113  93 103  88  95  82  88  80  82  78  80  78 
 79  80  81  85  85  93  93 104 104 117 117 132 132 147 146   2  62  47 
 48  35  34  26  25  21  19  19  17  22  19  28  24  37  32  49  43  63 
 56  77  73  96  76  71 121 102 105  91  91  81  79  74  71  68  65  64 
 62  62  62  62  65  65  70  69  77  75  86  82  96  89 106  98  11 124 
102 118  99 115 101 118 107 124 117 141  71  70  84  65  69  51  55  40 
 44  32  37  29  35  32  40  42  51  58  70  80  93 105  88 112 105  92 
 81  70  62  55  51  48  48  51  55  62  70  80  92 104 116  93 108  96 
 84  75  67  61  57  55  56  60  65  73  82  93 105 111  87 107  94  83 
 72  63  56  51  48  48  50  54  60  68  78  89 102 121  35 109  95  82 
 69  58  47  38  30  24  18  14  10   7   5   4   2   2   1   1   0   0 
  0   0   0   0   0   0   0   0   0   0   0   0   0   0   0   0   0   0 
  0   0   0   0   0   0   0   0   0   0   0   0   0   0   0   0   0   0 
  0   0   0   0   0   0   0   0   0   0   0   0   0   0   0   1   1   2 
  2   4   5   8  11  16  22  29  39  50  64  81 100 122 146 172 200 229 
229 201 173 148 124 103  85  69  56  45  37  30  27  23  24  21  25  24 
 30  29  38  37  48  48  59  59  71  55  43  44  53  87  91  97  87  93 
 86  94  91  19 100  89  93  80  84  71  75  20  46  64  55  70  64  56 
 40  27  31  20  24  14  17  10  13   8  12   8  13  10  17  16  23  24 
 32  37  44  52  57  69  68  90  21 131 132 102 122  88 115  81 110  82 
111  83 112  96  82  91 104 117  98 107  94  99  89  93  86  88  85  86 
 86  86  88  90  95  95 104 104 114 115 128 128 143 143  41  78  51  54 
 38  40  29  29  23  22  19  18  20  17  23  19  30  25  39  33  51  44 
 63  57  77  72  94 101  28 121 107 108  96  95  89  85  82  78  76  74 
 73  73  73  74  75  78  78  84  82  93  89 102  96 113  86  40 118  96 
108  92 106  90 106  93 111 101 120 112 134 132  20  83  63  67  48  53 
 38  43  32  37  31  38  37  46  49  60  68  81  92 106  88 112 105  92 
 81  71  62  55  51  49  49  51  55  62  70  81  92 104 116  93 108  95 
 84  74  66  60  57  55  56  59  65  73  82  93 105 111  87 107  94  83 
 72  63  56  51  49  48  50  54  60  68  78  89 102 121  35 108  95  81 
 69  58  47  38  30  24  18  14  10   7   5   4   2   2   1   1   0   0 
  0   0   0   0   0   0   0   0   0   0   0   0   0   0   0   0   0   0 
  0   0   0   0   0   0   0   0   0   0   0   0   0   0   0   0   0   0 
  0   0   0   0   0   0   0   0   0   0   0   0   0   0   0   1   1   2 
  2   4   5   8  11  16  22  29  39  50  64  81 100 122 146 172 200 229 
229 201 173 148 124 104  85  70  56  46  37  32  27  26  23  26  24  29 
 28  37  36  46  45  58  55  70  55  43  40  62  39  95  98  88  92  84 
 93  85 103  80  92  97  84  90  76  81  66  73  35  52  65  60  76  74 
 13  37  24  29  17  21  13  16  10  13   8  13  10  16  14  21  21  30 
 32  41  47  54  64  68  84  60 123 129 103 117  88 109  76 103  73 101 
 71 103  77 104  86 103  25 110 121 105 112 101 105  97  99  94  95  94 
 94  95  96  99 100 106 107 116 116 127 128 141 140   9  72  56  56  44 
 43  33  32  25  24  21  19  19  17  21  18  25  21  32  26  41  35  52 
 45  64  58  77  72  90  87  69 105 112 111 104 100  97  93  91  87  87 
 84  85  84  85  87  88  91  92  99  98 108 105 118  37  87 107  90  99 
 84  96  80  97  82  99  88 108  98 120 112 136 129  78  81  58  64  46 
 50  36  42  32  38  34  42  42  53  58  70  80  93 105  88 113 105  93 
 81  71  62  56  51  49  49  51  56  62  71  81  92 105 117  93 107  95 
 84  74  66  60  57  55  56  59  65  73  82  93 105 111  87 107  95  83 
 73  64  57  52  49  49  50  54  60  69  78  90 102 122  35 108  94  81 
 69  57  47  38  30  24  18  14  10   7   5   4   2   2   1   1   0   0 
  0   0   0   0   0   0   0   0   0   0   0   0   0   0   0   0   0   0 
  0   0   0   0   0   0   0   0   0   0   0   0   0   0   0   0   0   0 
  0   0   0   0   0   0   0   0   0   0   0   0   0   0   0   1   1   2 
  2   4   5   8  11  16  22  29  39  50  64  81 100 122 146 172 200 229 
229 201 174 148 125 104  86  70  58  46  39  32  30  26  27  25  30  28 
 36  35  45  44  55  54  68  56  42  39  53   3 101  97  87  93  82  90 
 84  95  56  95 102  88  95  79  87  70  79  60  71  24  53  72  63  79 
 18  27  34  21  26  15  19  12  15   9  13  10  15  12  19  18  27  28 
 37  42  49  59  65  78  83 135 129 107 116  90 105  75  97  67  92  65 
 90  68  91  74  95  81 105  93  10  84 113 118 109 111 105 107 103 104 
104 104 106 106 111 110 118 119 128 129 140  62  42  79  58  61  48  46 
 36  36  28  28  23  22  20  18  20  17  23  19  27  22  34  28  43  36 
 52  46  65  58  76  71  86  85 104   3  83 116 112 107 106 101 101  97 
 98  96  97  96  98 100 101 107 105 115 112  55  57 104  99  84  93  77 
 88  72  86  72  88  77  96  85 107  98 122 114 139 137 117  34  54  59 
 42  48  34  41  32  40  37  47  50  61  68  81  92 106  87 113 106  93 
 82  71  63  56  52  50  50  52  56  63  71  81  93 105 117  93 107  95 
 84  74  66  60  56  55  56  59  65  72  82  92 105 110  87 108  95  84 
 73  64  57  53  50  49  51  55  61  69  79  90 103 122  35 108  94  81 
 69  57  47  38  30  23  18  14  10   7   5   4   2   2   1   1   0   0 
  0   0   0   0   0   0   0   0   0   0   0   0   0   0   0   0   0   0 
  0   0   0   0   0   0   0   0   0   0   0   0   0   0   0   0   0   0 
  0   0   0   0   0   0   0   0   0   0   0   0   0   0   0   1   1   2 
  2   4   5   8  11  16  22  29  39  50  64  81 100 122 146 172 200 229 
229 201 174 149 126 105  87  72  58  49  40  36  30  31  27  31  29  36 
 35  45  42  54  53  66  55  38  39  52  46  84  98  85  92  82  92  80 
 90  88  40 106  92  99  84  92  76  85  66  77  57  67  34  55  74  65 
 58  38  25  31  19  23  14  18  11  15  10  14  11  17  16  24  24  33 
 36  46  51  61  64 129 133 132 112 117  93 104  77  93  66  86  59  83 
 58  82  63  83  69  88  77  94  87 104  66  39 115 114 117 115 116 114 
114 115 115 118 118 123 122 125 114  26  82  75  73  62  62  51  49  41 
 39  32  31  26  25  22  21  21  19  22  19  25  21  30  24  36  30  44 
 37  53  47  63  57  72  69  83  82  91  99  49  82 113 114 115 111 111 
108 109 108 110 110 112 116 112 113  25  86 100  87  93  78  85  72  79 
 67  78  64  79  67  86  74  96  86 110 101 127 118 144 137 164   6  49 
 56  38  46  33  41  34  43  43  53  58  70  79  93 104  87 114 106  94 
 82  72  64  57  53  51  51  53  57  64  72  82  94 106 118  92 107  95 
 83  74  66  60  56  55  56  59  64  72  81  92 104 110  88 108  96  84 
 74  65  58  53  51  50  52  56  62  70  80  91 103 123  34 107  94  81 
 68  57  47  38  30  23  18  13  10   7   5   4   2   2   1   1   0   0 
  0   0   0   0   0   0   0   0   0   0   0   0   0   0   0   0   0   0 
  0   0   0   0   0   0   0   0   0   0   0   0   0   0   0   0   0   0 
  0   0   0   0   0   0   0   0   0   0   0   0   0   0   0   1   1   2 
  2   4   5   8  11  16  22  29  39  50  64  81 100 122 146 172 200 229 
230 202 175 150 127 106  89  73  61  50  44  37  35  31  34  31  38  36 
 45  43  55  53  65  51  41  37  53  44  71 100  85  93  80  89  77  90 
 79  79 103  95 105  89  98  75  81  63  83  63  74  51  66  18  63  79 
 67  28  37  23  28  17  21  13  17  11  15  11  16  14  21  21  29  31 
 40  45  55  43 130 144 138 120 122  99 106  81  93  67  83  57  78  53 
 75  55  73  58  76  65  82  73  87  82  93  93  94  65  45   8  25  49 
 65  66  51  31  10  30  44  67  85  85  73  72  63  63  52  51  43  41 
 35  35  29  28  25  24  24  22  24  21  26  21  29  23  33  27  38  32 
 45  39  52  46  61  57  71  68  77  80  86  89  97  77  51  10  40  71 
 92 111  94  86  54  14  36  61  93  94  92  82  84  73  80  67  74  60 
 72  58  72  60  77  64  86  74 100  88 117 106 134 126 153 144 180  45 
 42  52  35  43  33  42  37  48  49  61  67  81  91 105  86 114 107  95 
 84  73  65  58  54  52  52  54  58  65  73  83  94 107 118  91 106  94 
 83  73  66  59  56  54  55  58  64  71  81  91 104 109  89 109  97  85 
 75  66  59  55  52  51  53  57  63  71  81  92 104 123  33 107  93  80 
 68  57  46  38  30  23  18  13  10   7   5   4   2   2   1   1   0   0 
  0   0   0   0   0   0   0   0   0   0   0   0   0   0   0   0   0   0 
  0   0   0   0   0   0   0   0   0   0   0   0   0   0   0   0   0   0 
  0   0   0   0   0   0   0   0   0   0   0   0   0   0   0   1   1   2 
  2   4   5   8  11  16  22  29  39  50  64  81 100 122 146 172 200 229 
230 202 175 151 128 108  90  76  62  54  45  42  36  38  35  40  38  46 
 44  56  53  66  50  38  37  52  50  26  99  83  92  78  87  75  87  77 
 91  20  99 109  86  80  46  55  38  48  28  53  55  73  50  63  11  61 
 86  14  27  34  21  25  16  19  13  16  11  16  13  19  18  25  26  35 
 39  48  14 159 151 145 130 128 108 111  88  95  72  83  60  74  52  69 
 50  66  51  67  55  70  61  74  68  80  75  84  81  87  86  93  95 100 
101 102  97  95  93  85  83  78  77  69  70  61  61  52  52  44  44  37 
 37  31  32  29  28  27  26  27  24  28  24  30  25  32  26  36  29  40 
 34  45  40  51  49  57  56  65  65  72  74  79  82  84  88  90  99 101 
107 106 107 104 100  96  89  88  82  84  74  79  68  73  61  69  56  66 
 53  66  55  70  58  78  66  90  79 106  94 124 113 143 133 163 121  49 
 59  38  47  33  42  34  44  42  53  57  70  78  92 103  86 116 108  96 
 84  75  66  60  55  53  53  55  60  66  75  84  96 108 120  91 105  93 
 82  73  65  59  55  54  55  58  63  71  80  91 103 108  90 110  98  87 
 77  68  61  56  53  53  54  58  64  72  82  93 105 124  33 106  93  80 
 68  56  46  37  30  23  18  13  10   7   5   4   2   2   1   1   0   0 
  0   0   0   0   0   0   0   0   0   0   0   0   0   0   0   0   0   0 
  0   0   0   0   0   0   0   0   0   0   0   0   0   0   0   0   0   0 
  0   0   0   0   0   0   0   0   0   0   0   0   0   0   0   1   1   2 
  2   4   5   8  11  16  22  29  39  50  64  81 100 122 146 172 200 229 
230 203 177 152 130 109  93  77  66  56  50  43  43  39  43  40  48  46 
 56  54  66  41  41  37  52  50  25  99  82  91  77  86  73  86  74  86 
 89  79 112  77  69  51  62  45  57  35  48  27  40  48  69  46  59  14 
 73  32  39  25  30  18  23  15  18  12  16  13  17  16  22  22  30  33 
 41  46   7 163 154 140 138 119 118  98 101  79  87  65  76  54  67  49 
 62  47  61  49  61  53  64  58  68  64  72  70  76  74  80  79  81  81 
 82  82  81  80  77  77  72  72  67  66  60  59  52  52  45  46  39  40 
 35  35  32  32  30  31  31  29  31  28  33  28  33  29  35  30  39  32 
 42  36  46  41  50  47  55  55  61  62  67  70  72  76  76  80  79  84 
 82  84  82  84  82  80  79  75  76  70  72  64  67  58  63  53  61  50 
 61  50  64  53  71  60  83  70  99  85 115 103 136 123 153 133  34  66 
 41  52  34  44  32  42  37  47  48  60  66  79  89 103  84 116 110  97 
 87  76  68  62  58  55  55  58  62  68  76  86  97 109 121  89 104  92 
 82  72  64  58  55  53  55  57  63  70  80  90 102 107  91 112  99  88 
 78  70  63  58  55  55  57  60  66  74  84  95 107 126  31 105  91  79 
 67  56  46  37  29  23  17  13  10   7   5   4   2   2   1   1   0   0 
  0   0   0   0   0   0   0   0   0   0   0   0   0   0   0   0   0   0 
  0   0   0   0   0   0   0   0   0   0   0   0   0   0   0   0   0   0 
  0   0   0   0   0   0   0   0   0   0   0   0   0   0   0   1   1   2 
  2   4   5   8  11  16  22  29  39  50  64  81 100 122 146 172 200 229 
231 204 178 154 131 112  94  81  68  61  52  50  45  47  45  50  49  58 
 57  65  38  42  39  53  57   0  97  81  90  75  83  71  82  70  85  73 
 22 116  74  73  56  67  51  71  33  33   7  40  32  47  55  67  46  56 
 34  47  30  35  23  28  17  21  14  17  13  16  14  19  19  25  27  34 
 40  46  56  28 156 146 131 129 109 110  90  93  74  80  60  69  51  62 
 46  57  45  56  47  57  50  59  55  62  60  65  64  68  68  71  70  72 
 71  71  71  70  70  67  67  63  62  57  57  52  52  46  46  41  42  38 
 38  36  36  35  35  34  34  36  34  37  34  38  33  39  34  40  34  41 
 35  43  38  46  42  49  47  53  53  57  59  61  64  65  69  68  72  71 
 74  72  74  72  72  71  69  68  64  65  59  62  54  59  50  57  47  57 
 47  60  50  66  56  77  66  91  79 108  94 127 114 147 136  12  72  47 
 58  35  47  31  41  33  43  41  52  55  68  76  90 100  83 119 111 100 
 88  79  71  65  60  58  58  60  65  71  79  88 100 111 123  88 103  91 
 80  71  63  58  54  53  53  57  62  70  78  89 100 106  93 114 102  90 
 81  72  66  61  58  58  59  63  69  77  86  97 109 128  30 103  90  78 
 66  55  45  36  29  22  17  13  10   7   5   3   2   2   1   1   0   0 
  0   0   0   0   0   0   0   0   0   0   0   0   0   0   0   0   0   0 
  0   0   0   0   0   0   0   0   0   0   0   0   0   0   0   0   0   0 
  0   0   0   0   0   0   0   0   0   0   0   0   0   0   0   1   1   2 
  2   4   5   8  11  16  22  29  39  50  64  81 100 122 146 172 200 229 
231 204 179 155 134 114  99  83  74  63  60  53  54  50  55  53  60  60 
 64  30  45  39  54  51   3 101  81  87  73  82  69  80  68  80  70  81 
 89  93  77  60  71  51  22  91 102 120 108 130  77   2  74  52  63  42 
 44  65  31  28  31  22  25  17  19  13  17  14  17  17  21  23  28  33 
 39  46  51  64  31 142 139 122 121 102 103  84  88  68  76  57  65  49 
 58  46  54  45  53  46  53  49  55  52  57  56  60  59  62  62  63  63 
 64  64  63  63  61  61  58  58  55  55  50  51  46  47  43  44  40  41 
 39  40  39  38  40  41  42  40  43  40  44  40  44  40  44  37  43  38 
 44  38  45  40  46  43  48  47  50  51  53  56  56  60  59  63  62  65 
 63  65  64  65  63  62  62  59  60  56  57  52  55  48  54  46  54  46 
 57  48  63  53  72  63  85  74 102  89 120 107 140 125   1  80  52  63 
 39  50  32  42  30  40  35  46  46  58  64  77  86 100  80 120 115 102 
 92  82  74  68  64  61  61  64  68  74  82  92 102 114 125  85 101  89 
 79  70  63  56  53  52  53  55  61  68  77  87  99 103  95 116 104  94 
 83  76  69  64  61  61  63  66  72  80  89  99 111 130  27 102  89  76 
 65  54  44  36  28  22  17  13   9   7   5   3   2   2   1   1   0   0 
  0   0   0   0   0   0   0   0   0   0   0   0   0   0   0   0   0   0 
  0   0   0   0   0   0   0   0   0   0   0   0   0   0   0   0   0   0 
  0   0   0   0   0   0   0   0   0   0   0   0   0   0   0   1   1   2 
  2   4   5   8  11  16  22  29  39  50  64  81 100 122 146 172 200 229 
232 206 180 158 136 118 101  89  77  71  62  62  56  60  58  65  62  46 
 31  44  41  55  58   9  94  81  85  73  79  68  77  66  77  66  84  26 
109  82  66  79  32  66 108  91 110  97 118 103 127 114   5  71  49  60 
 33   3  16  39  25  30  20  22  17  19  15  17  15  19  19  24  27  32 
 38  44  53  56  71   5 140 133 115 115  97  97  80  83  66  71  56  62 
 49  55  46  52  45  50  45  50  47  52  50  53  52  55  54  56  56  57 
 57  57  57  56  56  54  54  52  52  49  50  46  47  44  45  43  44  42 
 44  43  43  46  46  48  46  51  48  51  48  51  47  51  45  49  44  47 
 42  47  41  46  42  46  44  47  46  48  49  49  52  52  55  54  57  56 
 58  57  58  57  57  56  55  55  52  54  49  52  47  52  45  53  45  55 
 48  61  52  70  60  81  72  97  85 115 103 134 129   1  87  55  69  42 
 54  32  44  28  39  30  41  38  50  53  65  73  86  96  79 124 117 106 
 95  86  78  72  68  66  66  68  72  78  86  95 106 116 128  83  98  88 
 77  69  61  56  52  51  51  55  59  67  75  86  96 101  98 119 108  97 
 88  79  73  68  66  65  67  71  76  84  92 103 114 133  25  99  87  74 
 63  53  43  35  28  22  17  12   9   7   5   3   2   2   1   1   0   0 
  0   0   0   0   0   0   0   0   0   0   0   0   0   0   0   0   0   0 
  0   0   0   0   0   0   0   0   0   0   0   0   0   0   0   0   0   0 
  0   0   0   0   0   0   0   0   0   0   0   0   0   0   0   1   1   2 
  2   4   5   8  11  16  22  29  39  50  64  81 100 122 146 172 200 229 
232 207 183 159 140 121 106  92  84  74  71  65  67  63  70  54  38  34 
 48  47  58  59   6  94  76  83  70  76  65  74  64  75  66  77  67 104 
116  69  78  25  90  99  85 104  91 111  98 118 107 129 119  43  67  46 
 50   2  42   7  35  23  27  19  21  16  18  15  17  17  20  22  26  31 
 36  43  48  58  62  77   2 126 129 112 112  95  95  79  81  66  69  57 
 61  51  55  47  51  46  49  46  49  47  49  48  50  50  51  51  52  52 
 52  52  52  52  51  51  50  50  48  49  47  48  45  47  45  47  46  48 
 48  50  52  52  55  54  57  56  60  58  60  57  61  55  60  52  55  50 
 53  46  50  45  48  44  47  45  47  46  47  48  48  50  49  52  50  53 
 51  53  52  53  52  51  51  50  51  48  50  46  50  46  52  46  55  48 
 60  53  69  60  80  70  94  83 112 100 131 119   8  91  59  74  46  58 
 34  46  28  38  27  37  32  43  43  55  60  73  82  95  74 126 122 109 
100  90  83  77  73  71  71  73  77  83  90 100 109 121 131  80  96  85 
 75  66  60  54  51  49  50  53  58  64  74  82  94  98 101 123 111 102 
 92  84  78  73  71  70  72  75  81  88  97 107 118 136  22  97  84  73 
 61  52  42  34  27  21  16  12   9   7   5   3   2   2   1   1   0   0 
  0   0   0   0   0   0   0   0   0   0   0   0   0   0   0   0   0   0 
  0   0   0   0   0   0   0   0   0   0   0   0   0   0   0   0   0   0 
  0   0   0   0   0   0   0   0   0   0   0   0   0   0   0   1   1   2 
  2   4   5   8  11  16  22  29  39  50  64  81 100 122 146 172 200 229 
233 208 184 163 142 126 109  99  87  82  75  74  71  69  36  42  39  50 
 50  60  58  41  90  77  80  68  73  64  71  61  72  62  73  66  16 125 
103  80  67  75  94  81  98  89 104  93 112 102 122 111 132  21  52  62 
 37  12  49  36  26  31  23  25  19  20  16  18  16  18  19  22  25  29 
 35  38  48  52  64  66  82  55 122 126 108 109  92  94  78  80  67  69 
 59  61  53  55  49  51  47  49  47  48  47  48  47  49  48  49  49  49 
 49  49  50  49  49  48  49  48  49  47  48  47  49  48  50  50  52  52 
 55  56  58  61  62  66  64  67  66  48  72  69  65  68  61  66  58  61 
 54  57  51  53  48  50  47  48  46  47  47  47  48  47  49  47  49  48 
 50  48  50  49  49  49  48  49  47  49  47  50  47  52  48  55  50  61 
 55  69  62  79  71  92  83 110  98 128 111  34  94  63  77  48  60  36 
 47  28  39  25  35  27  37  35  46  49  61  68  81  90  72 131 125 115 
104  96  88  83  79  77  77  79  83  88  96 104 115 125 136  77  92  83 
 72  65  57  53  48  48  48  52  56  63  70  81  90  95 106 127 117 106 
 98  89  84  79  77  77  78  82  87  94 102 112 122 141  18  93  82  70 
 60  49  41  33  26  20  16  12   9   6   5   3   2   1   1   1   0   0 
  0   0   0   0   0   0   0   0   0   0   0   0   0   0   0   0   0   0 
  0   0   0   0   0   0   0   0   0   0   0   0   0   0   0   0   0   0 
  0   0   0   0   0   0   0   0   0   0   0   0   0   0   0   1   1   2 
  2   4   5   8  11  16  22  29  39  50  64  81 100 122 146 172 200 229 
234 209 187 165 147 129 116 102  95  86  85  66  51  38  47  45  54  51 
 65  44  50  88  72  77  65  70  61  67  57  68  58  69  63  64 124 115 
123  74  28  90  80  95  84 100  89 107  96 116 104 127 114   0  68  50 
 53   3  36  54  12  26  29  22  22  18  19  17  18  17  19  21  23  28 
 31  38  41  52  53  68  68  85  74  58 133 107 108  92  94  80  81  70 
 70  62  63  56  57  52  53  50  51  48  49  48  49  48  48  48  48  49 
 48  49  48  49  48  49  48  50  49  50  49  51  51  53  54  56  57  60 
 62  64  67  70  72  72  79  82  37 135 102  62  81  74  76  70  72  65 
 67  60  62  55  57  52  53  50  50  49  49  48  48  48  47  48  47  49 
 47  49  48  48  48  48  48  48  49  48  51  48  53  50  57  53  62  58 
 70  65  80  74  93  85 109  98 127  89  44  96  66  79  50  63  38  50 
 29  39  23  33  23  33  29  39  39  50  55  67  75  88  66 135 131 120 
111 102  95  90  86  84  84  86  90  95 102 111 119 131 139  72  89  78 
 70  61  55  49  47  45  47  49  54  59  68  76  87  90 109 133 121 113 
103  97  90  87  84  84  85  88  94 100 109 117 128 145  13  90  78  68 
 57  48  39  32  25  20  15  11   8   6   4   3   2   1   1   1   0   0 
  0   0   0   0   0   0   0   0   0   0   0   0   0   0   0   0   0   0 
  0   0   0   0   0   0   0   0   0   0   0   0   0   0   0   0   0   0 
  0   0   0   0   0   0   0   0   0   0   0   0   0   0   0   1   1   2 
  2   4   5   8  11  16  22  29  39  50  64  81 100 122 146 172 200 229 
234 211 189 169 150 135 119 110  96  83  53  51  48  53  51  59  58  67 
 31  76  80  70  73  62  66  57  62  55  63  57  65  60  72  99 119 126 
115  96  77  77  90  81  96  87 102  92 112 100 118 108 128  37  55  63 
 41  15  41  45  54  33  26  27  21  21  18  19  17  18  19  20  23  25 
 31  33  41  43  55  56  70  71  85  87   7 120 109 108  95  95  84  83 
 74  73  66  66  60  60  56  56  53  53  51  51  50  50  50  50  50  49 
 50  50  50  50  51  50  52  51  53  53  55  55  57  58  61  62  65  68 
 71  74  76  80  81  86  88  29 138 133 137 134  42  91  83  84  77  79 
 71  73  66  67  61  61  57  57  54  53  52  51  51  50  50  49  50  48 
 49  48  49  49  49  50  50  51  50  53  51  55  53  59  57  65  62  72 
 69  82  77  94  88 109 100 126  76  80  94  68  80  53  65  40  51  28 
 40  22  32  21  30  23  33  31  41  44  55  62  74  82  63 142 136 127 
117 110 102  98  94  92  92  94  98 102 110 117 127 135 146  68  84  76 
 66  59  52  48  44  44  44  47  50  58  64  74  82  86 116 137 129 118 
111 103  99  94  92  92  93  96 101 108 115 124 133 151   9  85  75  64 
 55  45  37  30  24  18  14  11   8   6   4   3   2   1   1   1   0   0 
  0   0   0   0   0   0   0   0   0   0   0   0   0   0   0   0   0   0 
  0   0   0   0   0   0   0   0   0   0   0   0   0   0   0   0   0   0 
  0   0   0   0   0   0   0   0   0   0   0   0   0   0   0   1   1   2 
  2   4   5   8  11  16  22  29  39  50  64  81 100 122 146 172 200 229 
235 213 191 171 155 138 114  85  72  62  60  56  59  57  62  63  73  41 
 77  78  68  71  60  63  54  59  52  59  53  61  56  67   7 124 126 119 
122  98  67  87  81  90  83  97  88 104  95 112 105 123  95  62  70  52 
 52   6  28  50  49  12  32  25  25  21  21  18  18  18  18  20  21  25 
 26  33  34  44  45  57  58  71  72  84  87  75  74 118 110 100  97  88 
 85  79  77  71  70  66  64  61  60  57  57  57  55  54  54  55  53  53 
 53  53  53  54  54  55  55  56  57  59  59  62  63  66  68  72  73  77 
 80  84  88  91  94 102  44 126 122 124 121 125 123  52 106  91  92  86 
 86  77  79  72  72  66  66  63  61  58  58  56  55  54  53  53  52  52 
 52  52  52  52  52  53  54  54  56  55  59  58  63  62  70  67  76  73 
 85  82  98  92 110 104 139  22  84  95  68  79  54  65  41  52  30  40 
 23  32  19  28  20  28  25  34  35  45  49  59  67  79  56 146 144 133 
126 117 112 106 103 101 101 103 105 112 117 125 133 143 151  61  80  70 
 63  55  50  44  43  40  42  43  49  53  62  68  79  80 120 145 134 127 
118 113 107 104 101 101 102 105 110 115 123 131 141 156   2  81  70  61 
 51  43  35  29  22  18  13  10   7   6   4   3   2   1   1   1   0   0 
  0   0   0   0   0   0   0   0   0   0   0   0   0   0   0   0   0   0 
  0   0   0   0   0   0   0   0   0   0   0   0   0   0   0   0   0   0 
  0   0   0   0   0   0   0   0   0   0   0   0   0   0   0   1   1   2 
  2   4   5   8  11  16  22  29  39  50  64  81 100 122 146 172 200 229 
234 209 184 156 129 105  90  83  73  73  67  68  64  72  69  23  76  76 
 72  64  67  56  59  51  55  48  54  50  58  53  62  34 129 131 122 125 
116 117  69  77  87  82  92  87 101  93 107 101 115 106  44  75  58  65 
 43  16  34  42  52  39  28  28  25  24  21  20  18  18  18  19  21  22 
 26  27  34  36  45  46  57  58  71  72  83  85  98   6  93 119 106 100 
 96  90  86  82  77  75  71  68  67  66  63  61  61  60  61  57  59  58 
 59  58  59  59  60  60  62  61  64  65  69  69  72  74  77  81  84  87 
 92  96 100 108  61  78 117 112 114 110 113 111 116 113  89  50 104 101 
 92  93  85  85  78  77  72  72  67  68  64  63  61  61  59  58  58  57 
 57  57  56  57  58  59  59  61  61  64  63  68  67  73  72  81  81  90 
 87 100  97 114 115  71  80  85  91  69  79  55  65  42  52  31  40  23 
 31  18  26  17  24  20  28  27  36  39  49  54  65  72  53 155 150 142 
133 127 120 116 113 111 111 113 116 120 128 133 142 149 159  57  74  67 
 58  52  45  43  39  39  38  42  44  51  56  65  72  75 129 151 143 135 
128 121 117 113 111 111 112 115 119 125 131 140 147 165   3  74  65  55 
 48  39  33  26  21  16  13   9   7   5   4   3   2   1   1   1   0   0 
  0   0   0   0   0   0   0   0   0   0   0   0   0   0   0   0   0   0 
  0   0   0   0   0   0   0   0   0   0   0   0   0   0   0   0   0   0 
  0   0   0   0   0   0   0   0   0   0   0   0   0   0   0   1   1   2 
  2   4   5   8  11  16  22  29  39  50  64  81 100 122 146 172 200 229 
204 178 159 140 123 109  99  87  83  77  77  71  78  50  60  76  69  69 
 61  62  55  56  48  50  45  51  45  52  48  56  49 103 135 128 128 121 
124 116  32  88  79  89  84  95  88 102  96 110 110  20  79  65  70  55 
 52  10  26  45  47  56  22  29  27  22  23  20  20  19  19  19  20  22 
 23  27  28  35  36  45  46  57  58  68  70  81  83  94  96   3 116 110 
105 101  95  92  87  85  81  78  77  74  71  71  68  68  65  68  65  66 
 65  67  64  67  66  68  70  71  72  74  75  80  81  84  87  91  94 100 
103 107 107  43 109 106 102 103  98 101  97 102  99 106 104 111  56  99 
110 100 101  93  92  85  85  80  78  74  73  70  68  67  66  66  64  64 
 64  64  65  63  66  65  67  67  70  70  74  74  79  79  86  84  95  93 
105 103 117 107  41 101  83  88  69  75  55  63  42  51  31  40  23  31 
 17  25  15  22  16  23  21  28  30  38  42  52  58  68  44 159 159 150 
143 135 131 126 124 122 122 124 126 131 135 144 149 158 163  50  70  60 
 55  47  43  38  37  35  37  37  43  46  53  59  68  68 133 161 150 144 
135 132 127 124 122 121 123 125 129 134 141 147 156 170   9  70  60  53 
 44  37  30  25  19  15  11   9   6   5   3   2   2   1   1   1   0   0 
  0   0   0   0   0   0   0   0   0   0   0   0   0   0   0   0   0   0 
  0   0   0   0   0   0   0   0   0   0   0   0   0   0   0   0   0   0 
  0   0   0   0   0   0   0   0   0   0   0   0   0   0   0   1   1   2 
  2   4   5   8  11  16  22  29  39  50  64  81 100 122 146 172 200 229 
224 179 161 144 130 114 103  96  89  87  87  39  34  76  73  65  65  57 
 60  50  52  46  48  44  46  41  48  45  50  58  45 119 115 125 126 127 
121 120 115   9  96  84  89  86  97  98 118  47  54  85  70  76  63  66 
 43  19  30  41  49  50  30  32  26  26  24  23  20  20  19  19  20  20 
 23  23  28  29  36  36  45  46  55  57  66  68  78  81  87  93  85   9 
 96 122 109 102  99  95  91  90  85  83  82  79  78  76  76  74  75  73 
 74  72  76  74  77  76  78  80  82  83  86  88  92  93  99 100 108 118 
 97  13  94 101  96  94  93  89  90  87  89  87  91  90  96  95 103 101 
 33  83 118 108 102  98  93  92  86  86  82  81  78  77  75  74  73  74 
 72  72  71  74  73  74  75  77  79  81  81  86  86  93  92 102  98 111 
120  96  21  89  95  79  84  67  73  54  60  42  50  32  39  23  30  17 
 24  13  20  13  19  16  23  22  30  32  41  45  55  61  39 169 165 159 
151 146 141 137 134 133 133 134 136 140 146 152 158 165 173  44  62  57 
 48  44  38  36  32  33  31  36  37  44  47  55  61  63 141 167 160 152 
147 141 138 134 133 132 133 136 139 145 149 157 163 177  15  63  56  47 
 41  33  28  22  18  14  11   8   6   4   3   2   2   1   1   0   0   0 
  0   0   0   0   0   0   0   0   0   0   0   0   0   0   0   0   0   0 
  0   0   0   0   0   0   0   0   0   0   1   1   1   1   1   1   1   1 
  1   0   1   0   1   0   0   0   0   0   0   0   0   0   0   1   1   2 
  2   4   5   8  11  16  22  29  39  50  64  81 100 122 146 172 200 229 
236 184 162 146 130 120 112 102  84  48  45  74  65  67  60  62  55  55 
 48  50  45  45  40  41  39  43  40  45  48  15 109  99  97  92  90  99 
111 116 117 113  88  25  59  67  62  23  74  87  89  79  81  70  72  60 
 46  16  23  42  43  49  53  30  32  28  27  23  23  20  20  19  20  20 
 21  23  24  28  29  35  36  43  44  53  55  63  65  73  77  84  88  94 
 97  30  81 105 114 108 103 100  98  96  92  91  88  89  85  86  84  85 
 83  85  84  85  85  88  89  90  92  97  96 101 102 107 112 108  87  24 
101  97  92  90  85  84  80  79  76  78  75  77  77  82  81  87  87  94 
 95 103  37  75 106 113 108 101 100  95  95  90  89  88  87  84  83  82 
 83  83  82  81  84  84  86  86  90  90  94  95 100 100 109 113 112  82 
 25 100  89  91  77  80  65  68  53  57  41  48  31  38  23  30  17  23 
 13  18  11  17  13  18  17  23  24  32  35  43  48  56  34 146 148 138 
134 127 124 120 118 116 116 118 119 124 127 134 138 146 150  37  58  49 
 45  39  36  31  31  28  31  31  35  38  45  48  57  56 123 147 139 133 
128 125 118 118 116 115 116 118 122 126 132 137 144 156  12  58  50  44 
 36  31  25  21  16  13  10   8   5   4   3   2   1   1   1   1   0   0 
  0   0   0   0   0   0   0   0   0   0   0   0   0   0   0   0   0   0 
  0   0   0   1   0   1   1   1   1   1   1   1   1   1   1   1   1   1 
  1   1   1   1   1   1   0   1   0   0   0   0   0   0   0   1   1   2 
  2   4   5   8  11  16  22  29  39  50  64  81 100 122 146 172 200 229 
239 214 163 151 139 128  73   9  45  59  61  60  62  58  59  52  52  47 
 46  41  42  38  39  37  39  38  42  45  13 111 104 103  97  93  91  88 
 84  85  84  94 112 112 106 104  99 101  93  93  85  86  75  77  67  68 
 40  21  26  36  43  46  49  15  31  32  28  27  23  23  21  21  20  20 
 21  21  23  24  28  29  34  35  41  42  50  51  59  62  69  72  78  82 
 85  92  95  82  38  64 128 118 109 106 104 100  98  99  98  96  96  94 
 96  95  95  96  99  98  99 101 105 104 109 117 128  84  21  80  96  93 
 89  85  82  78  75  71  70  67  66  65  67  65  69  67  73  73  78  80 
 87  87  95  96  79  19  84 128 115 108 104 104 100 100  96  95  94  94 
 93  93  93  94  93  97  96  99  99 103 104 107 113 125  97   8  79  92 
 94  84  85  73  75  62  65  51  55  40  44  31  36  23  29  17  22  13 
 17  10  15  10  15  13  18  18  24  26  33  37  44  48  56  56  63  69 
 75  78  83  86  88  89  89  88  85  83  78  75  68  65  55  58  50  46 
 39  36  31  30  26  27  26  29  30  36  38  45  49  55  55  63  67  72 
 79  83  85  89  90  90  89  87  85  80  76  70  65  59  55  51  46  38 
 33  27  23  18  15  11   9   6   5   4   3   2   1   1   1   1   1   0 
  0   0   0   0   1   0   1   1   1   1   1   1   1   1   1   1   1   1 
  1   1   1   1   1   1   1   1   1   1   1   1   1   1   1   1   1   1 
  1   1   1   1   1   1   1   1   1   0   1   0   0   0   1   1   1   2 
  2   4   5   8  11  16  22  29  39  50  64  81 100 122 146 172 200 229 
240 201 141  89  35  21  43  46  51  53  56  54  54  52  49  49  44  44 
 39  40  35  38  35  36  36  38  38  42  43  52  61  68  83  95 100  93 
 89  82  82  78  75  83  98 104 104  96  98  91  89  83  82  74  73  67 
 38  20  21  37  39  44  45   2  36  33  31  27  27  23  23  21  21  20 
 21  21  22  23  24  27  28  33  34  39  41  47  49  55  58  62  67  72 
 76  81  85  88  93  96  97  33  22  58  86 113 123 119 115 115 112 111 
109 111 113 114 114 120 121 116  92  64  28  23  84  96  93  88  86  82 
 78  74  70  67  64  62  59  58  55  56  54  56  56  60  60  64  65  72 
 72  80  80  86  88  95  96  78  11  40  73 105 123 118 116 111 109 107 
107 104 105 108 107 111 115 117 125 110  81  45   3  69  94  95  86  87 
 77  78  68  69  58  60  48  51  39  43  30  34  23  27  17  21  13  17 
 10  14   9  13  10  14  14  19  20  25  28  34  38  45  49  56  60  66 
 70  75  78  81  83  84  84  82  81  78  75  69  67  60  56  48  46  39 
 36  30  29  25  25  23  25  24  28  30  36  38  45  49  56  60  67  70 
 76  77  82  83  85  85  84  83  80  77  72  68  62  57  51  46  39  34 
 29  25  20  17  13  10   8   6   4   4   2   2   1   1   1   1   0   1 
  0   1   1   1   1   1   1   1   1   1   1   1   1   1   1   1   1   1 
  1   1   1   1   1   1   1   1   1   2   2   2   2   2   2   2   2   2 
  2   2   1   2   1   2   1   1   1   1   1   1   0   1   1   1   1   2 
  2   4   5   8  11  16  22  29  39  50  64  81 100 122 146 172 200 229 
240 163   5   2  13  27  34  42  45  49  51  50  50  47  47  43  42  38 
 38  34  36  33  35  35  36  37  39  42  44  47  51  55  58  62  42   1 
 48  83  80  77  76  74  70  68  86 100  94  95  88  87  81  79  74  71 
 32  25  23  32  37  39  43  17  39  37  33  31  27  27  24  24  21  22 
 20  21  21  22  23  24  26  27  31  32  36  39  43  46  50  54  58  62 
 66  70  73  78  81  85  87  91  93  96  98 101  84  39   6  26  39  60 
 62  60  38  26   1  35  76 101  98  96  93  91  87  84  81  78  74  71 
 66  64  60  57  54  51  50  47  47  45  47  46  49  48  53  53  58  59 
 65  65  72  73  79  80  86  87  91  94  97  99  90  38   8  44  69  86 
107 116 116  85  76  49  15  27  80  99  98  94  92  87  87  80  80  71 
 72  62  64  54  55  46  47  37  39  29  32  23  26  17  20  13  16  10 
 13   9  12   9  12  11  15  15  19  21  26  29  34  38  44  46  53  57 
 62  65  68  70  72  73  73  72  70  68  64  62  57  54  46  44  38  36 
 30  28  24  23  20  21  20  23  24  28  30  36  38  45  48  54  57  63 
 65  69  71  74  74  74  74  72  70  67  64  59  55  50  46  38  35  30 
 26  21  18  14  12   9   7   5   4   3   3   2   2   1   1   1   1   1 
  1   1   1   1   1   1   1   1   1   1   1   1   1   1   1   1   1   1 
  1   1   2   2   2   2   2   2   2   2   2   2   3   3   3   3   3   2 
  3   2   3   2   2   2   2   1   1   1   1   1   1   1   1   1   1   2 
  3   4   5   8  11  16  22  29  39  50  64  81 100 122 146 172 200 229 
240 224  58   2  14  22  31  36  42  44  46  46  46  45  42  41  38  38 
 35  35  33  34  33  35  35  37  39  41  44  47  50  53  57  59  66  68 
 75  71  52  28  13  68  80  71  66  67  78  94  92  87  85  81  76  72 
 29  29  22  29  32  36  39  28  43  39  37  32  31  28  27  24  25  21 
 21  20  21  20  22  22  23  25  26  28  30  33  36  39  42  46  49  52 
 56  59  63  66  70  73  76  78  82  83  87  87  90  90  93  93  95  94 
 95  94  95  93  93  91  90  88  87  84  82  79  77  73  70  67  64  60 
 57  54  51  48  45  43  41  40  38  39  37  39  38  42  42  46  46  52 
 52  58  59  65  66  72  73  78  79  83  85  88  89  92  93  95  95  96 
 96  97  96  97  95  95  93  92  89  89  85  84  79  78  73  72  66  65 
 58  58  50  50  42  43  35  36  28  30  22  24  17  20  13  16  10  13 
  9  11   8  11   9  12  12  15  16  20  22  26  29  34  37  42  45  50 
 52  56  58  61  62  62  63  61  61  58  56  52  50  45  42  37  35  29 
 28  23  22  19  19  17  19  19  22  23  28  30  35  37  43  46  51  53 
 58  60  62  63  65  65  64  63  61  59  55  52  47  44  39  35  30  27 
 22  19  15  13  10   9   6   5   4   3   2   2   1   1   1   1   1   1 
  1   1   1   1   1   2   1   2   2   2   2   2   2   2   2   2   2   2 
  2   2   2   2   2   3   3   3   3   3   3   4   3   4   4   4   4   4 
  3   4   3   3   3   3   2   2   2   2   1   1   1   1   1   1   1   2 
  3   4   5   8  11  16  22  29  39  50  64  81 100 122 146 172 200 229 
242 224 168   3   8  22  27  36  39  43  43  45  43  42  41  39  38  36 
 35  34  34  33  35  35  37  38  40  43  45  48  51  54  57  59  63  67 
 67  72  73  77  80  93  51  23  54  68  60  63  85  89  87  83  79  65 
 33  31  25  25  30  34  36  38  45  43  39  37  32  32  28  27  23  25 
 21  23  20  21  20  20  21  22  23  24  26  28  30  33  35  38  41  44 
 47  51  53  57  59  63  65  68  70  73  74  77  77  80  80  82  81  83 
 82  83  81  82  80  80  77  77  74  73  70  68  65  63  59  57  54  51 
 48  45  42  39  37  35  34  32  32  30  31  30  33  32  36  36  41  41 
 46  47  52  53  58  59  64  65  69  71  74  75  78  79  81  82  83  84 
 85  84  85  84  84  82  82  79  79  76  75  71  70  65  65  59  58  53 
 52  46  46  39  39  32  33  26  28  21  23  17  19  14  15  11  13  10 
 11   9  10   9  11  10  12  13  16  17  20  22  26  28  33  35  39  42 
 45  47  50  51  52  53  53  53  51  50  47  46  41  40  35  33  28  27 
 22  21  18  18  16  17  16  18  18  22  23  28  29  34  36  41  43  47 
 49  52  53  55  56  56  55  54  53  50  48  44  42  37  35  30  27  23 
 20  16  14  11  10   7   6   5   4   3   3   2   2   1   2   1   2   1 
  2   1   2   2   2   2   2   2   3   2   3   3   3   3   3   3   3   3 
  3   3   3   3   3   3   4   4   4   4   5   5   5   5   5   5   6   5 
  5   4   5   4   4   3   4   2   3   2   2   1   1   1   1   1   1   2 
  3   4   6   8  11  16  22  29  39  50  64  81 100 122 146 172 200 229 
241 226 208 114  18  20  28  33  40  40  44  42  43  41  40  39  37  37 
 35  35  35  36  36  37  39  41  43  45  48  50  54  56  61  62  66  67 
 71  72  76  76  80  79  84  84  84  56  40  64  57  63  87  87  82  55 
 37  26  22  23  27  29  34  41  49  45  42  39  36  33  33  27  29  24 
 26  21  23  19  21  18  20  20  21  21  23  23  25  27  29  31  34  36 
 39  42  45  47  50  52  55  57  60  61  64  64  67  67  70  69  71  70 
 72  70  71  69  70  67  67  65  64  61  60  57  55  52  50  47  45  42 
 39  37  34  32  30  29  27  26  24  25  24  26  25  28  27  31  31  35 
 36  40  41  46  47  51  52  56  57  61  62  65  66  68  69  71  71  72 
 72  73  72  73  71  71  69  69  66  66  63  62  58  57  53  52  47  46 
 41  41  35  35  30  30  25  25  20  21  17  18  14  15  12  13  11  12 
 10  11  10  11  10  11  11  13  14  16  17  20  22  25  27  31  33  36 
 38  40  42  43  44  44  45  44  44  41  41  37  36  32  31  26  26  21 
 21  17  17  15  15  14  16  15  18  18  22  23  27  29  33  35  39  40 
 44  45  47  48  48  48  48  47  45  44  41  39  36  33  29  27  23  21 
 17  16  12  11   8   8   6   5   4   4   3   3   2   2   1   2   1   2 
  2   2   2   3   2   3   3   3   3   4   3   4   4   4   4   4   4   4 
  4   4   4   4   4   5   5   5   5   6   6   7   6   7   7   7   7   7 
  6   7   6   6   5   5   4   4   3   3   2   2   1   2   1   1   1   2 
  3   4   6   8  11  16  22  29  39  50  64  81 100 122 146 172 200 229 
241 225 210 195  43  24  27  36  37  43  41  44  42  43  41  40  39  38 
 38  38  38  38  39  41  42  45  46  49  51  54  56  60  60  65  67  70 
 70  74  73  76  77  82  81  88  85  93  99  57  12  58  57  77  86  47 
 43  15  16  20  22  27  27  38  42  49  45  43  34  17   1   9  14   5 
 11  26  22  21  20  21  18  18  18  19  19  20  21  23  24  26  28  30 
 32  35  36  39  41  44  45  48  49  52  53  55  55  58  57  60  59  60 
 59  60  59  60  58  58  56  55  53  52  49  48  46  44  41  39  37  34 
 32  30  28  26  24  22  21  20  20  19  20  19  21  21  23  23  27  27 
 31  31  35  36  40  41  45  46  49  50  53  54  56  57  59  60  61  61 
 62  62  62  61  61  60  60  58  57  55  54  51  50  46  46  42  41  37 
 36  32  31  27  27  23  23  19  20  16  17  14  15  13  14  12  13  11 
 12  11  11  11  12  11  12  13  14  15  17  18  20  22  24  26  29  30 
 32  34  35  37  37  38  37  38  35  36  33  33  29  29  25  25  20  20 
 17  17  14  15  13  14  13  15  15  18  19  22  24  27  29  32  33  36 
 38  40  41  42  42  42  42  41  40  38  37  34  32  29  27  23  22  18 
 17  13  12  10   9   7   7   5   5   3   4   3   3   2   3   2   3   2 
  3   2   3   3   4   3   4   4   5   4   5   5   5   5   5   5   5   5 
  5   5   6   6   6   6   7   7   7   8   8   8   9   9   9   9  10   9 
  9   8   9   7   8   6   6   4   5   3   4   2   3   2   2   1   2   2 
  3   4   6   8  11  16  22  29  39  50  64  81 100 122 146 172 200 229 
241 224 209 198 181  12  32  33  41  40  45  43  46  43  44  42  42  41 
 41  41  42  43  44  45  47  49  52  53  57  58  62  63  66  67  71  71 
 75  73  78  77  82  80  87  84  89  88  94  91  99  77  38  52  66  50 
 44   8  15  12  22  22  25  33  40  53  47  39   3   0   1   3   7  12 
  9  12  26  21  22  19  18  17  18  17  18  17  18  19  20  21  23  24 
 26  28  30  32  34  35  38  39  41  42  44  45  47  47  49  48  50  49 
 51  49  50  48  49  47  47  45  44  42  41  39  38  35  34  31  30  27 
 26  24  22  20  19  18  16  16  15  15  14  16  15  17  17  19  20  23 
 23  26  27  31  31  35  35  39  39  42  43  45  46  48  49  50  50  51 
 51  52  51  52  51  51  49  49  47  46  44  43  40  40  36  36  32  32 
 28  28  24  24  21  21  18  18  16  16  15  15  14  14  13  14  13  13 
 13  13  13  13  13  13  13  13  14  15  16  17  18  20  21  23  25  26 
 28  29  30  30  32  31  32  30  31  29  29  26  27  23  23  19  20  16 
 17  14  15  13  14  12  14  14  16  16  19  20  23  24  27  28  31  32 
 34  35  36  37  37  37  37  36  35  34  32  31  28  27  24  22  19  18 
 15  14  11  11   8   8   6   6   5   5   4   4   3   4   3   4   3   4 
  3   4   3   4   4   5   5   6   6   6   6   7   6   7   7   7   7   7 
  7   7   7   8   8   8   9   9  10  10  10  11  11  12  11  12  11  12 
 11  12  10  11   8   9   7   7   5   6   4   4   3   3   2   2   2   2 
  3   4   6   8  11  16  22  29  39  50  64  81 100 122 146 172 200 229 
242 224 210 192 185 156   7  46  39  46  45  49  46  48  46  47  45  46 
 46  47  47  48  50  52  53  56  57  60  62  65  66  69  70  74  74  76 
 77  80  79  83  81  85  84  88  85  92  89  94  94 100 101  52  50  49 
 49   6   8  13  13  21  21  32  44  55  43   9   7   5   1  28  47  50 
 55  48   3  25  20  21  18  19  16  17  15  16  15  16  16  18  18  20 
 21  23  24  26  27  29  30  32  33  35  35  37  37  39  39  41  40  41 
 40  41  40  41  39  39  38  37  35  35  33  32  30  29  27  25  23  22 
 20  19  17  16  15  13  13  12  12  11  12  11  12  12  14  14  16  17 
 19  20  23  23  26  27  29  30  33  33  36  36  38  39  40  41  42  42 
 43  42  43  42  42  41  41  40  39  38  37  35  34  32  31  28  28  25 
 24  22  21  19  19  17  17  16  15  15  15  15  15  15  15  15  15  15 
 15  15  15  15  15  15  14  15  15  15  16  17  17  19  19  21  22  23 
 24  26  25  27  26  28  26  28  25  26  23  25  21  22  18  20  16  17 
 14  15  13  14  12  14  13  15  15  17  18  20  22  24  25  27  29  30 
 31  33  33  34  34  34  34  33  32  31  30  28  27  24  23  20  19  16 
 16  13  13  10  10   8   8   6   7   5   6   4   5   4   5   3   5   3 
  5   4   5   5   6   6   7   7   8   8   8   8   9   8   9   9   9   9 
  9   9  10  10  10  11  11  12  12  13  14  14  15  14  15  15  16  14 
 15  13  14  12  13  10  10   8   8   6   6   4   4   3   3   2   3   2 
  3   4   6   8  11  16  22  29  39  50  64  81 100 122 146 172 200 229 
240 225 207 195 179 163 131  26  47  47  53  49  53  50  52  50  52  51 
 52  52  54  55  57  58  61  62  65  67  69  71  74  75  79  78  81  81 
 84  83  86  84  87  87  89  86  92  88  94  91  96  92 100 100 102  12 
 44   1   8   6  13  15  19  27  45  60  20  13  11   2  41  48  48  54 
 53  60  57  13  24  21  18  17  17  15  15  14  14  14  14  14  16  16 
 17  18  19  20  22  23  24  25  27  27  29  29  31  31  32  32  33  32 
 33  32  33  32  32  31  31  29  29  27  27  25  24  22  21  20  18  17 
 16  14  13  12  11  10   9   9   8   9   8   9   9  10  10  12  12  14 
 14  16  17  19  19  22  22  25  25  27  28  30  30  32  32  33  34  34 
 34  35  35  35  34  34  33  33  32  31  30  29  27  27  25  24  22  21 
 19  19  17  17  16  15  15  15  15  15  16  15  17  16  17  17  18  18 
 18  18  18  17  18  17  17  16  17  16  17  17  18  18  19  19  21  20 
 23  22  24  22  25  22  25  22  24  21  23  19  21  17  20  16  18  14 
 16  13  15  13  15  14  15  15  17  18  19  21  22  24  25  27  28  29 
 30  31  32  32  32  32  32  31  31  30  28  27  25  24  22  21  18  18 
 15  15  12  12  10  11   8   9   7   8   6   7   5   7   4   6   4   6 
  5   7   6   7   7   8   8   9   9  10  10  11  11  11  11  11  11  12 
 12  12  12  13  13  14  14  15  16  16  17  17  18  19  18  19  18  19 
 17  18  16  17  14  14  11  12   8   9   6   6   4   4   3   3   2   3 
  3   4   6   8  11  16  22  29  39  50  64  81 100 122 146 172 200 229 
241 222 208 190 180 157 122  65  47  55  53  59  55  58  56  58  57  59 
 59  60  61  63  65  67  68  71  73  75  77  79  80  83  84  86  86  89 
 88  90  89  92  90  93  90  93  91  94  92  96  94  98  97 100  98 102 
 57   1   1   8   7  15  13  24  51  44  19  16   5  39  43  45  48  51 
 56  56  61  27  24  22  20  19  16  16  14  14  12  13  12  13  12  13 
 14  15  15  16  17  18  19  20  21  22  22  24  24  25  25  26  25  27 
 26  27  25  26  25  25  24  24  22  22  21  20  19  18  16  15  14  13 
 12  11  10   9   8   8   7   7   7   6   6   6   7   7   8   8  10  10 
 11  12  14  14  16  16  18  19  20  21  22  23  24  25  26  26  27  27 
 28  28  28  28  28  27  27  27  26  25  25  23  23  21  21  19  18  17 
 16  16  15  14  14  14  14  15  15  16  16  18  18  20  19  21  20  22 
 21  22  21  21  20  20  19  19  18  19  17  19  17  19  18  20  19  21 
 20  22  20  23  20  23  20  23  19  22  18  21  17  20  16  19  15  17 
 14  17  14  16  15  17  16  18  18  20  21  22  24  24  26  27  29  29 
 31  31  32  32  32  32  32  31  30  29  28  27  26  24  23  21  20  18 
 18  15  15  13  14  11  12   9  11   8  10   7   9   6   8   6   8   6 
  8   6   9   8  10   9  11  11  12  12  13  13  14  14  14  14  14  15 
 15  15  15  16  16  17  18  19  19  20  21  22  22  22  23  23  24  22 
 23  21  22  18  19  15  16  12  13   9   9   6   7   4   4   3   3   3 
  4   4   6   8  12  16  22  29  39  50  65  81 100 122 146 172 200 229 
239 222 204 191 174 160 114  52  56  56  62  60  64  63  64  64  66  68 
 68  70  71  73  75  76  79  82  83  87  90  93  98 100 104 104 105 104 
104 102 103  98  98  95  98  96  98  95  99  95  98  95  97  96 100  99 
107  78  10   0  10   8  15  20  59  35  21  22  25  37  40  43  45  48 
 50  55  57  52  27  24  21  18  18  15  15  13  13  11  12  11  11  11 
 12  12  13  13  14  14  15  15  17  17  18  18  19  19  20  20  21  20 
 21  20  21  20  20  19  19  18  18  17  16  15  14  13  13  12  11  10 
  9   8   8   7   6   6   5   5   5   5   4   5   5   5   5   6   7   8 
  8   9  10  11  12  13  13  15  15  17  17  18  19  20  20  21  21  22 
 22  22  22  22  22  22  22  22  21  21  20  20  19  18  17  16  16  15 
 14  14  13  13  13  13  14  14  16  16  19  19  21  21  24  23  25  24 
 26  25  26  24  25  23  22  21  22  20  21  19  21  19  21  19  22  19 
 22  19  23  19  23  19  23  18  23  18  22  17  21  16  20  16  19  15 
 19  16  18  16  19  18  20  20  21  22  23  25  25  27  27  30  30  32 
 31  33  32  33  33  33  32  32  31  30  29  28  27  26  24  23  21  21 
 18  19  16  17  14  15  12  14  11  13   9  12   8  11   7  10   7  10 
  8  10   9  11  10  13  12  14  14  15  15  17  17  17  18  18  18  18 
 19  19  20  20  21  21  21  22  24  24  26  26  27  27  28  28  27  28 
 26  27  24  25  21  21  17  17  13  13  10  10   7   7   4   5   3   4 
  4   5   6   8  12  16  22  29  39  50  65  81 100 122 146 172 200 229 
239 220 204 185 173 154 114  42  58  65  64  70  69  73  71  73  74  74 
 76  79  79  82  84  86  84  81  82  57  21   3  33  47  54  54  52  50 
 31   5  16  53  86  94  96 100 102 101  97  98  96  98  97  99  99 102 
100 104  90   8   2   9   7  22  73  32  27   7  31  33  36  40  42  43 
 48  50  54  43  27  26  22  21  18  17  15  14  12  12  10  10  10  10 
 10  10  10  11  11  12  11  13  12  14  13  15  14  15  15  16  15  16 
 15  16  15  16  15  15  14  14  13  13  12  12  11  10  10   9   8   7 
  7   6   6   5   5   4   4   4   4   3   3   3   4   4   4   4   5   5 
  6   7   8   8   9  10  11  11  12  13  13  14  15  15  16  16  17  17 
 17  18  18  18  18  18  18  18  18  18  17  17  16  16  15  14  13  13 
 12  13  12  13  13  14  14  16  17  19  20  23  23  25  26  29  28  30 
 29  29  29  29  27  27  26  26  24  25  22  24  21  23  20  23  20  24 
 20  24  20  24  19  24  19  24  18  23  18  23  17  22  17  22  17  21 
 18  21  19  22  20  22  22  23  24  25  27  26  30  28  32  31  33  33 
 34  34  36  35  36  35  35  34  34  33  32  31  29  28  27  25  25  21 
 23  20  21  18  19  16  18  14  17  13  16  11  14  10  13   9  13   9 
 13  10  12  11  14  13  15  16  18  18  19  20  21  21  21  21  22  23 
 22  24  23  25  24  26  26  27  28  30  30  32  31  33  33  33  33  32 
 33  30  30  27  27  23  22  18  18  14  14  10  10   7   6   5   5   4 
  4   5   6   8  12  16  22  29  39  50  65  81 100 122 146 172 200 229 
238 220 199 185 167 157 107  39  67  67  76  74  79  78  81  81  82  84 
 87  90 100  73   7  50  68  80  91  90  89  87  86  85  83  83  82  81 
 81  83  81  84  84  78  65  51  17  40 102 110 104  98 102  97 100  97 
103 100 107  96  12   4  10   5  71  41  26  10  29  28  36  35  40  41 
 47  48  53  11  31  28  25  22  20  18  16  14  13  11  11  10  10   9 
  9   8   9   8   9   9  10   9  10  10  11  10  12  11  12  11  12  12 
 12  12  12  11  12  11  11  10  10  10   9   9   8   8   7   7   6   6 
  5   5   4   4   3   3   3   3   2   3   2   3   3   3   3   4   4   4 
  5   5   6   6   7   7   8   9   9  10  10  11  11  12  12  13  13  13 
 14  14  15  15  15  15  16  15  16  15  15  15  15  14  14  13  13  12 
 12  12  13  12  14  14  16  17  19  20  23  24  27  28  31  31  34  33 
 35  34  35  33  34  31  32  28  30  26  28  24  27  23  27  23  27  22 
 27  22  27  21  27  20  26  20  26  19  25  19  25  19  25  19  25  20 
 25  21  25  23  26  25  27  27  28  29  30  33  31  35  34  36  36  39 
 36  39  38  39  38  39  37  37  37  36  34  34  33  30  30  29  27  27 
 24  25  22  24  20  23  18  22  17  20  15  19  13  17  12  16  11  15 
 11  14  13  16  15  18  17  20  20  22  23  23  25  25  26  26  27  27 
 27  27  29  28  30  30  33  31  35  32  36  36  38  37  39  39  39  39 
 37  37  34  34  30  30  24  24  17  19  14  14  10   9   7   6   5   5 
  5   5   7   9  12  16  22  29  39  50  65  81 100 122 146 172 200 229 
238 216 199 180 167 149 118  46  71  79  79  84  87  90  90  92  96  92 
 57   3  72  91  89  88  85  83  81  79  79  77  76  74  75  74  73  74 
 75  73  76  76  78  79  81  82  85  85  87  49  20  70  98 106 100 101 
 98 103 100 109  93  13   3   2  78  58  32  23  23  30  31  34  36  40 
 43  47  47  28  33  29  26  24  22  19  17  16  14  13  11  11   9   9 
  8   9   8   8   7   8   7   8   8   9   8   9   8   9   8   9   9   9 
  9   9   9   9   8   9   8   8   8   8   7   7   6   6   6   5   5   4 
  4   3   3   3   3   2   2   2   2   2   2   2   2   2   3   3   3   3 
  4   4   4   5   5   6   6   6   7   7   8   8   9   9   9  10  10  11 
 11  12  12  13  13  14  13  14  14  14  14  14  13  14  13  13  12  12 
 12  13  12  14  14  16  16  19  20  24  25  29  30  33  34  37  36  40 
 38  40  38  40  36  38  34  36  31  34  29  32  27  31  26  31  25  30 
 25  30  24  30  23  30  22  29  22  29  21  28  21  28  22  28  23  28 
 24  29  26  30  28  31  30  32  33  33  36  34  39  37  41  39  43  40 
 44  41  44  42  42  42  41  41  40  40  39  38  36  35  33  33  31  30 
 31  28  29  25  28  23  27  21  25  19  24  17  22  15  20  14  19  13 
 18  13  19  16  20  19  21  22  25  25  26  28  29  30  30  32  31  32 
 32  34  32  35  34  38  35  39  38  41  40  43  42  44  44  45  44  44 
 44  41  41  37  37  32  31  26  25  18  19  13  13  10   9   6   6   5 
  5   6   7   9  12  16  22  29  39  50  65  81 100 122 146 172 200 229 
237 215 195 179 159 148 132  79  80  83  91  91  95  97 100 101   9  83 
 85  84  83  82  79  78  76  74  72  71  69  68  67  66  65  66  65  66 
 66  67  68  70  71  72  73  76  79  82  82  86  86  71  48  14  96 103 
101 100 106 102 109  85   8  23  74  77  56   9  26  22  30  28  36  36 
 42  43   9  39  34  31  29  26  23  21  19  17  15  13  12  11  10   9 
  9   8   8   7   8   6   7   6   7   6   7   6   7   6   7   6   7   7 
  7   7   7   6   7   6   7   6   6   6   6   5   5   5   4   4   4   3 
  3   3   2   2   2   2   2   2   2   2   2   2   2   2   2   2   2   3 
  3   3   4   4   4   4   5   5   6   6   6   6   7   7   8   8   9   9 
 10  10  11  11  12  12  13  13  14  13  14  13  14  13  14  12  13  12 
 13  12  14  14  16  16  19  20  24  26  29  31  35  37  40  39  43  42 
 44  44  45  43  43  39  42  37  40  35  38  32  36  31  36  29  35  29 
 35  28  35  27  34  26  34  25  33  25  33  24  33  25  33  26  33  27 
 33  29  34  31  35  34  36  37  38  40  39  43  41  45  43  47  43  49 
 46  49  47  48  47  48  46  45  45  43  43  42  41  39  38  38  36  36 
 32  35  31  34  29  32  27  31  24  29  22  27  20  25  17  23  16  21 
 16  21  17  22  20  24  24  26  27  30  31  32  33  34  36  35  38  36 
 40  37  41  38  43  40  45  42  47  44  49  46  50  49  51  48  51  49 
 49  47  45  44  40  39  33  31  26  25  19  18  14  13   9   8   6   6 
  6   6   7   9  12  16  22  29  39  51  65  81 100 122 146 172 200 229 
236 213 193 174 158 141 130  97  88  93  95 102 113  73  14  79  82  80 
 78  75  73  72  70  68  66  64  62  61  60  59  58  57  57  57  56  57 
 59  58  61  61  64  66  69  71  74  75  79  81  84  50  51  55  44  24 
 59 107 103 107 103 112  69  36  81  72  75  41  23  25  25  31  30  37 
 39   6  45  40  38  33  31  26  26  23  21  19  17  15  13  13  11  11 
  9   9   7   8   6   7   6   7   5   6   5   6   5   6   5   6   5   6 
  5   6   5   5   5   5   5   5   5   5   4   4   4   4   4   3   3   3 
  3   2   2   2   2   2   2   1   2   1   2   2   2   2   2   2   2   3 
  3   3   3   3   3   4   4   4   4   5   5   5   5   6   6   7   7   8 
  8  10   9  11  11  13  12  14  13  15  14  15  14  15  13  14  13  14 
 13  14  14  16  16  18  20  23  26  29  32  35  37  41  36  42  99 128 
142 138 128  97  47  41  44  45  41  44  38  43  36  42  35  41  33  41 
 33  40  32  40  30  39  29  39  29  38  28  37  29  37  30  38  31  38 
 33  39  35  40  38  41  41  42  43  44  47  45   8  63 120  22  54  50 
 54  51  50   9  68 116  42  51  50  49  46  62  82  85   2  42  42  39 
 41  37  40  35  39  33  37  31  36  28  33  25  31  22  28  20  25  19 
 24  19  24  21  26  25   2 103  96  96  13  36  38  41  40  43  41  44 
 41  47  43  48  45  50  46  52  48  69  76  72  44  57  79  68  72  70 
 72  73  75  40  47  41  40  34  32  26  24  19  17  13  12   9   8   6 
  6   6   8   9  12  16  22  30  39  51  65  81 100 122 146 172 200 229 
235 212 191 171 153 138 123 112  87  98 107  96  11  79  76  74  72  70 
 66  66  64  61  59  58  57  55  53  52  51  50  48  49  49  49  49  50 
 51  52  54  56  57  59  61  66  69  72  74  77  53  44  46  51   7   3 
  2   9  62  97 108 104 113  17  76  79  71  76  13  15  26  24  31  24 
 13  51  43  44  39  36  32  32  28  26  23  21  19  17  16  14  13  11 
 11   9   9   7   8   6   7   5   6   5   6   4   5   4   5   4   5   4 
  5   4   5   4   4   4   4   4   4   4   4   4   3   4   3   3   3   3 
  2   2   2   2   2   2   2   2   2   2   2   2   2   2   2   2   2   2 
  3   3   3   3   4   3   4   4   4   4   5   5   5   5   6   6   7   7 
  9   8  10  10  12  12  14  14  16  15  17  15  17  15  16  15  16  14 
 15  15  16  16  18  20  22  25  28  32  35  39  41  23 178 180 175 172 
171 172 171 173 175 188  45  41  51  44  49  42  48  40  47  39  47  38 
 47  37  46  36  45  35  45  34  44  33  43  33  43  34  43  35  43  37 
 44  39  45  42  46  45  47  48  48  52  50  53 165 172 186  31  54  60 
 56  60  15 170 171 162  44  55  55  53  51 142 176 181  32  48  46  47 
 44  46  42  45  40  44  37  42  34  40  31  37  28  34  24  31  22  28 
 22  27  23  28  26  30  25 181 191 189 112  41  44  44  47  46  50  47 
 27  45  54  49  55  51  58  51   4 182 166 175  34  60 177 166 162 166 
166 169 169 182  51  48  43  40  34  32  26  23  18  16  12  11   8   8 
  7   7   8  10  12  17  22  30  39  51  65  81 100 122 146 172 200 229 
235 210 189 168 150 131 119 106  12 122   6  68  74  69  67  65  62  61 
 59  57  55  53  51  50  48  46  45  44  43  42  42  41  41  41  42  43 
 44  45  48  50  52  54  58  60  64  68  70  66  39  41  45  28   1   1 
  2   1   7   7  39 108 108  99  85  76  81  69  76  50  38  28  49  51 
 59  50  52  45  45  38  38  33  32  28  26  23  21  19  17  16  14  14 
 11  12   9  10   7   9   6   7   5   6   4   6   4   5   4   5   3   4 
  3   4   3   4   4   4   4   4   4   4   4   4   4   3   3   3   3   2 
  3   2   2   2   2   2   2   2   2   2   2   2   2   2   2   3   2   3 
  3   3   3   4   3   4   4   4   4   5   4   5   5   6   5   7   6   8 
  8  10  10  12  12  15  14  17  16  18  17  19  17  19  17  18  16  17 
 16  17  17  18  20  21  25  27  31  33  39  41  73 181 174 174 173 178 
179 176 173 166 169 166 175 132  34  56  48  55  46  54  45  54  44  53 
 43  53  42  52  41  51  39  50  38  49  38  48  39  48  40  48  41  49 
 43  50  46  51  49  52  52  53  56  55  59  55 150 168 175  28  65  59 
 66  61  24 160 164 159  50  61  59  60  55 137 169 176  24  53  53  51 
 52  49  51  47  51  44  49  41  47  38  44  34  40  30  36  27  33  25 
 31  25  31  27  32  31  33 124 189 184 176  46  46  52  50  56  51  58 
142  37  53  62  55  63  57  65 135 161 165 161  64  70 174 156 159 157 
159 162 163 172  67  52  49  43  40  33  30  25  22  17  15  12  10   8 
  8   7   8  10  13  17  22  30  39  51  65  81 100 122 146 172 200 229 
234 210 186 166 146 129 113 101  72  47  74  69  65  62  59  56  54  52 
 50  48  47  45  43  41  40  38  37  36  35  35  34  35  34  35  36  37 
 38  40  42  45  47  50  53  55  59  64  67  34  35  39  41   4   3   1 
  2   1   0   3   2   2  64  98  43  81  75  79  66  70  59  64  52  55 
 48  52  46  50  44  44  37  37  33  31  28  25  23  21  19  17  17  13 
 15  11  12   9  10   7   9   6   8   5   7   4   6   4   5   3   4   3 
  4   3   4   3   4   4   4   4   4   4   4   4   4   4   3   4   3   3 
  3   3   2   3   2   2   2   2   2   2   3   2   3   3   3   3   4   3 
  4   3   4   4   5   4   5   4   5   4   5   5   6   5   7   6   8   8 
 10  10  13  12  16  15  18  17  20  19  21  19  22  19  20  18  20  17 
 18  18  19  20  21  24  25  30  31  38  39   1 193 172 171 158  57  19 
 51  40  10  97 161 166 166 117  48  55  62  52  61  50  60  50  60  49 
 60  48  59  47  57  46  57  44  55  44  54  44  54  44  53  46  54  48 
 55  50  56  52  57  57  58  60  58  63  60  66 149 157 176  43  65  71 
 66  71  28 151 160 152  58  66  66  63  61 132 165 170  20  59  58  58 
 56  58  54  57  52  54  48  54  45  51  41  46  37  43  33  39  29  35 
 28  34  29  34  32  36  37  17 195 181 185  42  55  53  60  56  63   2 
174  58  67  60  69  60  70  31 153 161 156  43  75  69  94  90  86  96 
152 157 158 161 140  51  50  48  42  38  32  28  23  20  16  13  11   9 
  8   8   9  10  13  17  22  30  39  51  65  81 100 122 146 172 200 229 
233 208 185 162 143 124 109  95  84  74  69  62  57  54  51  48  46  44 
 42  40  39  37  35  34  33  32  30  30  29  28  29  28  29  29  31  31 
 34  35  38  40  42  46  49  53  55  59  35  29  33  37  23  11   4   3 
  1   4   0   3   0   5  23  71  40  26  50  37  42  33  37  28  34  24 
 28  18  20  13  15  13  26  32  37  33  31  28  26  23  22  21  17  18 
 15  14  12  12   9  12   7  10   6   8   5   7   4   6   4   5   4   5 
  3   4   4   4   4   4   4   4   4   4   4   4   4   4   4   4   4   3 
  4   3   3   3   3   3   3   3   3   3   3   3   3   4   3   4   4   5 
  4   5   4   6   5   6   5   6   5   6   5   7   6   8   7   9   8  11 
 10  13  13  16  16  20  18  22  20  24  20  25  22  23  20  23  20  21 
 19  19  21  21  24  24  29  29  36  37  44 141 174 173 179  27  66  66 
 68  70  67  69  22 155  79  68  61  67  58  66  57  67  55  66   2  67 
112  99  57  47  52  61  50  62  50  60  49  59  50  58  51  28  73 108 
111  60  37  61  48  34  37  43  67  64  51  43 140 160 162  16  48  54 
 75  44  13 151 152 148  34  44  63  70  65 127 160 164  14  64  64  63 
 63  61  63  59  62   6  79 116 103  48  47  44  49  39  45  35  40  32 
 37  31  36  33  38  37  41  43 157 177 176 157  54  62  59  67  60  87 
163 164  63  74  65  75  66  15 158 148 151  48  72  79  74  81  75  23 
150 149 154 156 165  17  57  50  47  40  36  30  26  21  18  15  12  10 
  9   9   9  11  13  17  23  30  39  51  65  81 100 122 146 172 200 229 
232 207 183 160 139 121 105  91  79  70  62  56  51  47  44  41  39  37 
 35  33  32  30  29  27  26  25  25  24  23  23  23  24  24  25  26  28 
 29  32  33  37  39  43  45  50  54  39  23  26  30  30  12   8   7   5 
  5   0   3   0   3   1  30  48  45  39  39  46  37  43  34  41  28  27 
 14  15   4   7   1   4   3   6   5  12  19  31  29  27  26  22  21  19 
 20  15  17  11  15  10  13   8  11   6   9   5   8   4   6   4   6   4 
  5   4   5   4   5   4   5   5   5   5   5   5   5   5   5   5   4   5 
  4   4   4   4   3   4   3   4   4   4   4   4   5   4   5   4   6   5 
  6   5   7   6   7   6   8   6   8   6   8   7   9   7  10   9  12  11 
 14  14  17  17  21  20  24  23  27  25  28  25  26  25  26  43 130   1 
 21  22  22  21  23  28  28  34  33  43  39 155 176 165 143  66  66  70 
 72  72  74  71  75  38  74  66  73  64  73  63  72  61  27 142 163 171 
157 169 161 170  93  36  68  56  67  55  65  54  64   9 119 177 167 170 
163 171 165  85  53 175 168 108  69  74  95 161 155 148 153 154 163  71 
 66 137 160 149 150 149 161 167  22  72  71 123 154 161  10  69  69  69 
 67  67  65  52 150 168 170 164 174 171 174  90  41  52  41  46  37  41 
 33  39  35  39  37  41  43  45  26 175 170 171  20  58  69  64  70 157 
149 162  32  69  79  69  81 125 144 154 108  75  83  77  85  79  85  94 
145 147 155 154 157 125  59  55  49  44  38  33  28  24  20  16  13  11 
 10   9  10  11  14  17  23  30  39  51  65  81 100 122 146 172 200 229 
232 206 181 158 136 117 101  86  74  64  56  50  45  41  37  35  32  31 
 29  27  26  24  23  22  21  20  20  19  19  19  19  19  20  21  23  23 
 26  28  31  33  36  40  42  48  37  16  23  25  30   2  16  11   9   7 
  2   5   0   4   2   6  50  43  50  38  94 101   3   7   3  17  13  24 
 19  28  24  35  32  41  39  47  37  29  19  12  10  27  28  26  22  23 
 17  20  15  19  12  16  10  14   8  12   7  10   6   8   5   7   5   6 
  5   6   5   6   5   6   6   6   6   6   6   6   6   6   6   5   6   5 
  6   5   5   4   5   4   5   5   5   5   5   6   5   6   5   7   6   8 
  7   8   7   9   8   9   8  10   8  10   8  11   9  11  10  13  12  15 
 15  19  18  23  22  26  25  30  27  32  29  31  28  13 122 181  77  25 
 24  23  24  22  27  26  32  30  40  39  47 156 167 171 169  21  72  72 
 74  76  76  78  73  79  71  79  69  79  68  79  66  78 167 148 162 148 
154 146 162 151 164 151  28  72  61  69  61  68   0 168 164 159 164 160 
165 160 158 157 144 155 152  97  76  73  81 153 145 151 143 152 144  69 
 77 133 145 146 145 148 149 154  25  78  72 117 152 156   7  74  73  73 
 73  67 115 159 152 159 154 156 156 167 162 173 165  26  52  43  45  39 
 42  36  40  39  41  42  45  48  29 160 170 162  58  71  64  76  51 150 
156 143 118  83  72  84  29 156 152 150  13  87  79  87  81  88  44 153 
146 150  11 152 154 165  16  57  51  47  41  35  30  25  21  18  14  12 
 10  10  10  11  14  18  23  30  39  51  65  81 100 122 146 172 200 229 
231 205 179 155 134 114  97  82  69  60  50  45  39  35  32  29  27  25 
 23  22  21  19  18  17  17  16  15  15  15  15  15  16  16  19  19  22 
 23  26  28  32  33  37  42  38  11  16  20  24  13  20  15  12  10   6 
  6   2   5   0   4  13  45  40  14   8  48  90 101  66  12   5  17   8 
 20  16  26  22  32  31  39  36  44  43  47  49  47  37   3  28  29  23 
 26  20  23  15  20  13  18  11  15   9  13   7  11   6   9   6   8   6 
  7   6   7   6   7   7   7   7   7   7   7   8   7   8   7   8   6   7 
  6   7   6   6   6   6   6   6   6   6   7   6   7   6   8   7   9   8 
 10   9  11   9  12  10  12  10  13  10  13  11  14  12  15  13  17  16 
 20  19  24  23  28  27  32  31  34  31  35  32  37 160 165 143  29  25 
 26  24  23  25  24  29  29  37  35  46  43  90 177 161 165 151 119  45 
  6  52  80  78  83  76  82  73  83  72  83  71  40 158 142 158  76  39 
 59  42  35 167 145 158 131  57  73  66  72  39 149 161 155 171  87  20 
 35  25 146 152 152 151 152  91  75  82  37  77 143 141 152  86  86  17 
 74  65  95 141 144 144  85  85  46  79  79 117 146 153   2  76  78  77 
 77  68 150 149 155  60  43  49  35  69 168 161 170 137  49  51  44  46 
 41  43  40  42  43  44  48  48  55 115 165 166 151  64  76  58 141 153 
141 152 146  33  87  76  79 150 139 117  88  80  90  82  90  83  72 143 
137  91  83 126 149 157  72  60  55  49  42  37  32  27  23  18  16  13 
 12  10  11  11  14  18  23  30  40  51  65  81 100 122 146 172 200 229 
231 204 178 154 131 112  94  79  66  55  47  40  35  30  27  24  22  20 
 19  17  16  15  14  14  13  12  12  12  12  12  13  13  15  15  18  18 
 22  23  28  29  33  37  34   5  11  14  19  18  20  19  17  12  11   9 
  6   6   2   4   1   1   3   9   1   6   5  96  90 102  73  21   3  17 
  9  21  16  25  22  32  31  37  37  43  46  46  50  52  57  44   2  28 
 25  27  19  25  17  21  14  19  12  16  10  14   8  12   8  10   7   9 
  7   8   7   8   8   8   8   9   9   9   9   9   9   8   9   8   9   8 
  9   7   8   7   7   7   7   7   7   8   7   9   8  10   8  11   9  12 
 10  13  11  14  12  15  13  16  13  16  13  17  14  18  15  19  18  22 
 21  26  25  30  30  35  34  38  36  39  36  57 165 159 165  45  27  27 
 27  26  26  25  29  27  33  32  42  39  52  42 151 169 156 159 150 158 
155 159 161 119  74   1  62  87  75  87  74  51 166 139 155  36  75  87 
 75  87  74  15 160 142 158  54  71  76  71 101 157 153 157   8  73  74 
 74  75  70  96 149 150 146  93  83  77  85  77 122 147 151  59  88  80 
 87  81  55 140 142 137  81  82  80  83  77 112 147 149   1  82  79  81 
 29 161 148 154  25  77  78  73  76  69  29 173 161 179  60  50  50  45 
 45  42  42  43  43  47  47  53  51  27 180 156 171   5  69   3 153 141 
147 139 152 100  76  77 131 137 147  18  80  91  81  92  82  80 132 133 
144   2  82  59 151 152 149  61  56  51  44  40  33  29  23  20  16  14 
 12  11  11  12  14  18  23  31  40  51  65  81 101 122 146 172 200 229 
230 203 177 152 130 109  92  76  63  52  43  36  31  26  23  20  18  16 
 15  14  13  12  11  10  10  10   9  10   9  10  10  12  12  15  15  19 
 19  24  25  30  32  28   2   6  11  13  19  19  23  19  18  14  11  10 
  7   5   7   2   7   0   6   1   7   0   6  39 102  88  99  85  16   3 
 16  10  20  15  24  23  31  30  36  37  41  43  46  48  48  54  53  55 
 15  26  30  21  27  18  24  15  21  13  18  11  15  10  13   9  11   9 
 10   9  10   9  10  10  10  10  10  11  10  11  10  11  10  11   9  11 
  9  10   9   9   9   9   9   9   9   9  10   9  11  10  13  11  14  12 
 15  13  17  15  18  16  19  16  20  16  20  17  21  18  22  20  25  23 
 28  27  33  32  37  36  41  38  44  41  87 157 155 159 157  33  33  30 
 28  28  25  28  26  32  29  39  35  46  43  56  29 142 164 152 155 147 
148 144 142 145 140 145 140  26  90  77  90  54 135 148 104  73  90  77 
 88  78  87  77  51 154 141 161  69  75  33 162 151 158   9  76  76  77 
 75  79  75  67 129 144 148  87  79  86  79  86 131 136 159  58  81  88 
 82  87  43 136 144 137  74  82  84  81  80 114 142 151   4  81  85  81 
100 145 143  86  83  82  79  80  75  74  70  86 163 165 159  44  50  48 
 46  44  44  42  46  45  51  49  57  55 114 167 152 123  81 104 140 161 
 15 135 137 150  47  26 140 148 140  50  91  81  92  84  93  24 136 143 
144  79  87  50 158 154 162  43  59  51  46  40  36  29  26  20  18  14 
 13  11  12  12  15  18  24  31  40  51  65  82 101 122 146 172 200 229 
230 202 176 151 128 107  89  74  60  49  40  33  27  23  19  17  15  13 
 12  11  10   9   8   8   8   7   8   7   8   8  10   9  12  12  16  16 
 21  21  26  28  18   3   3   5   9  15  13  29  23  19  19  15  12  10 
  9   7   6   7   4   8   2   8   2   7   3   5  81  97  87  99  86  25 
  3  16  10  20  18  26  24  32  32  36  36  41  42  43  48  47  52  48 
 59  28  26  33  22  28  19  25  16  22  14  19  12  16  11  14  11  13 
 11  12  11  12  11  12  12  12  13  12  13  12  13  12  13  12  13  11 
 12  11  12  10  11  11  11  11  11  12  11  13  11  14  13  16  14  18 
 16  20  17  21  19  23  20  24  20  24  21  25  21  26  23  28  25  31 
 29  35  34  40  39  44  41  48  38  96 158 149 155 159  20  38  33  31 
 29  28  28  25  30  27  34  31  43  39  52  48  62  58  20  38  84 128 
159 157 152 142 144 139 145 134  50  92  79  86 149 133 129  67  80  68 
 78  71  80  70  91 143 147 148   4  80  41 150 149 125  77  76  79  77 
 81  76  82  78  56 150 143  90  85  78  87  80 123 147 151  51  88  81 
 87  82  45 139 144 137  71  84  82  84  78 109 145 145   1  86  82  74 
126 140 142 106  76  76  78  80  82  83  85 115 159 164 162  20  52  50 
 46  47  43  46  43  48  46  55  51  63  36 158 163 141   9 154 152 124 
 75  86 149 135  36  90 149 138  86  89  81  90  82  91  79 136 141 138 
 37  88  83  83  91 151 158 150  50  54  46  42  35  32  25  23  17  16 
 13  13  12  13  15  19  24  31  40  51  65  82 101 122 146 172 200 229 
230 202 175 150 127 105  87  71  58  47  38  30  25  20  17  14  12  10 
  9   8   7   7   6   6   6   6   5   6   6   8   7  10   9  12  13  18 
 16  23  24  10  10   0   0   7   9   9  34  27  25  23  18  16  14  12 
 11   9   8   6   8   5   7   3   8   0   8   3  53  87  98  88  97  80 
 13   4  13  10  20  18  27  24  26  24  25  26  28  33  31  37  35  43 
 43  52  51   2  24  19  30  20  25  17  23  15  19  13  17  13  15  13 
 14  13  14  13  13  14  13  14  14  15  14  16  14  16  14  14  13  15 
 13  14  13  12  12  13  13  13  14  13  15  13  16  14  17  14  20  17 
 20  17  23  22  26  22  27  24  29  25  30  25  31  26  32  28  34  32 
 37  37  42  42  47  45  50  39  79 145 145 148 148 130  37  35  36  33 
 31  29  27  29  26  32  29  38  34  47  43  57  52  66  61  73  71  79 
 79  54   4  77 127 145 136 147  37  80  93 119 131 145 132 144 133 145 
133 144 135 144 139 145 141 148  24  79  75 145 150  89  75  81  75  82 
 77  83  78  84   8 153 147  85  79  87  79  87 134 138 160  56  79  86 
 80  85  41 139 145 139  71  81  84  80  82 115 141 151   6  81  87  62 
127 144 138 143 139 143 142 145 146 151 153 157 160 163 165   7  53  49 
 49  43  47  42  48  43  52  47  59  53  44 170 152 162 142 157 141  35 
 88  23 149 150 132 151 137 151  59  79  88  79  88  82   6 147 136 139 
 82  83  86  80  28 154 153 164   1  52  49  41  38  30  28  22  20  15 
 15  12  13  13  16  19  24  31  40  52  65  82 101 123 146 172 200 229 
229 201 174 149 125 105  86  70  56  45  35  28  22  18  14  12  10   8 
  7   6   6   5   5   4   5   4   5   4   6   5   8   7  11  10  14  11 
 19  16   7  13   5   4   2   5  13  37  32  28  26  23  20  16  15  13 
 12  11  10   9   8  10   4   8   2   8   1   7   6  99  88  96  86  97 
 81  12   9   5  20  36  55  55  57  54  52  52  49  49  43  46  40  42 
 32  35  24  10  17  10  15  11  21  29  18  25  17  22  16  19  15  18 
 15  17  15  15  16  15  16  16  15  13  17  15  15  24   8  16  17  15 
 16  15  16  13  16  15  15  16  15  16  15  18  15  20  18  21  20  24 
 21  18   2   2   7  33  28  34  28  35  29  36  30  37  32  39  34  42 
 38  46  44  50  49  54  37  69 145 140 144 143 151  54  42  40  36  34 
 31  29  29  26  30  27  34  31  41  36  50  47  60  56  69  66  75  73 
 79  81  81  86  39 137 145 136 113  92  80 102 147 131 149 144 156 145 
154 146 156 150 155 153 155 158  33  79  70 150 145  99  82  75  82  75 
 82  76  84  77   5 157 140  92  86  78  85  77 126 150 155  48  85  77 
 84  79  41 142 147 139  69  81  78  83  74 111 148 146   1  86  80  69 
132 137 145 144 154 150 156 153 160 158 166 166 172 172 181   1  51  53 
 45  49  42  48  42  49  44  55  48  61  54  85 168 152 161 145 158  49 
 72  86 118 140 151 140 149 101  74  84  78  86  78  86 102 138 144 124 
 68  64  69  68  81 147 158 161 107  55  46  43  36  33  26  24  19  18 
 14  14  13  14  16  20  24  32  41  52  66  82 101 123 147 173 200 229 
229 201 174 148 125 103  85  68  55  43  34  26  21  16  13  10   8   7 
  6   5   4   4   3   4   3   4   3   5   4   6   5   9   8  12  11  17 
  3  17  16   8   8   2   1  19  42  35  31  30  26  23  20  19  16  16 
 13  13  11   9  12   8  10   6   8   3   9   0   1  56  96  88  96  89 
 96  42  79  83  75  75  69  70  64  63  58  58  57  54  55  49  52  46 
 51  40  47  32  10  17  16  26  17  13  10  16  25  19  23  17  21  18 
 20  17  19  19  18  18  18  10  21  19  24  34  36  32  35  28  13  20 
 18  19  17  19  18  17  18  18  18  18  21  19  22  20  24  11   3  14 
 23  29  21   8  37  32  38  33  41  35  41  35  42  37  43  39  46  43 
 49  47  54  52  58  40  14 138 133 140 138 143 148  41  46  40  37  34 
 31  30  27  28  25  31  26  36  33  45  41  52  40  12  60  69  68  76 
 77  79  82  79  85 144 137 149 102  77  92  88 134 146  81  78  88  79 
 86  79  84  77  81  81  78  80  75  81  35 148 152 136  71  83  72  83 
 74  83  75  84  86 145 151  87  76  84  75  84 136 144 163  49  75  81 
 75  80  36 145 150 143  66  76  80  75  77 118 144 156   5  77  86  71 
118 147 139  39  87  77  82  75  79  69  73  67  69  56  59  51  57  47 
 52  42  49  40  49  41  52  44  57  49  63  29 160 166 151 164 103  69 
 82  71   8 154 143 153 148  34  81  74  82  76  83  34 154 149 141 147 
145 150 150 154 154 156 159 164 182  23  49  41  38  31  29  22  21  16 
 16  13  14  14  17  20  25  32  41  52  66  83 101 123 147 173 200 229 
229 201 173 148 124 103  83  67  53  42  33  25  19  15  11   9   7   6 
  4   4   3   3   3   2   3   2   3   3   5   4   7   6   9   8  14  13 
 12  20  13  13   4   4  23  43  39  39  31  29  27  23  22  19  19  16 
 17  15  14  14  13  14  11  12   6  10   6   9   1  14  86  94  88  94 
 88  99   8  79  82  76  76  70  70  65  65  62  60  61  56  57  51  56 
 48  54  43  49  37  11  12  13  24  18  29  23  10  25  21  25  20  23 
 20  21  21  22  22  22  21  16  15  18  30  31  29  31  29  30  27  21 
 21  21  22  21  21  21  20  22  21  23  20  24  12   3  30  25  26  23 
 24  15  28  40  36  43  39  46  39  48  40  49  41  49  44  50  46  54 
 51  57  56  61  48  16 137 131 135 131 137 140  61  51  46  42  38  35 
 32  29  28  25  28  25  32  29  39  35  47  43 121 174   9  63  70  71 
 74  78  77  83  27 139 148 139  79  89  76  21 151 137 139  75  80  87 
 81  86  79  83  71  23  79  77  81  74  46 167 144 160  68  70  82  70 
 82  71  82  45 139 153 144  96  81  72  81  72 128 156 155   6  78  71 
 77  73  36 148 152 146  45  77  72  78  69 104 154 148  31  83  74  84 
 83 143 148 129  76  85  76  83  73  79  68  36  20  66  53  60  48  54 
 42  50  39  48  38  49  40  53  44  58  49  62 129 158 166 162  28  77 
 67  79  41 145 157 149 165  76  71  78  72  78  73 117 152 146 151 145 
150 148 152 151 157 157 162 165 172 106  45  43  35  33  26  25  19  19 
 15  15  14  16  17  21  26  33  42  53  67  83 102 123 147 173 200 229 
229 200 173 147 123 102  83  66  53  41  32  24  18  14  10   8   6   5 
  4   3   2   2   2   2   2   3   2   4   3   5   5   8   6  12  10  17 
 15   1  18   8   8  38  51  43  41  37  34  29  27  25  22  22  19  20 
 17  18  15  17  15  14  16  13  13   9  13  11  10  35  74  87  93  86 
 91  88  86  76  79  81  76  76  72  71  67  65  65  42  32  23  28  29 
 59  50  57  45  52  38  15   8  12  23  16  26  22  27   8  21  28  24 
 26  24  25  25  25  26   5  13  13  25  29  25  28  24  27  27  30   8 
 24  24  24  25  24  23  25  24  26  19   1  17  22  28  20  25  17  22 
  7  33  43  38  48  42  52  44  54  45  54  48  55  49  57  50  59  55 
 60  59  64  55  31  80 128 129 127 131 131 136  21  51  48  43  39  35 
 31  29  26  27  24  28  26  32  31  41  12 147 184 168 173 112  17  68 
 72  73  52  48 131 152 142 153  32  73  85  63 147 150 143 124  55  77 
 84  77  81  37 130 156 113  17  71  78  68  82 160 145 162  59  67  80 
 67  80   9 132 158 147 157  92  70  78  69  77 103 150 159 118  66  73 
 68  72  50 149 155 156  74  67  74  69  74  93 151 157 123  55  80  72 
 66 161 143 154 104  63  83  71  80  67   7 153 164 124  13  49  57  43 
 46   9  19  11  46  37  48  40  53  44  58  49  42 177 159 127  71  60 
 73  63  74 103 155 161  51  65  71  67  73  67  35 154 151 156  71  38 
 36  40  37  43  42  45 120 168 171 163  34  39  37  30  29  23  22  17 
 17  15  16  15  18  21  27  33  42  54  67  84 102 124 147 173 201 229 
229 200 173 147 123 101  82  66  52  40  31  23  17  13  10   7   5   4 
  3   2   2   2   2   1   2   2   3   2   4   3   6   5  10   8  14  13 
 20  18  11  24  54  56  46  47  41  38  35  30  29  26  26  22  23  20 
 22  19  20  19  21  20  17  18  15  11  16  65  66  44  27  96  87  92 
 87  92  91  48  85  81  81  78  76  72  72  67  33  30  26  31   5  27 
 53  20  22  59  43  54  39  13   6   9  21  15  23  17  24  23   6  28 
 28  29  28  28  29  27   8  11  11  25  23  25  24  25  23  24  23   8 
 29  27  28  28  27  27  27  26   2  13  21  20  24  18  22  14  22   0 
 38  46  43  52  47  42  18  64  63   6  46  62  53  62  56  64  58  65 
 62  69  65  39   6 131 123 121 126 125 132 119  51  53  48  44  39  35 
 31  28  27  24  26  24  28  27  35  32  26 145 181 177 169 166 170 176 
155 165 167 153 156 148 163  82  69  82  70  82   9 147 153 144 161  57 
  2   4  76 161 149 155 147  24  76  66  76  43 140 164 149 167 149  77 
 49 115 158 162 152 160 151 103  74  66  73  64  10 168 156 163 161  20 
 69  65  67  88 166 158 165 134  11  71  64  17 168 152 159 162  37  77 
 69  16 160 145 158 151  59   4  20  89 173 155 171 148  22  59  43  54 
 14 195 201 168  25  47  36  48  38  53  43  57  42 172 178  45  56  66 
 59  68  60  38 173 154  34  68  63  68  63  68  58 158 159 149  40  71 
 69  70  66  67  64  63  13 171 174 182  38  41  34  33  26  25  20  20 
 16  17  15  17  18  23  27  34  43  54  68  84 103 124 148 173 201 229 
229 200 173 146 123 101  82  65  52  40  30  23  17  12   9   7   5   3 
  3   2   2   1   1   1   1   2   2   3   2   5   4   7   7  11  10  15 
 15  22  13  62  58  50  52  46  44  36  36  32  30  29  26  27  23  26 
 22  25  21  24  21  24  23  21   1  63  71  77  63  46  33 101  93  87 
 89  84  90  91  24  86  82  82  79  78  76  39  35  33  37  55 104 115 
109 119 111  33  61  45  54  41  14   0   8  19  13  19  17  20  19  15 
 28  31  32  33  29  31   8   6  11  18  23  18  22  18  22  19  22  10 
 31  33  31  32  30  31  11   8  11  22  17  20  13  17  13  18  10  40 
 50  45  55  38  19 128 133 141 128 140 120  21  69  61  69  63  72  65 
 74  68  46  27 114 117 118 119 121 124 132  53  59  54  49  43  39  34 
 30  28  25  25  23  26  24  30  29  36  36  40  72 182 175 170 167 163 
159 162 155 161 152 166  57  63  77  65  78  65  78  17 163 157 151 155 
154 156 155 154 159 147  34  73  61  73  59  74  24 152 166 152 166 150 
166 152 165 153 117 159 162  99  63  69  62  67  60  31 172 160 165 107 
 61  64  61  62  95 168 162 171  49  59  67  59   2 168 155 164 133  62 
 75  64  28 172 149 162 151 167 151 170 156 173 150  29  60  43  55  38 
  1 197 179 172  37  33  46  35  48  38  52  41  55  85 182  43  60  53 
 63  55  62  57 121 142  62  58  62  58  63  59 171 165 163 126  65  64 
 65  64  64  62  61  58  57 177 176 182 178  37  36  29  29  23  23  18 
 19  16  17  17  20  23  29  35  44  55  69  85 104 125 148 174 201 229 
229 200 172 146 122 101  82  65  51  40  30  23  17  12   9   6   4   3 
  2   2   1   1   1   1   1   1   2   2   3   3   6   5   9   8  13  12 
 17  16  25   8  57  57  51  49  43  42  37  35  32  30  31  27  29  25 
 29  25  29  24  27  27  17  35  67  67  72  71  76  37  54  66  90  89 
 86  88  87  88  59  88  87  84  83  81  51  41  37  45  51 106 108 104 
113 107 118 121   6  62  49  56  37  13   1   7  16  11  17  15  16  16 
 14  17  36  35  37  31   2   4   5  20  16  19  16  18  16  18  16  12 
 37  34  35  36  28   4   5   9  19  15  17  13  17  10  15   9  42  51 
 47  53  20  29 113 128 135 124 133 122 131 116  27  77  68  76  72  79 
 74  68  42  27 114 114 113 115 119 122 137  44  60  55  49  43  38  34 
 30  26  25  22  23  22  25  25  30  31  37  37  44   8  83 150 182 175 
176 169 177 148  92  11  61  73  61  73  62  73  61  73  27  81 156 168 
167 167 170 142  49  53  69  59  69  57  70  55  70  31  69 165 166 177 
163 180 118  13  32 157 142  98  66  59  64  58  63  57   5 118 179   0 
 60  57  57  57  57  31 149 155  48  62  55  63  56  22 107 171  18  69 
 58  70  59  19 103 156 179 161 181 168 145  43  46  61  42  56  38  50 
 16 182 194 160  22  44  32  45  35  47  38  49  41  17  80  55  48  57 
 50  57  52  57  67  21  53  56  53  57  55  58 156 150 161  12  58  60 
 59  60  59  58  56  55  52  54 168 164 176  31  32  32  26  26  21  21 
 18  19  17  20  21  25  29  37  45  56  70  86 105 125 149 174 201 230 
229 200 172 146 122 101  82  65  51  39  30  22  16  12   8   6   4   3 
  2   1   1   1   1   1   1   1   1   2   2   4   3   7   6  10   9  15 
 14  19  18  26  23  39  52  49  47  42  39  38  35  35  31  33  28  32 
 27  32  29  33  30   7  59  59  62  65  66  71  73  41  42  11  92  87 
 88  84  88  86  94  33  89  87  86  76  44  41  45  25 102 103 100 104 
101 109 105 115  89  57  63  50  58  40  14   1   4  13   9  12  10  12 
 14  13  18  40  39  40   1   0   2  13  14  12  14  12  15  12  16   1 
 38  41  39  25   1   1  10  12  10  12   8  12   6  11   8  46  54  50 
 60  26  28  20 131 132 121 127 115 125 112 124 112  63  83  76  84  79 
 83  43  53 110 108 110 109 113 117 119  96  66  58  54  49  43  38  33 
 29  26  23  22  21  22  23  25  27  31  33  37  41  44  48  49  45   9 
 14  12  38  57  67  57  68  57  68  57  68  58  68  59  66  61  65  23 
  9   8  35  64  58  63  56  65  53  65  52  66  51  64  52  67  12   8 
 16  53  55  64  55  64  56  62  55  61  55  59  54  57  52  57  10  56 
 53  55  54  53  55  53  56  11  57  52  59  52  60  51  62  19  61  54 
 66  54  67  53  68  53  22  22   2  32  64  45  60  41  57  37  52  33 
  2 201 180 141  37  30  42  31  43  34  45  37  47  36  48  42  51  45 
 52  47  52  48  39  49  52  50  52  50  52  50  53  53  54  54  54  55 
 55  55  55  53  53  50  49  46  45  40  40  34  34  28  28  23  24  20 
 20  18  20  20  23  26  31  38  47  58  71  87 105 126 150 175 202 230 
229 200 172 146 122 101  81  65  51  39  30  22  16  12   8   6   4   3 
  2   1   1   1   1   1   1   1   2   1   3   2   5   4   8   7  12  10 
 16  14  21  20  27  27  15  32  51  47  44  42  39  34  36  34  38  33 
 37  33  37  36  22  54  53  56  55  60  65  67  72  48  41  18  91  90 
 87  87  84  83  85  73  85  91  90  66  48  47  37  86  95  93  99  97 
102  99 107 102 103  56  58  64  52  58  30  14   6   3   7   7   7   7 
  8   8   9  12  45  42  12   2   4  12   7  13   8  12   7  12   8  13 
 43  42  20   6   4   7   7   8   9   5   7   1   8   6  47  57  52  62 
 52  27  23  54 130 117 124 111 120 109 118 108 118   5  80  88  81  91 
 62  54  41 107 105 105 108 111 113 119  39  67  59  54  49  42  37  32 
 28  25  22  21  20  21  22  24  26  29  31  35  37  42  43  49  46  55 
 50  59  51  62  51  63  52  62  52  63  53  63  54  62  56  61  57  59 
 59  57  59  54  60  52  60  50  61  49  61  48  62  48  61  48  63  50 
 62  51  60  52  59  52  58  52  57  51  55  50  54  50  53  49  52  49 
 50  50  49  51  49  52  46  53  46  54  47  55  48  57  47  58  48  60 
 49  62  49  63  48  63  48  63  44  62  42  59  39  56  36  52  33  48 
 21 189  42  41  28  41  28  41  31  41  33  43  36  43  38  46  41  46 
 43  47  43  48  45  46  45  47  46  48  47  48  47  49  49  50  50  50 
 51  50  50  50  47  48  45  45  41  41  36  36  31  31  26  26  22  23 
 18  21  20  22  23  28  32  40  48  59  72  88 106 127 149 175 202 230 
229 200 172 146 122 100  81  65  51  39  29  22  16  11   8   6   4   3 
  2   1   1   1   0   1   1   1   1   2   2   3   3   6   5   9   8  13 
 12  18  17  24  23  29  30  35   5  22  44  44  42  43  36  39  35  40 
 36  41  28  27  51  48  52  50  55  57  61  65  68  59  38  36  86  88 
 88  84  85  84  82  82  46  94  93  60  51  53   4  93  92  95  93  97 
 93 101  97 106  95  46  71  60  65  55  60  26  17   7   1   3   0   3 
  3   2   4   6  19  47  39   9   6   2  11   6   9   4  10   5  10  39 
 45  20   8  10   3   1   2   2   2   2   1   3   7  50  59  55  64  58 
 50  24  38  85 111 120 107 115 105 113 102 115 101 100  95  86  96  87 
 56  47  87 101 100 102 104 107 113 119  10  68  61  53  48  42  36  31 
 27  24  22  20  20  19  21  20  25  26  30  31  37  35  44  40  50  44 
 53  46  57  47  59  48  59  48  59  48  58  49  58  51  55  53  55  54 
 53  55  51  56  49  56  47  56  45  57  43  57  44  58  45  58  46  58 
 47  57  48  55  49  54  48  53  49  52  48  51  47  50  47  49  46  48 
 47  47  47  46  48  45  49  43  50  44  51  44  52  43  53  44  55  43 
 56  43  58  44  59  42  59  41  59  40  57  37  55  34  52  32  48  30 
 19  17  42  27  40  28  39  29  39  29  39  32  40  35  42  35  43  39 
 43  39  43  40  43  41  43  42  43  43  44  44  44  45  45  46  46  47 
 46  47  46  46  45  43  43  39  40  36  37  32  33  28  29  24  24  21 
 23  20  23  22  26  29  35  41  50  59  73  89 108 128 151 176 203 230 
229 200 172 146 122 100  81  65  51  39  29  22  16  11   8   6   4   3 
  2   1   1   1   1   0   1   1   1   1   2   2   4   3   6   6  10   9 
 14  13  19  18  24  24  30  30  19   3  34  46  47  41  43  41  46  39 
 45  34  33  47  42  48  45  49  49  54  57  62  66  65  36  46  69  89 
 85  85  80  81  80  81  34  97  95  58  55  60  50  88  88  87  90  89 
 95  92 101  97  97  58  67  72  63  67  58  60  18  21   8   4   4   2 
  2   2   2   3   1  21  52  20  14   9   1   7   2   5   1   6  20  48 
 20  10  13   0   1   3   3   4   3   5   1   4  48  61  58  67  61  73 
 41  40  32  56 121 104 114 100 110  97 109  97 109 105  54 101  94  69 
 58  20 100  97  98  98 101 107 111 120  49  67  61  54  48  41  36  30 
 26  23  20  19  18  19  17  22  21  27  26  32  30  38  35  45  39  49 
 41  53  43  54  43  55  43  55  43  54  45  53  46  51  48  51  49  50 
 51  48  50  46  52  44  52  43  51  42  52  41  54  42  54  43  54  44 
 53  45  53  46  51  46  50  46  49  45  47  45  46  44  46  44  45  44 
 43  44  43  45  41  45  42  46  41  46  41  47  41  49  41  50  40  51 
 40  53  40  54  39  55  38  55  37  55  34  53  33  51  30  48  29  44 
 26  42  26  40  27  38  27  36  29  36  30  37  32  38  34  39  36  39 
 37  40  38  40  37  40  38  40  39  40  40  39  41  41  42  42  42  42 
 43  42  43  41  41  40  39  40  35  37  33  34  29  31  26  27  23  25 
 22  23  22  26  26  31  34  43  51  63  75  91 109 130 152 177 203 230 
229 200 172 146 122 100  81  65  51  39  29  22  16  11   8   5   4   2 
  2   1   1   1   0   1   0   1   1   2   1   3   2   5   4   7   6  11 
 10  15  14  20  19  25  25  29  29   3  19  53  48  51  45  48  43  49 
 30  36  44  37  43  39  45  42  48  50  54  59  63  66  36  44  21  93 
 87  83  79  79  77  77  86  84  98  58  58  66  73  86  84  84  86  88 
 87  94  92  98  81  65  78  69  73  64  69  62  55  19  24  10   7   7 
  5   8   2   5   1   3  31  55  29  20   8   9   3   2   2  27  52  25 
 15  19   5   6   5   8   7   9  10   7  10  42  67  62  70  65  74  67 
 53  33  48  32 106 113  98 108  94 105  93 106  91 108  29  96  99  60 
 75  68  92  92  92  95  99 103 108 111  74  68  59  54  46  41  34  29 
 25  22  20  17  18  16  20  18  24  21  29  25  34  30  39  33  45  34 
 49  38  51  38  52  40  52  39  51  41  50  42  49  44  48  45  46  47 
 45  48  43  48  41  48  40  49  39  48  39  49  39  50  40  50  40  50 
 41  49  43  48  42  47  43  46  43  44  43  43  42  43  42  42  41  40 
 41  40  41  40  42  39  43  38  44  38  43  38  45  37  46  37  47  37 
 48  36  50  35  51  34  51  34  50  32  51  31  49  28  47  28  45  27 
 42  25  39  26  36  26  35  27  35  29  35  30  35  32  36  33  36  34 
 35  35  35  36  36  36  36  37  37  36  37  38  37  39  38  39  38  40 
 39  40  39  39  38  38  38  35  37  33  35  30  32  27  29  25  27  23 
 26  22  27  25  30  32  39  44  54  63  77  91 111 130 153 176 204 231 
229 200 172 146 122 100  81  65  50  39  29  22  16  11   8   5   4   2 
  2   1   1   0   0   0   1   0   1   1   2   1   3   3   5   4   8   7 
 11  10  15  15  20  20  25  25  29  21   3  49  54  48  54  48  53  40 
 32  40  34  39  33  40  37  42  43  47  51  56  59  64  36  42  26  97 
 86  81  79  76  75  77  78   6 101  69  62  68  73  81  80  84  84  85 
 87  86  92  93  56  84  75  77  72  75  69  70  65  42  26  27  10  10 
 13  10  11   7   9   4   7  42  59  53  57  53  56  45  58  53  29  17 
 21   9   8   6  10  12  12  14  13  13  26  70  67  73  69  77  71  83 
 58  47  41  38 118  97 107  93 104  89 101  87  98  93  11 109  79  72 
 43  93  91  89  92  94  97 101 110  53  75  66  60  53  46  39  34  29 
 24  22  18  18  15  18  15  21  17  25  21  29  25  29   6   2   8  39 
 34  47  35  48  36  48  37  48  38  47  39  46  39  44  42  43  43  42 
 44  41  45  39  45  38  44  37  45  37  46  37  46  36  47  38  47  38 
 46  40  45  41  44  41  43  41  41  41  41  34  21  40  40  29  10  37 
 38  40  38  39  37  41  37  41  36  42  36  42  34  43  35  44  32  45 
 34  46  33  47  32  48  31  48  30  48  29  46  28  46  27  44  26  42 
 25  39  26  37  26  35  27  34  28  34  29  33  30  33  31  34  32  34 
 33  34  34  34  34  34  34  34  35  33  35  34  36  35  36  35  37  36 
 37  36  37  37  36  37  35  36  33  32   5  28  28  26  13  25  24  28 
  9  25  25  30  29  36  38  47  54  66  78  94 111 131 154 177 204 231 
229 200 172 146 122 100  81  65  50  39  29  22  16  11   8   5   4   2 
  2   1   1   1   0   0   0   1   0   1   1   2   2   3   3   5   5   8 
  7  12  11  16  14  20  20  24  25  25   5  16  55  57  54  56  47  25 
 36  30  35  29  35  32  36  36  41  43  49  53  58  61  37  39  46  90 
 85  83  77  75  74  73  73  48 100  86  61  71  60  78  81  82  81  82 
 84  87  87 101  70  82  85  78  80  75  77  72  74  66  30  31  26  14 
 15  15  12  15  11  11   6  11  56  62  56  61  56  60  57  40  19  25 
 16  13   7  14  12  15  17  17  19  23  72  71  76  73  79  74  85  78 
 85  40  57  53  44 106  90 101  85 101  83  97  84 103  58 102  74  68 
 10  88  84  90  88  92  96  99 114   8  75  68  60  52  45  39  33  28 
 24  20  19  15  17  14  18  15  22  17  26  21  32  80  76  88  73  78 
 32  31  45  33  46  34  45  35  44  36  43  37  42  38  41  40  38  41 
 38  41  37  42  35  42  35  42  34  43  35  43  36  43  35  44  37  42 
 38  42  39  42  39  41  39  40  39  39  39  63  57  38  37  27  81   8 
 38  35  38  36  39  35  39  34  40  33  40  34  40  33  40  32  42  31 
 42  31  43  30  43  29  45  27  44  27  45  26  44  25  43  25  41  25 
 39  25  37  24  35  25  34  27  33  28  32  29  32  30  32  30  32  31 
 32  32  32  32  32  32  31  33  31  33  32  34  32  34  33  35  32  35 
 34  34  34  34  35  33  34  32  34   8  84  32  32  32  83  11  29   1 
 93  44  30  28  34  35  43  46  58  66  81  94 112 132 155 179 205 231 
229 200 172 146 122 100  81  65  50  39  29  22  16  11   8   5   4   2 
  2   1   1   0   0   0   0   0   1   1   1   1   2   2   4   3   6   5 
  9   8  12  11  15  14  19  20  22  24  23  26  49  58  59  56  13  32 
 27  32  25  32  26  32  30  36  35  43  45  52  56  63  36  37  48  70 
 86  83  77  75  73  73  71  67  91 102  71  68   7  79  75  79  80  82 
 81  80  85  16  89  89  84  85  81  83  78  76  69  69  48  36  38  25 
 22  16  12   7  10   6  13  11  26  59  64  57  62  58  47  18  28  23 
 17  15  14   7  11  11  20  26  24  65  76  78  76  82  76  87  81  90 
 84  68  48  63  35  86 102  84  99  81  95  81  93  85 105  95  69  77 
 50  80  84  83  88  87  94 101 112  57  76  66  60  52  45  38  32  27 
 22  20  16  17  13  17  13  20  14  23  17  45  97  73  44   4  38  60 
 86  12  30  44  31  29  10  24  33  41  34  40  24  28  37  17  18  35 
 39  35  38  22  34  29  18  14  40  32  40  33  41  35  23  13  29  36 
 38  36  40  37  39  20  17  23  37  37  32  70  59  29  34  18  26  34 
 34  27  26  36  14  18  32  37  32  37  32  35  12  18  27  34  17  40 
 29  40  28  41  26  42  25  26   3  25  25  42  23  42  24  28   1  19 
 21  37  24  35  25  32   6  12  26  31  18   9  16  30  28  30  30  29 
  9  10  29  30  19   9  19  30  32  29  20  20  32  30  33  23  21  30 
 33  20  23  29  11  13  31  32  30  25  35  19  23  35  84   8  19  30 
 38  16  27  33  32  33  20  30  51  70  79  96 113 131 133 158 195 231 
229 200 172 146 122 100  81  64  50  39  29  22  16  11   8   5   4   2 
  2   1   1   0   0   0   0   0   0   1   1   1   1   2   2   4   3   6 
  5   9   8  12  11  15  15  18  18  20  21  23  18  67  60   6  27  22 
 28  23  28  23  28  25  31  30  36  38  45  49  56  61  36  38  45  51 
 85  82  76  73  71  70  70  71  40 109 104  74  48  68  76  76  78  77 
 79  80  67  92  95  90  90  85  81  62  51  42  44  40  41  13  31  66 
 97 103 105 104 108 106 111 102  83  22  37  65  55  48  23  23  26  71 
110 122 126 121 122 118 120 112  87  30  28  79  85  82  89  84  94  86 
 99  77  65  53  72  13  88  96  80  94  77  91  77   3 119  76  80  76 
 75  81  77  83  83  88  93  98 101  77  75  67  59  52  44  38  32  26 
 23  18  18  13  17  11  18  11  22  14   6  93  75  14  35  23  39  12 
 27  27  42  28  45  81  70  80  66  12  38  33  79  58  53  74  76  68 
 24  36  33  80  55  64  79  72  50  38  32  38  21  62  76  72  76  26 
 35  38  36  26  67  74  74  76  49  35  40  77  74  74  18  18  77   9 
 32  67  60  70  74  78  58  32  36  32  15  74  74  80  67  38  82  28 
 38  27  39  26  39  22  55  86  70  86  55  20  40  23  41  88  72  87 
 70   2  35  25  33  68  79  85  64  13  85  81  83  26  29  27  29  65 
 81  80  59   8  84  80  84  16  29  31  87  63  29  31  29  44  89  26 
 30  88  51  70  78  81  51  29  30   9  78  16  12  87  79  85  27  11 
 87  29  32  30  10  73  64  62  46  42  84  96 101  22  47  69  96 174 
229 200 172 146 122 100  81  64  50  39  29  22  16  11   8   5   4   2 
  2   1   1   0   0   0   0   0   0   0   1   1   2   1   3   2   4   4 
  6   6   9   8  11  11  14  14  17  18  19  19  20  10  40  24  19  24 
 19  24  20  25  21  27  25  31  31  38  41  48  52  60  36  36  43  37 
 84  80  75  72  69  70  66  70  32 109 111 106 107  46  76  79  74  79 
 87  13  95  98  95  79  64  56  48  55  47   1  44  70  96 104 103 102 
101 106 104 108 106 110 105 114 110 118 120 115  55  24 108 141 135 133 
126 128 121 126 119 121 115 118 116 118 119 115  87  42   3  78  88 101 
 91 106  74  70  58  80  22  67 100  78  93  86  31 115 105  84  78  38 
 85  74  79  78  83  85  93  98  89  79  76  67  59  51  44  37  31  26 
 21  20  15  17  12  17  10  19  11  23  49  84  37  32  19  36  21  39 
 24  39  22  52  88  33  11  19  80  71  22  36  84  78  60  14  43  80 
 46  31  36  88  76  47  12  60  81  29  36  22  72  71   8   0  38  81 
 33  32  20  75  77  25   4  41  84  24   3  75  72  26  24  18  80  11 
 29  67  81  46  14  43  83  44  31  16  83  74  24   5  59  77  91  36 
 27  36  25  37  18  65  89  28  17  26  93  50  22  42  92  43  18  16 
 84  77   2  33  44  85  47  28  88  84  64  21  76  79  18  28  42  90 
 43  31  85  85  58  23  77  78  26  27  87  68  30  27  30  47  90  26 
 29  87  84  48  18  57  88  34  27  14  85  14   1  59  86  36   8  17 
 92  25  28   6  80  41   8  11  43  41  52  95  18  36 124 153 139 172 
229 200 172 146 122 100  81  64  50  39  29  22  16  11   8   5   4   2 
  2   1   1   0   0   0   0   0   0   1   0   1   1   2   1   3   2   4 
  4   6   6   8   8  11  11  13  14  15  16  16  18  18  20  17  20  17 
 20  17  21  18  23  20  26  26  32  34  40  46  53  58  36  36  44  23 
 85  79  74  70  67  65  64  63  76 112 110 113 106 111  94   4  31   2 
 81 104  96  75  57  60  59  52  36  30  92  95  92  94  92  96  96  99 
 99 100 102 101 107 104 112 107 108  96  49  51  40  32  31  22  99 116 
128 124 125 120 121 116 116 112 112 110 107 108 105 107 102 113  48  44 
 96  96 112  78  76  64  80  71  23  35  11  55 124 113 107  77  93  30 
 72  75  74  78  79  86  90  97  76  80  75  67  58  51  43  36  31  25 
 22  17  17  12  16  11  18  11  21  13  59 101   2  17  34  19  36  22 
 38  24  14  88  34  26  36  28   5  88  40  31  83  81  32  33  31  65 
 89  34  30  85  69  33  31  33  76  76  31  21  81  12  24  24  22  64 
 79  33  36  77   1  33  33  32  14  32  34  76  58  32  34  21  79   7 
 30  70  61  31  36  31  58  68  32  34  75   5  37  29  34  79  84  27 
 35  25  36  24   3  92  29  22  36  20   7  21  22  96  56  22  35  23 
  5  90  49  25  73  75  30  26  42  89   5  27  20  89  10  28  82  75 
 27  28  45  82   6  28  31  90  11  29  91  66  26  29  26  46  94  26 
 27  90  72  28  29  27  78  82  31   7  81  21  31  37  80  13  32  11 
 86  29  35  70  72  23  39  43  35  42   1  96  17  38 145 173 206 231 
229 200 172 146 122 100  81  64  50  39  29  22  16  11   8   5   4   2 
  2   1   1   0   0   0   0   0   0   0   1   0   1   1   2   1   3   2 
  4   4   6   6   8   8  10  10  12  12  14  13  14  16  13  16  15  16 
 13  18  15  19  17  22  21  27  28  35  38  46  52  59  35  36  44  13 
 84  79  72  70  64  65  62  65  66  65 115 110 114 109 112 107 109 106 
 94  70  68  63  63  70   3  63  82  85  88  86  90  92  92  93  97  98 
 99 101 104 106 104 113  89  28   6  11  16  38  29  24  31  15  17   6 
  5  77 128 124 117 117 113 113 109 109 108 105 104  99 104  93 102  89 
 82   9  99 116  98 102  77  96  97 125 110 126 112 126  81  89  84  66 
 77  69  74  73  80  83  90  97  67  80  76  66  59  49  43  36  30  26 
 20  19  14  16  11  16   9  19  11  23  60  86  28  30  18  34  20  36 
 22  36  29  78   9  36  27  35  29  76  83  32  85  64  32  28  33  45 
 86  25  32  90  46  30  32  30  59  78  33  58  78  77  74  76  74  81 
 84   6  51  71  25  32  32  31  31  33  31  73  63  33  30  18  83   9 
 29  68  57  34  30  35  57  63  29  47  79  24  29  35  29  30  93  35 
 25  35  24  35  52  82   5  35  21  35  20  35  30  84  17  34  21  33 
 23  83  84  30  79  66  25  28  33  88   7  27  16  89   2  26  85  62 
 27  26  31  86  13  25  27  92   9  25  89  70  28  25  28  50  92  24 
 27  92  51  27  25  27  60  78  23  11  89  16  23  32  87  17  24  18 
 94  22  25  81  78  64  66  54  50  40  29 101  63  17  45  78 108 185 
229 200 172 146 122 100  81  64  50  39  29  22  16  11   8   5   4   2 
  2   1   1   0   0   0   0   0   0   0   0   1   0   1   1   2   2   3 
  2   4   4   6   5   7   7   9   9  11  11  12  13  11  14  12  14  12 
 15  12  16  14  18  17  22  23  29  32  39  44  52  57  36  35  44   2 
 85  77  73  67  65  61  62  59  63  37 112 118 111 115 109 114  96  78 
 67  71  67  63  12  63  84  81  82  84  85  88  89  91  92  92  95  98 
 98  99 105  92  57   4  22  18  12  17  11  13  23  29  17  15  15  18 
 15  26  14  42  93 121 119 112 112 110 105 105 103 103  96 100  87  97 
 83  99  84   1  96 107 125 110 127 109 127 115 129 113  89  83  71  72 
 64  72  69  74  76  83  87  95  58  82  76  67  59  50  43  36  30  24 
 22  16  17  12  16  10  17  10  20  12  10  98  62  16  32  16  34  19 
 10  23   9  91   9  25  33  27  31  88  69  30  86  65  30  31  29  43 
 91  29  28  87  51  31  29  31  61  77  30  47  84  22   9   7   8   4 
  8  23  48  76  20  32  30  31  31  30  32  78  61  30  32  23  81   7 
 29  70  55  30  34  29  51  69  33  43  74  11  36  29  36  62  83  25 
 35  24  34  23  29  95   2  19  33  20  33  20   5  99  26  21  30  20 
 30  93  70  24  75  72  27  25  33  89   6  25  17  90   2  26  88  61 
 24  26  35  85  10  26  29  92   7  26  90  76  23  26  23  55  96  23 
 25  94  53  25  26  24  59  84  27   4  83  24  30  40  81  11  31   9 
 86  30  35  87  70   1   8   9  24  32  46  97 118 122 111 111 105 116 
229 200 172 146 122 100  81  64  50  39  29  22  16  11   8   5   4   2 
  2   1   1   0   0   0   0   0   0   0   0   0   1   0   1   1   2   2 
  3   2   4   4   5   5   7   7   8   8   9  10   9  10  10  12  10  12 
 10  13  11  15  14  18  18  24  26  33  37  45  51  59  34  36  44   1 
 83  77  69  67  61  61  57  61  56   2 121 113 120 113 111  76  76  70 
 76  69  35  66  73  74  77  79  82  82  85  86  87  92  94  96  95  97 
 97  99  19  22  21  17  19  12  16  12  14   9  22  24  15  12  15  13 
 19  16  20  19  25   8  86 116 112 111 108 103 103  99  98  92  97  83 
 93  78  92  73  89  21 111 129 113 130 116 131 118 116  83  95  45  61 
 70  64  68  68  77  79  87  92  51  83  76  67  59  50  42  36  29  25 
 19  19  13  16  10  16   9  18  10  22   8  75  97  67   7  31  15  47 
 91  16  12  74  76  30  25  30  58  84  14  30  88  66  29  28  31  47 
 88  24  30  92  49  28  30  29  63  79  31   0  79  44  32  30  29  66 
  7  29  19  81  55  30  30  19  82   5  30  68  86  25  29  21  84   9 
 27  68  58  33  31  33  55  65  28   5  79  58  25  36  19  75  91  35 
 25  34  23  33   4  79  73  30  18  27  82   9  19  78  88  14  21  29 
 47  84  31  27  80  70  24  25  35  92   5  24  18  92   3  23  87  67 
 24  23  35  89  11  23  28  96   9  22  57  94  16  21   6  91  82  23 
 24  97  55  24  23  23  62  81  21   8  90  18  22  25  93  12  22  18 
 95  23  26  43  80   7  41  53  33  24  67 100  56 115 156 181 175 117 
229 200 172 146 122 100  81  64  50  39  29  22  16  11   8   5   4   2 
  2   1   1   0   0   0   0   0   0   0   0   0   0   1   1   1   1   2 
  1   3   2   4   3   5   5   6   6   7   7   8   8   8   9   8  10   8 
  9   8  12  11  15  15  19  21  27  31  38  43  52  57  34  36  45   2 
 83  74  69  63  62  56  58  54  57  13 119 123 117  98  75  80  72  84 
 44  35  74  68  73  74  79  77  81  82  84  87  91  93  94  94 107  72 
  7  37  36  19  16  17  15  14  11  13   9  13   9  22   7  16  11  17 
 13  18  14  21  19  25  43  15  52 116 109 108 102 104  95  99  87  95 
 80  91  75  88  68  89  46  33 132 115 134 120 135  97  98  88  36  68 
 60  67  62  72  72  80  84  93  48  85  77  67  59  50  43  35  30  24 
 22  16  17  11  15  10  17  10  20  10  24   3  64 100  83  87  82  96 
 66   6  33  28  85  84  60  75  86  53  29  29  90  68  28  30  26  45 
 95  26  26  91  52  29  28  29  66  82  28  28  43  89  67  53  74  87 
 20  32  30  45  87  75  64  81  84  10  29   8  83  82  11  25  85   4 
 28  73  54  28  35  30  54  71  32  30  35  88  78  80  80  59  86  26 
 34  23  33  21  31  40  90  89  62  88  90  37  28  20  91  92  66  80 
 92  72  19  22  81  75  24  22  38  95   2  23  21  94   6  23  92  67 
 22  23  39  90   6  23  34  97   3  24   7  86  93  76  91  91  14  23 
 20  99  57  22  23  20  61  89  24   1  88  28  27  14  73  94  32   6 
 90  35  33  15  68  80  44  42  51  39  67  89   9  19  71  99  95 135 
229 200 172 146 122 100  81  64  50  39  29  22  16  11   8   5   4   2 
  2   1   1   0   0   0   0   0   0   0   0   0   0   0   1   1   1   1 
  2   1   2   2   3   3   4   4   5   5   6   6   7   7   7   8   7   8 
  7   8   9  12  12  16  17  22  25  32  37  43  51  57  33  37  45   3 
 81  74  66  63  58  57  51  56  50  38 128 109  87  78  86  75  79   9 
 64  68  63  71  69  75  74  78  80  83  85  88  92  93  98  83   8  75 
 36  33  34  18  15  14  14  11  15  10  12   8  10   6  12   7  13  10 
 14  12  17  15  18  48  42  35  45  22  80 107 107 100 102  90  96  83 
 93  75  88  69  84  64  83  67  26 119 120 136 124 107  88 104   4  54 
 62  58  67  64  72  76  85  92  47  86  77  67  59  51  43  36  29  26 
 19  19  13  16  10  16   9  18  11  21  13  23  15  16  69  64  68  16 
 22  32  23  32   5  53  68  60  18  29  28  28  40  30  29  27  29  18 
 43  24  29  45  18  27  28  28  26  36  29  28  30   6  56  65  49  17 
 31  28  30  29   9  60  64  52  13  29  28  29  15  50  24   1  39  17 
 26  28  24  34  31  34  21  24  28  37  32  10  35  27  16  44  85  35 
 26  33  23  32  20  30  10  57  75  57   7  27  18  26   4  54  76  67 
 30  24  20  21  40  36  21  21  14  49  11  21   4  49   5  20  45  35 
 21  20  14  47  13  18  11  52  12  19  22   6  57  76  63   7  21  18 
 21  51  27  21  20  22  32  41  18  11  47   4  17  24  18  47   4  20 
 51   5  23  33  29  23  53  42   6  71  79  99 112  72  62  86 132 229 
229 200 172 146 122 100  81  64  50  39  29  22  16  11   8   5   4   2 
  2   1   1   0   0   0   0   0   0   0   0   0   0   0   0   1   0   1 
  1   2   1   2   2   3   3   4   3   5   4   5   5   5   6   6   6   6 
  7   7   9   9  13  14  18  21  26  31  38  44  52  57  32  38  45   3 
 80  71  66  59  57  51  53  48  53  48  98  90  82  90  82  70  46  57 
 66  60  68  66  72  71  78  77  84  84  90  91  93 102   2  72  74  73 
 41  32  29  23  11  12  10  12   9  10   8  10   5   8   6  10   7  11 
  7  12  10  16  16  71  69  59  35  41  42  17  91 109  99 103  90  97 
 79  91  73  85  67  80  63  78  59  68  63 126 141  93 105 100  11  60 
 52  59  58  66  67  76  81  91  45  87  79  69  60  51  44  36  31  24 
 22  16  17  11  15  10  17  10  19  12  23  14  26  17  29  18  30  21 
 31  23  31  24  31  26  29  27  28  27  28  29  26  29  25  28  25  28 
 26  28  25  28  27  27  27  27  28  29  28  29  27  30  28  30  29  31 
 28  31  28  31  28  30  26  29  27  27  28  28  28  28  28  28  31  29 
 32  30  33  30  35  31  36  32  37  31  10  45  37  31  11  83  35  27 
 34  24  32  22  30  19  29  18  26  16  26  16  25  16  23  17  22  17 
 22  18  21  19  20  19  20  19  19  19  19  19  19  19  19  19  18  18 
 17  18  18  19  18  19  16  20  17  19  16  20  17  19  17  19  16  18 
 18  19  18  17  19  17  20  17  21  16  22  16  23  16  24  17  25  18 
 27  20  29  24  35  32  44  44  59  64  82  93 115 131 156 178 205 231 
229 200 172 146 122 100  81  64  50  39  29  22  16  11   8   5   4   2 
  2   1   1   0   0   0   0   0   0   0   0   0   0   0   0   0   1   0 
  1   1   1   1   2   2   3   2   3   3   4   4   4   4   4   5   5   6 
  6   7   7  10  11  15  17  22  25  32  37  45  52  59  30  39  47   1 
 78  71  62  59  52  52  46  51  42  58  79  89  93  91  30  63  53  64 
 57  68  61  73  67  76  74  84  81  90  89 101  46  57  76  72  71  67 
 47  26  28  21  10   9   9   8   9   6   8   5   7   5   7   4   7   5 
  9   6  10   5  34  64  66  68  67  44  36  44  44  31 106  97 101  88 
 95  77  90  69  83  63  80  58  73  55  78  12 119 107  98 115  37  48 
 57  52  62  60  69  71  82  86  53  86  77  71  60  53  44  38  30  26 
 20  19  14  16  10  16  10  18  10  21  13  24  16  26  19  28  21  30 
 23  30  24  30  26  28  27  28  28  28  28  27  28  26  27  26  27  26 
 28  26  27  25  27  26  27  27  28  28  29  28  30  29  30  29  31  28 
 30  28  31  27  30  27  29  27  28  27  28  27  27  28  28  28  27  31 
 28  32  30  34  31  34  32  37  32  33  51  79  87  79  89  56  18  34 
 26  33  22  31  20  29  19  26  17  25  16  24  16  22  16  21  16  20 
 16  19  17  19  17  18  17  17  17  17  17  17  17  17  17  17  17  16 
 17  16  17  16  18  16  18  15  18  15  18  15  18  15  18  15  17  16 
 17  16  16  16  16  18  15  19  15  19  14  20  14  21  15  22  15  23 
 17  26  20  30  25  37  36  49  52  68  76  96 110 133 153 179 204 231 
229 200 172 146 122 100  81  64  50  39  29  22  16  11   8   5   4   2 
  2   1   1   0   0   0   0   0   0   0   0   0   0   0   0   0   0   1 
  0   1   1   1   1   2   1   2   2   3   2   3   3   3   4   4   4   4 
  6   6   8   9  12  13  18  21  27  31  39  45  54  54  31  40  50   3 
 76  68  62  54  53  46  48  42  48  45  50 100  84  14  57  49  62  51 
 66  57  69  64  78  74  84  82  90  88  99  11  75  72  69  69  66  65 
 51  22  21  22   6   8   5   7   4   6   3   5   3   5   2   5   2   5 
  3   6   3   6  41  61  61  65  63  69  56  36  42  41  36  97  97 101 
 84  93  74  87  65  81  57  75  55  69  52  65  45  78 112 110  42  53 
 47  56  52  62  64  72  77  86  57  87  81  71  62  53  45  37  32  25 
 23  17  17  12  16  10  15  11  19  13  22  15  25  17  27  21  29  22 
 29  25  29  26  29  27  28  28  27  28  27  27  26  28  26  28  24  27 
 25  27  26  27  25  27  27  27  26  28  28  29  28  30  27  31  28  31 
 28  31  27  29  26  29  26  28  26  28  26  27  27  28  28  28  30  29 
 31  30  33  30  34  32  36  32  37  32  38   9  31  44   4  28  34  27 
 33  25  31  21  29  20  27  17  24  16  23  15  21  14  20  14  19  14 
 18  15  17  15  16  15  16  15  15  15  15  15  15  15  15  15  15  15 
 14  15  14  15  14  16  14  16  13  16  13  16  13  16  13  16  13  15 
 14  15  14  14  15  14  16  13  17  13  18  12  18  13  19  13  20  14 
 22  16  25  20  30  28  40  41  56  61  79  91 112 129 154 177 204 230 
229 200 172 146 122 100  81  64  50  39  29  22  16  11   8   5   4   2 
  2   1   1   0   0   0   0   0   0   0   0   0   0   0   0   0   0   0 
  1   0   1   1   1   1   2   1   2   2   2   2   3   3   3   3   3   4 
  5   6   7   9  11  14  17  22  26  33  39  47  54  45  32  41  51  15 
 73  67  58  55  47  47  41  45  38  48  40  72  22  53  44  56  50  62 
 54  68  62  74  70  83  79  91  92  67  60  74  73  67  66  63  62  60 
 55  18  20  17   8   1   4   1   3   2   3   2   3   1   3   0   2   0 
  2   0   2   1  51  54  58  59  62  63  66  64  36  43  40  51  34 101 
101  81  93  71  86  63  78  55  71  50  67  46  59  39  37 120  62  42 
 51  47  55  53  64  67  77  83  65  89  82  73  63  55  45  39  31  27 
 21  20  14  16  11  16  11  17  12  20  14  22  17  26  20  28  22  29 
 25  29  26  29  26  28  28  27  28  27  28  26  28  26  28  24  27  25 
 27  25  26  26  26  26  27  27  27  27  28  28  29  27  30  28  31  28 
 30  27  31  26  30  26  28  25  28  24  27  26  27  27  28  28  28  29 
 29  32  30  34  31  34  32  37  33  38  32  38  32  38  30  36  28  34 
 26  32  23  29  19  27  17  24  15  22  15  20  14  18  13  17  13  16 
 13  15  13  14  13  14  13  13  13  13  13  13  13  13  13  13  13  13 
 13  12  13  12  13  12  14  12  14  11  14  11  14  11  14  11  14  12 
 13  12  13  13  12  13  11  14  11  15  11  16  11  16  11  17  11  19 
 13  21  16  25  22  32  32  45  49  64  73  93 108 131 151 178 203 231 
229 200 172 146 122 100  81  64  50  39  29  22  16  11   8   5   4   2 
  2   1   1   0   0   0   0   0   0   0   0   0   0   0   0   0   0   0 
  0   0   0   1   1   1   1   1   1   2   1   2   2   2   2   3   3   4 
  5   5   7   9  12  14  18  22  28  33  40  47  56  32  35  42  52  26 
 72  64  58  50  48  41  43  37  40  37   2  29  47  40  51  44  59  51 
 65  59  73  68  83  78  92  89  35  80  71  72  65  65  60  59  55  56 
 54  15  12  14  10   3   2   1   0   0   1   1   1   1   2   0   2   1 
  3   1   5   2  50  52  51  55  56  58  62  62  69  38  43  38  60   1 
 84 103  78  94  69  83  61  74  53  67  45  60  42  54  43  25  44  47 
 41  51  47  55  58  68  73  84  74  86  85  74  65  55  48  39  34  26 
 24  18  18  13  16  11  16  12  18  14  20  16  18  19  25  18  24  24 
 28  26  28  27  28  28  27  29  27  28  26  27  26  28  25  27  25  27 
 25  26  26  26  26  26  27  27  26  28  28  28  28  30  28  30  28  30 
 27  28  23  28  26  29  25  28  23  28  24  27  26  27  26  22  27  29 
 30  30  31  27  30  32  36  28  33  29  34  27  37  31  37  29  35  27 
 33  24  20   9  23  19  24  15  22  15  19  13  17  12  16  12  14  11 
 13  11  12  11  12  11  11  11  11  11  11  11  11  11  11  11  11  11 
 11  11  10  11  10  12  10  12  10  12  10  12  10  12  10  12  10  12 
 10  11  11  10  11  10  12   9  12   9  13   9  14   9  15   9  16  10 
 17  13  20  17  26  25  36  38  51  58  76  88 109 127 152 176 203 230 
229 200 172 146 122 100  81  65  50  39  29  22  16  11   8   5   4   2 
  2   1   1   0   0   0   0   0   0   0   0   0   0   0   0   0   0   0 
  0   0   0   0   1   0   1   1   1   1   1   1   2   2   2   2   3   4 
  4   6   7   9  11  15  18  23  28  35  41  48  56  26  35  44  56  41 
 70  63  54  50  43  43  35  40  34  38  33  45  35  49  42  54  48  62 
 54  72  65  81  77  91  89  22  81  69  72  62  63  57  56  53  52  50 
 50  17  11  10  10   5   3   3   1   2   1   3   1   3   2   4   3   5 
  4   6   7  12  48  47  48  48  51  54  55  60  60  69  44  44  36  57 
 35  78  99  77  90  67  81  56  72  49  63  43  54  38  50  37  46  37 
 47  41  49  48  59  63  73  78  91  93  85  76  65  58  48  42  33  29 
 22  21  15  17  12  16  12  17  13  20   8  75  56  25  22  62  87  27 
 26  28  27  27  28  26  29  26  28  26  28  26  28  25  28  25  27  25 
 25  26  26  26  26  26  26  27  27  28  28  28  29  28  30  29  31  27 
 31  38  83  20  30  25  29  24  28  24  27  25  27  26  21  82  16  29 
 29  31  20  67  52  35  31  52  72  68  72  66  73  31  30  35  26  34 
 19  71  84  79  84  49  17  21  15  19  13  17  11  15  11  13  10  12 
 10  11  10  10  10  10   9   9   9   9   9   9   9   9   9   9   9   9 
  9   9   9   9  10   8  10   8  10   8  10   8  10   8  10   8  10   8 
 10   9   9   9   9  10   8  10   8  11   7  11   7  12   8  13   8  14 
 10  16  13  20  19  28  29  41  46  61  71  90 106 129 150 176 202 230 
229 200 172 146 122 100  81  65  50  39  29  22  16  11   8   5   4   2 
  2   1   1   0   0   0   0   0   0   0   0   0   0   0   0   0   0   0 
  0   0   0   0   0   1   0   1   1   1   1   1   1   1   2   2   3   3 
  4   5   7   9  12  15  20  24  30  35  43  49  51  27  37  47  60  59 
 67  60  54  46  44  37  37  32  39  30  41  34  44  38  50  45  60  51 
 70  62  79  73  89  82  25  82  69  69  60  62  53  55  48  49  47  46 
 44  23   6   6   7   4   7   5   5   4   5   3   5   4   6   5   7   6 
  9   8  13  27  42  43  43  44  45  47  52  51  60  58  69  43  45  35 
 57  35  56 104  75  89  64  79  53  66  46  57  38  50  35  45  35  43 
 35  44  42  51  52  63  68  78  95  70  89  77  69  58  51  41  36  28 
 26  19  19  14  17  12  17  12  18  14  15  88  54  21  25  69  92  26 
 27  27  27  28  27  28  26  28  26  29  26  29  26  28  25  27  25  27 
 25  26  26  26  26  26  27  27  28  28  28  29  29  30  29  31  29  31 
 27  37  93  23  25  29  24  28  24  26  24  27  25  27  24  90  20  29 
 30  30  20  77  54  32  36  63  75  64  57  63  70  84  51  29  35  44 
 83  89  57  60  78  96  79   5  18  13  16  11  14  10  12   9  11   8 
 10   8   9   8   8   8   8   8   8   8   8   8   8   8   7   8   7   8 
  7   8   7   8   7   8   7   8   7   8   7   9   7   9   7   8   7   8 
  7   8   7   7   8   7   8   6   9   6   9   6  10   6  10   6  11   7 
 13  10  16  14  21  22  31  35  48  56  72  86 107 126 150 175 202 230 
229 200 172 146 122 100  81  65  50  39  29  22  16  11   8   5   4   2 
  2   1   1   0   0   0   0   0   0   0   0   0   0   0   0   0   0   0 
  0   0   0   0   0   0   1   0   1   1   1   1   1   1   2   2   3   3 
  4   6   7  10  12  16  20  25  30  37  44  51  43  30  39  48  62  76 
 65  59  50  46  39  38  32  35  30  35  31  39  35  46  43  56  49  69 
 61  79  73  88  77  54  83  67  70  58  60  52  53  46  46  43  42  40 
 42  25   3   4   5   5   9   9   7   7   5   5   5   7   6   8   8  10 
 10  12  14  35  40  39  39  39  40  43  44  50  49  58  53  70  40  43 
 36  58  46  57  99  73  87  60  74  51  63  41  52  36  46  32  41  33 
 42  37  45  45  54  58  69  75  92  20  89  79  69  61  50  45  35  32 
 24  23  17  18  13  17  12  16  14  19  58  88  81  50  22  69  91   7 
 69  85  32  25  29  26  43  35  59  68  27  22  35  80  84  53  12  26 
 26   0  51   3  26  27  14  45  14  28  29  14  53  83  66   9  48  17 
 31  42  89   8  56  90  50  16  27  23  27  24  27  25  24  90  21  28 
 29  30  18  75  57  34  32  60  83  28  31  37  29  64  87  20  26  80 
 87   9  22  26  19  64  67  17  14  15  11  14  10  11   8  10   8   8 
  7   8   7   7   7   7   6   6   6   6   6   6   6   6   6   6   6   6 
  6   6   6   6   6   6   7   5   7   5   7   5   7   5   7   5   7   5 
  6   6   6   6   6   6   5   7   5   7   5   8   5   8   5   9   6  10 
  7  12  10  16  16  24  26  37  43  57  69  87 104 126 149 175 201 230 
229 200 172 146 122 100  81  65  51  39  29  22  16  11   8   6   4   3 
  2   1   1   1   0   0   0   0   0   0   0   0   0   0   0   0   0   0 
  0   0   0   0   0   0   0   0   0   1   1   1   1   1   2   2   3   3 
  5   6   8  10  13  17  21  26  32  38  46  52  34  33  41  52  28  77 
 63  57  50  43  41  34  35  30  34  30  37  33  43  39  52  48  63  59 
 74  71  89  77  50  83  67  71  57  60  49  51  43  44  39  40  37  38 
 37  25   0   1   2   4  13  10   8   8   8   7   8   8   9   9  11  11 
 13  13  16  36  34  35  35  35  37  37  41  40  47  46  58  54  69  44 
 44  36  59  45  42  98  70  83  57  69  49  57  40  49  33  43  32  39 
 33  40  39  47  49  59  63  75  84  44  93  81  73  61  54  44  39  30 
 28  21  21  15  17  12  17  13  18  15  84  93  88  88  19  69  86  86 
 73  84  87  46  26  29  79  81  78  50  18  75  90  67  65  89  85  12 
 26  13  88   6  27  25   9  83  34  28  13  82  88  60  73  81  84  38 
 28  38  88  79  80  77  90  69  23  26  23  26  24  26  20  90  16  28 
 29  29  26  76  54  31  35  64  80  20  36  30  36  33  82  13  57  86 
  6  23  26  20  24  12  19  14  16  12  14  10  11   8   9   7   8   6 
  7   6   6   5   5   5   5   5   5   5   5   5   5   5   5   5   5   5 
  5   5   5   5   5   5   4   5   4   6   4   6   4   6   4   6   4   5 
  4   5   5   5   5   4   5   4   6   4   6   4   6   4   7   4   8   5 
  9   7  12  12  18  20  28  33  45  54  70  84 104 124 149 174 201 229 
229 200 172 146 122 100  81  65  51  39  29  22  16  11   8   6   4   3 
  2   1   1   1   0   0   0   0   0   0   0   0   0   0   0   0   0   0 
  0   0   0   0   0   0   0   0   1   1   1   1   1   1   2   2   3   4 
  5   7   8  10  14  18  22  28  33  40  47  54  25  34  45  56  21  72 
 61  55  47  43  38  35  31  32  29  34  31  40  37  48  45  59  56  72 
 67  84  77  44  84  67  72  57  60  48  50  41  42  36  37  34  35  34 
 35  25   5   2   1   7  14  13   9  10   9   9   9  10  10  12  12  14 
 14  17  14  33  32  31  32  32  32  34  34  39  38  47  44  57  53  70 
 39  45  38  60  44  54  96  69  78  58  65  46  54  37  45  31  39  31 
 38  34  41  42  50  54  64  71  82  92  93  84  72  64  54  48  38  34 
 26  25  18  19  14  17  13  17  14  18  13  82  56  23  23  69  88  15 
 27  26  71  94  21  26  76  76  29  25  66  88  20  25  26   5  82  84 
 20  14  88   8  26  26   8  81  34  28  69  79   5  30  30  41  82  37 
 29  40  84  47  27  24  52  96   2  22  26  23  26  30  91  85  89  93 
 94  91  90  80  58  33  30  63  85  20  26  30  15  65  88  18  82  69 
 17  28  21  23  18  21  15  17  13  14  10  11   8   9   7   7   6   6 
  5   5   5   5   4   4   4   4   4   4   4   4   4   4   4   4   4   4 
  4   4   4   4   4   4   4   4   4   3   5   3   5   3   5   3   4   4 
  4   4   4   4   4   4   3   4   3   5   3   5   3   5   3   6   4   7 
  5   9   8  13  14  21  25  34  42  55  67  85 102 125 148 174 201 229 
229 200 172 146 122 100  81  65  51  39  30  22  16  12   8   6   4   3 
  2   1   1   1   1   1   0   0   0   0   0   0   0   0   0   0   0   0 
  0   0   0   0   0   1   0   1   1   1   1   1   1   1   2   2   3   4 
  6   7   9  12  15  18  24  29  35  42  49  44  24  37  43  57  66  68 
 60  53  46  40  38  32  32  29  32  30  37  35  45  42  55  54  69  66 
 83  83  53  86  67  71  57  60  47  49  39  41  34  35  31  32  30  31 
 31  24   7   4   4   9  15  14  12  11  10  11  11  11  13  13  15  15 
 18  18  15  31  29  29  28  28  28  29  32  31  38  35  47  43  57  52 
 71  37  48  38  63  53  59  87  66  73  52  60  43  48  36  41  32  37 
 32  37  36  44  46  55  60  71  77  95  63  84  77  65  58  47  43  33 
 31  23  23  16  18  14  17  14  18  15   8  87  57  21  22  70  93  26 
 25  27  30  88   4  27  79  70  25  17  83  58  24  27  24  26  37  84 
  4  14  88   7  27  26  11  83  33  27  83  60  29  28  29  24  88  37 
 28  39  93  18  24  26   4  94  26  25  21  25  22  20  84  86  79  74 
 72  74  72  81  56  28  65  81  78  78  73  79  75  83  55  25  75  79 
 22  21  25  19  21  15  18  14  13  11  11   9   9   7   7   6   6   5 
  5   4   4   4   4   4   3   3   3   3   3   3   3   3   3   3   3   3 
  3   3   3   3   3   3   3   4   3   4   3   4   3   4   3   4   3   3 
  3   3   3   3   3   3   3   3   4   3   4   3   4   3   5   3   5   4 
  7   6  10  10  16  18  26  32  43  53  68  83 103 124 148 173 201 229 
229 200 172 146 122 101  82  65  51  39  30  22  16  12   8   6   4   3 
  2   2   1   1   1   1   1   1   1   1   1   1   1   1   1   1   1   1 
  1   1   1   1   1   1   1   1   1   1   1   1   1   2   2   3   3   5 
  6   8  10  13  16  20  25  29  37  43  51  25  29  38  49  39  72  66 
 58  52  45  40  35  33  30  31  30  34  34  41  41  51  51  65  63  78 
 86  13  87  69  73  57  60  46  49  38  40  32  33  28  30  27  28  28 
 29  21  10   6   6   8  16  16  14  13  13  13  12  13  13  15  15  18 
 18  21  14  27  28  26  26  25  25  27  26  30  29  37  34  47  42  58 
 52  70  32  47  40  65  37  78  85  64  70  50  56  41  45  33  38  31 
 36  33  39  40  47  51  61  65  80  85  20  89  77  70  58  52  41  38 
 29  27  20  21  15  18  14  16  14  17   7  86  60  21  22  70  95  24 
 26  24  27  92   5  24  76  75  27   9  82  55  27  24  26  24  34  85 
  1  15  87   6  26  26   8  80  36  27  86  55  29  30  28  28  89  38 
 29  40  93  20  26  24   1  98  22  21  23  21  24  22  22  93  19  25 
 26  26  20  78  61  30  55  78  84  63  65  61  60  27  20  29  70  81 
  1  25  18  22  17  18  14  15  12  12   9   9   7   7   6   6   5   4 
  4   4   3   3   3   3   3   3   3   3   3   3   3   3   3   3   3   3 
  3   3   3   3   3   3   3   2   3   2   3   2   3   2   3   2   3   2 
  3   3   3   3   3   3   2   3   2   3   2   3   2   4   2   4   3   5 
  4   7   8  12  13  19  24  33  41  53  66  84 102 124 147 173 200 229 
229 200 172 146 122 101  82  65  51  40  30  23  17  12   9   6   5   3 
  3   2   2   1   1   1   1   1   1   1   1   1   1   1   1   1   1   1 
  1   1   1   1   1   1   1   1   1   1   1   2   2   2   3   3   4   5 
  7   9  11  14  16  21  25  32  38  45  45  23  31  40  49  21  72  64 
 57  50  44  39  35  32  31  30  33  33  38  39  48  49  60  62  74  77 
 15  88  73  74  59  61  47  49  37  40  31  32  26  28  24  26  25  26 
 26  17  12   8   7  10  20  18  16  14  14  14  14  14  16  16  18  18 
 21  22  15  26  25  25  23  23  23  22  25  24  30  28  37  33  47  42 
 59  54  71  32  50  44  66  35  77  79  62  66  49  52  40  42  34  36 
 32  36  36  41  44  52  56  67  74  87  29  89  80  69  63  51  46  36 
 34  25  25  18  20  15  16  14  17  15  10  87  65  20  21  71  96  24 
 23  26  30  90   1  26  81  72  24  25  81  88  13  26  23  23  70  82 
 12   0  87  35  26  25   8  86  26  25  69  79  15  26  29  31  84  39 
 27  40  93  20  24  25   4  94  26  22  21  23  20  23  28  94  22  25 
 24  26  14  81  60  27  29  68  86  19  30  25  31  24  29  23  26  91 
 86   7  20  17  14  60  57  12  13  10  10   8   8   6   6   5   5   4 
  4   3   3   3   3   3   3   3   3   3   3   3   3   2   3   2   3   3 
  3   3   2   3   2   3   2   3   2   3   2   3   2   3   2   3   2   3 
  2   3   2   2   3   2   3   2   3   2   3   2   3   2   4   3   4   4 
  6   6   9  10  14  18  25  31  42  52  67  83 102 123 147 173 201 229 
229 200 173 147 123 101  82  66  52  40  31  23  17  13   9   7   5   4 
  3   3   2   2   2   2   2   2   2   2   2   2   2   2   2   2   2   2 
  2   2   2   2   2   2   2   2   2   2   2   2   2   3   3   4   5   6 
  8  10  12  15  19  23  28  33  39  47  34  24  33  41  57  28  71  63 
 55  49  43  38  35  33  31  32  33  36  38  44  47  56  59  72  72  65 
 88  75  75  61  62  48  50  38  40  30  32  25  26  22  24  22  23  22 
 24  14  13  10   7  13  22  19  17  15  15  16  15  16  16  18  18  21 
 21  24  14  23  23  22  22  21  20  21  20  24  22  29  27  37  34  47 
 42  59  55  63  28  52  49  66  18  79  75  58  59  48  46  39  39  34 
 36  34  38  39  45  49  58  64  75  83  91  94  80  73  61  56  45  41 
 31  30  22  23  17  19  14  16  14  18  16  70  94  63  18  72  97  22 
 23  22  30  96   3  23  78  76  25  23   0  92  82  50  44  75  94  37 
 24  17  84  84  63  59  84  89  15  28  23  88  78  60  67  82  85  38 
 27  42  93  17  25  23   3  98  24  20  21  20  22  20  26  95  24  23 
 24  25  14  80  63  27  25  67  91  20  24  29  22  29  22  26  20  46 
 93  86  74  69  84  95  93   8  11  11   9   8   7   6   6   5   5   4 
  4   3   3   3   3   3   3   3   3   3   3   3   3   3   3   3   3   3 
  3   3   3   3   3   3   3   3   3   3   3   2   3   2   3   2   3   3 
  3   3   3   3   3   3   3   3   2   3   2   3   2   3   3   4   3   5 
  5   7   8  11  14  19  24  32  41  53  66  83 102 124 147 173 200 229 
229 200 173 147 123 102  83  66  52  41  31  24  18  14  10   8   6   5 
  4   3   3   3   3   3   2   2   2   2   2   2   2   2   2   2   2   2 
  2   2   2   2   2   2   2   3   3   3   3   3   3   4   4   5   6   7 
  9  11  13  17  20  25  29  35  41  47  17  26  34  44  53  82  71  62 
 55  48  42  39  35  33  32  33  34  37  41  45  52  57  66  71  80  74 
 80  78  64  62  51  50  39  40  31  32  25  26  21  22  20  20  21  22 
 23   6  13  11   9  14  22  21  18  17  17  16  17  17  18  18  20  21 
 24  24  17  23  23  22  20  19  19  18  20  18  23  22  28  27  38  35 
 49  45  62  59  55  33  53  50  78  53  73  71  57  55  46  43  38  38 
 35  36  36  40  43  50  54  65  71  82  99  24  85  72  67  55  50  39 
 37  28  27  20  21  16  18  14  17  15  17  17  56  80  20  59  79  22 
 22  24  24  76   3  25  68  60  22  24  22  11  68  83  86  73  28  24 
 24  24  10  64  80  82  64   4  28  25  29  12  59  69  58   2  89  39 
 27  35  78  18  24  23   2  80  19  22  20  20  20  22  23  77  20  23 
 23  22  14  68  50  24  27  58  71  13  28  23  27  22  25  21  24  20 
 30  75  85  92  82  62   6  13  12  10   9   9   7   7   6   6   5   5 
  4   4   4   4   3   3   3   3   3   3   3   3   3   3   3   3   3   3 
  3   3   3   3   3   3   3   3   3   3   3   3   3   3   3   3   3   3 
  3   3   3   3   3   3   3   3   3   3   3   3   4   3   4   4   5   4 
  6   7   9  11  15  19  25  32  42  53  67  83 102 124 148 173 201 229 
229 201 173 148 124 103  84  67  53  42  32  25  19  15  11   9   7   6 
  5   5   4   4   4   4   4   4   4   4   4   4   4   4   4   4   4   4 
  4   4   4   4   4   4   4   4   4   4   4   4   5   5   5   6   7   9 
 10  12  15  18  22  26  32  37  44  24  20  28  38  45   6  81  69  61 
 54  47  43  38  36  33  34  33  36  39  43  49  55  63  68  77  28  85 
 79  69  66  53  53  42  42  32  33  25  26  21  22  19  20  19  19  21 
 22   1  16  12  12  14  22  20  19  16  18  18  18  18  18  20  20  23 
 23  26  19  21  22  19  20  19  18  17  17  20  19  24  22  30  28  39 
 36  51  49  64  59  41  40  57  58  57  76  68  66  54  54  44  42  38 
 37  36  38  40  44  48  56  61  71  80  91  75  85  78  66  61  49  45 
 35  34  25  25  19  21  16  18  15  17  15  18  17  17  20  20  18  20 
 21  21  21  21  23  22  22  21  24  21  23  23  22  21  22  22  23  23 
 23  24  23  24  22  24  23  27  23  28  25   6  22  28  26  27  88   1 
 25  26  22  23  23  22  22  19  20  20  21  19  20  19  21  18  21  21 
 22  23  22  22  22  25  23  25  21  25  21  26  21  26  21  25  20  23 
 17  20  16  17  13  16  13  12  12  11  10   9   8   7   7   6   6   5 
  5   5   5   4   4   4   4   4   4   4   4   4   4   4   4   4   4   4 
  4   4   4   4   4   4   4   4   4   4   4   4   4   4   4   4   4   4 
  4   4   4   4   4   4   4   4   4   4   4   4   4   5   4   5   5   6 
  6   8   9  12  15  20  25  33  42  54  68  84 103 124 148 174 201 229 
229 201 174 148 125 104  85  69  55  43  34  27  21  16  13  11   9   8 
  7   6   6   6   6   6   5   5   5   5   5   5   5   5   5   5   5   5 
  5   5   5   5   5   5   6   6   6   6   6   6   6   7   7   8   9  11 
 12  14  17  20  23  29  33  38  42  16  21  31  38  45  60  74  68  59 
 53  48  42  39  35  36  33  36  37  41  44  49  58  64  73  50  89  84 
 73  69  58  56  45  44  35  34  27  27  22  23  19  20  18  20  19  21 
 22  11  14  12  11  18  22  21  19  19  18  20  19  18  22  20  21  22 
 25  25  24  21  22  21  18  19  18  17  18  18  21  20  25  24  32  31 
 42  40  53  52  67  57  42  46  59  65   6  86  66  60  52  48  43  40 
 38  37  38  41  44  49  54  63  69  80  84  95  64  76  71  59  55  43 
 41  31  31  23  24  18  20  16  19  16  19  17  19  19  20  20  21  22 
 21  23  22  23  22  23  22  23  22  23  23  23  23  23  23  23  23  23 
 24  23  24  24  25  24  26  25  28  25   8  98  71  47  54  89  65  22 
 25  24  24  23  24  21  22  22  20  21  19  21  19  21  20  21  21  22 
 22  22  23  23  24  23  25  22  25  22  25  21  25  21  25  20  23  19 
 22  18  20  17  17  15  15  14  13  12  11  10   9   9   8   8   7   7 
  6   7   6   6   6   6   6   6   6   6   6   6   6   6   6   6   6   6 
  6   6   6   6   6   6   6   6   6   6   6   6   6   6   6   6   6   6 
  6   6   6   6   6   6   6   6   6   6   6   6   6   6   6   6   7   7 
  8   9  11  13  17  21  27  34  44  55  69  85 104 125 149 174 201 229 
230 202 175 149 126 105  87  70  57  45  36  29  23  19  16  13  11  10 
  9   9   8   8   8   8   8   8   8   8   8   8   8   8   8   8   8   8 
  8   8   8   8   8   8   8   8   8   8   8   9   9   9  10  11  12  13 
 15  17  20  22  27  30  37  41  23  15  26  33  42  30  82  75  66  58 
 53  47  43  38  38  34  37  36  40  41  48  53  59  68  77  84  89  79 
 73  63  59  50  47  38  37  30  29  24  24  21  21  20  20  19  21  22 
 23  16  14  11  11  16  22  20  19  18  19  19  18  18  21  20  21  23 
 23  26  26  24  21  20  21  18  19  19  18  19  19  22  22  27  27  35 
 34  45  45  57  56  71  46  46  52  65  77  47  70  63  56  51  45  42 
 39  39  39  41  44  48  55  59  69  75  88  96  17  83  69  66  53  49 
 40  38  29  29  23  24  19  21  18  20  18  20  19  20  20  21  22  22 
 23  22  23  22  24  23  24  23  24  23  24  23  24  24  24  24  24  24 
 24  25  24  25  24  26  25  28  25  27  26  10  71  73  76  39  26  29 
 25  26  24  25  23  23  22  22  22  21  21  20  21  20  22  21  22  22 
 22  23  23  23  23  24  23  25  22  25  22  25  21  25  21  24  20  23 
 19  21  18  19  17  17  16  15  15  13  13  12  12  10  11   9  10   9 
  9   9   9   8   8   8   8   8   8   8   8   8   8   8   8   8   8   8 
  8   8   8   8   8   8   8   8   8   8   8   8   8   8   8   8   8   8 
  8   8   8   8   8   8   8   8   8   8   8   8   8   8   8   9   9  10 
 10  12  13  16  19  24  29  37  46  57  71  87 105 126 150 175 202 230 
230 202 176 151 128 107  89  73  60  48  39  32  26  22  19  16  15  14 
 13  12  12  12  11  11  11  11  11  11  11  11  11  11  11  11  11  11 
 11  11  11  11  11  11  11  11  11  12  12  12  12  13  13  14  15  17 
 18  21  23  26  29  34  38  34  11  21  26  36  49  58  84  72  66  59 
 52  48  41  41  36  38  35  40  39  47  47  56  62  69   8  94  85  79 
 70  64  55  51  43  41  34  33  27  27  23  23  21  22  21  22  23  23 
 18  14  12  13  10  19  22  21  18  19  18  11   7   5   8  17  19  21 
 24  23  29  21  24  24  22  21  21  20  20  20  22  22  25  25  31  31 
 39  39  48  50  61  62  68  41  53  59  70  32  74  66  59  51  48  43 
 42  39  40  41  44  49  53  61  67  78  84  94 106  77  76  63  60  49 
 46  36  36  29  29  23  25  21  23  20  22  20  22  21  23  23  23  24 
 23  24  24  25  24  25  24  25  24  25  25  25  25  25  25  25  25  25 
 26  25  26  26  27  26  28  27  29  27  29  27  29  21  26  27  30  26 
 29  26  27  25  26  24  24  24  23  23  22  23  22  23  22  23  23  24 
 23  24  24  24  25  24  26  24  26  23  26  23  26  22  26  22  25  21 
 23  21  22  20  20  19  18  18  16  16  15  15  14  14  13  13  12  12 
 12  12  12  12  12  12  11  11  11  11  11  11  11  11  11  11  11  11 
 11  11  11  11  11  11  11  11  11  11  11  11  11  11  11  11  11  11 
 11  11  11  11  11  11  11  11  11  11  11  11  12  12  12  12  12  13 
 14  15  17  19  22  26  32  39  49  60  73  89 107 128 151 176 203 230 
231 204 177 153 130 110  92  76  63  52  43  36  31  26  23  21  19  18 
 17  17  16  16  16  16  16  16  16  16  16  16  16  16  16  16  16  16 
 16  16  16  16  16  16  16  16  16  16  16  16  17  17  18  19  20  21 
 23  25  28  30  35  38  44  14  18  22  32  37  14  92  78  71  64  56 
 52  45  44  38  39  35  39  37  45  43  50  55  64  74  84  91  85  77 
 70  62  57  50  46  40  38  32  31  28  27  25  25  24  25  25  25  27 
 16   3   5  15  24  18  16  10   2  14  31  38  27  13   5   1   9   1 
  7  15  23   7  28  25  25  24  23  22  23  24  24  26  26  30  30  36 
 36  44  46  54  58  67  72  54  49  58  68  80  45  69  59  54  47  46 
 41  41  40  42  44  48  55  59  68  72  84  90 105  30  75  72  60  57 
 47  46  36  37  30  31  26  27  24  26  24  25  24  25  25  26  26  26 
 27  26  27  27  27  27  27  27  27  27  27  27  28  28  28  28  28  28 
 28  29  28  29  28  30  29  31  28  32  30  33  30  33  30  33  30  31 
 29  31  28  29  27  28  27  26  26  25  26  25  26  25  26  25  26  26 
 26  26  27  27  27  28  26  28  26  28  26  28  25  28  25  27  25  27 
 24  25  24  24  23  22  22  21  21  19  20  18  19  17  18  17  17  16 
 17  16  16  16  16  16  16  16  16  16  16  16  16  16  16  16  16  16 
 16  16  16  16  16  16  16  16  16  16  16  16  16  16  16  16  16  16 
 16  16  16  16  16  16  16  16  16  16  16  16  16  16  16  16  17  17 
 18  19  21  23  26  31  36  43  52  63  76  92 110 130 153 177 204 231 
231 205 179 156 134 114  96  81  68  57  49  42  36  32  29  27  25  24 
 23  23  22  22  22  22  22  22  22  22  22  22  22  22  22  22  22  22 
 22  22  22  22  22  22  22  22  22  22  22  22  23  23  24  24  25  27 
 28  31  32  37  39  45  17  17  18  29  35  43  55  83  77  67  62  55 
 49  46  40  40  35  39  35  41  38  48  51  59  66  22 101  91  86  78 
 71  65  58  53  47  44  39  37  34  33  30  30  29  29  29  29  30  31 
 32  32  35  35  37  36  37  39  39  39  41  41  40  41  39  39  36  35 
 35  35  33  33  31  32  30  28  28  28  28  28  29  29  31  32  36  37 
 42  43  51  54  61  66  74  79  52  59  67  76  70  69  60  54  50  44 
 44  40  42  41  44  48  50  59  63  72  79  91  94  98  78  72  69  58 
 56  46  45  37  39  33  34  30  31  28  30  28  30  29  30  30  30  30 
 30  31  31  31  31  31  31  31  31  31  31  32  32  32  32  32  32  32 
 32  32  33  32  34  33  35  33  35  34  36  34  37  33  37  34  36  33 
 35  31  34  31  33  31  31  30  30  30  30  30  29  30  29  30  30  30 
 30  31  31  31  31  31  32  30  32  30  32  30  32  29  32  29  31  29 
 30  28  29  28  28  27  26  26  25  26  24  25  23  24  23  23  22  23 
 22  22  22  22  22  22  22  22  22  22  22  22  22  22  22  22  22  22 
 22  22  22  22  22  22  22  22  22  22  22  22  22  22  22  22  22  22 
 22  22  22  22  22  22  22  22  22  22  22  22  22  22  22  22  23  23 
 24  25  27  29  32  36  42  49  57  68  81  96 114 134 156 179 205 231 
232 207 182 159 138 118 101  87  74  64  55  49  43  39  36  34  32  31 
 31  30  30  30  29  29  29  29  29  29  29  29  29  29  29  29  29  29 
 29  29  29  29  29  29  29  29  29  30  30  30  30  31  31  32  33  34 
 36  37  41  42  47  48  37  23  27  29  42   6  88  80  74  64  58  52 
 49  42  42  35  38  33  39  36  45  43  51  53  55  96  99  95  87  81 
 74  68  62  56  52  48  45  42  40  38  37  36  36  35  35  36  36  38 
 38  39  39  42  40  44  42  45  45  45  46  45  45  46  45  44  45  43 
 42  41  41  39  39  37  36  35  35  34  35  35  35  36  36  39  40  44 
 45  50  53  58  64  71  76  83  64  60  68  75  85  29  58  55  47  46 
 41  42  39  42  43  46  51  55  63  68  78  83  95 101  56  81  70  69 
 58  56  49  49  42  43  38  39  36  37  35  36  35  36  36  36  36  36 
 37  37  37  37  37  37  37  37  37  37  37  37  37  38  37  38  38  38 
 38  38  38  39  38  40  39  41  38  41  38  42  40  42  39  42  39  42 
 39  40  37  39  37  38  37  37  36  36  36  36  36  35  36  36  36  36 
 36  36  37  37  37  37  36  38  36  38  36  38  36  38  35  37  35  37 
 35  36  35  35  34  34  34  33  33  32  32  31  31  30  31  30  30  30 
 30  29  30  29  29  29  29  29  29  29  29  29  29  29  29  29  29  29 
 29  29  29  29  29  29  29  29  29  29  29  29  29  29  29  29  29  29 
 29  29  29  29  29  29  29  29  29  29  29  29  29  29  30  30  30  31 
 31  33  34  36  39  43  49  55  64  74  87 101 118 138 159 182 207 232 
233 209 185 163 143 124 108  94  82  72  64  57  52  48  45  43  42  41 
 40  40  39  39  39  39  39  39  39  39  39  39  39  39  39  39  39  39 
 39  39  39  39  39  39  39  39  39  39  39  39  40  40  41  41  42  44 
 45  47  49  53  54  58  62  69  68  65  49  84  82  71  68  62  54  50 
 44  43  36  37  31  36  32  39  37  44  49  57  11 111 107  97  92  85 
 79  73  68  63  59  55  52  50  47  46  45  44  44  44  44  44  45  45 
 46  47  49  47  49  49  51  51  53  53  52  52  53  52  52  53  51  51 
 50  49  48  48  46  45  45  44  43  44  43  43  44  44  45  46  49  50 
 54  55  61  64  69  75  81  89  85  63  71  79  85  48  65  50  49  42 
 42  38  40  38  42  44  48  54  58  67  70  83  85  98 104  24  82  72 
 69  61  61  53  54  48  49  45  47  44  45  43  45  44  44  44  44  44 
 45  45  45  45  45  45  45  45  45  45  45  45  46  45  46  45  46  46 
 46  46  47  46  47  46  48  47  49  46  49  47  49  47  49  47  48  47 
 48  46  48  45  47  45  45  45  45  44  44  44  44  44  44  44  44  44 
 44  45  45  45  45  45  45  44  45  44  46  44  45  44  45  44  45  43 
 44  43  44  43  43  43  42  42  41  41  40  41  40  40  39  40  39  39 
 39  39  39  39  39  39  39  39  39  39  39  39  39  39  39  39  39  39 
 39  39  39  39  39  39  39  39  39  39  39  39  39  39  39  39  39  39 
 39  39  39  39  39  39  39  39  39  39  39  39  39  39  39  39  40  40 
 41  42  43  45  48  52  57  64  72  82  94 108 124 143 163 185 209 233 
235 211 189 168 149 131 116 102  91  82  74  68  63  60  57  55  53  52 
 52  51  51  51  51  51  50  50  50  50  50  50  50  50  50  50  50  50 
 50  50  50  50  50  50  50  51  51  51  51  51  51  52  52  53  54  55 
 57  58  61  62  66  68  74  75  84  87   4  88  75  66  61  55  49  43 
 42  36  36  30  33  27  33  30  38  37  47  58  91 119 109 104  97  92 
 86  81  76  72  68  64  62  59  58  57  56  55  55  55  55  54  55  57 
 56  58  58  60  59  61  61  62  62  62  62  63  63  61  63  62  62  60 
 60  58  58  56  57  56  54  55  54  54  54  54  54  55  56  57  58  61 
 63  66  68  73  78  83  89  94 102  74  78  83  93 101  40  53  43  43 
 37  39  36  38  39  42  46  49  55  60  69  72  83  88 103  72  86  84 
 76  75  67  67  61  62  57  59  55  56  54  55  54  55  54  55  55  55 
 55  55  55  55  55  55  56  56  56  56  56  56  56  56  56  56  56  56 
 56  57  56  57  57  58  57  58  57  59  57  58  57  60  57  59  57  58 
 57  58  55  57  56  56  55  55  55  55  55  54  55  54  55  54  55  55 
 55  55  55  55  55  55  55  56  55  56  55  56  54  56  54  55  54  55 
 54  55  54  54  54  53  53  53  53  52  52  51  52  51  51  51  51  51 
 51  51  51  50  51  50  50  50  50  50  50  50  50  50  50  50  50  50 
 50  50  50  50  50  50  50  50  50  50  50  50  50  50  50  50  50  50 
 50  50  50  50  50  50  50  50  50  50  50  50  51  51  51  51  51  52 
 52  53  55  57  60  63  68  74  82  91 103 116 131 149 168 189 211 235 
236 215 194 174 156 140 126 113 102  94  87  81  76  73  70  69  67  66 
 66  65  65  65  65  65  65  65  65  64  64  64  64  64  64  64  64  64 
 64  64  64  64  65  65  65  65  65  65  65  65  65  66  66  67  67  69 
 70  72  73  76  78  83  84  90  93  99 103  84  42   9   8  17  20  19 
 14   0   1  28  21  27  24  30  27  36  36  12 131 122 120 112 108 101 
 96  91  87  83  79  76  74  72  71  70  69  68  68  68  68  68  69  69 
 70  70  72  71  73  72  74  73  75  74  75  75  75  75  74  74  73  74 
 72  72  71  71  70  70  68  69  68  68  67  68  68  68  69  70  71  73 
 75  78  81  84  88  93  98 105 109 103  82  92  95 107  46  45  42  33 
 34  31  31  32  36  37  12  14  26  35  32  15   1  28  73 103 102  90 
 92  83  83  77  77  72  73  70  71  68  69  68  68  68  68  68  68  68 
 68  68  68  68  68  68  68  68  69  69  69  69  69  69  69  69  69  69 
 69  69  70  69  70  69  70  70  71  70  72  70  72  70  72  70  72  70 
 71  69  70  69  70  68  69  68  68  68  68  68  68  68  68  68  68  68 
 68  68  68  68  68  68  68  68  69  68  69  68  69  67  68  67  68  67 
 68  67  67  67  67  67  66  67  66  66  65  66  65  65  65  65  65  65 
 65  65  65  65  65  65  64  65  64  65  64  64  64  64  64  64  64  64 
 64  64  64  64  64  64  64  64  64  64  64  64  64  64  64  64  64  64 
 64  64  64  64  64  64  64  64  65  65  65  65  65  65  65  65  65  66 
 66  67  69  70  73  76  81  87  94 103 113 126 140 156 174 194 215 236 
238 218 199 181 165 150 137 126 116 108 101  96  92  89  87  85  84  83 
 82  82  82  81  81  81  81  81  81  81  81  81  81  81  81  81  81  81 
 81  81  81  81  81  81  81  81  81  81  81  82  82  82  83  83  84  84 
 86  87  90  91  94  96 101 102 108 110 116 120 124 129 136 141 144 150 
120 120 101  10  19  16  22  18  24  23  33  73 137 134 128 124 117 114 
108 104 100  97  94  91  89  87  86  85  85  84  84  84  84  85  84  85 
 85  86  86  87  87  88  88  89  89  90  89  90  90  89  89  89  89  88 
 88  87  87  86  86  85  85  84  84  83  84  83  84  84  85  86  87  88 
 90  92  95  98 102 105 111 115 120 120  96  98 106 109  99  34  31  31 
 27  28  25  27  29  50 127 123 119 114 105 125 132 129 120 119 109 110 
102 101  95  95  90  90  87  87  85  86  84  85  84  84  84  84  84  84 
 84  84  84  84  84  84  84  84  84  84  84  84  84  84  84  85  84  85 
 85  85  85  85  85  86  85  86  85  86  85  87  85  87  85  87  85  87 
 85  86  85  85  84  85  84  84  84  84  84  84  84  83  84  83  84  84 
 84  84  84  84  84  84  84  84  84  84  83  84  83  84  83  84  83  84 
 83  84  83  83  83  83  83  82  83  82  82  82  82  81  82  81  81  81 
 81  81  81  81  81  81  81  81  81  81  81  81  81  81  81  81  81  81 
 81  81  81  81  81  81  81  81  81  81  81  81  81  81  81  81  81  81 
 81  81  81  81  81  81  81  81  81  81  81  81  81  81  81  82  82  82 
 83  84  85  87  89  92  96 101 108 116 126 137 150 165 181 199 218 238 
240 223 206 190 175 162 150 140 131 124 118 114 110 107 105 104 103 102 
101 101 101 100 100 100 100 100 100 100 100 100 100 100 100 100 100 100 
100 100 100 100 100 100 100 100 100 100 101 101 101 101 101 102 102 104 
104 106 107 110 111 114 116 120 122 128 129 136 139 144 148 150 156 157 
163 136 131 100   7  11   8  13  11  18  16 125 151 145 142 136 133 127 
124 119 117 113 111 109 107 105 104 104 103 103 103 102 103 103 103 103 
104 104 105 105 106 105 106 106 107 107 107 107 107 107 107 107 106 106 
105 106 104 105 104 104 103 103 102 103 102 102 102 103 103 104 105 106 
108 110 112 115 117 122 125 130 133 139 109 112 116 123 122  11  27  20 
 21  17  19  24  43 150 148 147 152 151 153 150 147 140 139 128 130 122 
122 115 115 110 110 106 107 104 105 103 103 102 103 102 102 102 102 102 
102 102 102 102 102 102 103 103 103 103 103 103 103 103 103 103 103 103 
103 103 103 103 104 103 104 103 104 104 105 104 105 104 105 104 105 103 
104 103 104 103 103 103 103 102 102 102 102 102 102 102 102 102 102 102 
102 102 102 102 102 102 102 102 103 102 103 102 103 102 102 102 102 102 
102 102 102 102 102 102 101 102 101 101 101 101 101 101 100 101 100 100 
100 100 100 100 100 100 100 100 100 100 100 100 100 100 100 100 100 100 
100 100 100 100 100 100 100 100 100 100 100 100 100 100 100 100 100 100 
100 100 100 100 100 100 100 100 100 100 100 100 100 100 100 101 101 101 
102 103 104 105 107 110 114 118 124 131 140 150 162 175 190 206 223 240 
243 228 213 199 186 175 165 156 149 143 138 134 130 128 126 125 124 123 
123 122 122 122 122 122 122 122 122 122 122 122 122 122 122 122 122 122 
122 122 122 122 122 122 122 122 122 122 122 122 122 123 123 123 124 124 
126 126 128 129 132 133 136 138 142 144 148 151 155 158 162 166 167 172 
173 178 156 145 105  11   3   1   5   1   1 169 162 161 155 153 148 145 
141 138 135 133 130 129 127 126 125 125 124 124 124 124 124 124 124 125 
124 125 125 126 126 127 126 127 127 127 127 127 127 127 127 127 127 126 
126 126 126 125 125 124 124 124 124 123 124 123 124 124 124 125 126 127 
128 129 132 133 137 139 143 146 150 154 136 123 130 131 141  50  16  11 
  8   9  11  57 187 184 183 180 175 174 168 166 160 159 149 151 144 142 
136 136 131 131 128 129 126 126 124 125 124 124 123 124 123 124 123 124 
123 124 124 124 124 124 124 124 124 124 124 124 124 124 124 124 124 124 
124 124 124 124 124 125 124 125 124 125 124 125 124 125 124 125 124 125 
124 125 124 125 124 124 124 124 123 123 123 123 123 123 123 123 123 123 
123 123 123 123 123 123 123 124 123 124 123 124 123 124 123 124 123 123 
123 123 123 123 123 123 123 123 123 122 123 122 122 122 122 122 122 122 
122 122 122 122 122 122 122 122 122 122 122 122 122 122 122 122 122 122 
122 122 122 122 122 122 122 122 122 122 122 122 122 122 122 122 122 122 
122 122 122 122 122 122 122 122 122 122 122 122 122 122 122 122 122 123 
123 124 125 126 128 130 134 138 143 149 156 165 175 186 199 213 228 243 
246 233 221 210 199 190 181 174 168 163 159 156 153 151 149 148 148 147 
147 146 146 146 146 146 146 146 146 146 146 146 146 146 146 146 146 146 
146 146 146 146 146 146 146 146 146 146 146 146 146 147 147 147 147 148 
149 150 150 152 153 156 156 160 161 165 166 170 172 175 178 181 184 185 
190 187 193 189 163 162  40  10  14   4  75 181 181 174 174 170 168 164 
162 158 157 154 153 151 150 149 149 148 148 147 147 147 148 147 148 148 
148 148 149 149 149 149 150 149 150 150 150 150 150 150 150 150 149 150 
149 149 148 149 148 148 147 148 147 147 147 147 147 148 148 148 149 150 
151 152 153 156 157 160 162 166 167 172 170 139 143 148 150 129  11   1 
  2   1 123 200 198 197 192 193 190 187 185 180 179 173 172 166 166 160 
161 156 155 153 153 150 150 148 149 148 148 147 147 147 147 147 147 147 
147 147 147 147 147 147 147 147 147 147 147 147 147 147 147 147 147 147 
147 147 148 148 148 148 148 148 148 148 148 148 149 148 149 148 149 148 
148 147 148 147 148 147 147 147 147 147 147 147 147 147 147 147 147 147 
147 147 147 147 147 147 147 147 147 147 147 147 147 147 147 147 147 147 
147 147 147 147 147 147 147 147 146 147 146 146 146 146 146 146 146 146 
146 146 146 146 146 146 146 146 146 146 146 146 146 146 146 146 146 146 
146 146 146 146 146 146 146 146 146 146 146 146 146 146 146 146 146 146 
146 146 146 146 146 146 146 146 146 146 146 146 146 146 146 146 146 147 
147 148 148 149 151 153 156 159 163 168 174 181 190 199 210 221 233 246 
249 239 230 221 213 206 199 194 189 185 182 179 177 176 175 174 173 173 
173 172 172 172 172 172 172 172 172 172 172 172 172 172 172 172 172 172 
172 172 172 172 172 172 172 172 172 172 172 172 172 173 173 173 173 174 
174 175 176 176 178 179 181 182 184 185 188 190 192 193 195 198 200 203 
203 205 204 209 205 206 206 116  24  18 153 199 196 196 191 191 188 186 
183 182 180 178 177 176 175 175 174 174 173 173 173 173 173 173 173 174 
173 174 174 174 174 175 174 175 175 175 175 175 175 175 175 175 175 174 
175 174 174 174 174 173 173 173 173 173 173 173 173 173 173 174 174 175 
176 176 178 179 181 182 185 186 189 190 195 158 162 162 167 178  14   7 
 53 166 211 212 211 211 209 208 204 204 198 198 195 194 190 189 185 185 
181 181 178 178 176 176 174 175 174 174 173 173 173 173 173 173 173 173 
173 173 173 173 173 173 173 173 173 173 173 173 173 173 173 173 173 173 
173 173 173 173 173 173 173 174 173 174 173 174 173 174 173 174 173 174 
173 174 173 173 173 173 173 173 173 173 173 173 173 173 173 173 173 173 
173 173 173 173 173 173 173 173 173 173 173 173 173 173 173 173 173 173 
173 173 173 173 173 173 173 172 173 172 172 172 172 172 172 172 172 172 
172 172 172 172 172 172 172 172 172 172 172 172 172 172 172 172 172 172 
172 172 172 172 172 172 172 172 172 172 172 172 172 172 172 172 172 172 
172 172 172 172 172 172 172 172 172 172 172 172 172 172 172 172 172 173 
173 173 174 175 176 177 179 182 185 189 194 199 206 213 221 230 239 249 
252 245 239 233 228 223 218 215 211 209 207 205 204 202 202 201 201 200 
200 200 200 200 200 200 200 200 200 200 200 200 200 200 200 200 200 200 
200 200 200 200 200 200 200 200 200 200 200 200 200 200 200 201 201 201 
201 202 202 203 203 205 205 207 207 209 209 212 213 215 216 217 219 220 
221 221 224 222 225 221 224 222 216  78 221 217 218 215 214 212 211 209 
208 206 205 204 203 202 202 201 201 201 201 201 201 200 201 200 201 201 
201 201 201 201 201 201 202 201 202 202 202 202 202 202 202 202 201 202 
201 201 201 201 201 201 201 201 200 201 200 200 200 201 201 201 201 202 
202 203 203 205 205 207 208 210 211 214 213 186 178 182 186 224  78 143 
226 226 227 225 226 226 225 224 223 221 220 216 217 214 212 210 210 206 
205 204 205 203 203 202 202 201 201 201 201 200 201 200 200 200 200 200 
200 200 200 200 200 200 200 200 200 200 200 200 200 200 200 200 200 200 
201 200 201 201 201 201 201 201 201 201 201 201 201 201 201 201 201 201 
201 201 201 200 201 200 200 200 200 200 200 200 200 200 200 200 200 200 
200 200 200 200 200 200 200 200 200 200 200 200 200 200 200 200 200 200 
200 200 200 200 200 200 200 200 200 200 200 200 200 200 200 200 200 200 
200 200 200 200 200 200 200 200 200 200 200 200 200 200 200 200 200 200 
200 200 200 200 200 200 200 200 200 200 200 200 200 200 200 200 200 200 
200 200 200 200 200 200 200 200 200 200 200 200 200 200 200 200 200 200 
200 201 201 202 202 204 205 207 209 211 215 218 223 228 233 239 245 252 
255 252 249 246 243 240 238 236 235 233 232 231 231 230 230 229 229 229 
229 229 229 229 229 229 229 229 229 229 229 229 229 229 229 229 229 229 
229 229 229 229 229 229 229 229 229 229 229 229 229 229 229 229 229 229 
230 230 230 230 231 231 232 232 233 233 234 234 236 236 237 237 237 239 
239 240 240 241 240 241 240 240 240 240 237 239 236 236 236 235 234 233 
233 232 231 231 230 230 230 230 229 229 229 229 229 229 229 229 229 229 
229 229 229 230 229 230 230 230 230 230 230 230 230 230 230 230 230 230 
230 229 229 229 229 229 229 229 229 229 229 229 229 229 229 229 230 230 
230 230 231 231 232 232 233 234 235 235 237 214 204 228 239 240 238 240 
241 242 242 242 241 242 240 241 240 240 238 238 237 236 235 235 233 232 
232 232 230 231 230 230 230 230 229 229 229 229 229 229 229 229 229 229 
229 229 229 229 229 229 229 229 229 229 229 229 229 229 229 229 229 229 
229 229 229 229 229 229 229 229 229 229 229 229 229 229 229 229 229 229 
229 229 229 229 229 229 229 229 229 229 229 229 229 229 229 229 229 229 
229 229 229 229 229 229 229 229 229 229 229 229 229 229 229 229 229 229 
229 229 229 229 229 229 229 229 229 229 229 229 229 229 229 229 229 229 
229 229 229 229 229 229 229 229 229 229 229 229 229 229 229 229 229 229 
229 229 229 229 229 229 229 229 229 229 229 229 229 229 229 229 229 229 
229 229 229 229 229 229 229 229 229 229 229 229 229 229 229 229 229 229 
229 229 229 230 230 231 231 232 233 235 236 238 240 243 246 249 252 255 
